/* XPM */
static char *ab9838d4ae2b440dde2692f2934420b0Zet2LZjmYKKTxqRZ[] = {
/* columns rows colors chars-per-pixel */
"100 100 131 2 ",
"   c #02ACEE",
".  c #00AFF2",
"X  c #00B5F5",
"o  c #01BBF7",
"O  c #02B7F8",
"+  c #01BDF8",
"@  c #00C0F7",
"#  c #02C8F7",
"$  c #04C2FC",
"%  c #01C4FC",
"&  c #03C6FC",
"*  c #02C7FC",
"=  c #05C7FC",
"-  c #07C6FC",
";  c #01C3FA",
":  c #03C9F8",
">  c #02C8F9",
",  c #01CAF8",
"<  c #01C9FA",
"1  c #00C8FB",
"2  c #00C9FB",
"3  c #03C9FA",
"4  c #00CAFA",
"5  c #02CAFB",
"6  c #05C9F9",
"7  c #06C9F9",
"8  c #04CAF9",
"9  c #07CAF8",
"0  c #04C8FA",
"q  c #05C9FB",
"w  c #06C8FB",
"e  c #05CBFA",
"r  c #04CAFB",
"t  c #06CAFA",
"y  c #07CAFA",
"u  c #07CBFB",
"i  c #06CCFB",
"p  c #00C8FC",
"a  c #01C9FC",
"s  c #03C8FC",
"d  c #00CAFC",
"f  c #03CBFC",
"g  c #02CAFD",
"h  c #04C8FC",
"j  c #04C9FD",
"k  c #05C9FD",
"l  c #07C9FC",
"z  c #05CBFC",
"x  c #06CAFC",
"c  c #07CBFD",
"v  c #04C9FE",
"b  c #06CCFD",
"n  c #08C8F9",
"m  c #08CBF9",
"M  c #0ACAF9",
"N  c #09C9FA",
"B  c #0BC9FB",
"V  c #08CBFB",
"C  c #0BCBFA",
"Z  c #0ACAFB",
"A  c #0ECAF8",
"S  c #0FCBF9",
"D  c #0CCAFA",
"F  c #0DCBFB",
"G  c #0ECAFA",
"H  c #0FCBFB",
"J  c #09CCFA",
"K  c #08CDFA",
"L  c #0ACDFB",
"P  c #0CCCF9",
"I  c #0DCCF9",
"U  c #0CCCFB",
"Y  c #0ECDFA",
"T  c #0ECEFB",
"R  c #0FCEFB",
"E  c #09C8FC",
"W  c #08CAFD",
"Q  c #0BCBFC",
"!  c #0EC9FC",
"~  c #0CCAFC",
"^  c #0DCBFD",
"/  c #0FCAFD",
"(  c #08CCFC",
")  c #09CCFC",
"_  c #09CDFD",
"`  c #0ACDFD",
"'  c #0BCEFC",
"]  c #0DCDFC",
"[  c #0CCCFD",
"{  c #0ECCFC",
"}  c #0FCDFD",
"|  c #0DCDFE",
" . c #0ECCFE",
".. c #10CAF9",
"X. c #11CBFA",
"o. c #10CAFB",
"O. c #12CBFA",
"+. c #15CBFB",
"@. c #11CCF9",
"#. c #10CCFA",
"$. c #11CDFA",
"%. c #11CDFB",
"&. c #12CCFB",
"*. c #13CCFB",
"=. c #12CEFB",
"-. c #13CEFB",
";. c #14CDFB",
":. c #16CCFB",
">. c #11CBFC",
",. c #12CAFC",
"<. c #10CCFC",
"1. c #11CDFD",
"2. c #13CDFC",
"3. c #12CCFD",
"4. c #10CFFC",
"5. c #12CEFC",
"6. c #13CFFC",
"7. c #13CFFD",
"8. c #11CCFF",
"9. c #12CCFF",
"0. c #14CDFC",
"q. c #16CCFC",
"w. c #17CDFC",
"e. c #15CEFC",
"r. c #14CFFC",
"t. c #14CEFD",
"y. c #16CFFD",
"u. c #18CEFD",
"i. c #19CEFD",
"p. c #19CFFF",
"a. c #13D0FA",
/* pixels */
"; ; ; ; ; ; ; ; ; ; 3 s ; 3 3 3 3 ; ; s s ; 3 3 3 r 3 r j 3 i V V ) ) V r ) K ] U V r 1.1.1.+.0.p.0.p.0.p.;.0.;.#.0.0.0.p.;.0.p.;.0.;.0.1.#.#.#.#.U U o.F F ,.) K V ) ) r r V V r r V s j j r r r r 3 3 ",
"; ; ; ; ; ; ; ; ; ; 3 3 ; 3 3 3 3 ; s s s ; s 3 3 r r 3 j r j r r V V V V ) F F F ) ~ 1.#.#.#.0.1.#.1.1.p.0.#.0.0.0.0.p.#.1.0.a.;.0.#.#.U U #.U ] 1.U ] ] F F K ] V r r V r r j j j r r 3 j r 3 s s s s ",
"; ; ; ; ; ; ; ; ; ; 3 ; ; 3 3 3 3 3 s 3 3 s s 3 3 r r r r r j r r r V r r V V F U ) U #.0.#.#.#.1.1.0.0.0.0.1.1.#.#.#.0.#.1.0.1.0.1.#.#.1.] #.F ] ] F F K K F V ) V V r j j j j j s j r r r r 3 s s s s ",
"; ; ; ; ; ; ; ; ; ; ; ; ; ; ; 3 3 3 3 3 3 s s 3 j r 3 r r r j j r V r r V V V K V V K ] U F 1.#.1.#.+.#.#.#.1.1.#.#.#.1.#.1.#.#.0.1.1.#.1.1.] F U o.] U U F V V V r r j Q j r r j 3 j r r 3 r 3 s s ; ; ",
"; ; ; ; ; ; ; ; ; ; ; ; ; ; ; ; ; ; ; s s s s 3 s s 3 j r r 0 r V r r r V V ) K V U U F F ] 1.1.1.#.#.#.o.o.#.F #.1.0.0.1.#.#.#.1.1.o.#.#.] ] F Q F U K ] ] V V r r r j Q Q j j j r r j r r s 3 s s ; ; ",
"; ; ; ; ; ; ; ; ; ; ; ; ; ; ; ; 3 3 3 s j s s j s s r j r j r j j r r V r V ) Q V ~ ] 1.o.F o.1.o.] #.1.F ,.o.o.#.U 1.#.U #.0.#.#.#.#.] U ] K F ~ Q V r r V V j j j j r r j j r r r r 3 3 s s s 3 3 3 ; ",
"; ; ; ; ; ; ; ; ; ; ; ; ; ; s s 3 3 3 ; s ; 3 ; s s 3 r r r j j r Q j V V V V Q V ~ F 1.,.F F V F #.,.1.1.1.1.1.#.1.0.,.#.1.1.U #.#.] K U K V ) V Q ) i r r r j j j r r r j r r 3 3 j s s s j s 3 3 3 ; ",
"; ; ; ; ; ; ; ; ; ; ; ; ; ; s s ; ; s ; s 3 3 3 3 ; 3 ; 3 r r j j j j V V V Q r Q ] F U F ~ U ] ] F ] U ] o.1.F #.#.#.U ] 1.] 1.U #.] ~ F K V V ) V ~ V i j j j r j j j r r r r 3 3 s s 3 s ; ; s s ; 3 ",
"; ; @ ; @ ; ; ; ; ; ; ; ; 3 3 ; 3 3 3 3 s s s j s s s s r j r j j Q Q r r V V U r ] #.] ,.] 1.1.#.1.1.#.1.1.U F U o.#.#.#.U #.#.,.F ] ~ K ~ Q ~ Q i V V j j j r j 3 r r r 3 3 3 s s s s s s ; s s 3 ; ; ",
"; ; ; ; ; ; ; ; ; ; ; ; ; 3 3 ; ; s s s ; ; ; j s s s s r r 3 r r V r r r r V V V V ~ K F ~ F 1.F F 1.1.1.1.1.] ] 1.#.#.#.#.1.#.1.U F F Q V ) ) V V V V j j j r r j j 3 3 # 3 3 s s s j ; s ; ; 3 3 3 ; ",
"; ; ; ; ; ; ; % ; ; ; ; ; ; 3 ; s 3 ; ; 3 3 3 ; s s s s r r r r V r r r r r i V V j V ~ V V V F ~ F F F F F ~ ] U U F #.#.o.1.#.#.#.1.F V V V V V Q V V r j j r j j r r s r j 3 s s 3 s s ; 3 3 3 s ; ; ",
"; ; ; ; ; ; ; ; ; ; ; ; ; 3 ; 3 s s 3 % ; ; 3 3 s s s 3 s r r j j j j j r V V V r V r V Q V V V ~ F F ] F ] ] F U F ,.o.#.1.#.o.o.1.F ) V V Q r V ~ V j j j r r ) 0 $ j r 3 3 j s s s ; 3 3 s 3 3 3 ; ; ",
"; ; ; ; ; ; ; ; ; ; ; ; ; ; ; ; 3 ; ; % 3 3 3 ; s j s s s 3 r r 0 0 r j j V V V V V V r ] K ) V V ] V U ] ] F ~ ) F 1.F F ] U F F U U ) V V V V V V r j j j r r j V 0 r ; s s s j j s s ; ; 3 3 3 3 ; ; ",
"; ; ; ; ; ; ; ; ; ; ; ; ; s ; ; ; ; ; ; ; ; ; ; 3 s s j s 3 r r j r j j j j j j b V V Q Q r r Q V V V K V V V Q V r F V F F V U Q ~ V V Q r V V r Q r j j r r 3 r j r s 3 3 s s j s s 3 ; ; ; ; 3 ; ; ; ",
"; ; ; ; ; ; ; ; ; ; ; ; ; ; ; 3 ; ; 3 3 3 3 ; ; s s s s s s r r r r r j j r j j j j r Q r 0 b j j V V V Q j r V V r V V V V V V V V j r j r j V j r r j j 3 3 3 r = 3 3 s j s s s ; ; ; s ; 3 ; ; ; ; ; ",
"; ; ; ; ; ; ; ; ; ; ; ; ; ; ; ; 3 3 ; 3 3 s ; ; 3 s s s s 3 s 3 j j r r r r j Q j j j r i Q j r j r r j j j j r ) V r r V r r r r V r j r j r r r r r r r 3 s s 0 n s s s s ; ; j ; ; ; ; ; ; s ; ; ; ; ",
"; ; @ ; ; ; ; ; ; ; ; ; ; ; ; 3 ; ; 3 3 3 3 3 s s ; s s s s s s 3 3 s s r j j j r Q j j j j j j r r r j r r j j j j j Q j r j j j r r r j r r r r r r 3 3 3 r s 3 3 s s s ; s 3 3 3 3 3 ; ; ; ; ; ; ; ; ",
"; ; ; ; ; ; ; ; ; ; % ; ; ; ; ; ; ; ; 3 3 3 3 3 ; ; s j s s ; s s s 3 3 3 r 3 r j j j r j j j Q j r r j j j r j j j j j r r r r r r j r r r r r 0 3 r r r 3 s j s s s s ; ; ; 3 3 3 3 3 ; ; ; ; ; ; ; ; ",
"; ; ; ; ; ; ; ; ; ; ; ; ; ; ; ; ; ; ; 3 ; ; ; ; ; 3 3 s 3 s ; s s ; s 3 3 3 3 r r r j j r r j Q j r r j j j r j Q r r r 3 r r r r r j s = s r r r r r r r s s s j s s s 3 ; s 3 3 ; 3 3 ; ; ; ; ; ; ; ; ",
"; ; ; ; ; ; ; ; ; ; ; ; ; ; ; ; ; ; ; ; ; ; ; ; ; ; ; 3 3 s j s s j s s s 3 3 r r r j j r r r r j Q r Q r r 3 3 j r r r 3 r j j 3 3 s s j s 3 r 3 = j s s s j s j s ; ; ; 3 3 ; ; ; 3 ; ; ; ; ; ; ; ; ; ",
"; ; @ ; ; ; ; ; ; ; ; ; ; ; ; ; ; ; ; ; ; ; ; 3 3 3 3 3 ; s s s s j s s s 3 3 3 r r Q j r r r r r j r j r r r r 3 3 j j ; ; ; j s s s s s s s s j j s s s s s ; 3 ; s ; 3 3 ; ; ; ; ; ; ; ; ; ; ; ; ; ; ",
"; ; @ ; ; ; ; ; ; ; ; ; ; ; ; ; ; ; ; ; ; ; ; ; 3 3 3 3 s s s s s s s s 3 r r s 3 r r r r r r r r r r r r 3 3 3 s s j s s s s s s s s j s s s s j 3 ; ; ; ; ; ; ; ; ; ; 3 3 3 ; ; ; ; ; ; ; ; ; ; ; ; ; ",
"; ; ; ; ; ; ; ; ; ; ; ; ; ; ; ; ; ; ; ; ; ; ; ; 3 3 ; ; ; ; 3 s 3 ; s s 3 ; j s s s r r r r r r r r r r r 3 3 3 s s ; 3 s s s ; s s s ; s s s s s ; ; ; 3 3 3 3 3 3 ; ; ; ; ; ; ; ; ; ; ; ; ; ; ; ; ; ; ",
"; ; ; ; ; ; ; ; ; ; @ ; ; ; ; ; ; ; ; ; ; 3 ; ; ; ; ; ; ; s 3 ; ; ; ; s ; ; s s s s s 3 r r 3 3 r r s s s s ; ; ; s s s s s j ; s s ; $ s s s 3 ; s ; ; 3 3 ; ; ; ; ; ; ; ; ; ; ; ; ; ; ; ; ; ; ; ; ; ; ",
"+ ; ; ; ; ; ; ; ; ; ; ; ; ; ; ; ; ; ; ; ; ; ; ; ; ; ; 3 3 ; ; 3 ; ; 3 3 s s 3 3 j s j j s s j s j 0 s s j s s ; ; s 3 3 s s s s s ; s s ; ; s 3 s ; ; ; 3 3 3 ; ; 3 3 ; ; ; ; ; ; ; ; ; ; ; ; ; ; ; ; ; ",
"; ; ; ; ; @ ; ; ; ; ; ; ; ; ; ; ; ; ; ; ; ; ; ; ; 3 3 ; ; 3 s 3 ; ; 3 ; 3 3 ; ; ; s s j s j j s s j s s ; s s s ; s 3 ; ; s s s ; ; s s 3 ; ; ; 3 3 3 s 3 ; 3 3 ; ; ; ; 3 ; ; ; ; ; ; ; ; ; ; ; ; ; ; ; ",
"; ; ; ; ; ; ; ; ; ; ; ; ; ; ; ; ; ; ; ; ; ; ; ; ; ; ; ; ; ; s 3 ; ; 3 ; ; ; ; ; 3 ; 3 3 ; ; ; ; 3 s s s 3 ; 3 s s s s ; ; ; 3 3 ; ; 3 3 ; 3 3 3 3 3 ; ; ; ; ; ; ; ; ; ; ; ; ; ; ; ; ; ; @ ; ; ; ; ; ; ; ",
"+ ; ; ; ; ; ; ; ; ; ; ; ; ; ; ; ; ; ; ; ; ; ; ; ; ; ; ; ; ; ; s ; ; s 3 j ; ; ; 3 3 3 3 ; ; ; ; 3 3 ; ; ; ; 3 3 ; s ; ; ; ; ; 3 ; 3 3 s 3 3 ; ; 3 3 ; ; 3 ; ; ; ; ; ; ; ; ; ; ; ; ; ; ; @ ; ; ; ; ; ; ; ",
"+ ; ; ; ; ; ; ; ; ; ; ; ; ; ; ; ; ; ; ; ; ; ; ; ; ; ; ; ; ; ; ; ; ; ; ; ; ; ; 3 s s s s 3 3 3 3 % ; ; ; ; 3 3 3 3 ; 3 3 ; ; ; ; ; 3 3 3 ; ; ; ; ; s ; ; ; ; ; ; ; ; ; ; ; ; ; ; ; ; ; ; ; ; ; ; ; ; ; ; ",
"+ + ; ; ; ; ; ; ; ; ; ; ; ; ; ; ; ; ; ; ; ; ; ; ; ; ; ; ; ; ; ; ; ; ; ; ; s 3 3 ; ; ; ; 3 ; 3 3 s ; ; % ; 3 s 3 ; ; ; 3 ; ; ; ; 3 3 ; ; ; ; ; ; ; ; ; ; ; ; ; ; ; ; ; ; ; ; ; ; ; ; ; ; ; ; ; ; ; ; ; ; ",
"+ + + ; ; ; ; ; ; ; ; ; ; ; ; ; ; ; ; ; ; ; ; ; ; ; ; ; ; ; ; ; ; ; ; ; 3 3 ; ; ; ; ; ; ; ; ; % ; ; ; ; ; ; ; ; ; ; 3 3 3 s s s ; ; ; ; ; ; ; ; ; ; ; ; ; ; ; ; ; ; ; ; ; ; ; ; ; ; ; ; ; ; @ @ ; ; ; ; ",
"+ + + ; ; ; ; ; ; ; ; ; ; ; ; ; ; ; ; ; ; ; ; ; % ; ; ; ; ; ; ; ; ; ; ; ; ; ; ; ; ; ; ; ; ; ; ; ; ; ; ; ; ; ; ; ; ; ; ; 3 s ; ; ; ; ; ; ; ; ; ; ; ; ; ; ; ; ; % ; ; ; ; ; ; ; ; ; ; ; ; ; ; ; ; ; ; ; ; ",
"@ ; @ ; + ; ; @ @ @ ; ; ; ; ; ; ; ; ; ; ; ; ; ; ; ; ; ; ; ; ; ; ; ; ; ; ; ; ; ; ; ; ; ; ; ; ; ; ; ; ; ; ; ; ; ; ; ; ; ; ; ; ; ; ; ; ; ; ; ; ; ; ; ; ; ; ; ; ; ; ; ; ; ; ; ; ; ; ; ; @ ; ; ; ; @ ; ; ; ; ",
"@ + @ + ; ; ; ; @ @ ; ; ; ; ; ; ; ; ; ; ; ; ; ; ; ; ; ; ; ; ; ; ; ; ; ; ; ; ; ; ; ; ; ; ; ; ; ; ; ; ; ; ; ; ; ; ; ; ; ; ; ; ; ; ; ; ; ; ; ; ; ; ; ; ; ; ; ; ; ; ; ; ; ; ; ; ; ; ; ; @ @ ; ; ; ; ; ; ; ; ",
"@ + + + ; + ; ; ; ; ; ; ; ; ; ; ; ; ; ; ; ; ; ; ; ; ; ; ; ; ; ; ; ; ; ; ; ; ; ; ; ; ; ; ; ; ; ; ; ; ; ; ; ; ; ; ; ; ; ; ; ; ; ; ; ; ; ; ; ; ; ; ; ; ; ; ; ; ; ; ; ; ; ; ; ; ; ; ; @ ; ; ; ; ; ; ; ; ; ; ",
"+ + + + ; ; ; ; ; ; ; ; ; ; ; ; ; ; ; ; ; ; ; ; ; ; ; ; ; ; ; ; ; ; ; ; ; ; ; ; ; ; ; ; ; ; ; ; ; ; ; ; ; ; ; ; ; ; ; ; ; ; ; ; ; ; ; ; ; ; ; ; ; ; ; ; ; ; ; ; ; ; ; ; ; ; ; ; ; ; ; ; ; ; ; ; ; ; ; ; ",
"+ + ; ; + ; ; ; ; ; ; ; ; ; ; ; ; ; ; ; ; ; ; ; ; ; ; ; ; ; ; ; ; ; ; ; ; ; ; ; ; ; ; ; ; ; ; ; ; ; ; ; ; ; ; ; ; ; ; ; ; ; ; ; ; ; ; ; ; ; ; ; ; ; ; ; ; ; ; ; ; ; ; ; ; ; ; ; ; ; ; ; ; ; ; ; ; + + ; ",
"+ + @ + + @ ; ; ; ; ; ; ; ; ; ; ; ; ; ; ; ; ; ; ; ; ; ; ; ; ; ; ; ; ; ; ; ; ; ; ; ; ; ; ; ; ; ; ; ; ; ; ; ; ; ; ; ; ; ; ; ; ; ; ; ; ; ; ; ; ; ; ; ; ; ; ; ; ; ; ; ; ; ; ; ; ; ; ; ; ; ; ; ; ; ; ; ; ; + ",
"; + + @ + @ + + + + ; ; ; ; ; ; ; ; ; ; ; ; ; ; ; ; ; ; ; ; ; ; ; ; ; ; ; ; ; ; ; ; ; ; ; ; ; ; ; ; ; ; ; ; ; ; ; ; ; ; ; ; ; ; ; ; ; ; ; ; ; ; ; ; ; ; ; ; ; ; ; ; ; ; ; ; ; ; ; ; ; ; ; ; ; ; ; ; ; + ",
"+ + @ @ + + + + + + ; ; ; ; ; ; ; ; ; ; ; ; ; ; ; ; ; ; ; ; ; ; ; ; ; ; ; ; ; ; ; ; ; ; ; ; ; ; ; ; ; ; ; ; ; ; ; ; ; ; ; ; ; ; ; ; ; ; ; ; ; ; ; ; ; ; ; ; ; ; ; ; ; ; ; ; ; ; ; ; ; ; ; + ; ; ; + + + ",
"+ + + + + @ @ @ + + + ; ; ; ; ; ; $ ; ; ; ; ; @ ; ; ; ; ; ; ; ; ; ; ; ; ; ; ; ; ; ; ; ; ; ; ; ; ; ; ; ; ; ; ; ; ; ; ; ; ; ; ; ; ; ; ; ; ; ; ; ; ; ; ; ; ; ; ; ; ; ; ; ; ; ; ; ; ; ; ; ; ; ; ; ; + ; + + ",
"+ + + + + @ @ @ + @ + + ; % ; ; ; ; ; ; ; ; ; ; ; ; ; ; ; ; ; ; ; ; ; ; ; ; ; ; ; ; ; ; ; ; ; ; ; ; ; ; ; ; ; ; ; ; ; ; ; ; ; ; ; ; ; ; ; ; ; ; ; ; ; ; ; ; ; ; ; ; ; ; ; ; ; ; + ; ; ; ; ; ; ; ; ; + ; ",
"+ + + + + + ; ; @ + ; ; % ; ; ; ; ; ; ; ; + $ ; o ; ; ; ; ; ; ; ; ; ; ; ; ; ; ; ; ; ; ; ; + ; ; ; ; ; ; ; ; ; ; ; ; ; ; ; ; ; ; ; ; ; ; ; ; ; ; ; ; % ; ; ; ; ; @ @ ; ; ; ; ; + ; ; ; ; ; ; ; ; ; ; + + ",
"+ + + + + + + ; ; + ; ; + ; ; ; ; ; ; ; ; ; ; + o ; ; ; ; ; ; ; ; ; ; ; ; ; ; ; ; ; ; ; ; ; ; ; ; ; ; ; ; ; ; ; ; ; ; ; ; ; ; ; ; ; ; ; ; ; ; ; ; ; ; + ; + ; ; @ @ @ ; ; + ; ; ; ; + + ; ; ; ; ; + + + ",
"+ + + + + + + ; ; ; ; ; ; + + ; ; ; ; ; ; ; ; ; ; ; ; $ ; ; ; ; ; ; ; ; ; ; ; ; ; ; ; ; ; ; ; ; ; ; ; ; ; ; ; ; ; ; ; ; ; ; ; ; ; ; ; ; ; ; ; ; ; ; ; ; @ ; ; ; @ @ ; ; ; + ; ; ; + ; ; ; ; + + + + + + ",
"+ + + + + + + + @ + @ ; ; + o ; $ ; ; @ ; ; @ ; ; ; + ; ; ; ; ; ; ; ; ; @ @ ; ; ; ; ; ; @ ; ; ; ; ; ; ; ; ; ; ; ; ; ; ; ; ; ; ; ; ; @ ; ; ; ; ; ; ; ; ; ; ; ; ; ; ; ; ; ; ; ; + ; + ; + ; + + + + + + + ",
"+ + + + + + + + @ ; + @ ; + + + + ; ; ; ; ; @ @ + ; ; ; ; ; ; ; ; ; ; ; ; ; @ + ; ; ; @ ; ; ; ; ; ; ; ; ; + ; @ ; @ ; ; ; ; ; ; @ ; ; ; ; ; ; ; ; ; ; ; ; + ; ; ; + + ; ; ; ; + + + + ; ; @ + + @ @ + + ",
"+ + + + + + + + + + ; ; @ @ ; ; ; + ; ; ; + + @ + + ; + ; ; ; ; ; ; ; + + @ ; ; ; ; ; ; ; ; ; ; ; ; ; ; + ; ; + ; @ ; ; ; @ ; ; ; ; ; + ; ; ; + ; ; + ; + ; + + % + ; ; ; ; + + + + + @ @ ; + + + + + + ",
"+ + + + + + + + + + + ; @ @ ; ; ; ; ; ; ; ; ; ; ; ; ; ; ; ; ; ; ; ; ; ; ; ; ; ; ; + ; ; ; ; ; ; ; ; ; ; ; ; ; ; ; ; ; ; ; ; ; ; ; ; ; ; ; ; ; ; ; ; ; ; ; ; @ + ; ; ; + ; ; ; ; ; ; + ; + + ; o + + o + ",
"+ + + + + + + + + + + + @ @ ; ; ; ; ; ; ; ; + ; ; ; ; ; ; ; + ; ; ; ; ; ; ; ; ; ; ; ; ; ; ; ; ; ; ; ; ; ; ; + @ ; ; ; ; ; ; ; ; ; ; ; ; ; ; ; ; ; ; ; ; ; ; + ; ; ; + + + ; + + + + + ; + X + + + + + + ",
"+ + + + + + + + + ; + + + + + @ @ + @ ; ; + + + + + ; ; ; ; ; ; ; ; ; ; ; % ; ; ; ; + ; ; + ; ; @ ; + @ ; ; + ; ; ; ; ; @ @ ; ; ; ; ; ; ; ; ; + + ; ; ; ; ; + ; ; ; + + + + + + + + + + + + + + + + + + ",
"+ + + + + + + + + + + + + + + + @ @ @ @ ; + + + + + ; ; ; ; ; ; ; ; ; ; ; ; ; ; ; + ; ; ; + ; ; ; ; ; ; ; ; + ; ; ; ; ; ; ; ; ; ; ; ; ; ; ; + + + ; ; + + ; ; ; + + + + + + + + + + + + + + + + + + + + ",
"+ o + + + + + + + + + + + + + + + + + + @ @ @ @ + + ; ; ; ; ; ; ; ; ; ; ; ; ; ; ; + + + @ @ + ; + ; ; ; ; ; + ; ; ; ; ; ; ; ; ; ; ; ; ; ; ; ; ; ; + + ; ; + + ; + + + + + + + + + + + + + + + + + + + + ",
"o + + + + + + o + + + + + + + + + + + + + @ @ @ + + ; ; ; ; + ; + + + + ; + + + + + + + + + + ; + ; ; ; ; ; ; ; ; ; ; ; ; ; ; + ; ; ; ; + ; ; ; ; + + ; + + + + + + + + + + + + + + + + + + + + + + + + ",
"+ + + + + + + + + + + + + + + + + + + + + + + ; + @ ; + + ; ; + + + + + ; ; ; ; ; ; ; + + + ; ; ; ; ; + ; ; ; + + + + ; ; + + + + + + + ; @ ; ; + + + + + ; + + + + + + + + + + + ; + + + + + + + + + + ",
"+ o + + + + + + + + + + + + + + + + + + + + ; ; + + + + + + @ @ + + + + @ @ @ @ ; ; ; + + + ; ; + + + + ; ; ; ; + + + + + + + + + + + + @ @ @ @ + + + + + + + + + + + + + + + + + + + + + + + + + + + + ",
"+ o + + + + + + + + + + + + + + + + + + + + + ; + + + + + + + + @ + @ @ + + + + + ; ; + ; ; ; ; + @ + ; ; + + + + ; @ @ @ + @ @ @ @ @ + + + + + ; + + + + + + + + + + + + + + + + + + + + + + + + + + + ",
"o o + + + + o o + + + + + + + + + + + + + + + + + + + + + + + + @ @ + + + + ; + + + ; @ @ @ @ @ @ @ + ; ; ; ; + + ; @ @ @ @ @ @ ; ; + + + + + + + + + + + + + + + + + + + + + + + + + + + o + + + + + + ",
"o o + + + + + + + + + + + + + + + + + + + + + + + + + + + + + ; + + + + + + + + + + + @ @ @ @ + ; ; ; + ; ; ; + + + + + + @ + + ; + + + + + + + + + ; + + + + + o + + + + + + + + + + + + + o + + + o o ",
"o o o o o + + + + + + + + + + + + + + + + + + + + + + + + + + + + + ; + + + ; + + + + + + + + + + + + + + + + + + + + + + + + + + + + + + + + + ; + + + + + + + o + + + + + + + + + + + + + o + o o o o ",
"o o o o o o o o + + + o + + + + + + + + + + + + + + + + + + + + + + ; + + + + + + + + + + + + + + + + + ; ; + + + + + + + + + + + + + + + + + + + + + + + + + + + + + + + + + + + + o + + + o o o o o o ",
"o o o o o o o o o + + o o + + + + + + + + + + + + + + + + + + + o + + + + + + + + ; + + + + + + + + + + + + + + + + + + + + + + + + + + + + + + + + + + + + + + + + + + + + + + + + + + o + o o o o o o ",
"o o o o o o o o o + + + + + + + + + + + + + + + + + + + + + + + + + + + + + + + + + + + + + + + ; + + + + + + + + + + + + + + + + + + + + + + + + o o + + + + + o + + + + + + + + o + + o o o o o o o o ",
"o o o o o o o o o o o o o + + o + + + + + + + + + + + + + + + + + + + + + + + + + + + + + + + + + + + + + + + + + + + + + + + + o o + + + + + + + + + + + + + + + + + + + + + + + + o + o o + o o o o o ",
"o o o o o o o o o o + o o o o + + + o + + + + + + + + + + + + + + + + + + + + + + o + + + + + + + + + + + + + + + + + + + + + + + + + + + + + + + + + o + + o o + + o o + + o o + o + o o o o o O o o o ",
"o o o o o o o o o o o o o o o + + o o + + + + + o + + + + + + + + + + + + + + + + + + + + + + + + + + + + + + + + + + + + + + + + + + + + + + + + + + o + + + + + + o + + o o o o o o o o o o o o O o o ",
"o o o o o o o o O o o o o o o o o o o + o o o + o + + + + + + + + + + + + + + + + + + + + + + + + + + + + + + o + + + + + + + + + + + + + + + + + + + + + + + + + + + + o o o o o o + o o o o o o o o O ",
"o o o o o o o o o o o o o o o + o o o o o o o o + o + + + + + + o + + + + o + + + + + + + + + + + + + + + + + + + + + + + + + + + + + + + + + + + + + + + + o + o o o o o o o o o o o o o o o o o o o o ",
"o o o o o o o o o o o o o o o o o o o o o o o o + o o o o + + + o + + + + + + + o + + + + + + + + + + + o + + o + + + + + + o o + + + + + + + + + + + + + o o + + o o o o o o o o o o o o o o o o o o O ",
"o o o o o o o o o o o o o o o o o o o o o o o o o o o + o + + + o + + + + + + + + + + + + o o o + + + + + + + o + + + + + + o o o + + + + + + + o o + + o o o + + + o o o o o o o o o o o o o o o o o o ",
"o o O O o o o o o o o o o o o o o o o o o o o o o o o o + o o o o o o o o + o + X o + + + + + + + o o + + o o + + + + + + + o o o + + o + + o o o o o o o o o o o o o o o o o o o o o o o O O O o o o O ",
"O o O O O O O O o o o o o o o o o o o o o o o o o o o o o o o o o o o o o o o + o o o o o + + + + + + + + o o o + + + o o o o o o o o o o o o o + + o o + + o O o o o o o o o o o o o O O O O O o o O X ",
"O O O O o o o O o O O o o o o o o o o o o o o o o o o o o o o o o o o o o o o o + o o o o o o o o o o + + + + o + o o o o o o o o o o o o + o o o o o o o o o o o o o o o o o o o O o O O o O O o O o O ",
"X O O O o O O O O O o o o o o o o o o o o o o o o o o o o o o o o o o o o o o o o o o o o o o o o o o o o o o o o o o o o o o o o + + o o o o o o o o o o o o o o o o o o o o o o o o o o O O O O O O O ",
"X O O O o O o o o o O O O O O o o o o o O O o o o o o o o o o o o o o o o o o o o o o o o o o o o o o o o o o o o o o o o o o o + + o o o o o o o o o o o o o o o o o o O o o o O o o o o o O O O O O X ",
"O O O O O O o o O o o o o o o o O O o o o o o o o o o o o o o o o o o o o o o o o o o o o o o o o o o o o o o o o o o o o o o o o o o o o o o o o o o o o o o o o O o o o o O X O o o o O O O O O O O O ",
"O O X O O O o o O O o o o o o o O O O o o o o o O o o o O o o o o o o o o o o o o o o o o o o o o o o o o o o o o o o o o o o o o o o o o o o o o o o o o o o o o o o o o O o O o o o o O O O O o O O O ",
"O O X O X O O O O X O o O O o O O O O O o O o o o o o o o o o o o o o o o o o o o o o o o o o o o o o o o o o o o o o o o o o o o o o o o o o o o o o o o o o o O O o o o o o O O O O O O O O X X X X O ",
"O O O O O O O O O O O O O o o o o o o o O o O O o o o o o o o o o o O o o o o o o o o o o o o o o o o o o o o o o o o o o o o o o o o o o O o o o o o o o o O O o o o O O O O O O O O O O O O X O O O O ",
"O O O O O O O O O O O O O X X O O O o o O o O o o o O O o o o o o o o o o o o o o o o o o o o o o o o o o o o o o o o o o o o o o o o o o O o o o o o o O O O O O o O O X O O o O O O O O O O O O O O X ",
"O O O X O O O O O O O O O O O O O O O o o o o o O o O o o o O o o o o o o o o o O o o o o o o o o o o o o o o o o o o o o O o o o o o o o o o o o O O O o o o o o O o O X O o O O O O O O X O O O X X X ",
"O X X X X O O O X O O O X O O O O O O O O O O o O o O O O o o o O O o O o o O O o o o o o o o o O o o o o o o O o o o o o o o o o o o o O o o o o o o O o O o o O O O O O O O O O O O O X X O O O O X X ",
"X X X X X X O O X O O O X O X O O O O O O X o o o O o O O o o o O O o o o o o O o o o o o o o o o o o o o o o O o o o O o o o o o o O O O o o o o o o O o O O O O O O O O O X O O O O O X O O O O O O X ",
"X X X X X X X X X X X O O O O O O O O O O O O O o O O O O o o o O o o o o o O O O o o o o o O o o o o o o o o O o o o O O O o o o o O O O O o o o O O O o O O O X O O O O O O O O O O X X O O X X X X X ",
"X X X X X X X X X X X X O O O O O O X O O O O X O o O o O O O O o o o o o o o o O O o o o o o O O o o o o o o O O o O O o o o o o O O O o o o o O O O O O O O O O O O O O O X X O O O X X O X X X X X X ",
"X X X X X X X X X O X O X X X O X O X O O O O O O O O O O O O O o o o o o o o o O O o X o O o o O o o O o o o O O o O O o o o o o o O O O O O O O O O O O O O O O X O O O O O X O O O X X X X X X X X X ",
"X X X X X X X X X X X X X X X O X O O O O X O O O X O O O o O O O O O O O O o O O O O   o O o o O O O O o o o o o O O O o O O O O O O O O O O O O O O O O O O O O O O O O X X X O X X X X X X X X X X . ",
"X X X X X X X X X X X X X O O O X X O O O O O O O o O O O X O O O O O O O O O O O O O O o o o o o O O O O o O O O O O O O O O O O O O O O O O O O O O O O X O O X X O O O O O O O X X X X X X X O X X X ",
"X X X X X X X X X X X X X O O O X X X O O O O O O O O O O O X O O O O O O O O o X X O o o o X o o O O o o o O O O o O O O O O O X X O O O O O O O O O O O O O O O O O O O O O O X X X X X X X X . X X X ",
"X X X X X X X X X X X X X X O O O X X O O O O O O X O O O O O O O O O O O O O O O O X O o X X O O O X O O O O O o O O o X O O O O O O O O O O O O O O O O O O O O O O O X X X X X X X X X O X X X X X X ",
"X X X X X X X X X X X X X X X X O X X X X X X X O O O X X O O O O O O O O O O O o O O O O o O O O O o O O O O O X O O O X X O O O O O O O O O O O O O O O X X X O O O X X O X X X X X X   X X X X X X X ",
"X X X X X X X X X X X X X X X X X X X X X X O O O O X X O o O O O X O O O O O O o O O O X O O X X X O O O O O O o O X O O O O O O O O O O O O O X O X O O O O X X X X O X X X X X X X X . X X X X X X X ",
"X X X X X X X X X X X X X X X X X X X X X X O X X O O O X X O O O X O O O O O O O O O O O O O O O O O X X O O O O O O O O X O O O O O O O O O O O X X O X X X X X X X X X X X X X X X X X X X X X X . . ",
"X X X X X X X X X X X X X X X X X X X X X X O X X O O O O O O O O O O O O O O O O O O O O O O O O O O X O O O X O O X O X O X O O O O O O O O O X X X X X X X O X X X X X X X X X X X . X X . X X X . . ",
". . X X X X X X X X X X X X X X X X X X X X X X O O X . O O X O O O O O O O O O O O O O O O O O O O O O O O O X O X X O X O O O O O X X O X O X O X X X X X X X O X X X X X X X X X X X X X X X X X X X ",
". . . X X X X X X X X X X X X X X X X X X X X X X X X X X X O O X O O O O X O O O O O X O X O O O O O O O O X O O X O O X O O X X O X O O X O X O X X X X O X X X X X X X X X X X X X X X X X X X X X X ",
". . X X . . X X X X . . . X X X X X X X X X X X X X X X X X X X X X X X X X X X X O O O O O O O O O O O O O O O X O O O O O X X X O X X O O X X X X X X X X X X X X X X X X X X X X X X X X X X X . . . ",
". . . . . X X X X X . . . X X X X X X X X X X X X X X X X O X X X O X X X O X X X O O O O O X O O O X O O O X O X O X O X X O O X X X X O O X X X X X X X X X X X X X X X X X . X X X X X X X X X X . . ",
"X X . . X X X X X X X X X X X X X X X X X X X X X X X X X X X X X X X X O O X X X X X O O X X X O X X O O X X O X X X X X X X X X X X X X O X X X X X X X X X X X X X X X X X . X X X X X X X X X X . . ",
". X . . X X X X X X X X X X X X X X X X X X X X X X X X X X X X X X X X X O X X X X O X O X X X O O O X X X X X X X X X X O X X O X X X X X X X X X X X X X X X X X X X X X X X X X X X X . X X X X . X "
};
