/* XPM */
static char *_91b2760307142bdc1cdbe26daf156e1cIlaMbK1yL3GI6Jp[] = {
/* columns rows colors chars-per-pixel */
"500 500 256 2 ",
"   c #020203",
".  c #090603",
"X  c #050904",
"o  c #0B0905",
"O  c #060609",
"+  c #090609",
"@  c #06090B",
"#  c #0B0B0B",
"$  c #120C05",
"%  c #120E0B",
"&  c #140907",
"*  c #0E100C",
"=  c #14110D",
"-  c #1A140D",
";  c #181408",
":  c #0C0D11",
">  c #060813",
",  c #120E12",
"<  c #0E1114",
"1  c #141313",
"2  c #1A1512",
"3  c #1C1915",
"4  c #151519",
"5  c #1C1B1B",
"6  c #17181A",
"7  c #231B15",
"8  c #221D1A",
"9  c #271C16",
"0  c #25190C",
"q  c #24211D",
"w  c #2B231C",
"e  c #2A2317",
"r  c #35281B",
"t  c #332C11",
"y  c #1C1D21",
"u  c #151928",
"i  c #111729",
"p  c #221E22",
"a  c #1D2125",
"s  c #1F2329",
"d  c #1C2238",
"f  c #242323",
"g  c #2A2522",
"h  c #2C2925",
"j  c #232529",
"k  c #26292C",
"l  c #2C2B2B",
"z  c #282726",
"x  c #332B24",
"c  c #322D2A",
"v  c #382B24",
"b  c #34322C",
"n  c #3B342C",
"m  c #3A3428",
"M  c #2B2D31",
"N  c #242836",
"B  c #2D3135",
"V  c #333333",
"C  c #3B3532",
"Z  c #3D3A34",
"A  c #3B3B3C",
"S  c #35373A",
"D  c #302F30",
"F  c #1E201C",
"G  c #47321B",
"H  c #453729",
"J  c #433B34",
"K  c #433D39",
"L  c #473C36",
"P  c #513A28",
"I  c #623C28",
"U  c #45423C",
"Y  c #4B433B",
"T  c #4A4436",
"R  c #55493A",
"E  c #564A2E",
"W  c #6B5134",
"Q  c #726938",
"!  c #584A1C",
"~  c #3C3C42",
"^  c #252A45",
"/  c #1E2444",
"(  c #413E43",
")  c #3D4244",
"_  c #434344",
"`  c #4B4B4C",
"'  c #4A4746",
"]  c #544B43",
"[  c #574C46",
"{  c #5B5348",
"}  c #585757",
"|  c #4E4D52",
" . c #65584A",
".. c #685C53",
"X. c #725C4C",
"o. c #76654B",
"O. c #6C6356",
"+. c #736354",
"@. c #7C6B5C",
"#. c #776858",
"$. c #736A53",
"%. c #696867",
"&. c #786C63",
"*. c #7C7467",
"=. c #797877",
"-. c #6F6F72",
";. c #5D5E61",
":. c #3E403D",
">. c #896D3B",
",. c #865D36",
"<. c #836D59",
"1. c #87745B",
"2. c #91754C",
"3. c #A37C4C",
"4. c #847364",
"5. c #897969",
"6. c #947C67",
"7. c #877D74",
"8. c #847164",
"9. c #97725B",
"0. c #95884D",
"q. c #A98656",
"w. c #A89853",
"e. c #B7955A",
"r. c #AE8D53",
"t. c #B5A758",
"y. c #97846B",
"u. c #8C8274",
"i. c #8B8479",
"p. c #938474",
"a. c #9C8C7B",
"s. c #978977",
"d. c #978C77",
"f. c #BA9866",
"g. c #A48C76",
"h. c #A4937C",
"j. c #A9967A",
"k. c #B69979",
"l. c #A78D69",
"z. c #BAA672",
"x. c #C8B25C",
"c. c #C49C69",
"v. c #C7A56A",
"b. c #C9B965",
"n. c #D5BE68",
"m. c #C9A976",
"M. c #D4B67A",
"N. c #CEB177",
"B. c #C49E5E",
"V. c #D5C365",
"C. c #D9C366",
"Z. c #D7C36A",
"A. c #D9C46B",
"S. c #D8C96A",
"D. c #D9C573",
"F. c #CDC368",
"G. c #DAC668",
"H. c #8D853B",
"J. c #888888",
"K. c #988D83",
"L. c #9B9385",
"P. c #989897",
"I. c #8F9092",
"U. c #A49483",
"Y. c #AC9B83",
"T. c #A89A88",
"R. c #B39D85",
"E. c #A79C92",
"W. c #B8A58A",
"Q. c #ABA497",
"!. c #B9A996",
"~. c #B5AB92",
"^. c #A8A8A8",
"/. c #BBB5A6",
"(. c #B7B7B7",
"). c #B6ADA4",
"_. c #9D9DA1",
"`. c #C5AA89",
"'. c #CBB589",
"]. c #D3B988",
"[. c #C4AD95",
"{. c #C9B598",
"}. c #D3BB98",
"|. c #D1AE88",
" X c #CCBBA4",
".X c #CBBDAB",
"XX c #C5B7A5",
"oX c #D3BDA3",
"OX c #C6BDB4",
"+X c #C2AFA1",
"@X c #CCA988",
"#X c #D9C689",
"$X c #D7C699",
"%X c #D3C898",
"&X c #E4CF94",
"*X c #CCC2AC",
"=X c #CBC3A7",
"-X c #D4C4A4",
";X c #D4CBA4",
":X c #D8C8A8",
">X c #D9D2A9",
",X c #CCC4B4",
"<X c #CCC5BB",
"1X c #CCC7B9",
"2X c #D3CBBC",
"3X c #D4C9B5",
"4X c #DBD3B8",
"5X c #E3CAA8",
"6X c #E6D6A9",
"7X c #E7D9B6",
"8X c #ECD7B4",
"9X c #EBE3BB",
"0X c #F2E5B9",
"qX c #EAE19E",
"wX c #CAC9C6",
"eX c #D3CDC4",
"rX c #D3CECA",
"tX c #D8CDC6",
"yX c #D5D1CC",
"uX c #DAD4CC",
"iX c #DAD5C7",
"pX c #D5D4D3",
"aX c #DAD6D2",
"sX c #DDDAD4",
"dX c #DCDBDB",
"fX c #DAD7D8",
"gX c #D2CFCE",
"hX c #E4DCC9",
"jX c #E2DDD4",
"kX c #E1DDD9",
"lX c #F0DDC3",
"zX c #EBE5C8",
"xX c #F3E9C7",
"cX c #E4E2D4",
"vX c #E5E3DA",
"bX c #E9E6DB",
"nX c #ECEADD",
"mX c #EBE8D4",
"MX c #F2ECDC",
"NX c #F3ECD4",
"BX c #F6F3D9",
"VX c #F5F1CD",
"CX c #E3E3E3",
"ZX c #EDEBE2",
"AX c #ECECEB",
"SX c #EBE6E2",
"DX c #F1EDE2",
"FX c #F2EEE9",
"GX c #F6F4E7",
"HX c #F4F4F4",
"JX c #FFFFFF",
"KX c #F8F7F3",
"LX c #EEF0E8",
"PX c #DFDFDE",
"IX c #BFC1B6",
"UX c #7E7E81",
/* pixels */
"            X                                                                                                       + = #   X + + . # = #         .   .   X X X X         X # # # . # # . X . O + + + + + + + + + O X O X X X X X X X         X   X + X   X X + + X                                           O i d > O                                                                                                                                                                                                                                                                                                                                         O                                   > < < : : >                                                                                                                                     X         X                           X X X O O O # O X         X                                                                                                                   ",
"            X                                                                                                 X     + % # X X . . + # % #         #                       X # # # . # # . X . . + + + + + + + + + O X O X X X X X X X         X   X X X   X X . + X                                           O i d > O                                                                                                                                                                                                         X                                                                                                                                     O                             > 4 < < > @                                                                                                                                                                           X X X O O O # O X         X X                                                                                                                 ",
"            X                                                                                                       X # # X X . . # = # .       . = .     X               X # + # + # # . X . . + + + + + + + + + O X O X X X X X X X X           X X X   X X X X X     X                                     O i d > O       O                                                                                                                                                                 X X                             X X                                                                                                                                 O + X                           > 4 4 < > @                                                                                                                                 X X                                       X       + + # O X         X                                                                                                                   ",
"                                                                                                                      . .     X X # = #         # 2 .     X             X . + + . + # # O X . + + + + + + + + + + O X O X X X X X X X X         X X X X X X X O X X     X                                     O i d > O                                                                                                                                                                         X X X                           X X                                                                                                                                 O + X                       O   > 4 < < > O           X                                                                                                                     X         X X         X                   X     O # # # X X         X                                                                                                                   ",
"                                                                                                                X           . . . # % .     . . # 2 .     X               . # + O # # + O X + + + + + + + + + + + O X O X X   X X   X X X X X   X O X     X O O + X     X                                     O i d > O                                                                                                                                                                         X                               X                                                                                                                                     X                             > 4 : < > O                                                                                                                                 X         X X         X                   X X X + # # #   X   X                                                                                                                         ",
"            .                                                                                                   X           . . . # # .   X + + # 2 .     X               . + . X # # . O X + + + + + + + + # + + O X O X X     X X   X X X X   X O X X   X O + + X     X                                     O i d i O                                                                                                                                                                                                                                                                                                                                                 X                           > 1 1 : : @                                                                                                                                           X X       X X                 X X X X # # + +   X   X                                                                                                                         ",
"            X                                                                                                   X         . . # # # +     . + . % = . .   X               X . X X # # . + + + + # + + + + # # + + X X O X X   X X X X X X X     X + + X   X X + + X                                           O i d i O                                                                                                                                                                                                                                                                                                                                                 X                           + # # > > @ O @ O                                                                                                                                     X X       X X X               X O X X # # O O   X                                                                                                                             ",
"            X                                                                                                   X     . . . . # # # .     . . . # #   .                   X .   O = # O + + + + # # + + # # # + + X X O X X   X X X X X X X     X + + X   X O + + +                                           O i d i O                                                                                                                                                                                 X X                                                                                                                                                       X     .                             X   O @ @ > > @                                                                                                                                               X X X                 O X X # # O O   X                                                                                                                             ",
"                                                                                                                    X . . . . # = % .   .   . . . . .   .                     X . # + . + O O # + + + + + # # . + X X X X X X X X O X             X X X X X X X + X                                           O i i i O O                                                                                                                                                                                       X               X                                                                                                                                     X                                       O > : > O                                                                                                                                   X X         X                 X O O O # + O X                                                                                                                                 ",
"                                                                                                                    X + # . . # = #     . X . X . + . . . .                     . # . X X O O # + + + + + # + . + X O X X X X X X O X             X X X X X + + + X                                           O i i i O O                                                                                                                                                                                       X                                                                                                                                                                                             O O > > O                                                                                                                                   X X         X                 O O + + # O X   X                                                                                                                               ",
"        X . X                                                                                                       X + + . . + % #     . . . X X + . . . .   X . .             . # .     O + # + + + + + + + . + X X X X X X X X O X               X X X X + + + X     X                                     O i i i O                                                                                                                                                                                                                                                                                                                                                                                           @ + + O                                                                                                                                 X X X X   X X                 O O # # O X                                                                                                                                     ",
"        X . . X                                                                                                     X + + . . . % #     . . . X   + . . . . . . . .             + # # X   + # # + + + + + + + O + X X X X X X X X X X                   X X + + + X X   X                                     O i i i O                                                                                                                                                                                                                                                                                                                                                 X                                           O + O                                                                                                                                 X X   X   X X                 O O # # O X                                                                                                                                     ",
"            X X                                                                                               X     X + + . . . # # X . + X . .   . .     . # # . .             . # + X X + # + + # # + + + + O + O O X X       X X X       X X           O + + + X X                                         O i i u >                                                                                                                                                                                                         X                                                                                                                                                                                     O O                                                                                                                                   X   X     X             X X X O # + O X X O X                                                                                                                               ",
"              X                                                                                               X     X + + . . . # # X . . X . . X + .   X + # # # . X           O . . X X + # O + # + # + + + O + O O X X         X X X     X X X         O + X X X X                                         O i i u >                                                                                                                                                                                                         X                                                                                                                                                                                                                                                                                                                   X           X   X X           X X O + # # + O O O X X                                                                                                                               ",
"            X X                                                                                                     X + # . . . # #   X + . . . . # + X . # # % # # X X         O     X X + # O + + + + + + + X + O + X X X X X   X X X   X X X X X     X O O X X X X                                         O i i d >                                                                                                                                                                                                                                                                                                                                                                                                                                                                                                                             X     X X X X   X X           X + + # # # O O X X X X     X                                                                                                                         ",
"            . X                                                                                                     X + # + . + # +     + . . . # = # . # # = # % # . X . X     .     X X + # # + + + + + + +   + O + X X X X X   X X X   X X X X X     X + O X X X X                                         O i i d > O                                                                                                                                                                                                                                                                                                                                                                                                                                                                                                                           X X   X O O X   X X           X + + # # # X O X X X       X       X                                                                                                                 ",
"X         . . .                                                                                                     . o % o $ . % o . . . + . . . # o . o = # # = # . . .       X     O + + + # + + + + + + + X X X X X X X X X O X X   X X X X X X     X X X X       X X                                     O i d d i O                                                                                                                                                                                                                                                                                                                                                                             X                                                                                                                                           X X     O O # O + O             O # # # + X X O O         X X                                                                                                                         ",
"      .     . .                                                                                                     . o % # % # % o . . . + . . . = o . o = # = # # . . . X     X     X + + + + + # + + + + + X X X X X X X X X + X X X X X X X   X     X X   X X X X X X                                     O i d d i O                                                                                                                                                                                                                                                                                                                                                                             X                                                                                                                                                     O + O @ O             + # + + + O O O X       X X X                                                                                                                         ",
"      . .   . X                                                                                                     . . % # % % % o   . . . . . . = o o $ = # = # o o o o .           X + # # + # # # + + + O X X X X X X     X + X X X X X X X   X     X X   X + X X X X                                     O i d d i >                                                                                                                                                                                                                                                                                                                                                 X                           X                                                                                                                             X                       O @ O O O           + # + O O O O + X X     X X                                                                                                                             ",
"    . . . . . X                                                                                                     . . % # = % % # . . . . . X . = * o = = # # # . o o # o           X O # # + # # # + + + + X X X X X X X     + X X X X X X X   X     X X X O + X   X X                                     O i d d u >                                                                                                                                                                                                                                                                                                                                                 X                           X                                                                                                                             X   X       X X         O O O O             # # + X O O O + X O                                                                                                                                     ",
"X     . . . . X                                                                                                     . . % # % # % o   . . . .   . # = $ = = . o # o o # % # X         X O # # + # # + + + + + X X X X X X X X X X X       X   X X X X X X + O + + X   X X                                       i d d d 4 O         X                                                                                                                                                                                                                                                                                                                                                                 X                                                                                                                                 X                     O   O         O O : : O O O O X O O O X X X X                                                                                                                             ",
"X     . . . .                                                                                                       . . % # % # % o     . . .   . # = = = # . . # . o # % # .         X + # # + # # + + + + + X O O X X X X X X X           X X X X X X + + + # # X   X X                                       > d d d u >     O O X                                                                                                                                                                                                                                                                                                                                                                 X                                                                                                                         X       X X                               X + # : # O O O O   X O O O X X                                                                                                                               ",
"      . . .                                                                                                         . . # # % # % o .   . . X   . # = % = o . o # o o # % # . X       X + + + # # # + + + + + O O O O O X X X X X X   X X X X X X X X X + # + # : +   X X                                       > d d d u < O   O O X                                                                                                                                                                                                                                                                                                                                                                 X                                                                                                                         X     X X X X                 O           O + # # + O X O O   O O O O X X                                                                                                                               ",
"    X . . .                                                                                                         .   # $ = # % .     . . .   . # $ $ = o . # # o o # # # + .       X + + + # + # + + + + + + O O O O X X X X X X X X X X X X X X X X + # # # 1 +   X X                                       > d d d u 4 O   O O X                                                                                                                                                                                     X X X                                                                                                                                                 X                     X                                                                                                                         X     X X X X X           O O O         X O + # + + X X O X   O O O O X X                                                                                                                               ",
"X   . .     X                                                                                 . .                   . . . $ % $ % . X   X X     o o $ $ % o . # = % o . # # + O       X + + + + # + + + + + + + + O O X X X X     X X X X X X   X X X O # # + + : # X                                           > d d N u u   X O   O                                                                                                                                                                                 X X                                                                                                                                                                                                                                                                                                       X   X X + + X             O @ +       X + # + O O X       O O X O O O X                                                                                                                                 ",
"      .                                                                                 X   . . o .                     . # % o % .     . X     o # $ = = o o # = % o . # # + O       X + # # + # + + + + + + + O O O X X X X X   X X X X X X   X X X X + + + + # # X                                           > u d d u u O O                                                   X X                                                                                                                                                                                                                                                                                                                                                                                                                                       X X X     X + + X             O O O       O + + O O O X     O O O X O O O X                                                                                                                                 ",
"    X . . .                                                                       X     o . # # % o o o .         .     . o o o = .   X . X     o # = = = # o = = # o . o # . X       X + # + # # # + + + + . . O O O O X X X X   X O X X X X   X X X X + + X X + + + X                                         @ u d / d u O O     #                                             X X                                                                                                                                                                                                                                                                                                                                                                                                                                       X X       X X +               O O O       O + + O X X X X X O O   X X X X X O                                                                                                                               ",
"X   . o o o .                                                                         . # % = = = % % = % .         .     . o $ = .   . . X     o # = = = # # = = % # o o # . X     X X + # # # # # + + + . + . O O O O O O X X   X O X X X X X X O X X + + X X + + + X                                         @ u d / d d > O   O 2 +                                           X X                                                                                                                                                                                                                                                                                                                                                                                                                                       X X       X X X                 O O     X O + O X X X X X X O O X       O O O O X                                                                                                                           ",
"        . . . .                                                                       . % % = = 2 - - 2 2 % .               . # = .   X .       . # = = = # # = = = # o o o . X X X X X + # # # # # + + + + + + O O . . . . O O X O X X X X X X X O X X + + X X X + X X                                         O i d / d u > O     3 +                                             X                                                                                                                                                                                                                                                                                                                                                                                                                                         X   X X X                         X X O + + O X X O O O O X           X O O O X X                                                                                                                         ",
"        . . . .                                                                   . . $ - - 2 2 2 2 2 2 2 = o     . .       . # # .     . .     . # = = = # o = = # # o o o .   X X X X + # # # # # + + + + + O O O . . X . O O X O + O X X X X X O X X + + X X X X X X                                           i d d d i > O     6 X X                                                                                                                                                                                                                                                                                                                                                                                                                                                                                     X X X X X                         X X O + + X X X O O O X O           X O O O X X                                                                                                                         ",
"  . . . o .   .                                                                 . # o = 2 2 2 2 = 2 2 2 2 2 % . . o # .     . o % .     . . .   . % = = = o # = # # # o . o .   X X X + + # # # # # + + + + O O X O O . X X X X X O + X X X X X X X     O O X X X X X                                             < d d d i >       6   X                                                                                                                                                                                                                                                                                                                                                                                                                                                                                     X X X X X                         X X O + O O   O O O O O     X O X X X O O O O O X                                                                                                                       ",
"    . o $ o   .                                                                 . % $ = 2 2 2 2 = 2 3 2 = 2 = o # # % o .   . . % .     . . .   . # = = = # o = # # o . . o O   X X X + + # # # # # + + + + O O X O O O X X X X X O + O X X X X X X     O O X X X X X       X                                   O > / d d i >       6   X                                                                                                                                                                                                                                                                                                                                                                                                                       X                                                             X + X                         X X X X O O O X X O O O O X     O O X   O O O O O O X                                                                                                                       ",
"X . . % . o .                                                   X           . % = % - - - - ; - % = = = = 2 2 % = % % .     . # = .     . . . . . % = - = o o # . = # . o + X X     X + + + # # # # # + + + + + + + + + O X X X X + + O X X X X X X     X X X +   X X X X X X X                                   > ^ d d i O @   X 1                       X   X X                                           X                                                                       X                         X             X X                                                                                                                                                                                                                               X                                                         X + +   X                     O   O X O O + O X X X X O X O O X O O O   X O O O X O X         O                                                                                                               ",
"    . o . o .                                                               . = = % 2 - ; - ; - % = = % = 2 2 = = = = #     o # = .     X . .   . % = = = o o # . = o   . .   X     X + + # # # # # # + + + + + + + + + O X X X X + + O X X X X X X     X X X +   X X X X X X X                                   > / d d i > O     #                                                                         X                                                                                                                 X                                                                                                                                                                                                                               X                                                         X + +                         X   O O O O O O X X X O O O O O O O + O X O O O O X O X X X                                                                                                                     ",
"    X o . o . .                                                             o = = = 2 - % ; = - = = % % % 2 2 2 = = = #   . # = = .   X X X     . # = = = o o = . # .   . X         X # # # # # # # # + + + + + + + + + O X X X X + + O X O X X X X   X X X X + X X X                                             > / d / i > O     +   X                                                                                                                                                                                       X                                                                                                                                                                                                                               X                                                         X X X                           X O O O O O O     X X O   O + O + # + X O + O O X X X X X     X X                                                                                                             ",
"    . o . o . .                                                           . % = - = 2 ; $ % % - = = % # % 2 3 2 = = = # . . = - = .   X X X     . # = = = o o = o # .   X       X   . # # # # # # # # + + + . . + + + + O X X X X + + + O O X X X X   X X X X O X O X                                           O > d d / d i @     O       O                                                                                                                                                                                                                                                                                                                                                                                                                   X                                                         X X X                         X X O O O O O O       X X X O # + + # + O + + + O X X X X X                                                                                                                     ",
"    . % o o o .                                                           o = = - = - ; $ % = - % % % # % 2 3 3 = % % o . . % = 2 o   . . .     . o = = = o o = o # o . X       X X + # # # # # # # # + + + + . + + + + + X X X X + + + X X X X X X     O + X O O O X X   X                                     O > d / / / u >         O                                                                                                                                                     X       X X                                                                                                                                                                                                                                                                                                                                             X X X X O + O O O O       X X + # + # # + + + # + + X X X X X                                                                                                                     ",
"    . % o % o .                                                           % = = - = - % % 2 2 2 % % # o % 3 7 3 = % % o . o % = 2 o .     . X     o = = = % o = o o o . X X     X X . # # # # # # # # + + + + + + + + + O X X X X + + + X O X X X X X X X X X + + + X X   X                                     O > d / / / d @   X   O O                                                                                                                                                     X     X X X X                                                                                                                                                                                                                                                                                                                                         X O X X X O + + O O O       X X # # # # # + + + + + + + X + X X                                                                                                                     ",
"    X # o % o .                                                         . % = = 2 % - % = 2 2 = o o o . % 3 8 8 2 = % % o o % % 2 o .     X X     o % = = % o = . . . . . X X   X   . # # # # # # # # + + + + + . + + . O X X X X + + + + O O X X X   X X X X . + + X   X X X                                   O O u / / ^ d >   X   + O                                                                                                                                                     X     X X X                       X                                                                                                                                                                                                                                                                                                                 X O O O   O O O O O O O O O O O O # # # # # + # + + + # + O + X X                 X X                                                                                                 ",
"      o . % o .                                                         . = = = 2 % % % = 2 - % o o . . % 3 8 8 3 2 = % # % % % 2 o .     X X X   o = = = % o = . . . . .   X   X   . # = # # # # # # + + + + + + + + + O X X X X + + + + O O X X O X X + X X X + + O X X X X                                   O O u / / ^ d >   X   + O                                                                                                                                                     X     X X                         X                                                                                                                                                                                                                                                                                                                 X O + O     O O X O X X O O O O O # # # # # + # + + # # + O + X X               X O X X     X                                                                                         ",
"        . o o .   . .                                                   o = 2 = % % % = - - % $ . . . . % 2 8 8 3 = = % # % = % 2 %   .   .   .   . * = = = $ # o .   . . X X . O   . # # * # # # # # + + . O + O O X X X X X X + + + + + O X X O X X X X O X X # + + X X   X X                                   O i ^ / ^ d >     O + O                                                                                                                                                       X X X                                                                                                                                                                                           X X                                                                                                                                                   X X X O O X X X X X O O + O # # # + # # + + O # # O X X X     X                                                                                                                   ",
"  X . . o % % .                                                         # = - = o $ % % % % $ o .     . # 2 8 8 3 2 = % o % = % = %   . X .   .   . # = = = $ # o .   . . . X . O   . # # = # # # # # + + + O + X X + + O X X X + + + + + + O X X X X X X O X X # + + X X   X X                                   O i ^ / ^ d >     O : # X                                                                                                                                                     X X X                                                                                                                                                                                           X X                                                                                                                                                     X X O O X X X X X X O + + # , : # # # # + O + # O X + X     X               X                                                                                                   ",
"  X . o o % # .                                                         # - - % . o % % % $ o . .     . o 2 8 8 3 2 % % o o % % = 2 .   . .   .   . o = = = = = o .   . . . . . O   . # # * # # # # # + + + + + X X + + + . X X + + + + + + + + X X X X X O O O + + X X X   X X                                   O i ^ / ^ d >     O + +                                                                                                                                                       X X                             X                                                                                                                                                               X X X                                                                                                                                                   X X O O O O X X X O O + + : 1 : : # # # # # # # O X + X         X   X X     X X X X X X                                                                                         ",
"  X . . o # o .                                                       . % 2 = $ o $ % % % o . . .     . o 2 8 8 3 2 % # # # % = = 2 #   . .   # . . o $ = = = = o .   . . .   . X   + # # # # # # # # + + + + + X X + + + + + X + + + + + + + + + X X X X O + + # + X X X   X X                                   O i ^ / ^ d >       O                                                                                                                                                         X X                             X                                                                                                                                                               X X X                                                                                                                                                 X X X O O O O O X O O + + # # : : , : # # # # # + O X + X         X X X X O X X       X X                                                                                         ",
"    . . . o o o                                                       . = - = $ $ % % % $ o . . . .   . o 2 8 8 2 = % o o o % = - 3 =     .   = . . o % = = = = o .     .     . X   + # # # # # # # # + + + O O O O O + + + + + + + + + + + + + + X X X X X + + # + X X X X   X                                   O i ^ / ^ d >                                                                                                                                                                 X                                                                                                                                                                                                                                                                                                                                                 X X X     X O O O X X O + # # # # : : 1 : # # : # # # O X O X     X X X X     X X           X                                                                                         ",
"      . . o o o                                                       . = - = $ = = % % $ o .   . . . . o - 8 8 2 = # o o o % 2 2 2 =     .   = . . o = = = = = o .     .     . X   + # % = # % # # + + + + O O X X O + + + + . + + + + + + O O + O X   X X + + # + X X X                                         O i ^ / / d >                                                                                                                                                                                                                                                                                                                                                                     X                                                                                                                                         X X X X X     O X O O X O + # # # : # # : 1 : # # : # # # O X O X       X X       X X           X                                                                                         ",
"      . . . o o                                                     . o = - - % = = % % % $ o . . . . . o 2 8 8 3 - o o o o % 2 3 = =         # o . o = = = # # o .     .     . .   # # = = # % # # # + # + + O X X O O + + + + + + + + . . O X + O X X X X + + # . X X                                             4 ^ / / d >                                                                                                                                                                                               X                                                                                                 O                                                                                                                                                                                                           X X X O O       X X O O O O + # # # # # # # : # + # : # # # O X X X     X X                     X X X                                                                                       ",
"  X . . . o o o                     . .                           . . o = 2 - = = % % $ o o .   . . . . o 2 8 q 3 2 % o o o $ 2 2 = =         # o . o = = = # # o .     .     . .   # % = = # # # # # # # + + O X X X O O + + + + + + + + . O X + X X X X X X + # . X X X                                           4 ^ / / d >         O   X                                                                                                                                                                                 X                                                                                                 : # X                                                                                                                                                                                                         X O O O       X X + O O + # # # # # + + # + O + # # # # # O X O X                             X X X                                                                                       ",
"    . . % % = o       . .         . . .     .                       o * = - - = % o o o o .   . . . . . $ 2 q 7 3 2 = o o . # 2 2 - = .       o o .   % - = = # o .   .     .   .   + # # = # # # # # # + + + X X X O O + + + + + + + O + + O O # + X X X O + . . . O X . X X X                                   X : N / ^ d >                                                                                                                                                                 X                                                               X                                                           X X f : O O   O                                                         X                                                           X                                             X                         X   X X X X X X X X X O # O + # # : : : # + O O O X X O O # # O O O O X X               X X         X O X                                                                                       ",
"      . % % % . .   . . .       . . .                             . o = = - - = % o . o o .   . . . . o % - 7 3 2 - = % o . o = 2 - % .       . % o . o - = = # o . . .     .   X   + # # = # # # # # # + + + X X X O X + + + + + + . O + + X O + + X X X X + . . . O X . X   X                                   X : N / ^ d >                                                                                                                                                                 X                                                               X                                                             X y 1 X O                                                             X                                                                                                         X                             X X O X X O O X O + # # # # # : : # + O X X O X O O O + + O X O O O O     X X       O O O       X O X                                                                                       ",
"    X o # % o .       . . .     . . .                           X . o = - - = = % . . o . . . . . . . o % - 3 2 - - = % % o o = 2 - % .         = # . o = = = # o . . .     X . X   # # # = # # # # # # # + + X X X X X + + + + + + + O + + X O + X X X X X + + . . X X X X   X                                   X > N / ^ d >         O                                                                                                                                                                                                                       X                                                               6 4   X                                                             X                                                                                                                                         X O X O O O O + # # # # : # # # O O X X X X O O O O O O X X X O O O X X X X X     O O O O O X X X                                                                                         ",
"  .   o o % o o       . .       . . .                           . . o = - - = % % o . . . . . . . . . o % - 3 - 2 - = = = o % = 2 2 = .         = = o o = = = o # . . .     X . X   # % = = # # # # # # # + + X X X X X + + + + + + + O + + X X O X X X   X + + X . X X X X   X                                   X > N / / d >         O                                                                                                                                                                                                                       X                                                               : 1   X                                                             X                                                                                                                                         X O O     X O + # # # # # # # # O O   X X X O O O X O O X X X O O O X X X O O     X   X X   X                                                                                             ",
"      o o % o o       . . . . . . . . . . .                     . . o = - - = % % o . . . . . . . . o o % - 3 - 2 - = = = % $ = 2 2 = .         = = o o o o = . o . . .     . . X   # % = = % # # # # # # + + O X X O O + + + + + + + + + + X X O X X     X + + . . X   X X   X                                   X > N / / d >         O   X                                                                                                                                 X                                                                                 X                                                                 O       O                                                                                                                                                                                                   O O O     X O # # # + # # + O O X   O O X X O O O X O O O   O O + O O X X O O O X             X                                                                                           ",
"      . o % $ o       . . . . . . . . . . . .                 . . . o = - - = % % o . . . . . . . . o o % - 3 2 - = = = = % o % - 2 2 .         o = = .   . # . o . o o .   . . .   # % = = % # # # # # # + O O X X O + + + + + + + + + + + X X O X X     X + + . . X   X X   X                                   X > N / / d >         O                                                                                                                                   X X                     X                                                           X                                                                   O O   +                                                                                                                                                                                             X     O O O X X O + # # + O O O X X O X   O O O X O O O X O O X O O O O O O X   O O O O           X                                                                                             ",
"X     . $ $ % o       . . . . . . . . . . . .               . . . . o - - = % % o o . . . . . . . o o o o = 3 2 2 = % = = o o o = 2 2 .         o - = .   . # . . . # # .   . . X   # % = = # # # # # # # + O O X X O + + + + + + + + O + + X X O X       X + + . . X   X X   X                                     > d / ^ d >                                                                                                                                             X X                     X         X                                                                                                                   X O # X O                                   X                                                                                                                                                       X X     X O X X X O # # # O X O O   X X     O O O X O O O X O O O X O O O O O X   X X O O                                                                                                         ",
"      . o . o .       . . . . o o o . . . . .               . . . . $ - - = % % o o . . . . . . # # o . . $ 2 3 3 2 % % % o o % = 2 2 .         o 2 = o X . = . . . # # .   . . X   # % = = # # # # # # + + O O X O + + + + + # + + + O + + X X + X       X + + + + .   X                                           > d / ^ d >                                                                                                                                               X                     X         X                                                                                                                       # X   O                                 X                                                                                                                                                         X X   X   X     O # # + X   O O     X     X O O X O O O X O O O X O O O O O X   X X X O O X                                                                                                     ",
"        . # o .   . . . o $ o . o $ o o o o o . .     .       . o . = 2 - = = = o . . . . . . o # o % o . % 3 2 3 = - o . = % o = - 2 .   X     # 2 2 # . o # . . # # # o . . .     # % % = # # # # # # + + O O X O X X + + + + + # + + + + . X   X     X . + # # .   .     .     X                                 > d ^ / i 4           O                                                                                                                                                                                                                                                                                         O X                                                             X   X                                                       X                                                                     X X X   O X   X O # # # O O X X X X X X X X X X O O O O X O O O O O X O + O O   X X O O   X X X X X                                                                                               ",
"        . # # . . . . o o $ $ . o o o o o o o . .     .       . o . = 2 - = = % o . . . . . o o o . % o . # 3 2 3 = = o o = = $ = - 2 .         # 2 2 +   . o . . # # # o . . .     # % = = # # # # # # + + O O X O + + + + + + + # + + O . X X         X . + # + # . .     .     X                                 > d / / i 4           O                                                                                                                                                                                                                                                                                         X X X X                                     X                   X   X                                                       X                                                                     X X X X O X X X O # # + O O O O X X X X   X X X O O O O X O O O O O   O + O O X X O O O O X X O X X                                                                                               ",
"        X # # o . . . o o $ $ $ o o o . o o o . .     .       . o . = 2 - = = o o . . . . o $ o o . % . . o 2 2 3 = % # o o o = = - = .         # 2 2 +   . . . . # # # o . . .     # = = = # # # # # # # + O + X X + + + + # + + # + + O . X X         X + + + # # + .     .   X X                     O O         > d / / i 1           O                                                                                                                                                                                                                                                                                     X       X O                                     X                   X   X                                                       X                                                                       X X X X X O O + # + O O O O O O O         X O O O O O O O O O O O X O O O X X X O O O O O O O O X                                                                                               ",
"          . . . . . . . o $ $ $ $ o o . o $ o .       .       . # o = 2 - = % o o .   . . $ = % o o % . . o 2 2 2 % o # o . . o = = = +         + 1 2 #     . . . # # # o . . .     # = % = # # # # # # # + + + X + + + + # + + + # + + O . X X         . + + + # = # .   X #     X                                 O d ^ / i @           O                                                                                                                                                                                                                                                                                     X       X X                                     X                   X   X                                                       X                                                                   X     X X X X O + + + O O O O O O O O           O O O O O O O O O O O X O O O O X X O O O O O O O O X                                                                                               ",
"            X . .   . . . & $ $ $ $ o . o $ o .       .       . o o = 2 - = % o o .   . . $ = % % # % . . . = 2 2 % o % o       = = = # .       . = 2 % . . . . . # # # o . X .     # % # = # = # # # # # + + + O + + + + # # + + + + + O + X           + + . . # = # + X . # X   X                     # @       + @ d ^ ^ i O           O                                                                                                                                                                                                                                                                                                                                                         X   X                                                       X                                                                       X X X X O + # # O O     O O O O               O O O O O O O O O O X X O O X O   X O O O O O O O X X                                                                                             ",
"          X X . .   . . o $ $ $ $ $ o o o $ o . .     .       . o o = 2 - = % o . . . . . o = = % % % . . . = 2 = = # # o       o = = = +         # 2 = o . . . . # # # o . X .     # % # = # = # # + # # + O + O + + + + # # + + + + + . + X           + . . + # = # # . . # .   X                   # 6 1 O O   1 < d ^ / i O           O                                                                                                                                                                                                                                                                                                                                     X                   X   X                                                       X                                                                       X X X X O + # + O X     X O O O             O O O O O X O X X O O X O O O O O X X X X O O O O O X X                                                                                             ",
"        X X X . . . . . o $ $ $ $ $ o o o % o . .     .       . o . = 2 2 = % o . . . . . o = = % % % . . . % 3 = 2 o . X         # = 2 #         # 1 = # o o o . o # # # . X .     # # # % # = = # + # # + O + + + # + # # # + + + + + + + X X         + . X + # # # # . . # .                   X   + 4 < O O . 6 < d ^ / i O           O                                                                                                                                                                                                                                     X                                                                                               X                   X   X                                                       X                                                                     X X X X O + + O O O X X X X X O O         X X X O O O X X X X X X X X O O O O X X     X O O O O O X X                                                                                             ",
"              .   . . o $ $ $ $ % $ o o o % o . .             . o . = 2 2 = $ o . . . . . o = = # % # . . . % 3 % 2 .       X     # = 2 #         # = = # o o o . o # # # . X .     # # # # # = = + + # # + O + + + # # # # # + + + + + + + . X       . + X X # # # # # # . # #   X           X   6 2 O O # O X O 1 @ i ^ ^ i O                 X                                                                                                                                                                                                                               X                                                                                               X                   X   X                                                       X                                                                     X X X X O + + O O X X X     X O X       X X X X O     X X X     X X X X O O O O O   X X O O O O O O X                                                                                             ",
"              . X   . o $ % $ % $ $ o o # % o .       X       . o . = 2 2 - = o . . . . o o . 2 o o o     o = 7 = = #                 = 2 X       . # 1 # . . = . # # # o . . . X   # % # = % = 1 + O + # + + + + # # # + # # + + # # + O + . X       X + + + + # # # # + . . + X           X   X 1 1 X   + +   + # O u ^ / i O         O   +     X                                                                                                                                                     X X                                                                                                                                                                     X                       X                                                                                                                           X X X X X + + O O O X X X X O O O O       X O X     X X O O     X X X O O X O X X X X X   X O O O O O O O O X                                                                                       ",
"              . . . . o $ % $ $ % $ $ $ % % o .       X       . o . = 2 2 - % o . . . . o o . % . o o . . o = 3 = = %                 % 2 . X     X # 1 % . . # . o # # o . . . .   # # % = % = 1 + O + + + + + + # # # + # # + + # + + X . X X       X . + # # + + # # + . . . X X               + +           . + @ u ^ / < O       O O   O                                                                                                                                                             X                                                                                                                                                                     X                       X                                                                                                                           X X X X X + + O O O X X X X O O O O       X O X     X X O O     X X X X   O O O X X X X X X X X X X X X X X X                                                                                       ",
"                . . o o o $ $ $ % $ $ $ % % o .       X     . o o o = 2 2 = % . . . . . o . . % . . . . . o = 2 = = %                 . = # +       # = = .   # . o # # o . . . .   # # # % # % 1 # + + + + + + + # # # # # # + + + + O X . X       X X + + # # # . + + . X . . X X                           . X + > d ^ d > O     +   @ O                                                                                                                                                               X                                                                                                                                                                                             X                                                                                                                           X X X X X O + O O O O X O O O O   X       X O X     X X X X                 O O X X X X X X X X X X X X X X X                                                                                       ",
"                . . . . o $ % # % % % % % % o .       X     . o o o = 2 - = % . . . . . o . . o   . . . . o = - % = #                   % 2 # X     . = = .   # o o # # o . . . .   # # # = # % 1 # + # + + + + + # # # + # + + + + + O X . X       X . + # # # # # + + + X . + X X                         O .   + : d ^ N > O     +   @ @                                                                                                                                                                                                                                         X                                                                                                                   X                                                                                                                           X X X X X O + O O O O O O O X     X       X O       X X X X O O O O O O O O O O O O O X X X X X X X X X X X X                                                                                       ",
".               . . . . o % % # o $ $ % % % $ . .     X     . # o o = 2 - = o . . . . o o . . .   . . .   . - - o % .                   # 2 = .     . = =     # o o o # o . . . .   o # # % # # # # # # # + + + + # # # + + + + + + + . X + +       X . + # # # # + + + + X   + X X                       O O .   . : N ^ d > O     +   > :       X       X X                                                                                                                                                                                                                       X                                                         X                                 X                       X                                                                                                               X X X X     X X X X X O O O X X O O O O O X             O X     X O X X O O O X O X X O O O O O O X X X X X X X X X X   X                                                                                       ",
"          X     . . . . o % % # o $ $ % % % $ . . .   X     . % o o = 2 - = o . . . . o o   o .   .   .   . 2 - o %                     # 2 # #     . = = . . # o o o # # .   .     . # # # # # * # # # # + + # # # # # # # + + + + + X O + +       X + # # # # # + + + +     X X X X                     X .     . > N ^ / > O     O   > @ O   X X X     X X   X                                                                                                     X                                                                                                             X                                                         X                                 X                       X                                                                                                         X X X X X X       X X X X X O O O   X O O O O O X           X O X     X O O O O O X O O X O X O O O O O X X X X X X X X X     X                           X                                                           ",
"                . . . . o % % $ % $ $ % % % $ . .     X     . = o o = 2 - = o . . .   o o   o .   .   .   . 3 = $ o                     . % # # X     # = o . # o o o # # .   .     . # # 1 # : * # # # # O + # # # # # # + + + + + + X X + +       . + # # # # # + + + +     X   X X X X                 + .     X > d / ^ > O         @ @ >     X X       X                                                                                                         X                                                                                                                                                                       X                                                         X                                                       X                             X   X             + + + X               X X + + O O O X X X O O X O X           X O X X   O O O O X X O O X O O X O O O O O X X X X X X X X X     X                         X                                                             ",
"                  . . . o % % % % % % % % % $ . .     X     o = . o = 2 - = o . . .   $ o   o     .   o . . 3 = % o                     . # . = .     + = # o o o . o % # .     .   . # # 1 # : * * * * # O + # # # # # # + + + + + + X X + +     X . + # # # # # + + + + X X . X X X   X                 + . . .   + d / ^ > O         O @ 4 :   X X                                                                                                                 X                                                                                                       X                                                               X                                                         X                                                       X                           X X X X X         X X + X               X   X + + O O O   X X O O X O X           X O X X X O O O O X O O           O O O O O X X X X X X X X X     X                         X                                                             ",
"            .   . . . . o % % = % % $ & % = #   .     .     o = o o - 3 - = o o . . . o . . . . .   . . . . 7 = = .                     . . . # # X     = % % o # # o o . . .     . . # # % % # # # , # + + + # = # # # # # # + + + + O + +   X   X + # # # # # # + + + . X X X   X X X               X X + +       > u ^ ^ > @     O   + @ # +     X           X X                                                                                                                             X                                                                                                                                               X X       X X                   X                   X X   +                                                     X                           X + X + + X X + X X O X X             X O X X X + + O O X X O O O O O             O O O X X O O O X X X O O O O     O X O O O O O O O + O X X X X X X                             X   X             X                                       ",
"            .   .   . . . % % % % % $ $ $ % #   .     .   . # = . o = 2 - $ o o . . o o o . .   .   . .   . 3 = = .                     . . . . # X   X # % # o # o o o . . .     . . # # % % # # # 1 # # + + # 1 % # # # # # + + + + O + +     X X + # # # # # # + + + . X   X   X X X                 X + +       + u ^ / O +     O   O     +     X           X                                                                                                                               X                                                                                                                                                         X X                   X                   X X   +                                                                                 X + + + + + + + + X X                 X X X X X + X O O X X O O O O X             O O O X X O O O X X O O O O X     O O O O O X O O O + O O X X X X X                             X   X             X                                       ",
"        X X .   . . .   . = = = % o o . $ % #   .         . # # . . = 2 - = o o . . o $ o o .       . . . . 3 = = .                       . # . # .   . o = # o o . . . . . . .   . . # # = % # # 1 1 # # # # * 1 1 # # # # # + + + + + + + X     . . # # # # # # + + . X     X   X X X                   . .       O u ^ N O O       O O     X     X           X                                                                                                                               X                                                                                                                                                                               X                   X X   +                                                                               X X + + # # + + + + X                     X X X X X X O X X X X O O O O             O O O X O O O O X O O O O O X X   X O X O O X X X X X O O X X X X X X     X               X X   X X X X X + X                                             ",
"        X X . . . . .   . = = % % o . . $ = #       .     . # o . . = 3 - = o o . . o % % # . .   . . . . o 2 = = .                       . # o # # . . . = # # # . . . . . . . . . . # # = = % # # 1 1 1 # # 1 1 1 # # # # # # + + + + + +     X . + # # % # # # + + . X         X X X                   X .       O u N N @ X   . O + O O   O X         X                                                                                                                                                                                                                                                                                                                                           X   +                                                                               X X + + + + + + + X                       X X X X X X O O X X X O O O O X   X X   X O O O O O O O O O O O O O O X X X X O O O O X X X X X X X O X + + X X   X X               X X   X + + X X + + X   X X                                     ",
"        X X . . . . .   . = = $ $ o . . o % $ X . . . . . o o o . o = 3 2 = o o .   . % % # o .     . . . = - = %                         o % o o % . .   # # # # o . . . . .     . . + # # = = # # 1 1 1 # # 1 1 # # # # # # + + # + + + + X X X . + # # # # # # # + .             X X                     . .   X O u d N @ X   + O O         + X       X                                                                                                                                                                                   X X                                                                                                                                                     X   .                                                                                 X X X O + + + X X                         X X X X X O O O X X X O O O O X X X   X O O O O O O O X O X O O O O O X X X X O O O X X X X X O X X X + + X X   X                 X X   X O X     + + X   X X                                     ",
"  X     X X . . . . . . . = = ; $ o . . o % $ . . . . . . . o . . . = 3 2 = $ o o . . % % o . .           = = % #                       . o o o o % $ . . # % # = o . . . . .   X . . + # # % % # 1 1 1 1 # : 1 1 # # # # # # # + # + + + . X . X . + # # # # # + # + .                                     . .     + < d N O     # # O         + X       X                                                                                                                                                                                   X X X                                                                                                           X                                       X   +                                                                                     X X X X X                   X X       X O O O O O O O X X X X O O O X X X X X O X O O O O X X O X X O O O O X X O O O O O X X X X X O + X X + + X X X X             X   X +   X X X X X + # X   X X                                     ",
"        X X   . . . o . o $ $ = $ o . . o % # . .   . . . . o . . . = 3 2 = % o o . o % % o . .           - = = o                       . o o o $ = = . . . = # = o . . . # .   . . . + # # % = 1 1 1 1 1 1 1 1 # # # # # # # # + # + . . X X . X + # # # # # # + + + .   X X                     X       . . .     O > i N O     + #   O       X         X   X                                                                                                                                                                               X X X X                                                                                                       X X                   X X                 X   +                                                                                         X X                   X X O O X   O O O O O O O X       X O O O         X O X O O O O X X X X X O O O O O O O O O O O X X X X X + + X X X X O X X X X           X   X +   X X + X X # # + X + X                                     ",
"        + X   . . . o . . o o $ o o     . # # . .   . . . . . . . o - 3 3 = % # % o o % % . . .   . .   . 2 - = o                       o o o % % = - . . . = % = . . . # # .   . . . + # # % = 1 1 1 1 1 1 1 1 1 # # # # % # # + # + X X .   . X + # # # # # # + + + . X . .                 X X .       . . . O   + O i N O O     +   O           X         X                                                                                                                                                                                   X X                                                                                                       X + X                                     X   +                                                                                                             X X X O O X X O O O X O O O O       X O O O   X     X O X O O O O X X O X X X O O O O O O O O + + X X X X X + + X X X X O X X X X           X   X + X X + + X X + + + + + X                                     ",
"        X X . . . . . o . . $ % % o   . . o # .   . . . . . . . . o = 3 2 = % % % o o % $ . . .     X   o 2 - = .                       % % $ o % % = . . . = # # = .   % % . . . X . . + # = 1 # 1 1 1 1 , , 1 # # # # # # # # # + . . X       . + # % # # # + + + . X X . X               X   X   X +   X o . . + :   4 N >         O O X                                                                                                                                                                                                                                                                                                             X     1 # X         X   X                     X   +                                                                                                                 O O O O     O O O O O O O X X   X X O     X   X O O X X O O O X O   X X O O O X X O O X O O O X X X X X X X . . . . O O O O X           X O + O X X X + + + + + O X + X                                     ",
"        X     . . o o o . . $ % o o   . . . # . . . . . . . . . . . = 3 2 = % % % o o % o . . . X   X   # 2 - = .                     X % % o o % % = .   . = % # # . . % # .   . X X . # # = 1 * 1 1 1 1 1 1 1 * # # # # # # # # + . . X     X + + # % # # # # + + . X X . X               X   X   X +   . o . . # #   4 ^ O       O O O X                                                                                                                                                                                                                                                                                                       X     X   X # .                                     X   +                                                                                                                 X O O O X O O O O O X O O O X X X X O O   X X O O O X O O O O O O O X X O O O X X O O O O O O X X X X X X X O + + + X O O O X X X X X X X + + X X X + + + + + + O X + X                                     ",
"    X X X     . . o o % o . $ % $ o . . . . % . . . . . . . . . . . = 2 3 2 = % = o o % .   . . X       % 2 = o                       . % % $ $ % % % .   . = % % o . o # o .   . X X . # % = = = 1 1 1 1 1 1 1 1 1 # # # # # # + + + . X X X . + + # % # # # # + + X   X . X               X       + + + + & . . # O   4 ^ O X   X O O                                                                                                                                                                                         X   X X   X X X                                                                                 X                 X X         X X                                         +                                                                                                                 X O X X O O O O X   X O O O O O X O O O X O O O O O O O + + O O X X X X O O O O O O O O O O O X X X X + X X O O O + X X + O X X X X X X X + + X X X + + + + + + O X + X                                     ",
"    X X +     .   . o % o . $ ; % $ o . . o % o . . . . . . . . . o = 3 3 2 = = = o o o .   . . X     . = 2 = .                       . % % # % % # # .   . # % = . . # # o .   . X   . # % = = = 1 1 1 1 1 1 1 1 1 # # # # # # + + + X X X . + + + # % # # # + + + . X X . X               X       X + + & & & . %     4 ^ O O   X O O                                                                                                                                                                                         X X X X   X X X                                               X                                 O                 X X                 X     X                         X   +                                                                                                                 X X X O O O O O     O O O O O X X O O X O O O O O O O O + + O O X X X X O O O O O + + O O O O X X O X + X X X X O X X X + O X X X O X X + + + O X O + + + + + + + O + X                                     ",
"        + X   o   o $ = o . % = % % o . . . % o o . . . . . . . o o = 2 3 2 2 = = o o o     . .       . = 2 = .                       . # o o % o o # #     o % 1 + . # # . + . . .   . # # # % = 1 1 1 1 1 1 1 1 , # # # + # # + + + X X X + + + + # # # # # + + + . X X X .         .     .         + + & & & o %     4 ^ O X   X O O         X                                                                                                                                                                               X X X X X                                                     X                                 X                               X     X                                   +                                                                                                           X X O O X X O + + O X X X O O O O O O O O X X X O O O X X O O O O O O X X X X O O O O O O + O X O O X X X + O O O X X X X X . + + + X + O X X + + + + + + + + + + + + + + + X                                     ",
"        # X . $ . $ % = $ o % % % $ o o . . % . o . . . . . . . o o = 2 2 2 - = % o o .     .         o = - =                         . o . . % o o o %     . # = # . + # + + # . . X . # # # % = 1 1 1 1 1 1 , 1 1 # # # + # # + + + X X . + + + + # # # # # + + . X     X           .     .         + # + . $ $ %     4 ^ O       O           X                                                                                                                                                                         X X X                                                                                               X X                               X                                         +                                                                                                         X X X O O X X O # # O O X X O O O O O O X O X X X O O O X X X O O O O X X O X O O O O O O O + O O O O X X X + O X X X X X X X X + + + X X O X X + + + + + + # + + + + + + + X X                                     ",
"  X X   # X X o o $ % = % o % % % = $ o . o % o . . . . . . . o o o = - 2 - - - % . . .     .   X     o = = =                       . . o . . % % o . %       o = = # . # + . # # . . . # # = = = 1 1 1 1 1 1 1 1 1 # # # + # # . + + X   . + + + + # # + + + + + . X                 .     . X   X   + # . . o $ +     4 ^ O       O O O       X X                                                                                                                                                                   X X X O O                                                                                               X X                   X X         X                                         +                                                                                                     X X X X X O O X X O + # O X X X O O O O X X X X X X O O O O O X X O O O O O O O O O O O O O O O O O O O O X X X X X X X X X X X X O + . O X X X X O + + + + + # # + + + + + + + X                                       ",
"  + .   + X   . o o $ % $ o % % $ = $ $ o o % # . . . . . . . o % o = 2 2 - - - % . . .     .         o = = %   .                     . o . . % = o . % . .   . # = # . # # X + + + # # # # = 1 1 1 1 1 1 1 1 1 1 1 # # # + # # . + + X X . + + + + # # + + + + + . X                 .     .     X   X # . . o % + O   4 N >       O O O O     X X         X X                                                                                                                                                     X X X X X X                                                                                 X       X     X X                   O X     X   +           X                             +                                                                                                       X X X X O O O X O + + O X X O X X O X X   X X O O O O O O O X X O O O O O O O O O + O O O + O O O O O O X X X O O O O O O O O X O + + X X X X . . + + + + + # # + + + + + + + X                                       ",
"  X   X + X   $ $ % % $ % % % % % = % $ % $ o . . . . + . . . % 2 o $ 3 - - 2 $ o . .           .   . o = = .   X                   . . . . . % % o . % . X . . # + . X # = .   # + . . + # = 1 = 2 1 1 1 1 1 , , , , % # # + X X + + X   . + + + # # + + + + . .     .                               X . . . . o O +   > ^ O X X X     O @ X   X X         X X                 X                                         X                                                                                 X X                             X O X X X X                                                                           X     X                   X   + X                                   X   X                                                                                                         X X O O X X   + # + O O O O O O O X X X O O O X X O O O O X X O O X O X O + # # O   O + O O + + O O O O O O O O O + + O O O X + + O X X X X + X X # # + + # # + + . + + O + + X                                     ",
"  X X X + . . o $ % % % % % % % % = % $ % % o . X X X . . # . = 2 % $ 3 2 - 2 $ o . .           .   . = - = .   X                   . . . . . % % # o = . X . . +   . # 1 2 # # # # # . + # = = = 1 1 1 1 1 1 , , , , % # # + X X + + X X + + + + # # + + + + . .     .                               X . . . . .   +   > ^ O     X     O @ X   X X           X                 X                                                                                                                           X X X X   X                       X X                                                                                 X                       X     , X   +   X X                         X   X                                                                                                         X X O O     X + # + O O O O O O X X X X O O O O X O O O O X X X O O O X O + # # O   O + O O O O O O O O O O O O O O O O O O X X O O X X X X + X X # # + + # # # + + + + + + + X                                     ",
"  X     X + . . % % % $ % = % % % ; % $ % % $ # X X X + . # o 2 3 = = - - - - o . .             . . o = 2 = .                       . . . . . % % % . = + X . . +   + 2 2 2 2 1 # # + . + # # = % 1 2 1 1 , , , , , % % # # +   + + . X X + + + + + # + + + + . .     .                 .             X     . o .   +   > ^ O     X     O +                                     X                                                                                                                             X X X X X O O                                                                                                                       X     X     + 3 + X ,   + X                         X   X                                                                                                         X X X O X   X + # + O O O O O X X X O O O O O O O O O O O O X X O + O X X + # # O   X + O O O O O O O O O O O + + O + + O O X X X X X X X X X X . # # # # # # # + + + + + # + X                                     ",
"    X X X . . o % % o o % % % % = ; % $ = = # . X     X . # % 3 8 - % - - - - . . .             . . o - - = .                       . . . .   % % o . = # . X . .   = 3 2 2 2 1 = # + . . + # = % 1 2 2 1 , , , , , # # # # .   + + . X . + + + + + + + + + + . X   . .                 . .                 . o     +   4 ^ O     X   O O O X                                   X                                                                                                                               X X X X X O O                                                                                                                                 1 f 1 X +   X +                         X   X                                                                                                         X X X O     O + + O X O X X O X X X O O O O X O X O O O O X X X O + O X O # # # O   X O O O O O + + O O O O + + + + + + + + X X X X X X X X X X . # # # + # # # + + + + + + + X                                     ",
"    X + + X o % = % $ $ % % % % = ; $ $ = = $ . X X   .   # # 7 8 - $ = ; - ; . . .             . . . - = =                           . o .   % % % . % # .     . . 3 3 1 1 1 = = # . . . + # = % , 1 2 1 , % , , # # # # + .   + + . X . + + + + + + + + + + . X   . .               . . .                 . # .   +   4 ^ O     X O O O O                                                                                                                                                                     X X     X X X X X               X         X O X X X                                                             O                     X     + # 1 + X   X X + X                       X   X                                                                                                       X X X X X X X O + + O X X X X O O X X O X O O X X X O O O O X X O O O O X + # # # O   X O O O + + + + + + + + + + + + + + + + + X X X X X X X X X + + # # # # # + + + + + X + X                                       ",
"    X + X X # % - = % $ % % % = = ; % $ = % o . X     .   . o 3 8 2 = = - - ; . . .             . . . - = =                           . o o . o = = . % # # X   X # 5 3 = 1 2 = 2 % # . . . # = % # # , , % % , , # # # # + + X + + . . . + + + # + + + + + + . X . . .                 . .                 . # . O + O 4 ^ O       O O O O                 X X                                                                         X                                                                       X X     X X X X X               X X         O O X X X                                                           #                         O # X X   X   #   X                         X   X                                                                                                     X X X X X O O X O O O O X X X X O O X X X O O O X X X O O O O X X O O O O O # # + + X   O + O O + + + + + + + + + + + + + + + + + + X X X X X X X X + + # # # # + + . . + O X O X                                       ",
"      X     # % = % % % = = % = % ; % $ % % o .       + . . o 3 8 3 = = - - % . .                 . . 2 = *                           . o # . . = = . o # % + . # 2 5 2 = 2 1 = 2 % # # + + # = # # + # , , % , # # # # + . + + + . . . + . + + # + + + + + . . . . . X                 X X                 . o o O +   4 ^ O         O O O                                       X                                                     X                                                                   X X X X         X             X       X             X   X X                                                         1     X                   X # 1 1 X     X   X X                       X   X                                                                                                       X X X X X X O O O X O X X O O O O X X X O O O O X X O O O O X O + # O + # # + O O X X O O O + + + + + + + + + + + + + + + + + + + + O X X X X X O + + + # # # + + . X + X X X X                                       ",
"          X # # % % % % = = % = = - ; % % % . .       + . . . 3 8 3 = = - = $ . . .               . . 2 = =                         . . # % . . = =   . + = # # 1 3 5 2 2 2 = = 2 = # # # + # # # + . # # , % : # # # # + X + + . . + + + . + + # + + + + + . .   X .     .             X X                 . o o   +   < ^ O           O                                         X           X X                             O                                                                             X X                           X                         X X                                                         4     X                 X   + f 1   X 2 1 X X                         X   X                                                                                                       X X X X X X O O X X X X X O O O O X X X X O O O X O O O O O X O # # # + # #   O O X X + + O + + + + + + + + + O O O + + + + + + + + + O X X X X O + + + # # # + + . X + X   X X                                       ",
"      . .   % $ $ = % $ % % % = = = = = = o . . . . .   . . o 2 8 7 % ; ; ; $ . .           . . . . % 2 = .                         . # # # .   = #       # o o 2 = 2 o o . % 2 2 = = # # # # # # # + # # # # % = # # # + X X . X . . + + + . + # + + + + . . . X X . . .             . .                   X + .   X   < ^ >           O O                                         X                                                                                                                                 X X X               X                       X                                                     X X     +                       O X   2 + O : 4 O   X X                       X     X                                             X                                                     X X X X X X X X X X X X X X X X       X O O O O   X X O + O X O O + # # + + + X O O O O + + + O + + + + + + + + X O + + + + + O + + + + O O X X X O + + # # # # # + + X   X X X X                                       ",
"X     . .   = % $ % % % = = % = = = = = = o . . . . .   . . o 3 8 7 = ; = - $ . .       . . . . . . % - % .                         . o o o . . # .       o o o o . o   .   o = - = = # # # # # # # + . + # # # = # # # + X   + . + + + + + . + # + + + + . . . X X X . .             .   X                 X + O       < ^ >     X     O O                                                                                   X                                                                                         X X               X                     X X                                               O             O                         O # O # X + :                               X     X                                             X                                                     X X X X X X X X   X X X O O X O O O X X O O O   X X X O + O O O O + # # + + O X + + O O + + + + + + + + + + + + X + + + O + + + + + + + . O O X X + + # # # # + + . . X X X X X X                                       ",
"X     . o . = % $ = = = - - % % = = = = o o . . . . .   . . o 3 8 8 = ; = ; = o         . . . . . $ % = o                             . . o o . .         . o o .   .       . # = = = = # # # # # + . . . + # # # # . # + X X + + + + + + . X + + + . . + . X X X X   X                 . X                 X + O       < ^ >     X O O O O                                                                                   X                                                                                                           X X X X X           X X X X X                                           O                   X                   # 4 # #   X O                                 X   X                                           +                                                   X X X X X X     X X   X X + O O O O # + O O O O X X O   X O + O O O O + # + + O O X + + + + + + + + + + + + + + + + O O O O O + + O + + + + + O O O X + + # # # + . X X X X X X X X X                                       ",
"      . # . = % = - = = = = % % = = = = o . o . . . .     . o 3 8 8 - ; = = = o           . . . . $ - = o                             . . o o .             . o .         o . o # # = = = = # # # + .   X . + + # . . . . X . + + + + + + . X + + . . . + X X   X X                   X . X                 X +         < ^ >     X O O O O                                     X                                                                                                                                                       X X X X X X           X X X   X                                           X     X                             O   O 2 3 :   X   X   X                               X                                           #                                                   X X X X X X       X X X X O X + + O # + O O O O X   O X X O O O + + O + + + O O O X + + + + + + + + + + + + + + + + O O O O O + + O + + + + + O O O X O + # # + . X X X X X X X O + X                                       ",
"      . % . % % - = = = = = % % = = = = o o o   . . .     . o 3 8 8 - ; = = = . .         . . . o % 2 = o                     .         . o o .             . o         . = # o . # = = 1 = # # # + . . . . . + . .   X X   X + + + + + + + X + + . . + + X X   . .                     . X                   X         < ^ > O   X   O O O                                                                                                                                                                                             X O O   X X         X X X X X X                                           X           O O                   X         2 #   X   X   X                               X                                         X #                                                     X X X X X   X X X X X X X X X X O + O X O O O X   O   X O O O O + O O + + O O X O O O O O O O O O + + + + + + + + O O O O O + + O + + + + + + X X X O + # # + + . . X       X + +                                         ",
"      o = . % % % % = 2 - - = % % = = % o o o   . . .   . . o 3 7 8 2 $ = = = o . .         . . $ % 2 = .                     .         . . .               . o         . = o . . # = 1 1 1 # + # + + . X . . . . X   X X   . + + + + . + + X + + + . + + X X   . .                     . X                             < ^ > O   X   O O O                                             X                                                                                                                                               X O X   X X         X X X X X X                                                 X     + O                   X         X O                                           X                                       X + +                                                       X X X X   X X O X X X X X X X O O X X X O O X   O   X O O O O + + O O + O O X O O O O O O O O O + + + + + + + + O O X X O + + O . + + + + + . X X + # # # + + + + + X     X X + X                                       ",
"  .   . % . $ = % % = 2 2 - = % % = = $ o $ . . . . .   . . o 3 3 7 2 $ ; = - o .       . . . . ; ; = % .                           X . .   .                 . . .       = o . . # = = 1 1 , # + + + . . . . . . X   X X + . + + + + + + + X + + + + + . X     . .                     . X                         X   < ^ > O   X     O O                         X X X X X X X       X X                                                                                                                             X X X X         X X                 X X     X X                                                 X     + X                         X                                                 X                                       X # X                                                     X X X X X X X + + X X X X X X X O   X X X O O O   O O O O + + + + + + O + O O O O + O + O O O O + + + + + + + + + O O X X O # # O + + + + + + . . + + + # # + + + + + X     X X X X                                       ",
"  .     $   % 2 - % = 2 = = = % % - = o $ $ . . . . .   . . . - 3 7 2 $ ; = - $ .       . . . o - ; = $ .                           . .                       . . .       = # # . # = = = 2 1 # + + + . . . . . . X X . + + + + + + + + + X X + + + + + . X     . .                     X X                         X   < ~ > O   X     O O                         X X X X X X       X X X                     O                                                                                                       X O O X         X X                 X X     X X                                                 X     +       X               O     +     X       X                                 X                                       X 1                                                       X X X X X X X + + X O O X X X X O   X X O O O O   X X O + + + + + # + O + + O O O + O + O O O O + + + + + + + + + O O X X O # # + + + + + + + + . + + + # + . + + X X X X . X X X X                                       ",
"    .   . o $ = % % % - = = = = = = $ o o o . . . . . . . . . = 3 7 7 ; o = 2 = $   . . . $ . . 2 = 2 .                           . o .                       . o       . 2 o . o % = % % # # 1 + . # . # X . . . . X X X . + + # # + + . X X + O + + . X       . . . .               X                             .   : ^ < O X X + O O                           X X           X X X X X                                                                                                     X X                   X X X X X         X O     X X                                           X                               O X                               X                 X                       X O                                       X X                                                         X X X X X O + O X O X X X X X O X O X X O O O O # # X + # + # # + + + + + O O + + O X X O + O O + + + + + + + + O O O O + # # # + + O O . + + + . + + + . X + + O X X   X X X X                                         ",
"      . o % $ % = % = 2 - - - = = = % o o o . .   . . . .   . = 3 q 7 = $ = 2 2 %   . . . % o $ 2 = 2 .                           . . .                       . %         = # # # = = % # # # 1 = # = # #   . # + . X X X X + + # # + + . . . . O + + . .       . . X X                                             X   : ~ i O   X + O O                                           X X X X                                                                                                                             X X             X O     X X                     X                                                     X X                             X X     X           X                       X O       X X X X X                                                                                 X X X     X X O X X X X X X X X O   X X X O O X O # +   O + O + O + + + + O X X O + O X X O O O O + + + + + + + + X X O O + # # # + + O O . . + + X + + + X X X + X X X   X X X X                                         ",
"      . o % % = = = = 2 - = = % = = % o o o . .   . . . . . . % 2 7 3 = o = - 2 2 . . . . % % % 2 2 =                             X .                           %         % # = % = = % % # # % 1 = = # +   . # . . X X X X + + # # + + . . . . O + . . .       X X X X                                                 > ~ i       + O O                   X   X           X X   X X X X                                                     X                                                       X                                 X X X   X X X             O     X X                                                   X X                             X X     X           X                         +       X X + X X X                                                                             X X   X X     X X X X X X X X X X O   O O X O O O O : +   O +   O O + + + O X X X O # + O X X O O O + + + + + + + + X X X O + + # # + O O O O + + X X + + + X X X O X X X X X X                                             ",
"      . o o $ % - = - - = = = $ = = $ o o . . . . . . . . . . o = 2 2 % o % - - 2 o . . o = = = 2 2 %                               .               . .         #         # # = % = % % % $ o # = % = # . X . + # . X X X X + + # # + + . . X X O X + . . . X   X X X X                                           X     @ ^ i O     O O O                   X X X X         X X   X X X X X X                   X X                           X                                                     X X X                             X X X     O X O         O   O O X X X     X                                             X X                   O X     X X       X     X     X                         +         + + + X X                                                                           X X X X X X X X X + X X X X X X X X O + # + X O O + # : O   O +   O X + + + O O O + O + + O X O O O O + + + + + + + + X X X O O + + + + O X X O + O O X + + + O X O X X X X X X X                                             ",
"  . . % $ . . . - = = - - - - % = = % o . . . . . . . . . . o o = = = o o = 2 - 2 % o . % = = - = = .         X                                                 #         # = = % % % % = % o . # # # # # + . + + . . . X X . + # # + . X X   . O X X X . . X       . .                                                 @ ^ i O     O O O                   X X X X         X X     X X X X                     X                           X X                                                   X X O O X           X               X X X X X O X           O     O O O X     X                                     X         X                   O X       X             X X           X           X     + O     X . + + X X                                                                           X X X   X X   X X X X X X X X X X X O # : # O O + + # # X   O + X X X + + O O O O O + O O O O + + + + + + + + + + + + O O X O O + + + + + X X O O O O X + + + O X X X X X X X X X   X                                         ",
"  o . % $ . o o - = = - = - - - = = % o . . . . . . . .   . % o = = % o o % = = 2 - % % = - = 2 = =       X   X                                         .       . X       o = = % % % % = % o o # # . # # # + . + . X X X X . + # + .   X X     X X X X . . X X                       X X X X                           O N i O     + O O                   X X X           X X     X   X X                                                                                                       X X X X X           X             X X X X X O                       X X X X                                   X     X       X X                   X           X           X X           X                 . . . X O + + + X + X                                                                         X X X   X X     X X X X X X X X X X O # : # O + + O O X     O + X O X + O X X X O O + X X O O + + + + + + + + + + + + + O O O O O + O O X X X O + + O X X + X + X X X X X X X X X X X                                         ",
"  # . o $ o = = - = = = = - - - = = o . . . . o . . . . . % = = - - = o o % % % 2 2 - 2 2 = = - = #   .     X                                           .       X .       # 2 = % = % % = % o $ # # # = # # . . . . X X .   . + + + X     X         X X . X                           X X X X                           @ N i O   X O O O                         X           X                                                                                                                                     X X X               X   X X                       X X                                       X     X         X                             X +         X X     X     X X           X     . + . X X . + + + + X                                                                         X X X   X X     X X X X X X X X X X O O # # O O + O X   X   X O X O O + O X X X O O + O O O O O O + + + + + + + + + O + O O O O O O O O X X X O . + + O X O O O X X X X X X X X X X X                                         ",
"  o   o $ o - = 2 - - = % = = % = = o o . . . . o . . . . = 3 - 3 3 2 = % % = = - 3 2 2 3 = % = = +   .     .                                           . .       . .     # 2 % % = = % = % % = # = # = + # X . . X X X     + + + + X     X             X                             X X X X                       X   @ N i O   X + O O O                                                                                                                                                                         X O X X         O O     X X                       X                       X                                 X                           X X +         X             X                   . o . X   . . + + + X                                                                         X X X X X X X X X O X X X X X X X X O + # O   X + + X   X   X X X + O + O X X X O + + O O O X X X O + + + + + + + + O O O O O O O O O X X X X O . . . O O O O O O X X X     X X X X X X                                       ",
"  .   . . $ ; = 2 2 = = = % - = = = $ o . o o o # .   o = 3 e q e q q 7 3 2 % 2 = = - 2 2 2 2 2 # .       . X     .                                     . .       .       # 2 = = = % % % # o % = # # # # # + +   X + + X . + X + X X . X   X X                                       X X X                       X     > d i     X + O O                       X               X             X                             X X                                                 X X X   X   X X                 O X   O O           O O             O O O O     O                                               X             X       X         X     X   X O O +   X     +       X         X X         X X . # . . . # # + + #                                                                         X X   X     X X X X + + X X X X + + + O + + O O O O O O   O O X O + O O O O O O O + + X O O O O X O O X O + + + + O + + O O O O O O O O + O X X X + X X + + + X X X X X X X X X X X X X                                         ",
"    . #   $ = $ - 2 - = % $ = - = = $ o o o o o # . . = 3 q e q q q e q q 7 = = = - 2 = = 2 3 2 .         X X X                                         . .       # . X . # 2 % = = % % % # o = = # # # % # # # . . . + X . + X +   X . X   X X       X X                             X X X                       X     > N i     . + O @                       X                                                             X                                                 X X X         X                 O X                 O O X           O O O O                                                     X     X       X X                           X X X         X X     X X       X X             X # . . o + # # # +                                                                         X X   X X X X X X X O O X X X X + + O + O O O O O O O O   O O O O + O O O O O O O + O X X O O O X   X X O + + + + + + + O O O O O O O O + O X X + + O O X + + X X X X X X X X X X X X X                                         ",
"    . %   = - - = 2 - - % o = - ; = = o o o o $ o . % 3 q w w q q q e w w 8 3 % = 2 2 = = 3 3 =             X X                                                   # .     # 2 % = = % % % o # = = % # # # # # # . . . . . + + X +     .     X         X X     X                       X X X X X                   X     > N i     . O O O                     X X                                                                                                               X X           X X             X X X X   X X         X X X X X X X X O O O O               X                                           X     X + X                         X X               + X             X X         X   X # # . # # + 1 # X                                                                         X X         X X X X O O X X X X X X O O O X X X O O O X X O O O O + O O O   X O O O X X   X O O       X O + + + + + + + O O O O O O O O + + + O + + X X X + + X X X X X X X X X X X                                             ",
"    . $ % 2 $ 2 = 2 2 - % o = - = = % $ o o $ % o o = 8 w w w w q q q w w 8 q - $ - 3 2 2 3 2 o               X                                                   # .     # = % = = = % % o o = = # # # # # # # # . . . . + +   +     .             X X X     X                         X X X                     X     > N i     .   O O                     X X                                         X X X                                                                 X X             X             X X       X X         X X X X X X X X X           O         X                                                 X + O                         X + X X     X     + X               X       X X   + 1 % + 1 1 # 1 +                                                                             X           X X X X X . X X X X X X O X X O O + O X   X X X X X X X X X     X X X   X   X X O   X X X O + + + + + + + O O O O O O O O + + + X + + X X X + + + X X X X X X X X X X                                             ",
"X     o % 2 o = 2 2 - - % o % 2 = = = % o o $ % o o - 8 w w g w w q 7 w w 7 q 3 = = - 3 2 2 = .     . .                                                           . .     % = % % = = = % % o % % % % % % % # # # . . . . + .   +     .         X X X + X     X                         X X X                           # N 4     +     O     X               X X                                           X X                                                                 X               X             X X       X X                     X X             O                                                             + X                         O + X X X         + +                       X X   + 2 1 + 1 2 1 1 +                                                                             X           X       X . O O X X X X O O + + + + O     X X O X X X X X X X X X X           X X     O O + O O O O O + + + + + + + + + + X X X X + + X X X + + + X X X X X X X X X X X X                                         ",
"#     o . = = % 2 2 = - % o % - = = = % $ o o % o $ - 8 w w g w w q q x h 7 7 7 - - - - - = % .     . .                                   .                       . #     % = = = = = = = % $ $ % % % % % % % # o . . . . # + X +     +     X   X . + + .     X                         . +                             # N i O X +     X                     X X                               X X X X     X X                                                                 X               X           X O X       X X                                   O                     X X                                       O O     X                   X X X             + #                         X   X 1 4 1 2 6 2 * +                                                                                         X X       . + O X X X X O + # # # O X   O X O + O X X X X X X X X             X X   O O O + + O O + O + + + + + + + + + + X X X + + + X X X + + + X X X X X X X X X X X X                                         ",
"#     % . = 2 = 2 2 = 2 = o % = 2 - = % o o $ % $ % 3 q w w g w 7 8 w h h e 3 7 7 - - - = % % .   . . .                                   . .                       # X   # % = = = = % % % $ $ % % % % = = % # o o o . . o o X +     + . X . X . + + + +                               + + X                           : N i O O +     X                     X                                 X X X X         X                                                                               O X       X X O X                         X                   O             X X X X X X                                       X       X                                 X X X 1                         X   X : 4 6 4 3 2 + +                                                                           X         X   X X X X X X O X X X X X O # # # + O X O O X X + O X X X X X X X               X X X X O O + O O O + + + + + + + + O + + + X X O + + + X X X + + O X   X X X X X X X X X X                                         ",
"# % . o o = = = - - - 2 = . o = 2 - = % $ o $ % $ % 3 w g g w w - 7 h w w e 3 e q 3 2 - = = % .     . .                                   . .                       # X   # % 2 - - = % % = % % o % % % = = % o o o o . . o # . +     + . X . . . . + + .     X                       X + + X                           # N 4 O O +     X                     X                                 X X X X         X X                                                                             O X X O O   O O X         O             X O                   O               X X X O O                         X             X       X                                 X X   #                         X   O : 6 f 4 4 1 X +                                                                           X         X   X X X X X X O X X X X X O # # + O O O O X X X + + O X X X X X X                 X X X O O + O O O + + + + + + + + + + + + X X X + + + X X X + + X     X X X X X X X X X                                           ",
"  .   . = 2 % = - - - 2 - o o % - = % % $ o % = % % 7 g g w h q - 3 h x w e 7 7 e q 2 % = 2 = .     . .                       X         . . .                       . X   . % = - = $ % = = o % % % % = = % % % # . . . . o o . .     + . X   . . + + + + X                             # +                             : N 4 O   O   X       X               X X X                                   X       O X                                                     X X                       X X X X     X X X X           X           O X   X X X             O       X O O             X X                                 O X       X                               X + + +           X               + < 4 y y 4 # + X                                                                                       X X X X X X O X X X X X X X X O O O O O X O X X X X X X X X X X                             X O O O O O O + + + + + + + + + O O O + + + O X X + + X       X   X X X X X                                             ",
"  .   . % = = - = - 2 2 = o . % - = % % % $ % = % % 8 g g w w 7 - 3 g x w e 3 3 7 e 7 - 2 3 =         . X                               . . .                       X X   X o % - = = % = = % % = % % % = % % % % o . . . o o . . X . + + X     . + + # # + . X                         o # X                           : N 4 O   O   X                       X X X                                   X       O X X                                                                   X X X     O X X         X X X         O O           O X X X X X           O O       X X O     X       X X                   X O O     O O O X       X X                             X + + #           X               + : 4 y y 4 # X                                                                                         X X X X X X + X X X X X X X X O O O O X X X       X X X X X X X                               X O O O O O + + + + + + + + + O O O + + + O X X + + X X X X X   X X X X X                                             ",
"  . . o = 2 - 2 = 2 2 2 = o . % 2 = % = % % % % % % 8 g w 8 q 3 - 3 g h w e 3 0 7 e 7 3 3 3 %                         .         .     . o o .     . X               X .   X . o = 2 - = % = % $ = % % % % % % % % o o o . . . . X X X + +       X + + + + + .                           # # X                           : N 4 O   O O X X   O   X             X X X                                   X         X X X                                                                 X X X X   O X         X X X       X X O X       X   O X X X X X                     X X X X X X X   X X X X   X X     X     X X X         O X                       X               X X X O           X               + : : 4 6 1 + X                                                                                         X X X X   X + X X X O X X   O O O O X           X X X     X O X                               X X O O O O + + + + + + + + + O O O + + + X X X + + X + O X X X X X X X X X X                                         ",
"+ # # $ = 3 2 = 2 2 2 2 - $ . $ 2 = % = = % % % $ $ 8 w q 7 7 2 2 3 g x h e 3 7 q e 7 3 3 2 =               X X .     .         .     . o o .     . . . .             X   X . o % - 2 = $ % % o = % % % % % % % % # % % . . o + X X X + + X     X + # + . X X                           o #                             : N 4     O O + X     X X           X X X X                                   X X       X X                                       X X                         X X X X X X X         X X X X     X X X X X X X X X X X X O X O O O O O O           X X X X X X O   X X X       X X   X   X X X           X                       X X                     O           O             X O # # : 1 1 + + X                                                                                       X X X X   X X X X O + O X   O O   O X             X X   X X X                                   X X O O O + + + + + + + + + X O O + + + X X X + + X + + X X X X X X X X X X                                         ",
"X # # % = 2 - = 2 2 2 2 2 % o o 2 = % = = = % % $ = q w 8 2 7 3 3 3 w x h q 3 7 q 7 7 7 2 2 = . .           X . . .   X       . .     . o o .     . .                     . . o o % 2 = o o $ o % % % % % o % % % % % % o # # # + + + . . X X X X + # # . X   . X                       . +                             : N < O   O O + O     X X           X                                         X X X X X     X X                                                                 X X X X X       X O O X X O X X X       O X X X X X X O O O O O O O O O                 X X X O O         X X X X X X   X   X X                         X       X X                     O           X         X X X X O O + # + + + X                                                                                       X X X X   X X X   X + + X X O X   X                 X X + +                     X X             X X X O O O + + + + + + + + X O X + + + X X + + + X O O X X X X X X X X X                                           ",
"  . = = = = - 2 2 2 2 2 3 - $ . 2 - % = = = % % % = q w 7 - 9 7 - 3 w h h q 3 3 7 7 8 q 3 3 - . . .         . . + .           . . . . o o . .   . . .                     . o o . o = = o o $ o o o % % o o # % = % % % % # # # . . X X           . + .       . X               X X     X X                             : N i O   + O + O     X X                                                     X X X X X       X X                                                               X X X X             X X X O X X X       O O X X     X O                                         O       X   X X X X X X         X                       X X     X                 X X X X           X       X X X X X           + + X                                                                                       X X X X   X O X   X X X X X X X X X             X X O O + +                     X X             X X X O O O + + + + + + + + X O X + + + X X + + + X X X X X X X X O + + X                                           ",
"  . # - = = - 2 2 2 2 3 3 2 % o 2 - = = = % % % % = q w 7 3 9 7 3 7 g h h q 3 3 8 3 q q 7 3 - o . . . . . . . . # . . . .   . . . . o o o o .   . . X                     . . . . . = 2 % o o o o o o % % # % % = % % % % % # # . . . . . . . . . . . X         X               X X       X   O                     O   < N i @   + + O X                   X       X                                 X X X         X X X X                                                                 X X                     X X                     X O X             O   O                     O         X X X   X         O O O X                                               X X X                     X X X X X           X + X                                                                                         X X X X X + X X X X X X O X X X X X     X + + O O O O X                       X X         X       X X O O + + + + + + + + X O X + + + X X X + + X O X X X     X O + + X                                           ",
".   . = - - - - - 2 3 3 3 2 % o 2 - = = % % % % % % q w q 7 e 7 0 9 g h h g 3 3 q 3 8 q 7 7 3 % . . . . . . . . . . . . .   . . . o o o o o o . . . X                     . . . o . % 3 = . o o o o o % % % % % = % % % % % % # . o # # # % $ # # # . X         X               X X       X X + + + + X X         O O   < N i >   +   O O                   X   X X X X X X X X                       X X           X X X X X                             X X X               X         O   O O X                   X X                       X X             O   O                       O           X       X # # # # # O                                               X X X                   X X     X X X         X X X             X X                                                                         X X X X X + O X X X   X O X X X + X     X + + O O O O X                       X X                 X X O O + + + + + + + + X O X + + + X X X + + X X X X X     X + + + X                                           ",
".   . = 2 2 2 3 2 2 2 2 3 3 = o 2 2 % = % % % % % = q h 7 9 9 0 7 w h c c g 8 7 8 7 7 q q 7 3 = o % o     . . . .   .     . . . o o $ = o # o . . . .                       . . . . o = 2 = o o o o o o % % % % = = = % . # % $ % 2 2 3 2 3 3 3 2 5 = 2 + # #   . X             O O + X # 1 3 2 2 1 1 4 2 : : O +     X > N u O # + : : O : + # + + #   # # + + + + + + + X # X + # # # + # # + O + # # : + + + + + + + + # + + # + # # O O O       X     O O X # O O #   # + + # # + + + + # # O # O X   O   O O     : + O + # + # # + + + # + # # # O : #     O                 O     O O X X   O O # + # 1 : 4 4 4 2 1 4 4 # : + #       X     X # O + O : + # + + O # +   O   X               X # X # + + + + O . X + # # + +     + X + # +   + X X X + X + X +   + + + X + X + + X + + + + + X X + + + + +     + X   X X + + X X X X   X + + X X +     X + O O O + O                               X X X X X X       X O O + + + + + + + + O + + + X X X O + + O O O X X X O X O + + # +                                           ",
"    . $ = 2 3 2 2 2 2 2 3 3 - % 2 2 % = % % = % % = q h 7 7 9 0 9 w c c c g 8 7 9 7 8 q q q 7 - = = o   . . . . .   .     . . . o o $ = o o o . . . .                       . . . . o = 2 = $ o o o o o # $ $ % = % 2 2 % 2 2 8 8 c c b A _ A A A V f l f 5 % = # .         X + # 1 # f f z l V V V V V l z z 5 * 1 # # u ^ N 4 = 5 6 6 y f f f f f f f 5 2 5 3 2 # 1 5 5 y 5 f f f f f f f y 6 2 1 2 4 1 4 3 5 f f f f f f f f f f y 6 5 5 1 : + O       O + : 2 4 5 f 5 f M z z z f f f f y 6 y 3 # 1 + # + # # O 1 2 1 y f f f z z z f z z z f 5 f 6 4 : # , + X             O O       X   O : # : : 5 6 l M V S ~ _ A V V z f 3 : 1 + # O + # : # 4 5 f y f y f f 5 4 2 2 # + O     X O O # # 1 2 3 2 f f f f f f f f f f 5 1 1 2 1 # 1 # 1 1 1 2 f f f f 5 3 1 3 2 2 2 2 1 3 5 5 5 f f f f a 5 f f f 5 4 2 3 2 + + + X X X O X O X X X X + X X X X   X + +       X X                                   X X X X         O O + + + + + + + + O + + + X X X O O + O O X X X X + O + + + # +                                           ",
"      . % 2 8 2 - 2 2 2 2 3 2 = 2 2 % - % = = % % = q g 7 7 7 0 9 g c c h q 7 7 9 8 q w q q 8 3 3 = .   . . . . . . . . . . . . o o $ $ o o o . . . .                         . o . . % = - = o o o o . . . o % = % 2 2 5 f h A _ ' } %.%.%.%.%.%.O.} | _ A l f 3 , # + X . # 1 3 z z A _ } } %.%.%.%.%.%.} _ A D l 6 1 s ~ ^ y z h S ' ` ' ` | } ` ' ' ' A l l f z l V V A ` ` ` | | ` ` ` _ A S V z l D V _ A ' ` ` | | } } ` ' ` ' ~ A V l l y 4 1 # # 1 6 f l V A ' ` ' ' | | } | | ` ` ` _ A V z f 2 3 1 : : 4 f l V A _ ` ` | | | ` | | | ` ` ~ ) V l f : : # O             O       X X # : 4 z z A _ ` } %.%.%.%.%.%.%.| ' A z f 1 1 : 1 1 6 l l A ' ) ` ' | _ ~ A l f 3 : +     O # # 2 2 l M A _ A ` ` ` ` | ` ` ` ' A V f z f 5 f f 5 l V A _ _ _ ` _ _ A V z f l l V A _ ' ` ` | ` ` ` ` ` ' ' _ A V f l 5 2 1 # # + O + + X X X X O X X       + # X                                                 X           X O + + + + + + + + + + + X X X O O X X X X X X X X O X + + # # + X                                         ",
"      . . - 3 3 = - 2 2 2 3 3 2 2 2 % - % = = % % = q h q 7 7 0 9 g c c h q 7 7 8 q w w q 8 7 3 3 $ .   . .   . . . o . . . . o o o $ $ o . o . . . .                           . . . o % = = $ o o o . . . . o = 2 7 8 c K ` } %.UXI.I.P.^.^.^.^.J.J.J.=.%.} A l p 2 % # # 2 p A _ } %.=.J.J.P.P.^.P.P.I.J.J.%.} ' V f M | ~ S _ } %.%.=.UX=.J.J.=.J.=.%.%.} ` ' ' | } %.%.=.=.=.J.J.UX=.=.-.%.} | } ' } } } %.=.=.J.J.J.J.J.J.=.=.=.=.-.%.} ` ~ M f 5 5 f l A ` } %.%.-.J.J.J.J.J.J.=.=.=.=.-.%.%.} ` V z f 5 f l A ` } %.-.=.=.J.J.J.J.J.J.J.J.=.-.} } A V f 4 , # X   O O           O O # 1 5 z A ` } -.=.I.P.P.^.^.P.P.I.J.=.%.} _ V z f 3 z A A } %.-.=.=.=.=.-.%.} ` V z 6 : +   + : 4 f A _ } %.-.=.=.=.J.J.J.J.=.=.-.%.} ' _ A l l V _ ` } %.=.=.=.J.=.%.%.} } ` ` | } %.%.=.=.J.J.J.J.J.J.J.=.=.=.%.} } ` A l f 3 1 # X + + + + + + X X X     X + +                 X                                             X O + + + + + + + + + + . X X X O + . . O O O X X X X X + # # # # X                                         ",
"        . % - 2 = = = = 2 2 3 2 2 2 % = % = = % $ = w h w 9 7 0 w x c c c q 7 7 9 8 q w q 8 7 3 = o . . . .   . . . # . . o . o o o $ $ . . . . . . X                           . . . . o % = = % $ o . o . . o 2 8 h C ` %.-.J.^.^.(.wXwXpXgXwXwXwXwX(.^.P.J.%.` A z 5 2 5 z A } %.J.P.^.(.wXwXwXpXpXwXwX(.^.P.J.-.;.` ) ;.;.} %.=.J.^.^.(.(.(.(.(.(.^.^.I.J.=.%.%.=.J.J.^.^.(.(.(.(.(.(.^.^.P.I.=.=.=.=.J.P.^.^.(.(.(.(.(.(.(.(.(.^.^.P.P.J.=.%.} _ V V S ' } =.J.P.^.^.(.(.(.(.(.(.(.(.(.^.^.^.P.J.-.%.` A A A ` } =.J.P.^.^.(.(.(.(.(.(.(.(.(.(.^.J.J.-.| S f 4 # O   O O   X X   O + # 4 f A ` %.=.J.^.(.IXwXwXwXwXwXwXwX(.^.P.J.%.} _ A A A } -.J.P.^.(.^.(.^.(._.J.=.} A l 3 : O # 4 f A ` %.=.I.^.^.(.(.(.(.(.(.(.(.^.P.J.=.%.` ' ` ` ;.=.J.P.^.(.(.^.^.^.I.J.=.=.=.=.I.P.^.^.(.(.(.(.(.(.(.(.(.^.^.^.P.J.=.%.| A D 5 1 + + + + # # # + +       X X X                                                   X           X O + + + + + + + + + + X X X X O + + + + X O X X X X O # # # # # X                                         ",
"      o # o % = = - = = - 2 2 2 2 2 % = % = = % $ = w x w e 7 7 x x c c c q 7 7 7 3 7 q q q 7 3 $ . . . . . . . . . o . . o o $ o o $ $ . . .     . X                           . . . . o o = - % $ o o # o . o 3 g A } %.J.^.wXwXfXCXCXAXAXAXKXAXHXCXCXpXwX^.P.=.} ' l z V ' %.=.^.^.wXfXfXCXAXAXAXAXAXAXCXfXwXIX_.J.%.;.UX=.=.J.^.(.pXpXpXCXCXPXAXdXpXpX(.(.^.P.P.P.(.wXpXpXfXCXCXCXCXdXfXwXwX(.^.P.^.^.(.wXwXpXdXCXCXCXCXCXCXCXCXCXfXpXwX(.^.P.J.%.} ` } %.=.P.(.wXpXdXdXCXCXPXCXCXCXPXdXfXpXwXwX(.^.P.=.%.} } %.=.^.(.wXwXdXdXdXPXCXCXCXCXdXdXfXwXwX(.I.-.} V y : O O O O   O     O # 2 z A } -.J.^.wXpXCXCXAXAXAXAXHXAXCXPXfXwX(.P.UX%.} } %.=.P.(.wXwXfXdXCXfXpXwX(.^.=.} _ f 2 + : y V } =.P.(.(.fXpXdXdXCXCXCXCXCXdXpXwX(.P.J.-.%.} %.J.P.(.wXpXfXCXdXfXpXIX(.^._.P.^.(.wXwXfXdXCXCXCXCXCXCXCXdXdXpXpXwX(.^.P.=.%.` V 5 1 # + + # # # # +     X X                 X                                     X         X X O + + + + # + + + + + X X X X X + + + + + + X X X X + # # # 1 # X                                         ",
"    X # # $ = 2 = - - - = = = = 2 2 % = % = = % $ = q h w e 9 e x v c b c q 7 7 7 2 3 q w q 7 3 o . . . . . . . . . # . . % o o o $ $ $ o . .     . X                   .           . . . o % - = % $ $ $ o o = 8 C ` -.P.(.yXpXAXSX^.} ` A z V _ } =.wXAXCXdX(.^.J.%.` ' } %.J.(.wXpXAXAX(.%._ A l S ' } P.AXAXpXgX(.P.J.P.P.P.(.wXCXCXKXHXHXKXKXHXHXHXCXCXpXwXwX(.wXwXdXCXHXHXKXKXKXKXHXHXAXCXpXgXwX(.wXgXCXSXAXHXKXKXKXKXKXKXKXKXHXHXHXAXdXCXwX^.P.=.-.-.J.^.(.pXAXAXKXHXKXKXKXKXKXKXKXHXHXHXAXAXdXpX(.^.I.=.=.I.^.wXwXAXCXKXKXKXKXKXKXKXKXKXKXAXAXCXwX(.P.%.' l 1 # O     O     X # 4 z _ ;.=.^.wXpXCXAXwX=.} A l V A ` =.(.HXCXCXwX^.P.=.=.UX^.(.pXCXAXAXHXHXKXAXCXfXwX^.=.} V 6 # 2 M ` -.P.(.pXCXCXHXKXKXKXKXKXKXHXHXAXCXfXwXP.J.J.=.J.^.wXpXAXAXAXKXHXAXCXCXfXwX(.wXwXdXCXAXHXHXKXKXKXKXHXHXKXKXKXHXAXAXdXdX(.^.P.%.` V f 2 + + + + + # +   X + X                 X                                   X O X       X O O + + + + + + O O + + X X X X X X + + + + + X X X X # # + + 1 #                                           ",
"      o # $ = 2 = - 2 2 = % = - = = $ = % = = % % = q h w w e r g x c c h q 7 8 8 - 2 w w 8 3 2 o . . .   . o . o o # . o % o o o $ % $ o o .       X                 . .             . . o $ = = = % % % $ % 2 g ` %.P.(.pXCXwX' #   .     X           f -.AXCXwX^.J.-.%.=.I.(.wXCXCX} 2               X   # _ <XCXpX(.^.^.(.(.wXf                         f CXfXpXCX'                           fXdXpXdXf                       # # 3 l _ =.pXCXpXwX^.P.I.^.wX=.                    X + 1 3 f V ` I.CXCXwX(.^.P.^.wX=.                                X pX^.J.} V 2 # O     O     + 1 a A ;.J.^.wXdXAXJ.z +     X             6 %.dXCXpX(.^.P.^.(.dX                    } (.I.%.~ f 1 y A } J.(.pX+                             P.wX^.P.I.^.wXA     X       X     # CXfXpXCX                  X X X # 2 f V ' =.fXCXpX(.J.-.' l 5 # O X X X + # + # # + X               X X                                   O O       O O O + + + + O O O O X X X X X X X O + + X X + X X X + # # X X # #                                           ",
"      o % % 3 3 = 2 2 3 = = % % = % o % % = = % % = w g x g w h g x x b h q 3 8 q - 7 q w w 3 - o . . . .   . . $ = o . o o o o o o % % o . . o . . . .                   .   . . .     o o o % 2 2 % % % % = h A } J.(.pXAX%..                             F ^.CXwX(.P.J.P.(.pXAXP.#                           O %.AXdXwXwXwXgXCXf                       X + KXAXAXAXS                           CXAXAXAXf                                   X } PXdXwX(.(.(.pXJ.                                    3 I.CXpXwX(.wXpXJ.                  X               dXwXP.%.S 6 #     X O O O # y M ` =.^.wXdXwXz           X                 1 P.AXpXwX(.IXwXCX                    %.wX^.=.` f 3 z ` =.P.wXpX                              =.pX(.^.^.(.pX`                   2 AXAXAXHX                                    # %.AXpX(.I.%._ f 1 # X X X X + + + X       X                                 X X                   X X X X O + + + + + + + + . . . X X X X X + X X X X X X X # 1 +     X X                                           ",
"      o o % 2 2 - = = 2 = = % = = $ o $ % % = % % = w h x h h x q h x b h 8 3 8 e 3 7 q w w 3 - o . . . .   . o $ % o o o o . o . o $ # o . . . o . . . X                 . . . . .   . . . $ % = = % % % = 2 b ` -.^.pXAX} X                                 + I.CXwX(.(.wXpXCX=.  X             X                 ' AXCXfXdXdXAXz                         X CXHXHXKXl                           AXHXHXHXz       X                               f fXCXwXpXwXCXP.                                        J.CXpXpXfXCXP.                    X     X     + AXwXP.%.~ y #   X O O   O , z ' -.P.wXCX(.1   X                               %.AXdXpXpXdXHXX                   -.fX(.J.} z 5 l } J.(.pX(.                              } CXwX(.(.wXCX}                   3 KXAXHXKXX                 X                     _ AXpX^.J.} V 3 # X X X X X X X X                               X         X X                   X X X X O + + + + + + O O X X . . O X X X + O X X + X X X + # X     X X                                           ",
"      o o o = - = = % - = - = = = % $ $ $ % % % % % q h c x x x 7 w b b h 7 7 8 e 7 3 q w q 7 - . . . . . . o o = = % % % . . o . o o o o o . . o . . . X               . o . . .   . .   . o % % % # % % 2 8 Z O.I.(.CXI.                      X               1 dXdXpXwXfXCX^.X       X             X         +     %.KXPXAXAXHXl                           wXKXKXJX6                           HXKXKXKXl                                         V HXdXpXCXAXP.                        X             X   (.AXCXAXHXP.                      X     X   # AXwX^.-._ y #   X O   O # 4 V } J.(.fXfX2               + X     X               J.AXdXCXAXKXX                   =.CXwXJ.} V f V } I.wXCXJ.                              _ HXfXwXwXpXAX}                   3 KXKXKXKX+                                         =.dXwXP.%._ f # X X X O X X       X                         X X         X X X   X X   X       X X X X + + + + + + O O X X X O O O X X X + O X X + O O O + # X X X                                               ",
"      o o o - 2 = 2 = 2 - 2 = = - % % o o $ % % % % q h c c c x 3 q b c h 7 7 8 q 8 2 q w q q = . . . . . . o $ - - = % = o o o o o o o o o . . . . . . X               . # . . .   . o     $ $ # # o # % 3 g _ -.^.wXAXl                                         %.AXdXCXCXHX5   X   X     X                     X   O wXHXAXHXKXl                           I.JXKXKX+                           HXKXKXKXl           X       X               X       I.HXAXCXAX^.                    X             X     X V HXAXAXHX^.                                  HXwX^.-.) 5 #   X O   O # f _ -.^.wXAX'   X X         X                         X HXHXAXFXKXX                   =.AXwXI.} V f V %.P.wXAX%.                              l HXCXwXwXdXAX}                   3 KXKXKXJX+                         X               1 CXfX^.=.` z 1 O X X O X         X X                                   X X X X X X X X     X X X X X + + + + + + O X   X X X O O O X X + O X X O O O O + # + + O                                               ",
"      # o $ 2 7 2 3 2 2 = 2 = = - = % o . $ = = % % q g x c c h 7 8 b x h 8 8 8 9 8 2 q w q q = o . . . . o $ = ; - % o % = % o o o o o o o . . . . . .                 . # .   .   o $ . . o # o .   . % 8 c ` J.(.dXfXX                 X                       V KXHXCXHXJ.                      X     +             ' KXAXKXKXl                           -.JXJXdX                            HXKXKXKXl                             X             D AXHXHXKX^.              X               X       X     dXHXHXKX^.              X     +         X X CXpXP.%.~ 6 #   X O   X 1 l | UX(.PXwX            +     X   X           X       X =.HXHXKXJXO                   =.AXwXP.} V l A %.^.pXAX`                               2 KXAXpXpXCXAX}                   3 KXKXKXJX+                             X     X       J.fXwXJ.} V 2 + X X X             X                                   X X X X X X       X X X X X O + + + + + + O X X X X O O O O X X X X X X X X X X + # X + +                                               ",
"      o o o 2 2 3 7 2 2 - 2 2 - = = % o . $ = = % % q g x x c g q 7 c c w q 7 8 7 7 2 q w q q = o o o o o o $ = ; - % o % 2 = $ % % o o o . . . . . . .                 # % .   .   o % o . o # o .   . % 8 C } 7.wXvXJ.        X   X     l dXwX3                 2 KXHXHXKXS         X     X   ` AXP.                  # HXKXKXKXV                           } JXJX(.                            KXKXKXKXV               X   2 f +             X     # AXHXKXHX^.                  X f 2     X               J.KXKXKX^.                  +             X dXwXP.%.S 6 #   O O O + 4 V } I.wXPX%.+                 3 wXAX}                   V JXKXKXJXO                   =.AXwXP.%.A V ' =.^.fXAXV                               X AXAXfXfXdXHX}                   3 KXKXKXJX+                   f 3     X               _ HXwXP.%.A 5 # X                                                     X X X X X X       X X O X X O + + + + + O O X X X X O O O X X X X X X X X X X X X + X X X                                               ",
"      % % $ - 2 2 3 2 2 2 8 3 - = = % o o % = % % % g h x c c w q 7 x b w 8 3 8 7 7 3 9 w w q = o o o o o o $ = = - % o = 2 2 = = % $ o . . . . . . . . .             . = 2 o . .   . = = o . # . .   . % q C ..I.wXCX%.    X           X ^.KXJX}                 + KXKXKXKX3   X               wXJXKX3     +         X   wXKXKXJXV                           V JXJXJ.                            KXKXKXKXV                 X } JXKXA   X     X         ^.KXAXJX^.              X     AXKXJ.                  } KXKXKX^.                    # , + # X X 1 pX^.J.| M 6 # O O O O + 6 S %._.pXAXl   X         X     %.JXJXwX  X       X       2 KXKXKXJXX                   =.AXwXP.%.A V } UX(.dXHX5                                 (.AXdXfXdXHX%.                  5 KXKXKXKX+                   P.JX(.X   +             l HXwX^.-.~ 5 # X                   X                                 X   X X           X X X O X O # + + + + + O O O O X X X X X X X X X X     X X X X X     X                                               ",
"    . = = % 2 2 - 2 2 3 8 g 7 = = = = % $ % = % % = h x c b b w 8 3 x b q 8 - 7 9 7 3 7 e w q - o o o o o # % = ; = $ % = 2 - - = % $ . . . . . . . . o .             . 2 2 # . .   . = 2 o . % . o . o % 8 Z O.P.rXAX}                   pXJXKX%.  X               HXKXKXKX        X           CXJXJXz             X     P.KXKXKXl                           3 JXJX-.                            KXKXKXJXV                   } JXJX(.                  J.HXKXKX^.                    CXJXKX1                 _ JXKXKX^.                    CXJXKXKXHXCXwX(.J.%.' z 1 #     O O # 6 ) =.^.wXKX5                   J.JXJXAX                    HXKXKXJXX                   =.AXwXP.%.A A } J.(.CXKX+                                 J.HXCXdXCXHX%.    X             5 JXKXKXJX+                   P.JXKXA +             X # HXdX^.=._ 5 + X             X                                                         X X + X X O # + + + + + + O O O X X X     X X X X X     X X   + +     X   X                                           ",
"    # % % = 2 3 q 8 2 3 3 q 2 2 2 = = % % = = 2 3 3 g c n c c g 8 w c x 8 8 = 2 2 7 8 e w w q = . o . o $ $ = - = = 2 % o % % 2 = % % # .     .   o o . . .   .       . 2 2 2 .     . 2 2 = . o . . . . % 5 C %.P.wXFX`                   dXJXJX%.    X             CXKXKXfX                    HXJXJXV                   =.JXKXJXV                             KXJX}                             KXKXKXJXV                   } JXJXdX                X %.KXKXJX^.                    CXJXJXf                 V KXKXJX^.                    CXKXHXAXfXwX^.P.-.| V y : O   O O   # a _ =.(.fXKX1                   P.JXJXJX                    wXJXJXJXX                   =.AXwXP.%.A S } J.IXCXfX                  1               %.HXAXCXCXHX%.                  5 JXKXJXJXO                   P.JXJX}                 + HXdX(.=.' f + X X               X X X                             X           X X X   X   X + + + + + + + # # # + O X X X         X             X X X X     X X                                             ",
"    # % % 2 2 7 7 3 2 3 2 8 2 2 2 = % 2 = 2 2 3 3 3 g b n c c g w h b x 8 7 % 2 3 8 e w w w q = . o . o % = 2 - = = - % $ % % - = = % % o . . . . o o . .             . 2 2 2 .   . . = - = . . . . . . % 3 C %.P.yXAX'                 X (.JXJX%.  X           X   pXKXKXwX                    HXJXJXV                   =.KXKXJXV                             pXJXA                             KXKXKXJXV       X           } JXJXCX        X         %.KXKXKX^.                    CXKXJXz                 l KXKXJX^.          X         dXKXAXdXwX^.I.-.} ~ z 4 # O   O     # f ` =.(.dXKX#                   P.JXJXJX                    (.JXJXJXX                   =.AXwXP.%.A A } I.wXAX^.                f f               ` KXCXCXAXHX%.                  5 JXKXJXJX+                   P.KXJX%.X                 KXfX(.=.` f +                   X X X                           X X         X X X X   + X + + O + + + + # # # + + O X X X         X             X X X X     X                                               ",
"    # = = 2 3 7 2 3 8 8 2 2 - 2 2 = % 7 2 2 7 7 8 7 h b C b m x g c b c 7 7 $ = 2 7 w w w h q = o o . o % = 2 2 = = 2 = % = = - = % % # .   . .   o o . . .     . . . o 2 2 2 o   .   # = - .   .   . o % 2 V %.P.rXSX}                   =.JXJX%.                X wXHXKX^.X                   HXJXJXV                   %.KXKXJXV                             ^.JX5                             KXKXKXJXV                   ` JXJXHX                  } KXJXKX^.                    CXJXJXz                 l JXKXJX^.            X       pXHXCXpX(.I.=.} ' z 5 1 # O   O   O # f ` J.(.CXKXX                   P.JXJXJX                    P.JXJXJXX                   =.AXwXP.%._ _ %.P.wXAX=.      X         ' A               f KXAXCXAXHX%.                  5 JXKXKXJX+                   P.JXJX}                   KXdX(.=.` f +                   X X X X             X           X X X   X X X X X X X + O + O X + + + + # # + + O O X X X           X X X X   X X X                                                         ",
"    # = = 2 2 3 8 8 q q 3 7 2 3 3 2 % q - 2 8 3 q 8 x n C n b v g n n x - 7 & % - 2 e w w x w ; o % o o % = 2 2 = = 2 = % % % = % % % o . .   . . o o . . .   . . . . % - 3 3 o   .   . # = .         . o 2 C ..P.wXSX}     X             1 CXKXAXwXwXwXwXwXwX(.(.^.CXAXHX^.                    HXJXJXV                   %.KXJXJXV                             J.JX+                             KXKXKXJXV                 X } JXKXfX                  %.KXKXKX^.                    dXJXJX5           X     V JXKXJX^.                    CXKXCXgX(.I.-.} ~ V 5 , # O X O O O # f ` UX(.CXKXX                   P.JXJXJX                    I.JXJXJXO                   =.AXwXP.%._ ' %.^.pXAX}                 %.`               : KXAXAXAXHX%.                  5 JXKXKXJX+                   I.KXKX}                 + HXdX(.=.' y +     X                 X X X           X           X X X     X X X X X . + + + O X + + + + # # + O O O X X X X     X   X X X X     X X                                                         ",
"    = = % = 2 3 g q q w q g 3 3 7 3 = q - 2 8 8 w w x C n n n m x J J x 2 9 2 = ; - w r r v w ; $ % % % % % 2 2 = 2 - = % % % % % % % $ . . . . . o o . . . . .     . = - 3 3 o   .   . o #       .   . . = b } J.OXCX=.  X         X       1 (.JXKXJXKXKXKXAXCXdXdXfXCXHX^.                    HXJXJXl                   } JXJXJXV                             %.CX          +                   KXKXKXKXV                   } JXKXpX                  -.KXKXKX^.                    CXJXJX3 X     X         A KXKXKX^.                    pXJXAXfXwX^.J.-.` V f 1 : + @ # # # 1 l | J.(.CXKX                    P.JXKXJX                    J.KXKXJXX                   =.AXwXP.%.' ` -.^.pXHX'                 J.}                 CXKXAXAXKX%.                  5 JXKXKXJXO                   P.JXJX}                 1 HXfX^.-.A 5 + X X X X               X X           X                 X X   X     X X . # + + O X # # + + + + + O X X X X X X X       X X X X X X X X                                                         ",
"  . 2 2 = 2 2 7 8 8 q q 8 8 2 3 2 2 = 8 = 2 8 q q q x n n C C C b K J x 9 8 9 7 2 7 x v r m w = % = % % % = 3 3 2 3 2 2 = % % % % % % % o . . . . o o . . . . .     . - - 2 2 o       . . .   .   . .   . % c ] 7.(.CXwX                    X   } AXKXJXKXAXCXfXwXwXpXCXHXP.                    HXJXJXl                   } JXJXJXV                 3           ` wX          f X                 KXKXKXKXV             X     %.KXJX^.                  ^.HXKXKX^.                    CXJXAX#                 ` KXKXKX^.                X   CXKXKXAXfXwX^.J.-.| ~ M z f f z f f f S ;.J.(.CXKX                    P.JXKXJX                    J.KXKXJXX                   =.AXwXP.%.' | =.^.fXHXl                 ^.%.                (.KXAXAXKX%.                  5 JXKXKXJXO                 X P.JXJXV                 3 AXpX^.%.A 3 + X X X X             X X X           X                 X X         X X + + + + + + # # + # # + O O X X X X X X X X     X X X X   X X X X                                                       ",
"  . 2 3 2 3 3 8 8 8 q w 3 3 - 3 2 2 3 3 = 2 8 q q q h n b J K J J T K m g 8 g w 7 7 x x w m h - % - = = - 2 7 3 2 7 2 2 2 % = % $ % % % o . . . . o . . . . .       . 3 = 2 2 #   .   .           .   . . o h K =.^.yXAXf     X         X         # J.JXKXHXCXpXwX(.wXfXHXP.                    HXJXJXl                   } JXKXJXV                 '           f P.          ` X                 KXKXKXJXV                 X } JXfXV       X         1 HXHXAXKX^.                  X dXpX}                   J.KXHXKX^.          X         dXKXJXHXAXdXwX(.I.=.} ` ' ' ' ` ' ' ` } =.P.wXCXKX                    P.KXKXKX                    J.KXKXJXX                   =.AXwXP.%.` } UX(.dXHX2                 wXJ.                UXKXHXHXKX%.                  6 JXKXKXKXX                   ^.dXJ.                  ' CXwXP.%.V 3 + X X X X           X X                                           X X X X + X + + # # + # # # # O O O X X X X X   X                 X X X                                                       ",
"    2 3 3 7 7 8 g w 8 q q q 2 - 3 8 q 7 2 2 3 q q q h C n J K K T L J b c w x x 8 7 x x w n x 3 = 2 = - - 3 8 3 2 3 2 2 - % = % $ % = % o o . . . o . . . .         . 3 = - 2 #   .       .       .   . . . q Z } P.wXCXJ.                            V pXHXAXfXwXwXwXfXAXP.                    HXJXJXl                   } JXKXJXV                 %.          + J.          %.X                 KXKXKXJXV                         X                 =.HXAXAXKX^.                                          + pXKXHXKX^.                                A wX(.P.J.=.=.=.=.=.=.=.=.UXI.(.gXAXKX                    I.KXHXKX                    =.KXKXJXX                   =.AXwXP.%.} } J.(.CXKXX                 CXP.                } KXKXHXKX%.                  5 JXKXKXKXX                                           J.dX(.J.} l 2 +       X           X X                 X                         X X X   X X + # # # + # # # # + O O X X X X X   X                 X X X                                                       ",
"  . 2 2 2 q 3 g c 2 q 3 8 h 7 = 7 3 q 3 2 2 3 g q g g b J J K K L K K C x 8 c x q 9 v x v m w 7 3 2 3 2 3 q 8 3 7 7 2 2 - % = % $ % = = % o o   . o . . . .   . .   o 2 2 - = o   .             .   . . . o 3 c | =.(.fXAXf X         X     X           + J.KXCXpXwXpXdXHXP.                    HXJXJXl                   } JXKXJXV                 I.            `     X     J.X                 KXKXKXKXV                                       5 I.KXHXAXAXKX^.                                      X   } KXHXHXKX^.                                ' dXpX(.^.^.^.^.(.(.(.^.^.(.(.wXdXAXJX                    J.KXAXAX%.} %.%.%.-.%.%.%.} (.AXHXKXO                   =.AXwXP.%.} %.J.wXAXwX                + JX(.                A KXHXKXKX%.                  3 JXKXKXJXX                                         l KXpX(.J.} z 1                   X X X                             X                 X X X + # # + + + # # # # O + O                   X X X X X X                                                             ",
"  # = 3 2 3 8 q c h g g g q q 3 8 3 q 3 3 3 7 g q g g b J J L Y Y L K J m w x c w w m v v n g 7 3 3 8 3 8 g w 8 8 8 2 2 2 % = = % % = = % % o   . o .   . . . . . . $ = - - = .   .             . . . . . . = q A %.P.(.dXpX2 X                             ` AXCXCXfXAXHXP.                    HXJXJXl                   } JXKXJXV                 ^.X           1           ^.X                 KXKXKXKXV                                   V ^.KXJXKXHXCXAXHX^.                                      5 J.KXKXAXAXKX^.                                ` AXCXfXpXpXpXfXdXdXdXfXfXpXpXdXAXHXKXX                   I.KXAXCXfXCXCXAXAXCXAXAXCXfXCXAXHXKXX                   =.AXwXP.%.} %.P.wXCXP.                5 JXwX                f KXKXKXKX%.                  3 JXKXKXJXX                                     + %.CXAXpX^.=.` f ,                   X X                               X               X X X + + # + + X X + # # + O O O   X   X           X X X X                                                                 ",
"  # 3 5 3 3 8 8 q c q g q 2 3 3 w 3 7 2 3 2 7 w w g g b K K L Y Y K L K n g g m x g m m m C x 7 8 7 8 8 8 h g 8 8 8 2 2 2 = - = = % = 2 = % # . . o .     . . . . o o % - - % .   .             . .   .     o 2 l } =.^.wXdXfXf                     X         V AXCXAXAXHX^.                    HXJXJXl                   } JXKXJXV                 (.3                       pXX                 KXKXKXJXV                                     # } pXKXKXAXAXKX^.                                  l P.JXJXKXKXAXAXHX^.              X         X     X } AXHXAXAXAXAXAXHXHXHXHXAXHXHXCXKXJXKX                  X J.KXCXpXpXpXwXpXdXfXdXpXwXpXwXCXAXKXX                   =.AXwXP.%.} %.^.pXAX=.                A JXAX                , KXKXKXKX%.                  5 JXKXJXJXO                             X   2 =.KXJXJXAXgX^.-._ f #                   X X                               X       X X X   X + + + # # + X X X O + + O O O O O X X X           X X                                                                     ",
"  # 3 g 2 g 2 8 8 g q q q 8 = q 8 2 2 2 2 - 7 8 g 8 g b J K K Y Y J L J J c g n b v m m n C x 7 8 8 8 8 q g g 8 q 8 2 2 2 - 2 = % $ % 2 2 = % o . o .   .     . . o . o = = # .   .     . .       .   . .   . = q ' %.J.(.fXAXKX%.O       X                     S KXHXHXKXP.                    HXJXJXl                   } JXKXJXV                 ^.A                 X     HXX                 KXKXKXJXV                         X               + P.HXKXAXKX^.                X     X               f ^.JXHXAXAXKX^.                    X           | JXKX' 2 4 3 6 5 5 5 5 5 1 # 3 J.KXJX                    J.AXCXpXwXwXwXwXpXpXyXwXwXwXwXdXAXKXX                   =.AXwXP.%.} =.^.wXAX}                 } JXJXX                 CXJXKXKX%.                  3 JXKXJXJXX                       X             1 =.KXKXpX^.=.' f #                     X                     X         X X     X X X X X + + + # # + O X X X O X X X X X X X X                                                                                     ",
"  . 5 8 8 g q g 8 8 q 7 g h % q 3 2 2 2 2 % 7 g g w g b K K K K Y J K J K b g b n b m m n n g 7 q 8 q 8 8 g w 8 q 8 3 3 2 2 2 = % % = 2 = % % o o o . . .         . . . = = # o   . .   . .             . X + 2 f U } i.^.wXdXAXKX^.5 X                     X     =.HXJXKXP.X                   HXJXJXV                   } JXJXJXV                 ^.}                     3 JXX                 KXKXKXJXV                   +                 X   X X wXKXKXKX^.              X                       O   I.KXHXHXKX^.                                } HXKXV                         =.KXJX                    I.HXCXpXwXwXpXpXfXfXpXpXwXwXgXdXAXKXX                   =.AXwXP.-.%.=.^.pXHXA                 %.JXJX2                 ^.KXKXKX%.                  5 JXKXJXJXX                     X               +   } HXpX(.=.` f 1 X                                                       X X X X X X X + + + + + + + + X X X O X X X X X X                                                                                       ",
"  # 2 = 3 3 g h w q 3 3 g g - 3 3 2 2 2 2 % 7 g x g x c J K K K K K K L K C x m C C m n n m w 8 q q w q 8 w q 8 q q 3 3 3 2 2 = = = = = = % % o . o . . . .   .       . o % o .   . .   . .             X X # 2 l U %.UX^.wXdXAXKXJXHX} X   X   X                 3 JXKXJX^.X                   HXJXJXl                   } JXJXJXV                 ^.=.              X     V JXX                 KXKXKXJXV                   A (.I.f       X           ` KXAXJX^.                    (.^.A                 1 dXKXHXKX^.                                ` HXJXV                         J.JXJXX                   J.KXAXCXdXfXdXCXAXAXAXCXdXdXdXCXHXJXX                   =.AXwXP.=.%.=.(.dXKXf                 J.JXKXl                 =.KXKXKX%.                  5 JXKXJXJXX                   J.^.}                 + P.CX(.J.} l 2 + X                                               X         X X X X O + # # + + # # # O X X X X X X X X X       X X X X X X                                                                     ",
"  3 # 3 = q 7 x g g 3 2 q 8 7 2 3 2 2 2 3 % 7 g g g x c b J J K K Y K Y K J C c n J n n C c w 8 q q g q 8 q q q q q 8 8 3 2 2 - = - 2 = = = % . . . . . o . . # # .   . . o . .   .     . .       .     X . 2 q V } =.P.(.wXCXAXKXKXJXJX(.f                         (.KXKX^.                    HXJXJXl                   } JXJXJXV                 ^.^.                    | JXX                 KXKXKXJXV                 X %.JXJX^.                  3 KXKXKX^.                X   CXJXfX  X               =.KXKXKX^.                    } } } } ` ' J.HXHXA                         J.JXJX                    P.HXAXCX^.^.^.^.^.^.^.^.^.P.wXAXKXJXX                   =.AXwXP.=.%.J.(.CXHX1                 ^.JXKX`             X   } JXKXKX%.                  6 JXKXJXJXX                   P.JXJX5       X   +     V CXwXP.%.V 3 + X X     X X                                     X   X X X X O X X + # + + + + + # O O   X X X X X O + X X X X X X X X X X X X           X X                                                   ",
"  % 5 = 8 q 3 g g 8 3 % 2 3 3 3 3 2 2 3 7 % 9 8 g g c x x b C K K Y K Y K K K m n J n n C v w 8 q q g q 7 8 q q q q 8 8 3 2 2 - 2 2 2 = = 2 2 o . . . . o o # % = .   . . . .     . .   . .       .     X + 3 z _ %.P.(.rXCXAXKXKXKXKXJXJXAX}       X               %.JXJX^.                    HXJXJXl                   } JXJXJXV                 ^.wX                    -.JXX                 KXKXKXJXV                   } JXKXdX      X             CXJXJX^.                    CXJXJX1               X _ KXKXKX^.          X         CXJXKXAXAXCXCXAXAXV                         J.KXJX                    I.KXKXKX                    =.HXKXJXX                   =.AXwXP.=.=.P.IXCXCX                  (.JXJX}                 _ JXJXKX%.                  5 JXKXKXJXX                   P.JXJX`         X       1 AXpX^.%.A 3 + X X X   X X                             X X     X X   X X X O O O + # O + + O O O O       X X X X O + X X X X X X X X X X X X X         X X                                                   ",
"  # = 3 7 8 w q 8 8 2 3 = 3 2 2 2 2 5 8 7 5 7 g w g x g g g c b C K L K K L J K J J C n K g 8 q q q 8 8 8 8 8 8 8 w q 3 3 3 2 2 2 2 2 2 = 2 2 # o o o . % % % % % o . o .     .                 .   .     # 5 A } i.^.I.A _ ` } } } } } %.wXKXJ.                    ' KXJX^.                    HXJXJXl                   } JXJXJXV                 ^.KX                    I.JXX                 KXKXKXJXV                   } JXJXAX                    (.JXJX^.                    CXJXJXf                 V KXKXKX^.                    fXKXHXCXfXpXwXfXAXl                         J.JXKX                    I.JXKXKX                    J.KXKXJXX                   =.AXgXP.J.UXP.wXAX(.                  pXKXJX=.                f KXJXJX%.                  5 JXKXKXJXO                   I.JXJX}                 X HXpX^.=.' 5 + X X                                                 X X X X X O # # # O O + + O X   X     X + X X + + X X X     X + + X + + + X         X X X                                                 ",
"X 2 2 q 7 7 7 8 3 8 8 8 8 q 8 2 2 2 3 3 7 7 8 g g g x g g g x c b K K K K K J J K J C C C g 8 q q q q 8 8 8 q 8 8 q 8 3 3 2 - = 2 2 2 2 = 2 2 % o o o # 2 = % % o . . . . .   . .       . . . . .   .     # q U %.P.(.=.                  J.JXJX}                   l JXJX(.                    AXJXJXl                   %.JXKXJXV                 ^.KX3                   (.JXX                 KXKXKXKXV                   } JXJXAXX       X           (.KXKX(.                    CXJXJXf                 V KXKXJX^.          X         pXKXCXpXwX(.(.wXpXz                         =.KXJX                    P.JXKXKX                    J.KXKXJXX                   J.AXwX^.J.J.^.wXAXJ.                  X         X             # JXJXJX%.                  5 JXKXKXJXO                   I.JXJX}                 X HXfX(.=.` f + X X   X         X                                   X X X X X O # # + + O O O X X X O O X X X X + # + + + X X X X + + X + # + X     X   X X X                                                 ",
"  2 5 z 3 2 2 q 2 3 8 - 7 3 3 % 3 2 2 2 3 8 8 g g g g g 8 8 g g c J K Y L L J J K K J J b x 7 8 8 w w 8 8 q q 8 8 q 8 7 3 2 = = 2 - 2 2 = = = = % o # 2 2 = % % . .   . . . . .           . . .     .   . = z ` -.^.pXJ.              X   I.KXJXwXX                 2 JXJX(.                    HXJXJXM                   %.JXJXJXV                 ^.KXA                   CXJXX                 KXKXKXKXV                   } JXJXAX                    ^.KXJX(.                    CXJXJXf                 l KXKXKX^.        X   X       fXHXCXwX(.^.^.^.(.pXCXAXHXKXKXKXKXKXKXAXAXAXKXKXHX+                   P.JXJXJX                    P.KXKXJXX                   J.HXfX(.P.^.(.pXAX%.                                            dXJXJX-.                  5 JXKXKXJXX                   I.JXJX}                   KXdX(.J.` f + X X X         X X X                         X         X X X   + # # + O O   X     X O X X X X + # , + + + X   X + # # O # : # O     X   X X                                                   ",
"  2 5 q 7 3 2 7 8 3 3 o = % - % 2 2 = 2 3 8 8 w g g g w 8 8 w g c b K Y K L L L J K K K v x 7 w 8 w w 8 8 q q 8 q q 8 7 3 2 2 - - = 2 2 2 = = = % % = 8 2 % o o . . .   . . . .             . .     X   X = z | i.(.fXJ.                  P.JXJXJX+         X       1 JXJXwX                    HXJXJXV                   %.JXJXJXV                 ^.JX}                 + JXJXX                 KXKXKXKXV                   } JXJXAX      X             ^.JXJX(.                    CXJXJXf                 z JXKXJX^.                    CXKXCXwX(.^.P.^.(.(.wXwXfXdXdXCXCXdXdXdXfXdXCXKXJX+                   P.KXJXKX                    ^.KXKXJXX                   J.HXCXwX(.^.wXdXKX`                               X             ^.JXJX%.                  5 JXKXKXJXX                   I.JXJX}                   KXCX(.J.` f X     X         X X X X X X X   X           X X         X X   X + # # O O X           X   X + # 2 6 6 # + + X X + # # # # # # # O   X O   X                                                     ",
"# 3 3 3 q q 8 3 7 2 = = = % % % 2 2 = = 2 3 7 8 g g g w 8 8 8 w x c J K Y T Y L K J J J x h 7 8 8 q q 8 8 8 q 8 q 8 q 8 7 3 2 2 - % = 3 2 = % % = 2 3 8 # o . . . . .     . . .   . . .     . .     X   X = h | J.(.dXP.                  I.JXJXJX1                 # JXJXpX                    HXKXJXV                   -.JXKXKXV                 ^.JX=.                5 JXJXX                 KXKXKXKXV                   } JXJXAX                    ^.JXJX^.                    CXJXJXf                 z JXKXJX^.          X         pXKXAXdXpX(.(.P.^.^.^.^.(.(.(.(.(.(.(.(.(.wXpXCXKX2                   P.JXJXKX                    (.KXJXJXO                   J.HXKXdXpXpXdXHXHXV                                             =.JXJX%.                  5 JXKXKXJXX                   J.JXJX}                   HXCX(.J.` f +   X X         X X     X                   X X X X     X     X + # # O O X   O O X   X X + 1 2 5 f 5 # # # # + + + # # + + + + + O O + X X X                                                   ",
"X 3 q 2 w q g q = = % 2 = = % = - 2 = = 2 3 3 7 8 w w w 8 8 8 8 g x C J Y T T L L K K n x g 7 8 8 q q 8 8 8 q w 8 8 8 q 8 7 3 = - % = 3 2 = % % - 8 q 3 o . . . . . . .     .     . . X       X     .     % z ` J.(.vX(.                  P.KXJXJX5                 + JXKXCX                    AXJXJXl                   =.JXKXKXV                 ^.JX_.                A JXJXX                 KXKXKXKXV                   } JXJXCX    X               ^.KXJX^.                    CXJXJXf                 z JXKXJX^.                    CXJXKXAXdXfXwX(.^.P.I.J.UXUXUXJ.J.UXUXJ.J.^.wXCXKXf                   P.JXJXKX                    dXKXJXJXO                   J.JXKXHXCXAXCXAXKXf                             X               } JXJX%.                  5 JXKXKXJXX                   J.JXJX}                   HXCX(.J.` f +     X         X X     X X                 X X X X     X   X X + # + O X X X + + + + + # 1 2 2 3 5 5 1 # # # + . . + # # . + # # # # # # # # + X X                                             ",
"  3 q 2 8 7 w g 2 - = 2 - 2 - 2 - 2 = % = 2 3 7 8 8 8 8 9 9 9 9 g x c C Y K K L K T C c x q 8 8 8 8 8 8 8 8 q g q 8 8 q 8 3 3 2 - = 2 3 2 = = % 3 q q 2 # . . . .   . . .     . . . . . . .         .   . % g ' =.(.vXfX                  J.JXJXKX2                 2 JXKXKX+                   fXJXJX3                   P.KXKXKXV                 ^.JXwX                } JXJXX                 KXKXKXKXV                   } JXJX(.        X           (.JXJX^.                    CXJXJXf                 z JXKXKX^.          X         CXKXJXKXHXAXfXwX(.P.J.%.} | | } | | ` | %.I.(.fXAXA                   J.JXJXfX                  + KXKXKXJXO                   P.JXKXKXKXHXKXJXKX#                                             _ KXJX-.                  5 JXKXKXJXX                   J.JXJX}                   HXCX(.J.` f +                 X     X X X X               X X   X   X   X + # + O O O X X + # : # # , 1 6 2 2 3 5 6 1 = = # + # # # % % % = = % % = % = = # + .     X                                       ",
"# 8 3 3 8 7 7 7 2 2 2 - = = % % 2 2 % % = 2 3 3 7 8 9 9 9 9 9 9 8 g c c K J K J K U n h b q q 8 8 8 8 8 8 8 q g g 8 8 8 3 3 7 2 - - 2 3 - = = = 7 q 3 % % . . . .   . . . . . o o o . o o o . .     .   . % g ' =.^.fXHX+                 %.JXJXpX                  f KXKXJX2                   (.KXJX+                   wXKXKXKXV                 ^.JXHX                -.JXJXX                 KXKXKXKXV                   } JXHX`                     (.JXJX^.                    CXJXJXf                 z JXJXKX^.                    # 1 # # + # + l wX^.UX} _ V z k k f l V ' -._.gXAX|                   %.JXJX(.                + 2 JXKXKXJXO                   # = # # + # ` JXCX                                      X       f KXJX-.                  5 JXKXKXJXO                   J.JXJX}                   KXCX(.J.` f #     X X         X     X X X X X               X X X X X X X + # + O O O X X + # 1 1 1 1 2 3 3 6 5 f f 8 5 2 % % % % # = = 2 3 2 % % = % = = = # .     X                                       ",
"# 5 7 7 e 9 7 2 - = % = % % = - 2 2 = = = = 2 2 5 7 7 7 9 9 7 7 8 g h h K J J K J J c g x 8 q 8 8 8 q q 8 8 8 q q q 8 3 3 7 3 2 2 = 2 8 % o o 8 q 2 = o o . o     # .   o # o % o # o o o o . . . . . . o # 8 K -.^.gXAXz                 1 P.^.V                   _ KXKXJX'                   A (.%.                  1 KXKXKXKXV                 P.JXJX1               P.JXJX                  HXJXKXKXV                 X # f #                       fXJXKX^.                    fXJXJXf                 z JXJXJX^.  X                               z dX(.J.} S 5 1 # , # : y M } I.(.CXJ.                  + P.^.l                   ` KXKXKXKXX X                             ` KX(.                    wXJXJXAX    X               KXJX=.      X           f JXKXKXJX#                   J.JXJX}       X           KXCX(.J.` f # X X   X X       X X X X X X X X X             X X X + X X O + # + X + + X + # 2 4 3 1 p 4 1 p 8 z z h z f 5 2 2 % = 2 2 2 3 2 = 2 2 = % = % o . .       # .     X                             ",
". 2 2 2 8 7 - = 2 - % = - = 2 = 2 = = = 2 2 2 2 5 5 7 7 9 9 7 7 9 8 8 g Z C C K J C h g h 8 q q 8 8 q 8 8 8 7 8 w q 8 7 3 3 3 2 2 = 2 2 % % = q 8 = $ . o o # . . o . . % % o % = = % # # o . . . . . . . # 3 C } P.wXkX}                           X               %.KXKXKX^.                              X           %.KXAXKXJXl     X           P.JXJXV               wXJXJX                  KXKXKXJXz X                                           # JXKXKX(.                    dXJXKX5 X               l JXKXJX^.                                  V dXwXI.;.V 6 : O   +   1 l | =.^.dXdXX   X                             X         I.KXAXKXJX+                           #   ` JXP.                    dXJXJXJX          .     X   pXJX-.X                 4 JXKXKXJX                    I.JXJX} X       X         HXCX(.J.` f +     X X X         X   X X X X               X X X X X X + + + # + + + # + + 1 f 5 3 3 5 3 3 f p f z z z z z f f 8 8 8 5 5 8 8 3 2 2 = % % % o . + .     + .     X                             ",
". 8 8 3 7 - ; 3 2 - % = 2 2 3 2 2 2 = 2 2 2 2 2 5 3 7 9 8 9 9 7 7 7 9 w b b C K J C g w h 8 q q 8 8 8 8 8 8 7 8 g w q 8 3 2 2 3 2 2 3 = o % 2 8 2 o o . o o = o o # o o 2 2 = 2 2 2 % % % o . . . . .     . 2 c } 7.(.kX(.+       X                                 pXAXAXAXHXV                     X             X   1 fXAXHXAXKXz         X       P.JXJX'           X   AXKXJXX               X HXKXKXKXl                                       X     f KXHXKX^.  O       X         fXJXJXf       X         z KXKXKX^.    X                             V AXwXP.%.S 1 # # O     X y A %._.wXAX'                 X         X             z KXAXHXAXKX+   O                         X } JX%.  X     X           KXJXJXKX1                   ^.JX%.X     X       X   5 KXHXKXJX+                   J.JXJX`                 X HXPX(.=.` f +   X X X X X                                 X X X X X X + + + # + + # # # # 3 l f 3 p 6 5 8 f p f f f l l l h c h z z f 8 8 q 5 2 = % o $ # o + # # #   . .     X                             ",
". 8 8 3 7 ; % 2 = 2 = = = 2 7 3 3 2 2 2 2 2 2 2 5 3 3 9 8 8 9 9 7 7 9 8 x m K K K C g w g 8 q 8 8 7 8 8 8 8 8 q g g g q 8 3 3 3 3 2 8 % o % 2 3 - . . o o $ - % % % o % 3 8 8 5 3 3 2 2 2 % . .   . .     . % f ' -.P.wXCX}                     X   X   X         } AXdXpXdXAXwX1             X                       J.CXCXPXAXHXl   X     X       I.KXJX%.            # JXJXKX                  AXHXJXKXl X                   X X                     -.KXKXKX^.            X X     dXKXKXf                 f KXKXJX^.      X                     X     l CXwXP.%.A 5 :   O   , + 6 B } J.(.fXpX1         X             X             X wXAXdXdXCXJX                                ` JX}                   # JXKXKXJX1       X       X   =.JX-.                  3 KXJXHXKXX                 X J.JXJX}                   HXpX^.=.' f + X X X X X                                   X X   X X + # # + # # # # # # 2 f z f 5 5 2 5 f f 5 5 p f l l h h c c h h f 8 8 8 3 = % o # # # o . # # #   . + .                                 ",
"+ 8 8 8 w q 7 2 2 2 2 2 = - 3 - 3 2 2 2 3 2 2 = 5 3 7 9 8 8 8 9 7 7 9 9 8 c K K U J h w q q q 8 8 3 7 3 7 8 7 8 g g g w 8 3 3 3 3 3 3 o o = 3 3 %   . . $ $ = % = % % - 8 q 8 8 8 8 8 8 7 2 o . .   .     . $ 3 V } J.^.pXAX'     X                             A AXfXwXIXwXpXAX_.1     X         X                 %.AXCXwXwXfXAXz     X         X I.KXKXJ.            f KXKXJX                  HXKXAXKXl                                       X   5 HXAXAXAX^.                  X pXKXJXy         X X     f KXHXKX^.                                  A fXwXI.;.V 1 + 6 z l f 5 # l ' %.P.wXCX(.+                                 2 (.CXfXwXpXCXAX+                         X     ` JXl             X     4 KXKXHXKXf                   } JX%.  X           X   4 KXHXHXJX                    J.KXKX`                 X AXpX^.-._ 5 + X     X X                       X         X X X X X X + # # # # # # # * # 5 l f f f 3 6 p f 5 3 3 5 f z z z g h h z z 8 3 3 5 2 % # # % % % o . # # # . . # .                                 ",
"  = = = 3 7 7 3 2 2 2 3 3 3 3 = 3 2 2 2 2 2 2 2 5 3 7 9 8 g 8 9 7 7 7 9 9 x n K J C h g q 8 q 8 8 3 3 3 3 3 3 7 q g g w 8 7 3 3 8 3 3 o o - 3 3 % . . o = $ - - 3 = = 2 3 3 3 3 2 5 8 5 5 3 = % . . . .   . # 2 z _ %.I.(.fXCX=.#           X   X         X # %.SXfXwX^.P.^.(.rXCX(.z                           2 J.CXpXwX(.(.pXCX3 X           X   J.KXHX(.  X X       V KXHXKX                  CXAXCXAXf                                   X     z wXdXdXfXAXP.          X         wXHXKX2 X               f HXAXHXP.                                  l dX(.J.} S 4 k | A A | | # 6 M } =.^.wXCXpXl     X         X     X       A pXdXwX(.(.(.pXAX    X                           ` JX1             X     f AXAXCXAXz                 X f JX%.                X # HXCXCXHXX                   =.KXKXA X     X   X       CXwXP.%.A 5 + X X   X                         X X         X X   X + + # # # # 1 # # * # f l 3 5 f 6 5 p p 2 6 2 5 p p f p f z z f f 2 2 2 2 % # % % $ # o o # # # # # . # .                                 ",
"  = 2 - ; - 9 8 2 - - 3 7 7 8 2 3 2 2 2 2 2 2 2 5 5 7 9 w x g 8 7 9 7 9 9 w v C C b q h q 8 8 8 8 3 3 3 3 7 2 3 q g h g q 8 3 2 8 3 2 % o 2 2 = o . o o - = - 3 7 2 2 3 3 2 2 = = 3 3 2 2 3 2 2 % . . . . . o = 2 b ' %.P.(.pXCXdX%.f                   5 %.dXCXpX(.P.J.-.=.P.(.wXCXAXJ.l               X   5 %.CXCXpX(.^.P.^.(.wXf                 =.HXCXdXX           ` CXAXCX                  fXfXdXdX5   X                         X # 5 f ` J.AXdXwX(.wXfXJ.X                   wXAXAX5                 2 CXCXfXJ.X                                 z pX^.=._ l a ;.V + O # z + 1 f ) } J.(.fXCXAX^.A #                 # A ^.AXdXwX(.P.P.^.(.CXX     X                         A KX                  O f CXpXpXdXz                   # KX| X             X   # CXdXfXCX                    %.AXAX_                   wX(.J.} D 2 + X X   X               X         X     X           O # # # # # 1 1 # # * # 5 f 2 5 f 3 5 5 3 % 1 1 6 5 3 5 5 8 f f 8 5 2 % % % % # % $ o o o o # # # % # # # .                                 ",
". 2 7 3 - 2 7 2 2 - - 3 2 2 3 3 7 3 3 3 3 2 2 2 5 7 7 9 g x g 9 7 7 7 8 8 w h C n h 7 h q 3 8 8 8 3 3 3 7 8 3 7 q g h g q q 7 2 2 = = = = 3 = % . o o o 2 = - q w 7 3 7 3 2 = = 2 8 8 2 2 3 3 2 = . . . . . . = 2 5 C } -.I.(.wXfXAXAXpXP.%.} } } %.J.pXAXCXfXwX^.P.-.} ` } %.J.^.(.pXCXAXAXP.%.} } } %.J.pXHXCXfXwX^.I.=.=.=.P.(.wXdXAXAXHXAXAXAXCXCXfXpXpXdXCXAXAXAXCXdXfXwXfXCXCXAXKXKXHXAXCXfXwXwX(.wXpXCXCXHXHXKXKXKXKXKXHXKXKXKXKXHXHXHXHXAXCXwX(.^.P.^.(.fXpXAXAXHXKXKXKXAXAXCXfXpXpXdXCXAXHXHXHXHXAXdXfXwXwXwXpXfXCXAXHXKXKXKXKXKXKXKXKXKXKXAXCXdXCXwXJ.;.A z y J.1   O   O @ # 4 f _ =.(.(.(.pXCXAXAX(.=.%.} } } =.^.AXHXCXpX(.^.J.=.-.J.^.wXwXCXAXAXKXKXKXKXKXKXKXKXKXKXHXAXAXCXHXAXKXHXHXKXKXHXAXdXfXwXIX(.wXpXCXAXHXHXAXKXHXAXAXAXCXAXAXHXAXKXKXKXAXAXCXpXwX(.wXwXpXCXAXAXHXKXHXAXAXCXpXfXpXdXCXAXAXHXHXHXAXCXpX(.I.%.' f 1 X X     X             X X     X X X X   X X         + # # # # # 1 1 1 1 # # 2 f 2 5 5 5 3 6 1 + , # 1 6 1 2 2 2 8 5 2 2 2 % % % % % % o o $ o % # # # % # . # +                                 ",
". 2 2 2 = 2 q 2 2 3 3 q 3 3 3 3 3 3 2 3 7 8 2 3 5 8 2 9 9 x g 8 9 7 7 9 g 8 w g w w 9 w w 8 8 8 8 3 3 3 8 8 8 8 8 w g g q 8 3 2 - = 3 3 3 3 2 o o . $ - = = 7 q w q w w 7 - 2 7 8 q 3 = 3 3 2 3 - % . . o . o % # 2 8 V ` %.J._.(.wXpXdXCXAXAXAXAXCXCXdXpXwX(._.J.%.` A C Z ' } =.I.^.wXpXfXCXCXAXAXAXCXCXdXpXwX(.P.=.%.} } } -.J.^.(.wXfXfXfXpXwXdXwX(.^.(.(.wXwXwXwXwX(.(.(.(.(.wXpXCXAXfXpXwX(.^.P.P.^.(.wXwXpXdXCXAXCXAXCXPXCXPXCXCXdXdXpXfXPX(.^.I.UX=.=._.wX(.wXpXpXdXKXCXpXwXwX(.(.(.IXwXwXfXdXfXAXpXwX(.^.^.^.^.(.wXpXdXdXHXCXdXCXCXCXCXAXAXpXwX(.wXwX-.` M 6 6 P.z O @ O O O 1 > y M P.J.=.I.^.IXwXdXPXCXAXAXAXAXCXCXfXCXwX^.P.=.} } } ;.J.(.^.wXwXfXCXCXAXAXCXCXCXdXAXHXpXpXpXwXpXpXpXfXdXPXdXfXgXwX(.^.P.P.^.(.<XrXfXfXkXkXfXpXpXwXwXwXgXpXfXdXPXdXfXgXwX(.^.P.P.^.(.wXpXfXdXdXfXpXwXwX(.(.(.(.wXwXfXdXfXfXgXwX(.I.=.} V 5 #     X                   X X X X X X         X O X   O # : # : 1 1 1 # # # : 1 2 3 3 5 5 6 1 % # # # # # , , 2 2 2 2 2 % # # # $ % % # # % % # # # # % 2 % . % % %                               ",
"# 5 f 2 = 2 - q 3 8 8 q 8 8 8 3 3 3 2 3 3 3 2 3 5 8 2 9 e x g 8 7 7 9 7 g 8 w w e w w w w 3 7 7 8 7 7 7 8 8 7 3 8 q w g q 8 2 2 = = 7 2 2 8 2 % o . % - = ; 7 q w q w w 7 2 3 8 7 8 3 2 3 2 2 7 3 - o o o   . # . o 2 8 c _ } %.J.P.^.(.(.wXwXwXwXwX(.(.^.P.J.-.} _ l f 8 q h A ` %.=.I.^.(.(.wXwXwXwXwX(.(.^.P.=.%.} _ V c A ` %.=.P.^.(.(.^.^.(.(.P.J.J.J.J.P.P.P.P.P.J.J.J.J.J.P.^.(.wX(.^.P.J.=.=.=.=.J.P.^.(.(.wXwX(.fXwX(.(.(.(.(.(.^.^.(.wXJ.-.%.} | } J.(.J.^.^.(.wXCX(.^.P.P.J.J.J.I.P.^.^.(.(.wX^.P.J.UX=.=.J.I.P.^.(.(.wXgXwX(.(.(.(.pXwX^.^.I.(.P.` V y : 6 -.UXy O O   # @ # > ~ ^.| ' %.=.I._.^.(.wXwXwXwXwXIX(.^.IXP.=.%.` A V V _ %.P.=.P.^.(.(.(.pXwX(.(.(.(.wXdX(.^.^.^.^.^.^.(.(.(.(.^.^.P.J.=.%.%.=.J.P.^.(.(.(.(.(.(.^.^._.Q.^.^.).(.(.(.).^.P.J.=.=.=.J.J.P.^.^.(.(.(.^.^.P.J.J.J.J.P.^.^.^.^.^.^.P.J.%.} A z 2 +     X   X           X   X X X X X X         X O X X O # : # : 1 1 1 # # # : 1 2 2 2 2 2 1 % # # # # % , 1 1 2 2 % % % # % % % % % % # % % % # # # # % % % . % % #                               ",
"  2 8 8 q 8 - 7 2 3 8 8 8 q 8 3 3 3 3 3 2 3 2 3 5 8 2 9 e x g 9 7 7 9 7 8 8 8 8 8 9 g g w 2 7 3 8 8 8 8 8 8 7 3 8 8 q q q 3 2 - 2 8 g 2 2 q 2 % . o = - = - 8 q w w q 7 3 3 8 8 7 7 3 8 8 - = 8 3 2 $ o o   . o . . % 2 5 z C _ } %.-.UXJ.I.P.P.I.J.J.=.-.%.} _ c f 3 2 1 1 2 8 l A ` } %.=.J.I.I.P.^.I.J.=.%.%.} _ D f 5 5 f D A | %.-.=.UX=.=.P.J.%.%.} } } %.%.-.-.%.;.} } } %.%.%.J.P.=.-.%.} } } ` ` } %.-.=.J.^.J.J.^.(.J.J.J.J.=.=.=.-.J.^.} _ A V M S %.^.} %.=.=.^.(.=.=.%.%.} } } %.%.-.-.J.P.^.%.%.} } | | } ;.%.=.=.J.P.(.J.J.J.J.UX^._.=.=.J.P.} S z 1 : @ j J.%.6   O O >   < } I.z z ~ ` } -.=.J.J.P.P.P.I.I.J.=.P.%.` A l f y 5 l _ =.} %.%.=.J.J.(.^.=.J.J.J.(._.=.%.-.-.-.-.=.=.=.=.=.=.%.%.} | ` ' ` } O.-.=.7.i.i.i.=.=.%.%.%.-.-.=.=.=.=.=.-.%.} } ` ` } } %.-.=.=.=.=.=.%.%.O.} } } %.%.=.=.=.=.-.%.} ' V f 3 # +     X   X X           X   X X X X       X X X X X X + # : # : , 1 1 # # # , , 1 1 : , 1 # # # # # # , 2 1 1 2 2 % % # # % % % % # # # % % % # % $ $ % % % # # % .                               ",
"  . + 2 3 2 8 2 2 2 8 8 3 8 3 3 3 3 3 7 2 3 3 3 5 8 2 9 e x g 8 7 9 8 7 8 8 8 9 8 8 w x x 7 7 3 8 8 8 8 8 8 7 3 8 8 8 8 8 3 2 2 q g c 3 3 g 2 % o = - - - 7 w q w w q 3 - 3 8 8 8 8 8 8 7 - 2 8 3 3 $ o o . . . . . . # % 2 5 g b Z _ ` } } } } } } } ` _ A c f 3 1 # # + # # % 2 y z V A ` } } } %.-.} } ` A A z 5 1 1 # # 1 3 f l V ~ | | ` | =.} ' } A V A _ _ _ _ ~ S V V V A _ ~ %.J.` _ A S V V l M S A ' _ =.=.` } ;.(.%.| } ` ` ` ' ) ;.I.M z f 6 6 f | I.V } %.I.^.%.` ' ) A S V V S ~ _ ` } J.=._ ~ M l l l D S A _ ` ` %.(.%.| | } } J.-.| -.I.=.~ j : 1 : O @ M %.=.l # O   > @ } UX4 6 f f V ) _ | } } ;.;.} } | ` =.~ k 6 4 4 1 1 y z } V A A ' ` } J.J.} } } J.J.} ' ' _ _ ' ' ` ` ` ` ` ' _ A V M z f h V A ' ` | | | | ` ' A A A U _ ' ` ` ` ' _ A V l l l V V A _ ' ` ` ` ' U A Z V V V A ( ' ` ` ` _ A V f 5 2 , + X X   X X X X           X     X   X       X X X     X + # : # : 1 1 # # # * , # # # # # # # # # , % # , 1 1 1 2 2 2 % % # % % $ $ # # # % % % # % % % % % % % # % .                               ",
". 1 1 2 = = 8 3 7 2 8 8 8 8 3 3 3 3 3 7 2 5 3 2 5 8 3 9 e g w 9 7 9 8 7 8 8 w 9 8 8 w x x 7 7 3 7 8 8 8 8 8 3 3 8 8 8 8 3 2 2 7 g g g 3 8 g - = = - 3 - 3 w g w w q 8 3 - 8 q 8 8 8 8 7 3 2 3 8 3 3 $ o o . . . . . . . . # $ % 2 5 f z h c c c b c l z f 5 2 % + .     X X       + , 1 3 f f z V V _ l z f 5 3 2 1 + + + # # # , 1 4 6 k l f M S D z M f 3 6 y y p f y y 6 6 6 6 y f ` -.z f 6 6 6 6 2 3 6 6 f V =._ V z l J.=.z z f z f f 6 ' UX1 : # + # , A UXz | ^.-._ y f f a 5 6 6 4 6 5 f z f ;.} y a 1 1 4 4 6 6 5 a f a ` _.~ l z z B =.} M j M } -.f O # O @ >   f =.J.l @ #   @ ` %.O : # < 4 y j l l M V V D l k z } f 1 # + + # : : f | 2 3 5 f y l -.%.z V ` } z f f z f 5 f f f p p y y y y 3 4 2 1 1 2 3 q z l l l h f f 5 3 5 3 5 q f f f f q 8 5 5 2 2 6 6 6 5 q f q q f q q 5 3 3 3 3 6 5 f f f 5 5 3 2 1 # + + X         X   X X                   X X X   X         O # # : # : : , # # # * # # # # # # # # # , 1 % # % 1 1 2 6 2 2 2 % % = % % % % % % % % # # % % % % % % % # % . X                             ",
"  3 f 5 8 8 2 3 8 2 3 8 g g 8 8 3 3 3 8 3 8 3 2 3 8 7 e e w w 8 7 9 9 7 w 8 w 9 7 9 w x g 7 7 3 7 8 q q 8 8 7 3 8 8 8 7 3 3 8 q g g 8 3 g 8 = 2 - 3 7 3 7 w h w w q 8 7 7 q w 8 8 8 8 3 3 3 8 8 3 3 = o o . . . . . . . . . . # # # % % = 2 2 2 2 1 1 = # # .         . .         X X + # # # 1 1 2 5 # # # + X + X             O O O + 4 y : 4 4 1 1 2 2 # : # # : 1 : : : : # : # : V } : : : # : : # : # # 1 M J.} ' _ ` =.I.y # # 1 O : + A UX#   O +   + D =.# , } J.f # : : : : # # # # # # # : V ' # : : + # # # # # # : > ` J.y : < : : J.| : : O y -.;.: O   O O O @ 6 -.I.y # @ O B %.O O O : : # 1 1 1 1 1 4 4 , 1 4 ` y # O X   O # + 6 _ # # # # # 1 %.` + 1 ' ' 1 # # : : # # # + # # + + + + + + : # # # + % 1 2 3 3 2 # . X   X O . + + # # # + # # # # # # + + . # # # # o # o # # + + + + # # # # + + + + + X X X           X   X X X                 X X               O # # : : : : : # # # # # * # , # # % # # # , # # # 1 , 2 5 5 5 2 2 2 2 2 2 2 % % # % % % # # % % % % % = # % # +                             ",
"  2 3 2 3 8 2 7 8 = 8 3 q g 8 8 7 7 8 q 3 8 8 3 5 8 7 e 9 e 9 9 7 7 9 9 g w w 9 9 w w x w 8 7 3 3 8 q q q 8 8 8 8 q 8 3 3 8 q g g h 3 7 g 3 = - 2 7 e 9 w h h w q 8 8 q q q q 8 3 3 8 8 3 7 8 7 3 3 = o o . . . . . . . . . . . .                     .   . .         .           X X   X X     X + # X X       X                       1 4 O : 2 1 : 1 1 O # + X + # O O O O O O O O z ' # O O O O O O + O X 1 } ~ z z z y D J._ + O O   O X A =.#   + #   # M -.  X 6 -.%., O O O O           O   # 4 ~ 6                     : ;.%.1   O O < J.}   O #   _ J.< @ @ O # O > O y =.%.    > 6 %.f   @ @ O   O O     O O O O + : ` f O X       O # 5 A + +     X + %.A #   f %.l   X                     X O   X     X X   . # # , 1 #                   . . .       X + +                                   X X X X         X     X X   X     X     X X X             X X         X     O # : : , : : 1 : # # 1 , , * * , , # # # # # % # # % 1 , 2 5 5 2 2 2 2 2 2 2 2 % % % % 2 % % % % % % % % % # % % +                             ",
"  = 1 2 = 2 g 8 7 2 g 8 8 8 3 3 7 3 8 q 2 7 8 3 3 8 7 e 9 9 8 9 7 7 9 9 h g w 9 w w 8 x w g 7 3 2 3 8 q 8 8 8 8 8 q 8 7 8 q g g w h 3 3 g 2 = 2 3 q w w w x h g w 8 8 w w q 8 3 - 2 8 8 7 3 7 3 3 3 = $ o . . . o . . . . . . . . O   . . .               X .   .             X   X     X X         X   X   X   X X                     : 2   # # f 2 X : +   + # # # + O + # + O + X f A # O # O O O X O O O 6 -.: O +   # O ` -.1 +   + O   M %.# O       # l %.  O O y I.} O O O X         X O   + O ' ` #   O O O     O + + j } j   O # O 1 J.| #   # @ _ J.6   @ O @ @ @ @ @ ` } @ O O : | _ O >     O O O   + # + O O # # | l O X   O O # 1 l ~ + O X O X + } `   X X V V X # O     X O           X X X       X X   . # # # # +                   X . X   X   . + +                       X X       X X X X X X X     X X   + X         X X   X X X             X X         X X   O # : : : , : 1 , # # , , , , , , # # # % % % % # # % 1 , 1 3 5 2 2 2 2 2 2 2 2 2 2 2 2 2 2 % % 2 2 % % % % # % 2 +                             ",
"+ # 3 2 5 2 2 2 8 - 7 q h q 8 8 8 8 8 q 7 q 3 8 8 8 7 8 e 8 8 9 7 8 9 9 h h 8 w w w e v v e 7 2 2 2 3 7 7 8 7 7 7 8 8 7 q g h h 8 7 3 8 5 3 2 2 8 h e e h h z q 7 7 7 7 3 3 2 2 % = 2 2 2 2 2 = = = = . o X . o + . . . . . . . o O #   . +                                     X       @     X     X X         O     +           @ O O O : . . X * 1 * +       O   + @ # :   . . . O 6 k   # + + X :   + O   _ | O .   > >   3 %.V   + X + X f ' #   + X X # z ;.O   X   ` I.A X O +       @ > O   O + 6 S V O O     O     + 1 A z   > @   @ : %.:.> @ # + ' } # O   O # O   + X _ S O   O + 5 | z O O #     O   4 f . O O < X D | : O + O # 1 : A l # + X .   # %.`     X X V } 1   +   X               .             X O + O o             O         + O     X     X X                       . . X     X   X X X X                                                             .   O # O , > # % 1 1 1 1 1 # # # : 1 1 % # # # # # % , # # 1 2 2 2 2 2 2 2 2 3 2 2 2 2 2 2 3 3 2 2 2 2 % % % % = o % 2 # .                           ",
"2 5 5 3 - = = % = 2 8 3 3 8 8 q 8 8 8 8 7 8 3 8 8 8 7 9 8 9 8 7 7 8 7 9 g g 9 w w w w v v e 7 2 2 2 2 3 7 7 3 3 3 7 7 7 w g g g 8 7 3 7 3 2 - - e e q g f g 8 ; 2 2 2 2 2 = = % # % , 2 , % % % # # #   # o o + # . . . . . . . . +   . . +           X X X X X X X               # X   .     O     X X         . . X     .   O .                 . # .                   X     > O . - l % + # # 1 1 O O + 6 } f O +   # O + , ' A 1 O   O X y S #   @ O O # f _ : O O O 4 } =.h > > O   X X   @ O O O @ 6 z y O O O O + # 1 6 4 # #   # + O 4 %.~ < , % 5 M 4 O O O : 1 # O + 6 l 6   @ # O # y z a :   @ # O 4 y %   #     : # A S 6 O + O : l z # X # X   X # %.} +   X   4 } ` 4   .   X O O O O                                               .     . +         X X     X .                       X X     O O O O X                           X X X X X X X X X           O   + X X 1 1 : # # = * 1 1 1 , 1 : 1 1 1 % # # # # # # , # # 1 2 2 2 2 2 2 2 2 2 2 2 3 3 2 3 5 3 2 2 2 2 % $ $ % % o % 2 # X                           ",
"+ F 3 g 3 8 q 2 3 5 5 8 8 8 7 w q 8 q 7 7 3 3 8 q 8 7 9 9 9 8 7 9 8 9 8 g g 9 w w w w v x 9 7 2 2 2 2 3 3 3 2 2 2 2 7 9 w x g w 8 7 3 3 3 2 - - 7 w 7 q 2 8 3 o # # # # o . . . . . . o o . . . o . .   X       . . . . . . . . . $ . + .                                       X         #       X X X                         O                         O O O +         X O   X     , f 6 y 5 f f :   X # l } F .   +     # O 5 z 2     O X 2 5 .   X X   + 3 l 6 + O @   # Z ' y > O : O   o     X X     X .       X + + # # @ O O X X   + 6 ) S 6 * F < :   X X X + 1 # + # 6 : X X O O X X   + 2 2 # + # 2 < @   X X X @ # # # l V z 1 3 A f :   O + X X X f } } 3 + #     1 h F < O >         X X                     O O     O O X     X o                     X X X X X . .             .           X   X                                                               O :     # # + # # # # # # 1 1 1 1 1 1 1 , # # # % % % % , % % 2 2 2 2 2 2 2 2 2 2 2 3 5 7 3 3 8 2 3 3 2 = $ $ $ % % $ % = %                             ",
"* 3 2 3 3 3 g 3 q f q g g w 3 8 q 8 g 8 8 3 3 7 q 8 7 8 8 9 8 9 9 8 9 w g w e w e e e x x 9 7 - 7 2 7 2 2 2 2 2 2 - 7 9 w r w w 9 7 2 3 2 2 - 2 q w 2 0 3 2 o , + + + O X X X X                             + : . . . . . . . .     @         O       X X X     X X             X   O X   O X X X X X X X         #   X O O       X   . E 2.0.w.x.x.b.n.Z.n.x.x.t.w.0.Q t .   + O X . o   # : : + # O O # O # : :   X   #       X X X           X             O > + X     #   @ # 2 X     > >   X X X     X X     X X X X X           .   O # X # + # + @     . O             + X     O     X         O O X   X       O   +     O   # : , # 4 2 +   O O   X X + X 3 2 + X X X X O   . X       + . e W 2.w.t.t.b.b.V.Z.Z.n.x.t.w.0.Q G $           #   +     . .       X         .               O X         X   O                                                     O X X X X     X X # : # % # # # # # , 1 1 # # # , % # # # % % % % % % % 2 2 2 2 2 2 5 5 2 2 2 3 5 3 3 3 5 2 3 3 2 = $ $ % % % $ % 2 % .                           ",
"2 2 3 3 3 3 3 - = q q q q g 8 8 8 8 g 8 q 8 8 8 q q 7 8 9 9 8 9 9 9 8 w r w w w 9 e e x r 9 9 7 7 7 7 2 2 2 2 2 - - - 9 e w w e 9 7 2 2 2 2 - 3 3 3 f 3 2 < o +                                       X     # O X X . . . . . . O . > o   . . O                                   . .   . >     X   X           .   O         O r $.t.F.Z.S.n.C.A.S.Z.n.Z.C.A.A.Z.A.Z.Z.Z.n.t.Q 0       X X   + + # O     X O O O   > >   . +   X     X X         X     X       O   . > # O   > +     *   O # .   X           X                 X       . @   X             >           X           X     X X     X             +     O   X   X # #   O O   O   +   O O O X   # 1     X X     X   @ +     . ! H.b.b.Z.S.C.C.C.A.S.S.Z.Z.Z.Z.A.A.Z.V.V.F.t.Q t                 O         . . . X .       .                   X                                                                   . O .   + # 6 . % % , # # 1 , % # # # % # # # # % % % % = % % 2 2 2 2 2 3 5 5 2 2 2 5 5 3 3 3 5 2 2 2 2 % % % % % % % = = % #                           ",
". 2 3 q q w 2 2 = 3 2 8 q q 8 w q 8 w 8 q 8 8 8 8 8 9 9 e 8 9 9 9 8 9 w w w e w e e w x v e 9 7 7 2 2 2 2 2 2 - 2 - - 7 9 w g 9 7 7 3 2 2 = - 3 q 8 3 $ ; H F.S.A.C.C.C.C.C.C.C.C.C.C.C.C.C.C.C.C.C.C.V.n.V.n.w.  X . . . . . . ,   . t.D.Z.V.V.C.C.C.C.C.C.C.C.C.C.C.C.C.C.C.C.S.S.Z.F.F.. . @                 O O     . . Q w.V.C.V.V.n.S.A.A.Z.Z.Z.A.A.Z.Z.Z.D.n.n.C.V.V.D.D.F.t.E   @     . X X # X   + O O O o O . z.V.Z.V.C.A.C.n.A.C.n.C.C.A.C.C.C.C.C.C.S.S.0.o   @ X O   # @ O @   ! #XC.C.C.A.A.C.n.n.C.S.A.C.C.C.A.A.V.Z.S.C.M.P & O + & M.D.Z.S.D.C.C.C.C.C.A.C.n.C.C.C.C.n.C.C.C.C.C.n.n.C.C.V.C.A.n.V.Z.D.D.2.. +   + #     O O + # O O   + O   # #     X X X + X @     , o.t.V.D.S.S.Z.C.Z.A.D.D.V.Z.Z.A.A.A.Z.Z.A.D.S.b.V.S.n.t.! .   > #   .         . . . . .         .       x.Z.V.C.C.C.C.V.C.C.C.C.C.S.C.C.C.C.C.C.C.C.C.C.C.C.C.C.C.C.C.C.C.C.C.C.A.C.C.A.z.+   o + % # o , , , % # % # # # # # % # # # % % % % % 2 % % 2 2 2 2 2 3 5 5 2 2 3 5 2 2 3 3 3 2 2 2 = % % % % % % % - = % #                           ",
". 3 3 3 7 8 3 8 8 3 2 8 g 7 8 q q q q q 8 q 8 8 q q 8 9 9 9 9 8 9 8 e w w e e e w w w v v w 9 9 7 2 2 2 2 2 2 2 2 2 7 7 9 r g 9 7 2 2 2 = % - 3 0 7 6 2 > # F.n.V.V.V.V.Z.Z.Z.Z.Z.Z.Z.Z.Z.Z.Z.V.Z.Z.Z.Z.Z.Z.D.w.  X . . . . . O   o . x.n.A.A.Z.Z.Z.Z.Z.V.Z.V.V.Z.Z.V.V.V.V.V.V.n.D.n.S.t.&   X                   > O . Q t.V.S.A.C.C.A.D.D.Z.b.S.S.S.Z.V.V.Z.S.C.C.S.S.A.A.n.n.D.V.V.t.W . +   O O O O + # O X . . O   t.S.n.Z.Z.D.Z.Z.Z.Z.Z.D.Z.Z.Z.Z.V.Z.Z.Z.n.D.w.  @ >   # O O @ @ O . Q S.Z.Z.F.V.Z.Z.Z.Z.Z.Z.Z.Z.Z.Z.Z.Z.Z.D.b.C.b..     X ; S.x.S.C.M.D.Z.Z.Z.Z.Z.Z.Z.Z.Z.Z.Z.Z.Z.Z.Z.D.Z.S.S.Z.Z.Z.Z.F.D.C.n.C.V.0.    # + # X O     O   O O   O + X + X + X   X X X       Q b.V.D.D.C.V.V.Z.V.C.C.C.V.S.S.Z.V.V.V.Z.Z.Z.Z.Z.A.A.C.C.n.S.t.Q .   X   X       . . . X                   t.F.Z.Z.Z.Z.Z.Z.Z.Z.Z.Z.Z.Z.Z.Z.Z.Z.Z.Z.Z.Z.Z.Z.Z.Z.Z.Z.Z.Z.Z.Z.Z.Z.V.Z.V.Z.Z.Z.z..   X : $ , # 1 1 , % 1 , % # # # % , , # # % % % % 2 2 % % 2 3 2 2 2 3 5 5 2 2 5 5 2 2 3 3 2 2 2 = % % = % % % % % - = % % X                         ",
"# z g 3 g 3 q 5 q q q 8 8 2 q 8 q q 8 q 8 g 8 q q q 8 9 9 9 e 8 e 9 w g w w e e w w e x v r 9 9 7 7 2 2 2 2 2 2 7 2 7 7 9 r g 7 - 2 2 2 = % - 3 8 = 7 $ @ . x.C.C.S.C.S.S.C.C.Z.C.Z.C.C.S.S.C.Z.A.n.C.C.C.V.D.t.  X . . . . . O >   O b.C.D.Z.C.C.A.A.C.C.C.C.C.A.C.C.C.C.C.C.C.S.b.D.Z.w.O X @                 O   t z.D.Z.C.n.Z.Z.Z.n.S.V.V.D.Z.Z.Z.S.C.Z.Z.Z.Z.Z.Z.Z.Z.S.V.S.S.n.A.C.V.t.0     O O O X   X X >   > X ! D.D.V.C.C.C.A.n.A.C.n.C.n.S.A.C.C.Z.A.G.Z.b.    @ X > @ O X       q.C.Z.C.A.C.V.Z.S.C.A.C.C.C.C.C.C.C.C.Z.A.F.w.  >     T Z.C.Z.C.D.V.C.A.C.C.C.C.C.C.C.C.A.A.C.C.C.n.Z.Z.Z.C.Z.Z.C.A.Z.C.C.n.V.w.X O O O O   O   #   O     O X   X + X O     + X   X r f.V.C.C.D.Z.V.V.S.A.A.n.Z.Z.Z.Z.Z.Z.Z.Z.Z.S.S.C.S.A.Z.V.C.C.Z.n.S.V.t.G   O       . . . .     .               t.D.A.C.A.C.S.A.C.C.C.C.C.C.C.C.C.C.C.C.C.C.C.C.C.C.C.C.C.C.C.C.C.C.C.C.C.C.C.C.t.. X   : $ : : , , , , , 1 % # # # , 1 , % # # # % % 2 2 % % 2 3 3 2 2 5 5 5 2 2 5 5 2 2 3 2 = 2 = % % % 2 = % % % % 2 = % = +                         ",
"  3 3 3 q q q q 5 3 2 8 g g g 7 8 8 8 8 8 w g w q w 8 e e 9 e 9 e e e w w e e e w w w r v w g 7 7 7 7 2 2 2 2 2 2 - 7 7 0 w 9 - 2 2 2 = = % - 7 8 3 2 % . . w.A.Z.Z.Z.Z.Z.Z.Z.Z.Z.Z.Z.Z.Z.Z.Z.Z.Z.Z.Z.Z.Z.A.n.x.  O   X # . . . .     V.C.A.Z.S.Z.Z.Z.Z.Z.Z.Z.Z.Z.Z.Z.Z.Z.Z.Z.Z.Z.V.A.M.0.+               X   > . o.n.S.C.A.Z.V.Z.Z.Z.Z.Z.Z.Z.Z.Z.Z.Z.Z.Z.Z.Z.Z.Z.Z.Z.Z.Z.Z.Z.Z.Z.D.n.C.V.D.b.Q   .   X O O > + O   @   . b.A.A.Z.Z.Z.Z.Z.Z.Z.Z.Z.Z.Z.Z.Z.Z.Z.Z.Z.C.V.&   O @ . @ . . @   . t.Z.Z.Z.Z.Z.Z.Z.Z.Z.Z.Z.Z.Z.Z.Z.Z.Z.V.A.n.V.E O   O O Q Z.Z.C.A.C.Z.Z.Z.Z.Z.Z.Z.Z.Z.Z.Z.Z.Z.Z.Z.Z.Z.Z.Z.Z.Z.Z.Z.Z.Z.Z.D.V.V.D.t.O   X O O O O O O O O       X     # . o     @   . W n.n.Z.Z.S.Z.Z.Z.Z.Z.Z.Z.Z.Z.Z.Z.Z.Z.Z.Z.Z.Z.Z.Z.Z.Z.Z.Z.Z.Z.Z.Z.D.n.G.C.V.Q . O   X +     . O                   w.Z.C.A.Z.C.S.A.Z.Z.Z.Z.Z.Z.Z.Z.Z.Z.Z.Z.Z.Z.Z.Z.Z.Z.Z.Z.Z.Z.Z.Z.Z.Z.Z.Z.Z.Z.Z.Z.t.    + . , # % 1 1 1 1 # # # + X # 1 1 # % % % % % % 2 2 2 2 2 5 2 2 2 5 8 5 2 3 5 3 2 2 2 2 % % % = 2 = % % % % % = - = % % #                         ",
". 5 2 - - - - 2 5 5 3 3 3 8 g w g g g g q q q 8 q w 8 8 e e w e r w w w e e e e e w w w v w g 7 - - 2 2 7 2 2 7 7 2 7 7 ; 7 - - 2 2 2 = = % 2 9 8 3 2 % o   0.C.Z.Z.Z.Z.Z.Z.Z.Z.Z.Z.Z.Z.Z.Z.Z.Z.Z.Z.S.Z.Z.A.Z.b.      . o & .       3 Z.C.A.Z.S.Z.Z.Z.Z.Z.Z.Z.Z.Z.Z.Z.Z.Z.Z.Z.Z.A.V.C.M.Q         O   > X     o 0.b.S.V.n.D.Z.Z.Z.Z.Z.Z.Z.Z.Z.Z.Z.Z.Z.Z.Z.Z.Z.Z.Z.Z.Z.Z.Z.Z.Z.Z.Z.A.Z.S.Z.n.D.n.2.+     : #   + O + O     w.A.Z.Z.Z.Z.Z.Z.Z.Z.Z.Z.Z.Z.Z.Z.Z.Z.Z.Z.V.S.E     +   O +   O   . F.Z.Z.Z.Z.Z.Z.Z.Z.Z.Z.Z.Z.Z.Z.Z.Z.Z.V.S.n.b..     +   >.D.Z.C.S.C.Z.Z.Z.Z.Z.Z.Z.Z.Z.Z.Z.Z.Z.Z.Z.Z.Z.Z.Z.Z.Z.Z.Z.Z.Z.Z.Z.Z.S.n.b..   X X O O O O O O O       O X   # O O   +   . H.N.Z.Z.Z.Z.S.S.Z.Z.Z.Z.Z.Z.Z.Z.Z.Z.Z.Z.Z.Z.Z.Z.Z.Z.Z.Z.Z.Z.Z.Z.Z.Z.Z.Z.n.C.V.D.l.;   O       +                     w.Z.C.A.Z.C.S.A.Z.Z.Z.Z.Z.Z.Z.Z.Z.Z.Z.Z.Z.Z.Z.Z.Z.Z.Z.Z.Z.Z.Z.Z.Z.Z.Z.Z.Z.Z.Z.Z.t.    + . , # % 1 1 1 1 % # # + X # , % # % % % % % % % % 2 2 2 2 2 2 2 5 5 5 2 3 3 3 2 = = = % % % = = = % % % % % = 2 = = % #                         ",
"# q 3 2 - 2 2 3 3 5 8 8 8 7 8 7 x g g g g g w 9 w w 8 e e w x v x r r w e w w e e w w w m v g 8 2 7 7 7 2 2 7 7 9 7 7 7 - 7 - - 2 2 - - = = 2 q e q 3 % o   Q Z.Z.Z.Z.Z.Z.Z.Z.Z.Z.Z.Z.Z.Z.Z.Z.Z.Z.Z.S.S.Z.C.C.Z.o   X X . % o       m Z.A.Z.Z.S.Z.Z.Z.Z.Z.Z.Z.Z.Z.Z.Z.Z.Z.Z.Z.Z.A.V.A.Z.E   .       O   O   . 0.V.S.Z.Z.D.D.Z.Z.Z.Z.Z.Z.Z.Z.Z.Z.Z.Z.Z.Z.Z.Z.Z.Z.Z.Z.Z.Z.Z.Z.Z.Z.Z.A.n.Z.A.Z.Z.D.n.0.  O   . : X O + X     Q S.V.Z.Z.Z.Z.Z.Z.Z.Z.Z.Z.Z.Z.Z.Z.Z.Z.S.V.Z.o.    @ X O # . O   H D.A.Z.C.Z.Z.Z.Z.Z.Z.Z.Z.Z.Z.Z.Z.Z.Z.D.n.Z.w.    O     0.A.V.C.C.C.Z.Z.Z.Z.Z.Z.Z.Z.Z.Z.Z.Z.Z.Z.Z.Z.Z.Z.Z.Z.Z.Z.Z.Z.Z.S.n.Z.A.n.D.;   X X X O O O O O     X X O X   # > @     & 0.F.S.Z.Z.Z.S.C.C.S.Z.Z.Z.Z.Z.Z.Z.Z.Z.Z.Z.Z.Z.Z.Z.Z.Z.Z.Z.Z.Z.Z.Z.Z.Z.V.D.Z.C.C.n.Z.v.t   O   O   .                   w.Z.C.A.Z.V.C.Z.Z.Z.Z.Z.Z.Z.Z.Z.Z.Z.Z.Z.Z.Z.Z.Z.Z.Z.Z.Z.Z.Z.Z.Z.Z.Z.Z.Z.Z.Z.Z.Z.t.    + . < = % 2 1 1 1 , # + . + # , # # # % % % % % % % 2 2 2 2 2 2 2 5 5 5 2 2 3 2 = % # % % % = = = = = = % = % = 2 = = % #                         ",
"# f 5 q 8 q 3 q 5 3 8 g h g g 8 g w g x g g w 8 g g q e e r v m w r x r w w w 9 e r w w n n x w 7 9 7 7 2 7 7 2 9 7 - - 7 0 - - 7 - - - = ; 7 9 e e 3 % o   ! A.Z.Z.Z.Z.Z.Z.Z.Z.Z.Z.Z.Z.Z.Z.Z.Z.S.Z.Z.S.Z.Z.Z.Z.r   X   . % o X     E Z.C.Z.Z.S.Z.Z.Z.Z.Z.Z.Z.Z.Z.Z.Z.Z.Z.Z.Z.Z.A.V.A.Z.e   .             . 0.D.V.Z.Z.Z.Z.V.V.A.Z.Z.Z.Z.Z.Z.Z.Z.Z.Z.Z.Z.Z.Z.Z.Z.Z.Z.Z.Z.Z.Z.Z.Z.V.S.S.n.Z.A.Z.V.A.V.o.>   .   : + + X .   e F.Z.Z.Z.Z.Z.Z.Z.Z.Z.Z.Z.Z.Z.Z.Z.Z.Z.C.C.Z.0.    O + O + .     2.V.Z.Z.Z.Z.Z.Z.Z.Z.Z.Z.Z.Z.Z.Z.Z.Z.Z.Z.V.V.Q O   O     t.n.V.S.Z.V.Z.Z.Z.Z.Z.Z.Z.Z.Z.Z.Z.Z.Z.Z.Z.Z.Z.Z.Z.Z.Z.Z.Z.Z.Z.S.Z.Z.A.C.Z.T   X X X O O O O O X   X X O X   # . O X . 0.S.n.Z.C.S.Z.Z.Z.Z.S.S.Z.Z.Z.Z.Z.Z.Z.Z.Z.Z.Z.Z.Z.Z.Z.Z.Z.Z.Z.Z.Z.Z.Z.Z.V.b.D.D.V.S.C.C.t.0 O     .   O       X         w.Z.C.A.Z.C.C.A.Z.Z.Z.Z.Z.Z.Z.Z.Z.Z.Z.Z.Z.Z.Z.Z.Z.Z.Z.Z.Z.Z.Z.Z.Z.Z.Z.Z.Z.Z.Z.Z.t.    . o , 1 = 1 2 1 1 1 # + + # # # # # # # % % , , % , , 2 1 , 1 6 5 5 5 3 2 2 2 2 % # o % % % = = = = = = % = % = 2 = % % $                         ",
"# f 5 q 8 8 2 3 7 2 3 q h g g g g w g g g 8 8 8 g g 8 e w x m n w r v x w w w e w r w w m n x r - 7 7 9 9 7 7 2 9 7 - - 0 - ; - 9 - 2 - % - 7 e 9 e 3 $ o X 0 D.Z.Z.Z.Z.Z.Z.Z.Z.Z.Z.Z.Z.Z.Z.Z.Z.A.Z.Z.C.Z.Z.Z.Z.E   O . . o . X X   Q Z.C.D.Z.C.Z.Z.Z.Z.Z.Z.Z.Z.Z.Z.Z.Z.Z.Z.Z.Z.Z.Z.Z.V..           @ O   o.V.Z.D.D.D.Z.V.V.C.A.Z.Z.Z.Z.Z.Z.Z.Z.Z.Z.Z.Z.Z.Z.Z.Z.Z.Z.Z.Z.C.C.Z.Z.C.V.A.A.Z.A.S.S.V.V.V.W     O @ # >   X     t.V.Z.Z.Z.Z.Z.Z.Z.Z.Z.Z.Z.Z.Z.Z.Z.Z.Z.C.A.t.      # @ X     . 0.C.Z.Z.Z.Z.Z.Z.Z.Z.Z.Z.Z.Z.Z.Z.Z.Z.Z.Z.A.F.0 +   +     z.C.C.S.A.C.Z.Z.Z.Z.Z.Z.Z.Z.Z.Z.Z.Z.Z.Z.Z.Z.Z.Z.Z.Z.Z.Z.Z.Z.Z.C.D.V.n.A.Z.Q   X X X O O O O O O   O   O X X # # .   1.S.n.A.D.C.C.Z.Z.Z.Z.Z.Z.Z.Z.Z.Z.Z.Z.Z.Z.Z.Z.Z.Z.Z.Z.Z.Z.Z.Z.Z.Z.Z.Z.Z.Z.A.A.n.Z.S.V.V.S.S.z.. O               X         w.Z.C.A.Z.C.C.Z.Z.Z.Z.Z.Z.Z.Z.Z.Z.Z.Z.Z.Z.Z.Z.Z.Z.Z.Z.Z.Z.Z.Z.Z.Z.Z.Z.Z.Z.Z.Z.Z.t.    . . < 1 2 1 2 1 = 1 # # # # # # # # # # # % % % # , , 1 1 1 2 3 5 5 3 6 1 # % % % % % % % = = = = = = 2 % = % , - , % % $                         ",
"1 q 3 8 3 2 = 2 8 2 8 q g 8 w g 8 8 g g w 8 8 8 g g 9 w x v n n x x v r e e w w w w w w v n x r 7 7 7 r w - 7 7 9 8 9 7 - - 9 e 9 7 7 7 - - 7 9 9 w 3 $ o + . b.Z.Z.Z.Z.Z.Z.Z.Z.Z.Z.Z.Z.Z.Z.Z.Z.C.Z.Z.S.A.S.A.Z.Q   O . . o . O O   >.A.C.D.Z.C.Z.Z.Z.Z.Z.Z.Z.Z.Z.Z.Z.Z.Z.Z.Z.Z.Z.S.V.b.        X     . t b.D.V.C.C.Z.V.C.S.A.M.Z.Z.Z.Z.Z.Z.Z.Z.Z.Z.Z.Z.Z.Z.Z.Z.Z.Z.Z.Z.C.Z.Z.Z.S.V.S.A.Z.S.V.b.Z.D.C.x.7     . . @         0.C.Z.Z.Z.Z.Z.Z.Z.Z.Z.Z.Z.Z.Z.Z.Z.Z.Z.V.A.F.. X   > + + O +   t.S.Z.Z.Z.Z.Z.Z.Z.Z.Z.Z.Z.Z.Z.Z.Z.Z.Z.C.Z.t.    >     o b.S.Z.V.A.A.Z.Z.Z.Z.Z.Z.Z.Z.Z.Z.Z.Z.Z.Z.Z.Z.Z.Z.Z.Z.Z.Z.Z.Z.Z.V.Z.C.Z.C.Z.0.    X X O O O O O O O O   X X X + +   E F.A.A.C.V.Z.Z.Z.Z.Z.Z.Z.Z.Z.Z.Z.Z.Z.Z.Z.Z.Z.Z.Z.Z.Z.Z.Z.Z.Z.Z.Z.Z.Z.Z.Z.Z.n.D.A.V.V.Z.D.n.b.V.w.. O   .                   w.Z.C.A.Z.C.C.A.Z.Z.Z.Z.Z.Z.Z.Z.Z.Z.Z.Z.Z.Z.Z.Z.Z.Z.Z.Z.Z.Z.Z.Z.Z.Z.Z.Z.Z.Z.Z.Z.t.    . o , = = = 2 1 1 1 % # % % % * # # # # # # # # # # , 1 2 1 6 3 5 3 2 1 # + + # % % = = % % % = = = = = % % % 2 2 % % % % .                       ",
"1 F 3 3 8 3 2 8 z 8 c h c w w g 8 w g x g g g g g g w g v v n m v x x r w w w w w w w r x n x r r r w v g - 7 7 7 9 9 - 7 7 v r e 7 7 7 - - 9 e 9 w 3 ; # O   t.Z.Z.Z.Z.Z.Z.Z.Z.Z.Z.Z.Z.Z.Z.Z.Z.Z.Z.Z.S.Z.C.S.Z.2.. O . X o . X O   0.A.C.D.Z.C.Z.Z.Z.Z.Z.Z.Z.Z.Z.Z.Z.Z.Z.Z.Z.Z.A.S.V.t.    +     @     t.C.A.S.V.C.C.V.S.A.Z.A.Z.Z.Z.Z.Z.Z.Z.Z.Z.Z.Z.Z.Z.Z.Z.Z.Z.Z.Z.Z.Z.Z.Z.Z.Z.A.S.V.b.Z.A.A.D.V.V.S.w.O   X . # X O X X E A.Z.Z.Z.Z.Z.Z.Z.Z.Z.Z.Z.Z.Z.Z.Z.Z.D.V.C.V.r     +   X X   $ S.V.D.Z.Z.Z.Z.Z.Z.Z.Z.Z.Z.Z.Z.Z.Z.Z.Z.C.n.2.O X     O t Z.A.S.Z.D.C.Z.Z.Z.Z.Z.Z.Z.Z.Z.Z.Z.Z.Z.Z.Z.Z.Z.Z.Z.Z.Z.Z.Z.Z.Z.C.Z.S.D.C.Z.w.    X X O O O O O O O O   X X   X   ; b.A.b.A.Z.C.Z.Z.Z.Z.Z.Z.Z.Z.Z.Z.Z.Z.Z.Z.Z.Z.Z.Z.Z.Z.Z.Z.Z.Z.Z.Z.Z.Z.Z.Z.Z.Z.A.Z.S.V.Z.A.Z.D.D.C.C.W .     .         X       w.Z.C.A.Z.C.C.A.Z.Z.Z.Z.Z.Z.Z.Z.Z.Z.Z.Z.Z.Z.Z.Z.Z.Z.Z.Z.Z.Z.Z.Z.Z.Z.Z.Z.Z.Z.Z.Z.t.    . o , = = 1 2 1 1 2 % # % % , 1 # # + + + # # # + # # % 1 1 2 6 2 2 1 # + + + # % % % % % % % % = = % % # # % 2 2 , % % % o                       ",
"* 5 3 2 8 3 5 f h f c h c g g w g g x x x x x 8 x x g x v v v v x w r x r r w w r w r x x J x r r n v v e - 9 2 7 7 7 - 7 e m e e 7 9 9 - - 9 e 9 w 5 ; #   > w.Z.Z.Z.Z.Z.Z.Z.Z.Z.Z.Z.Z.Z.Z.Z.Z.Z.Z.A.Z.Z.Z.S.V.0.O O X   # .       w.A.C.Z.D.V.Z.Z.Z.Z.Z.Z.Z.Z.Z.Z.Z.Z.Z.Z.Z.Z.A.Z.V.0.    O     O   Q D.V.C.Z.Z.Z.V.Z.D.Z.V.C.Z.Z.Z.Z.Z.Z.Z.Z.Z.Z.Z.Z.Z.Z.Z.Z.Z.Z.Z.Z.Z.Z.Z.Z.A.A.b.C.S.S.Z.Z.Z.C.C.Z.D.! + X . # + +     . n.Z.Z.Z.Z.Z.Z.Z.Z.Z.Z.Z.Z.Z.Z.Z.Z.D.V.C.V.X.      X +     ] V.C.D.Z.Z.Z.Z.Z.Z.Z.Z.Z.Z.Z.Z.Z.Z.Z.Z.A.Z.r     O   O E Z.C.S.Z.A.C.Z.Z.Z.Z.Z.Z.Z.Z.Z.Z.Z.Z.Z.Z.Z.Z.Z.Z.Z.Z.Z.Z.Z.Z.Z.S.D.C.n.C.V.t..   X X O X O O O O   O   O X   X   0.M.C.S.S.F.Z.Z.Z.Z.S.S.S.Z.Z.Z.Z.Z.Z.Z.Z.Z.Z.Z.Z.Z.Z.Z.Z.Z.Z.Z.Z.Z.Z.Z.Z.Z.Z.V.C.C.C.A.C.V.C.Z.D.n.b.  @ X           X X     w.Z.C.A.Z.V.C.Z.Z.Z.Z.Z.Z.Z.Z.Z.Z.Z.Z.Z.Z.Z.Z.Z.Z.Z.Z.Z.Z.Z.Z.Z.Z.Z.Z.Z.Z.Z.Z.Z.t.    . o , = 2 2 2 2 1 2 % + , % , 1 # # + + + # + + + # # % % , 1 1 2 1 # + X + # % % o $ o o % o % % = % # # # % 2 2 , % % % $                       ",
", 8 q 3 3 3 3 3 q h g c c x x g g g w x g x x g g c w v m v r r r w v e w w w w w v x m r H m v r n m v e 7 9 9 9 9 7 7 7 w v r w w 9 7 - - 9 g e w 8 - $ + . 2.V.D.Z.Z.A.V.A.n.Z.Z.Z.Z.Z.Z.Z.Z.Z.Z.Z.Z.Z.Z.Z.Z.w.O       X +     O t.V.Z.C.A.Z.Z.Z.Z.Z.Z.Z.Z.Z.Z.Z.Z.Z.Z.Z.Z.Z.Z.n.A.Q O     O     . x.C.Z.V.D.Z.Z.Z.Z.Z.Z.Z.Z.Z.Z.Z.Z.Z.Z.Z.Z.D.Z.n.A.C.V.Z.C.S.Z.Z.Z.S.S.Z.Z.Z.Z.Z.Z.Z.Z.Z.Z.Z.D.V.A.A.t.    X . O   . O . w.V.A.D.S.C.A.C.Z.Z.Z.Z.Z.Z.Z.Z.Z.V.A.A.C.0.O       @   . >.V.D.Z.Z.Z.Z.Z.Z.Z.Z.Z.V.Z.A.C.Z.C.C.Z.A.t.    . @   X Q D.Z.V.A.D.Z.C.Z.Z.Z.Z.Z.Z.Z.Z.Z.Z.Z.Z.Z.Z.Z.Z.Z.Z.Z.Z.Z.Z.Z.Z.S.C.D.V.C.A.F..   X X + O O O + X   @ O       O 0 b.S.D.Z.V.S.C.Z.Z.Z.Z.Z.Z.Z.Z.A.C.Z.Z.V.A.D.S.C.D.C.C.C.C.S.V.Z.Z.Z.Z.Z.Z.Z.Z.Z.Z.Z.Z.Z.Z.Z.Z.Z.A.A.D.Q                       w.Z.V.Z.Z.C.C.Z.Z.Z.Z.Z.Z.Z.Z.Z.Z.Z.Z.Z.Z.Z.Z.Z.Z.Z.Z.Z.Z.Z.Z.D.Z.V.V.V.V.Z.S.S.t.    . o 1 = 2 3 2 2 2 2 % % , % , , # + X X + # + . X + # % % 1 1 1 # # + + . + # # # . . . . . . # = = # # + $ % 2 2 % % - 3 2 .                     ",
"# , = 8 3 3 q 2 f h h h g g x x g g w x x g g g g c g v v x r x x w r x w r w r x x x m v J m v x m m m r e w 9 7 7 7 7 7 e x w w w 9 7 - - 9 w w w 8 = $ + . Q V.A.Z.Z.Z.V.C.Z.Z.Z.Z.Z.Z.Z.Z.Z.Z.Z.Z.Z.Z.Z.Z.Z.t.O     . X O     O t.A.Z.C.S.Z.Z.Z.Z.Z.Z.Z.Z.Z.Z.Z.Z.Z.Z.Z.Z.Z.Z.n.A.W       O X   W Z.n.S.V.A.Z.Z.Z.Z.Z.Z.Z.Z.Z.Z.Z.Z.Z.Z.Z.Z.n.S.D.M.n.D.V.A.Z.Z.Z.Z.S.S.Z.Z.Z.Z.Z.Z.Z.Z.Z.Z.V.D.S.C.A.n.E O   + O . X     Q A.C.Z.V.S.A.V.A.Z.Z.Z.Z.Z.Z.Z.Z.C.D.V.C.w.O       O O   w.C.D.V.Z.Z.Z.Z.Z.Z.Z.Z.S.S.Z.Z.Z.Z.Z.Z.A.0.      O X   >.D.Z.C.A.A.Z.C.Z.Z.Z.Z.Z.Z.Z.Z.Z.Z.Z.Z.Z.Z.Z.Z.Z.Z.Z.Z.Z.Z.Z.Z.C.C.D.C.A.A.F.9   X X + O O O + +   O     X O O 2.S.V.Z.Z.S.Z.Z.Z.Z.Z.Z.Z.Z.Z.Z.C.Z.Z.Z.Z.S.Z.A.Z.D.C.V.D.D.n.D.Z.Z.Z.Z.Z.Z.Z.Z.Z.Z.Z.Z.Z.Z.Z.Z.Z.S.Z.Z.t.. X                   w.Z.V.Z.Z.V.C.Z.Z.Z.Z.Z.Z.Z.Z.Z.Z.Z.Z.Z.Z.Z.Z.Z.V.V.C.C.C.V.V.C.Z.Z.Z.Z.Z.Z.Z.Z.t.  X X X < = 2 3 3 2 2 2 , , 2 2 1 , # + X . + + + + . + # # # % % % # # # + + + # # + . . . . . + # = = # + . # $ % , % % - 3 3 .                     ",
"# 2 . 8 8 2 2 = 2 8 q g g w x g g x g x m x x c x b c m x x r v v x r n r r r w v r r v x J n v m v m n v x x 8 7 9 7 7 7 e r e e w e 7 - - 9 r e w 7 ; ; + O m Z.Z.Z.A.Z.Z.Z.Z.Z.Z.Z.Z.Z.Z.Z.Z.Z.Z.Z.Z.Z.Z.Z.Z.b..   X . X O     . b.A.Z.V.C.Z.Z.Z.Z.Z.Z.Z.Z.Z.Z.Z.Z.Z.Z.Z.Z.Z.Z.n.A.m   X   X     t.D.V.S.Z.C.Z.Z.Z.Z.Z.Z.Z.Z.Z.Z.Z.Z.Z.Z.Z.Z.A.V.V.n.t.F.Z.Z.Z.Z.Z.Z.Z.C.S.Z.Z.Z.Z.Z.Z.Z.Z.Z.V.Z.D.V.Z.D.w.    + @ +       0 n.C.D.n.V.D.C.S.Z.Z.Z.Z.Z.Z.Z.Z.C.D.C.A.t.        O     t.V.D.C.Z.Z.Z.Z.Z.Z.Z.Z.S.Z.Z.Z.Z.Z.Z.C.S.E O           w.D.V.S.A.Z.Z.Z.Z.Z.Z.Z.Z.Z.Z.Z.Z.Z.Z.Z.Z.Z.Z.Z.Z.Z.Z.Z.Z.Z.Z.Z.Z.C.D.C.C.Z.S.E   X X + O O O + O O       X     t.V.V.Z.Z.C.V.D.Z.Z.Z.Z.Z.Z.Z.Z.C.Z.Z.A.A.S.V.D.F.b.t.F.F.V.C.A.Z.Z.Z.Z.Z.Z.Z.Z.Z.Z.Z.Z.Z.Z.Z.Z.A.V.V.Z.S.t                     w.Z.V.A.Z.C.C.Z.Z.Z.Z.Z.Z.Z.Z.Z.Z.Z.Z.Z.Z.Z.Z.Z.Z.S.S.Z.S.S.S.C.A.A.A.A.A.A.Z.Z.t.  O . O , 2 3 3 2 2 2 2 2 , 1 2 1 , # + X . + . + + + + # # # % % # # # + + + . + + + . O O O + + # * # . O O . # % 2 % % 2 3 2 .                     ",
", 3 + 8 8 3 % 3 8 f z h x w w 9 g x g g b g x m b C m m x x m n J n m J m x m r v r r x x J J m n m n n m v g 8 9 9 9 9 7 9 w e e r e 7 - - 9 w e e e 7 = #   $ Z.Z.Z.S.V.S.Z.S.Z.Z.Z.Z.Z.Z.Z.Z.Z.Z.Z.Z.Z.Z.Z.Z.Z.$       X O     $ Z.C.Z.V.V.A.Z.Z.Z.Z.Z.Z.Z.Z.Z.Z.Z.Z.Z.Z.Z.Z.C.n.Z.;   O       0 b.A.C.V.D.C.Z.Z.Z.Z.Z.Z.Z.Z.Z.Z.Z.Z.Z.Z.Z.Z.C.Z.o., . . W V.Z.Z.Z.Z.Z.Z.C.C.Z.Z.Z.Z.Z.Z.Z.Z.C.Z.D.S.Z.V.b.$   O @ X X   O   z.V.A.A.n.Z.S.V.Z.Z.Z.Z.Z.Z.Z.Z.C.D.S.D.V.;     X     $ V.n.D.C.Z.Z.Z.Z.Z.Z.Z.Z.Z.Z.Z.S.A.Z.Z.C.b.&       +     t.Z.V.S.Z.Z.Z.Z.Z.Z.Z.Z.Z.Z.Z.Z.Z.Z.Z.Z.Z.Z.Z.Z.Z.Z.Z.Z.Z.Z.Z.Z.Z.S.Z.C.C.Z.S.Q   X X + O O O + O @   +       ; b.V.S.D.C.C.V.D.Z.Z.Z.Z.Z.Z.Z.Z.C.Z.Z.Z.Z.C.C.D.H.; >   m z.V.n.Z.Z.Z.Z.Z.Z.Z.Z.Z.Z.Z.Z.Z.Z.Z.Z.Z.V.Z.A.V.o.                    w.Z.V.Z.Z.C.C.Z.Z.Z.Z.Z.Z.Z.Z.Z.Z.Z.Z.Z.Z.Z.Z.Z.Z.Z.Z.Z.Z.Z.Z.Z.Z.Z.Z.Z.Z.Z.Z.Z.t.  X # o 4 2 3 3 2 2 3 2 1 1 1 2 1 # + + X . + + + + + + # % , 1 , # # + + + . . . . . X O O O X + # * # O O O + # % % % , 2 2 = .                     ",
"5 2 1 g 3 q 2 3 z f h g x g g g x c g g b x x m J J m m x n Y Y Y J L T J H J m x r x v r J J m n H H m n v 9 9 9 9 8 9 7 9 w e e r e 7 - - 9 w 9 w w 7 - # O   b.Z.V.C.Z.A.Z.S.Z.Z.Z.Z.Z.Z.Z.Z.Z.Z.Z.Z.Z.Z.Z.Z.D.t X X   X O   O t D.Z.S.Z.C.Z.Z.Z.Z.Z.Z.Z.Z.Z.Z.Z.Z.Z.Z.Z.Z.Z.V.D.b..   O       Q V.S.V.Z.S.C.Z.Z.Z.Z.Z.Z.Z.Z.Z.Z.Z.Z.Z.Z.Z.Z.A.0.          0.S.S.S.Z.Z.Z.Z.Z.Z.Z.Z.Z.Z.Z.Z.Z.S.Z.Z.S.A.V.S.E     + X X O     0.C.b.D.S.Z.Z.V.Z.Z.Z.Z.Z.Z.Z.Z.C.Z.V.n.S.E   X       H S.C.Z.C.Z.Z.Z.Z.Z.Z.Z.Z.Z.Z.Z.S.Z.Z.Z.Z.w.    O   O O   b.Z.V.S.Z.Z.S.Z.Z.Z.Z.Z.Z.Z.Z.Z.Z.Z.Z.Z.Z.Z.Z.Z.Z.Z.Z.Z.Z.Z.Z.Z.Z.S.Z.V.C.Z.V.0.    X + O O O O @ @   @     O ! C.A.A.Z.A.V.C.n.Z.Z.Z.Z.Z.Z.Z.Z.C.Z.C.A.M.C.C.t.          r F.G.Z.Z.Z.Z.Z.Z.Z.Z.Z.Z.Z.Z.Z.Z.Z.Z.D.C.Z.Z.V.w..                   w.Z.C.A.Z.C.C.Z.Z.Z.Z.Z.Z.Z.Z.Z.Z.Z.Z.Z.S.Z.Z.Z.Z.A.A.Z.Z.Z.Z.Z.Z.Z.Z.S.S.S.S.S.b.    . o 4 2 2 3 2 2 3 2 2 1 2 2 , # + + O + + + + + + + # , 1 1 , # # + . . X + + X X + + X X X O # # # O O O # # # # % = 2 2 2 #                     ",
"5 6 = 8 8 h % 2 5 8 c h c g c c x c x c C m J J J C n n v J ] Y T J T L L J Y J x r x x r J L n J T J n H x 9 w 9 9 9 9 7 9 r e w r e 7 - - 9 w e g r e 2 # +   t.D.V.V.V.A.Z.Z.Z.Z.Z.Z.Z.Z.Z.Z.Z.Z.Z.Z.Z.Z.Z.Z.A.! O   X X .   O ! Z.C.S.Z.C.Z.Z.Z.Z.Z.Z.Z.Z.Z.Z.Z.Z.Z.Z.Z.Z.Z.C.D.t.    O       w.C.A.Z.Z.n.A.Z.Z.Z.Z.Z.Z.Z.Z.Z.Z.Z.Z.Z.Z.Z.Z.A.m           m Z.Z.S.S.Z.Z.Z.Z.Z.Z.Z.Z.Z.Z.Z.Z.V.A.Z.S.A.V.V.2.    + X +     O ! D.V.A.V.Z.V.S.Z.Z.Z.Z.Z.Z.Z.Z.A.Z.V.n.C.Q   X       Q Z.C.Z.Z.Z.Z.Z.Z.Z.Z.Z.Z.Z.S.Z.Z.Z.A.A.A.Q .   .     O $ Z.Z.Z.S.Z.S.Z.Z.Z.Z.Z.Z.Z.Z.Z.Z.Z.Z.Z.Z.Z.Z.Z.Z.Z.Z.Z.Z.Z.Z.Z.Z.Z.A.Z.Z.Z.A.Z.w.    X O O O O O O O   @     + Q V.D.n.Z.A.V.C.A.Z.Z.Z.Z.Z.Z.Z.Z.C.Z.C.S.M.V.V.Q   . O   O   t.n.Z.Z.Z.Z.Z.Z.Z.Z.Z.Z.Z.Z.Z.Z.Z.Z.A.Z.D.Z.C.b..                   w.Z.C.A.Z.C.C.Z.Z.Z.Z.Z.Z.Z.Z.Z.Z.Z.Z.Z.C.Z.Z.Z.C.C.C.Z.C.C.C.C.S.S.Z.Z.Z.Z.Z.Z.b.  X . # 1 = 2 3 2 2 3 2 1 1 , 2 , # + + O + + + + + + + # , , 1 : : # + + + + + + O + + + + + O O + # + O O # # # # + # % 2 2 2 %                     ",
"1 6 . 2 g c 2 q g g C c b h c b x c c b b J J J n n n H v L R T L J L J L T Y Y n r v x v H L J Y Y L n n v 9 w 9 9 8 9 9 9 r e r r 7 7 - - 9 w 9 x r e 2 % . O 0.D.V.C.Z.Z.Z.C.Z.Z.Z.Z.Z.Z.Z.Z.Z.Z.Z.Z.Z.Z.Z.Z.n.Q     + X + .   W C.C.S.Z.C.D.Z.Z.Z.Z.Z.Z.Z.Z.Z.Z.Z.Z.Z.Z.Z.Z.C.A.w.            t.n.A.D.C.n.A.Z.Z.Z.Z.Z.Z.Z.Z.Z.Z.Z.Z.Z.Z.Z.Z.Z.+   X O     2 V.Z.Z.S.Z.Z.Z.Z.Z.Z.Z.Z.Z.Z.Z.Z.n.A.C.Z.Z.V.Z.w.  O   . @ O   O $ b.S.n.V.Z.Z.A.Z.Z.Z.Z.Z.Z.Z.Z.n.C.S.C.n.0.          0.n.C.Z.A.Z.Z.Z.Z.Z.Z.Z.Z.Z.C.Z.Z.S.A.A.n.e           + H S.Z.A.A.Z.S.Z.Z.Z.Z.Z.Z.Z.Z.Z.Z.Z.Z.Z.Z.Z.Z.Z.Z.Z.Z.Z.Z.Z.Z.Z.Z.Z.Z.V.A.Z.Z.D.x.    X + + O O +   O   >       0.S.D.S.S.Z.Z.V.Z.Z.Z.Z.Z.Z.Z.Z.Z.Z.Z.C.C.D.C.Z.P >       O   0.D.Z.Z.Z.Z.Z.Z.Z.Z.Z.Z.Z.Z.Z.Z.Z.Z.C.n.D.Z.Z.S.0                   w.Z.C.A.Z.C.C.Z.Z.Z.Z.Z.Z.Z.Z.Z.Z.Z.Z.Z.S.Z.Z.Z.D.Z.Z.Z.Z.Z.Z.Z.Z.Z.Z.Z.Z.Z.Z.Z.t.+ + # = 1 # 3 3 1 2 2 1 1 2 1 2 1 % + + X + + . . X . # % % # 1 : # # + + + + + O O # + X O + + O + + O O + # # # + . # = 2 2 = %                     ",
"3 6 # 3 q g q g c g b h b c C Z c C C J n J K J n m v n x L ] Y T J J T L Y L R J r x m m J T J ] Y Y J n v e e 9 9 9 9 9 9 r e r w 7 7 7 - 7 e 7 x r w 3 = . O >.D.Z.C.Z.Z.A.C.Z.Z.Z.Z.Z.Z.Z.Z.Z.Z.Z.Z.Z.Z.Z.Z.C.2.    #         Q C.A.S.Z.C.D.Z.Z.Z.Z.Z.Z.Z.Z.Z.Z.Z.Z.Z.Z.Z.Z.A.Z.H.            b.D.A.F.V.S.Z.Z.Z.Z.Z.Z.Z.Z.Z.Z.Z.Z.Z.Z.Z.Z.Z.b.    O +       n.n.Z.Z.Z.Z.Z.Z.Z.Z.Z.Z.Z.Z.Z.Z.S.D.V.Z.n.S.D.x.  @   . @ + X     w.n.D.C.Z.Z.C.Z.Z.Z.Z.Z.Z.Z.Z.D.V.F.C.C.t.O       O t.D.C.V.Z.Z.Z.Z.Z.Z.Z.Z.Z.Z.A.S.Z.S.A.b.x.    @ .   X   W V.Z.D.Z.Z.S.Z.A.Z.Z.Z.Z.Z.Z.Z.Z.Z.Z.Z.Z.Z.Z.Z.Z.Z.Z.Z.Z.Z.Z.Z.Z.Z.Z.V.A.Z.Z.D.n.  X X + + + + + O O   O   X   w.Z.n.V.V.n.D.S.Z.Z.Z.Z.Z.Z.Z.Z.Z.S.Z.C.V.D.C.D.t   . O   @   H.n.Z.Z.Z.Z.Z.Z.Z.Z.Z.Z.Z.Z.Z.Z.Z.Z.V.Z.D.V.C.V.W                   w.Z.C.A.Z.C.C.Z.Z.Z.Z.Z.Z.Z.Z.Z.Z.Z.Z.Z.Z.Z.Z.Z.t.w.w.w.w.w.w.t.w.w.w.t.t.t.t.t.t.  + # = , . 2 3 1 1 2 = 1 2 1 2 1 1 # + X . + . . . + # 1 , # 1 : : # + + O + + O + # + X O + . . X O O + # , # + + . # = 2 2 2 = X                   ",
"5 3 . q g 5 q c c b b c b C C b c c n n n J L J n m m v n n Y ] R T Y L H T Y T Y v v m v L Y Y ] Y J J n v e e w w e 9 9 w e w r r 9 - ; - 7 7 e v v e 7 = # . { V.n.D.V.D.S.Z.Z.Z.Z.Z.Z.Z.Z.Z.Z.Z.Z.Z.Z.Z.Z.Z.C.0.O       .     H.D.V.C.S.D.Z.Z.Z.Z.Z.Z.Z.Z.Z.Z.Z.Z.Z.Z.Z.Z.Z.n.Z.o.  O   +   $ n.C.Z.D.S.V.D.Z.Z.Z.Z.Z.Z.Z.Z.Z.Z.Z.Z.Z.Z.Z.Z.t.    O X       x.D.Z.V.S.A.Z.Z.Z.Z.Z.Z.Z.Z.Z.Z.Z.Z.Z.C.Z.Z.n.n.    . X : O   X O Q D.n.Z.A.V.Z.Z.Z.Z.Z.Z.Z.Z.Z.Z.V.D.Z.Z.b..     O . F.A.V.A.Z.Z.Z.Z.Z.Z.Z.Z.Z.A.Z.C.D.C.n.Z.2.  O     O O   >.Z.Z.Z.Z.Z.Z.Z.Z.Z.Z.Z.Z.Z.Z.Z.Z.n.D.Z.V.Z.A.C.Z.Z.Z.Z.Z.Z.Z.Z.Z.Z.Z.Z.Z.Z.Z.Z.Z.t >   + O # O @ @ O X >       t.Z.Z.Z.Z.Z.Z.Z.Z.Z.Z.Z.Z.Z.Z.Z.Z.Z.A.V.A.Z.C.Z.+     O       o.C.Z.Z.Z.Z.Z.Z.Z.Z.Z.Z.Z.Z.Z.Z.Z.Z.A.C.A.Z.V.Z.>.        O O       w.Z.C.A.Z.C.C.Z.Z.Z.Z.Z.Z.Z.Z.Z.Z.Z.Z.Z.Z.Z.Z.Z.0.                      X     X X + + # 2 # + 5 2 2 1 1 2 2 1 2 1 2 1 # + + . + + O O # : , , , 1 , # + . + + . + + . + + + + . + O O + + # # : # # + . # = 3 3 = = .                   ",
"5 2 3 c c f q q 8 x x U C C K C c b J J J J L J n H m L L n L R Y T T J J T R R ] J n n m J R R ] Y J J n v e e w e 9 9 9 9 e e r v w 9 - - 9 9 7 r r w 7 - % . r C.C.Z.V.D.V.Z.Z.Z.Z.Z.Z.Z.Z.Z.Z.Z.Z.Z.Z.Z.Z.Z.V.w.O     O .     0.D.Z.C.C.Z.Z.Z.Z.Z.Z.Z.Z.Z.Z.Z.Z.Z.Z.Z.Z.Z.Z.C.S.E           e D.C.Z.A.Z.V.A.Z.Z.Z.Z.Z.Z.Z.Z.Z.Z.Z.Z.Z.Z.Z.Z.t.    + X       t.D.Z.Z.Z.Z.Z.Z.Z.Z.Z.Z.Z.Z.Z.Z.Z.Z.S.S.Z.Z.Z.Z.o   X   > + X O   t F.D.C.Z.Z.S.Z.Z.Z.Z.Z.Z.Z.Z.Z.V.A.Z.A.n.0       r F.A.V.A.Z.Z.Z.Z.Z.Z.Z.Z.Z.Z.Z.V.A.C.D.F.P   O   X + @   0.Z.Z.Z.Z.Z.Z.Z.Z.Z.Z.Z.Z.Z.Z.Z.Z.C.Z.A.C.n.A.C.Z.Z.Z.Z.Z.Z.Z.Z.Z.Z.Z.Z.Z.Z.Z.Z.Z.W   X . @ O . O @ + X > .     b.Z.Z.Z.Z.Z.Z.Z.Z.Z.Z.Z.Z.Z.Z.Z.Z.Z.Z.C.n.Z.V.Z.X     X   X   Q C.Z.Z.Z.Z.Z.Z.Z.Z.Z.Z.Z.Z.Z.Z.Z.Z.A.C.A.C.Z.A.2.          X       w.Z.C.A.Z.C.C.Z.Z.Z.Z.Z.Z.Z.Z.Z.Z.Z.Z.Z.Z.Z.Z.Z.0.                X X       X + % , # 1 1 # 1 3 2 1 1 1 2 2 2 1 1 2 1 # + + . + + . + # 1 1 , # , # # O + + + + + + . + + + O O + O O + + # # : # + + + # = 2 2 = = +                   ",
"3 + 5 c h g w g g c b ' b c Z C b C J J J J J J H J n ] [ H J T Y Y L J J T ] { ] Y H n n J R R Y Y J J n g w 9 w e 9 9 9 w r x e x v e - - 7 9 7 e w w 7 2 % X . n.A.Z.V.D.V.Z.Z.Z.Z.Z.Z.Z.Z.Z.Z.Z.Z.Z.Z.Z.Z.Z.Z.t.      O       t.D.Z.C.C.Z.Z.Z.Z.Z.Z.Z.Z.Z.Z.Z.Z.Z.Z.Z.Z.Z.Z.A.Z.e     O     T D.C.Z.A.Z.V.A.Z.Z.Z.Z.Z.Z.Z.Z.Z.Z.Z.Z.Z.Z.Z.Z.w.    + X X     t.Z.Z.Z.Z.Z.Z.Z.Z.Z.Z.Z.Z.Z.Z.Z.Z.S.S.S.S.Z.Z.Z.e       # + O O     t.D.C.Z.A.Z.Z.Z.Z.Z.Z.Z.Z.Z.Z.S.C.Z.Z.Z.E       W Z.S.V.Z.A.Z.Z.Z.Z.Z.Z.Z.Z.A.V.Z.V.C.Z.t..   X   #   O   w.Z.Z.Z.Z.Z.Z.Z.Z.Z.Z.Z.Z.Z.Z.Z.Z.C.Z.Z.C.t.Z.S.C.Z.Z.Z.Z.Z.Z.Z.Z.Z.Z.Z.Z.Z.Z.Z.Z.2.    . + X . O @ X X >       n.Z.Z.Z.Z.Z.Z.Z.Z.Z.Z.Z.Z.Z.Z.Z.Z.Z.A.C.A.Z.V.n.    O     X   Q C.Z.Z.Z.Z.Z.Z.Z.Z.Z.Z.Z.Z.Z.Z.Z.Z.Z.Z.A.S.V.A.0.          X X     w.Z.C.A.Z.C.C.Z.Z.Z.Z.Z.Z.Z.Z.Z.Z.Z.Z.Z.Z.Z.Z.Z.0.      . + . X X X X + + # 1 1 1 1 1 3 = . 2 2 2 1 1 1 1 1 1 1 1 2 1 # # + + + + . + # 1 1 , % : # O O O O O O + + + + + + O X + + + O + # # # # + + # * = - = % % #                   ",
"3 . % f 8 5 3 8 c h Z Z b b C K C C J J n J J J n J J [  .J J J Y Y L J J T ] { [ ] J n n H Y Y Y Y J J n r w 9 9 9 9 9 9 9 r r w v n w 7 2 7 9 9 9 e w q 2 =     t.A.A.V.A.A.Z.Z.Z.Z.Z.Z.Z.Z.Z.Z.Z.Z.Z.Z.Z.Z.Z.Z.b.    X         b.D.V.C.S.Z.C.Z.Z.Z.Z.Z.Z.Z.Z.Z.Z.Z.Z.Z.Z.Z.Z.A.F..     O     E Z.V.V.Z.V.C.A.Z.Z.Z.Z.Z.Z.Z.Z.Z.Z.Z.Z.Z.Z.Z.Z.w.    +   X     t.Z.Z.S.Z.Z.Z.Z.Z.Z.Z.Z.Z.Z.Z.Z.S.S.Z.Z.Z.Z.C.C.m       # # + O   O 0.C.V.D.C.Z.Z.Z.Z.Z.Z.Z.Z.Z.Z.S.Z.Z.V.S.Q     . 2.Z.S.C.Z.A.Z.Z.Z.Z.Z.Z.Z.Z.S.C.Z.A.A.V.w.    .   @   O   b.Z.Z.Z.Z.Z.Z.Z.Z.Z.Z.Z.Z.Z.Z.Z.Z.C.Z.Z.C.0.Z.S.V.Z.Z.Z.Z.Z.Z.Z.Z.Z.Z.Z.Z.Z.Z.Z.Z.0.X   . @ O X @ @ + X >     $ D.Z.Z.Z.Z.Z.Z.Z.Z.Z.Z.Z.Z.Z.Z.Z.Z.Z.A.C.A.Z.V.b.    O     O   W S.Z.Z.Z.Z.Z.Z.Z.Z.Z.Z.Z.Z.Z.Z.Z.Z.V.Z.n.S.Z.Z.t.                  w.Z.C.A.Z.C.C.Z.Z.Z.Z.Z.Z.Z.Z.Z.Z.Z.Z.Z.Z.Z.Z.Z.0.    O + # % # 1 + # 1 , # 1 6 5 3 1 2 #   = 2 2 2 1 1 1 1 1 1 1 1 , # # + + + + . + # , 1 1 1 # + O O O O O + + + + + + + + . + + + + + # # # # + + # * = = = % % #                   ",
"# # # h h h g c b c C b C Z b C C C J J n J J L H H J { { R J J Y R T L J L ]  .{ { L H H H Y Y Y R J J H r r e e w 9 w e 9 r r r v n r 7 7 7 9 e e e w e 3 2 X . w.Z.S.Z.Z.S.Z.Z.Z.Z.Z.Z.Z.Z.Z.Z.Z.Z.Z.Z.Z.Z.Z.C.Z.    O X .     b.D.V.V.S.Z.C.Z.Z.Z.Z.Z.Z.Z.Z.Z.Z.Z.Z.Z.Z.Z.Z.Z.b..   X O     W S.S.Z.V.A.S.Z.Z.Z.Z.Z.Z.Z.Z.Z.Z.Z.Z.Z.Z.Z.Z.Z.w.    +         t.Z.Z.S.Z.Z.Z.Z.Z.Z.Z.Z.Z.Z.Z.Z.Z.Z.Z.Z.Z.Z.S.S.E     X # # + O   # H V.Z.D.V.A.Z.Z.Z.Z.Z.Z.Z.Z.Z.V.V.Z.V.V.0.    . w.Z.V.C.Z.Z.Z.Z.Z.Z.Z.Z.Z.Z.Z.C.V.D.V.V.W O X   X O       n.Z.Z.Z.Z.Z.Z.Z.Z.Z.Z.Z.Z.Z.Z.Z.Z.V.D.Z.A.E Z.A.V.Z.Z.Z.Z.Z.Z.Z.Z.Z.Z.Z.Z.Z.Z.Z.Z.t.    . @ @   @ + + + @   O 0 D.Z.Z.Z.Z.Z.Z.Z.Z.Z.Z.Z.Z.Z.Z.Z.Z.Z.Z.C.A.Z.V.n.    O     X   W S.Z.Z.Z.Z.Z.Z.Z.Z.Z.Z.Z.Z.Z.Z.Z.Z.C.Z.n.C.Z.Z.t.        X         w.Z.C.A.Z.V.C.Z.Z.Z.Z.Z.Z.Z.Z.Z.Z.Z.Z.Z.Z.Z.Z.Z.0.    . X # = 4 2 , 1 6 2 1 3 p f f 1 = % # 1 2 2 2 1 1 1 1 1 1 2 2 , # # # + + # + # % 1 2 , % # + + + + + + # + + O O O . + . + + + + + # # # # + + # * = % % % % # X                 ",
"8 z f K C A b b K K b C b Z c c b C J J J J J J J J J { ] { T J Y R L L H T { ....{ Y H J J Y ] Y Y J H H r r e w w 9 w w 9 v v r r v e 7 9 7 e e e 7 e e 7 - .   0.A.V.Z.C.V.Z.Z.Z.Z.Z.Z.Z.Z.Z.Z.Z.Z.Z.Z.Z.Z.Z.C.Z.;   + X .     b.D.V.Z.V.Z.S.Z.Z.Z.Z.Z.Z.Z.Z.Z.Z.Z.Z.Z.Z.Z.Z.Z.t..   O       Q C.A.V.V.A.Z.C.Z.Z.Z.Z.Z.Z.Z.Z.Z.Z.Z.Z.Z.Z.Z.Z.w.    +         t.Z.Z.S.Z.Z.Z.Z.Z.Z.Z.Z.Z.Z.Z.Z.Z.Z.Z.Z.Z.Z.Z.Z.E   O X + # + .     $ F.D.C.V.Z.Z.Z.Z.Z.Z.Z.Z.Z.Z.V.C.D.V.n.w.      b.A.n.C.D.Z.Z.Z.Z.Z.Z.Z.Z.Z.A.V.Z.D.n.F.=     . O O O   7 A.Z.Z.Z.Z.Z.Z.Z.Z.Z.Z.Z.Z.C.Z.Z.Z.V.D.V.A.r Z.Z.C.Z.Z.Z.Z.Z.Z.Z.Z.Z.Z.Z.Z.Z.Z.Z.Z.b.  O   @ #   + O # #     O t Z.Z.Z.Z.Z.Z.Z.Z.Z.Z.Z.Z.Z.Z.Z.Z.Z.Z.Z.V.A.Z.V.n.    O     X   E A.Z.Z.Z.Z.Z.Z.Z.Z.Z.Z.Z.Z.Z.Z.Z.Z.C.D.A.C.Z.C.b.  X               w.Z.V.A.Z.V.C.Z.Z.Z.Z.Z.Z.Z.Z.Z.Z.Z.Z.Z.Z.Z.Z.Z.0.    O . # 2 6 2 2 2 2 2 2 2 1 6 f 8 2 1 2 2 2 2 2 2 2 2 1 1 1 2 2 1 # # # + + + + # 1 2 1 # + + + + + O O O + + + O O O + + . + + . + # : # + # + + # # * # % % % % .                 ",
"% # 2 c 8 h g b U K b Z c Z C Z b C J J C C J J L J J [ { { [ L R R T T L R ...... .] T H T R { Y Y J H n v r r r r 9 9 9 9 v v r r x w 9 9 7 w e w e e w 9 - +   Q S.C.Z.S.V.D.Z.Z.Z.Z.Z.Z.Z.Z.Z.Z.Z.Z.Z.Z.Z.Z.C.V.m   + X .   7 Z.A.C.C.Z.D.S.Z.Z.Z.Z.Z.Z.Z.Z.Z.Z.Z.Z.Z.Z.Z.Z.Z.0..   X       Q C.A.V.V.A.Z.C.Z.Z.Z.Z.Z.Z.Z.Z.Z.Z.Z.Z.Z.Z.Z.Z.w.    + X X     t.Z.Z.Z.Z.Z.Z.Z.Z.Z.Z.Z.Z.Z.Z.Z.Z.Z.Z.Z.Z.Z.Z.Z.Q   @ X # : + . O     w.D.C.V.Z.Z.Z.Z.Z.Z.Z.Z.Z.D.V.C.D.C.Z.t.    & Z.C.V.V.D.C.Z.Z.Z.Z.Z.Z.Z.Z.Z.Z.Z.S.A.t.      + O O     E S.Z.Z.Z.Z.Z.Z.Z.Z.Z.Z.Z.Z.Z.Z.Z.Z.V.D.V.n.% b.Z.A.Z.Z.Z.Z.Z.Z.Z.Z.Z.Z.Z.Z.Z.Z.Z.Z.V.% O   + + # X O # #       H A.Z.Z.Z.Z.Z.Z.Z.Z.Z.Z.Z.Z.Z.Z.Z.Z.Z.Z.C.n.Z.V.n.      X       E Z.Z.Z.Z.Z.Z.Z.Z.Z.Z.Z.Z.Z.Z.Z.Z.Z.C.D.A.C.Z.C.b.                  w.Z.V.A.Z.V.C.Z.Z.Z.Z.Z.Z.Z.Z.Z.Z.Z.Z.Z.Z.Z.Z.Z.w.    O . # = 6 5 6 2 2 , # , 5 8 8 z 8 2 2 2 2 2 2 2 2 2 2 1 1 2 2 1 # # # # # # # # , 1 1 # + # # + + + + + + + + + + + + + O + O . # # : # + # + + # # # # % # % % .                 ",
"1   3 b q h h U K c Z Z c C C K C C J J n n J J L H L R ..] ..L R R T R R [ +...O... .R L T Y [ R Y L H H H v v n n w g w 9 v m m r m r e e 7 r r x r r r e 2 # O ! V.S.Z.C.S.Z.Z.Z.Z.Z.Z.Z.Z.Z.Z.Z.Z.Z.Z.Z.Z.Z.C.V.{   O X .   m Z.C.V.A.C.D.Z.Z.Z.Z.Z.Z.Z.Z.Z.Z.Z.Z.Z.Z.Z.Z.Z.V.2.      X     >.A.D.V.Z.A.V.C.Z.Z.Z.Z.Z.Z.Z.Z.Z.Z.Z.Z.Z.Z.Z.Z.w.    + X X     t.Z.Z.Z.Z.A.Z.Z.Z.Z.Z.Z.Z.Z.Z.Z.Z.Z.C.S.S.Z.Z.Z.Q . > X * : + # O X . Q Z.S.Z.S.Z.Z.Z.Z.Z.Z.Z.Z.D.V.C.D.C.A.F..   m V.C.A.V.Z.S.Z.Z.Z.Z.Z.Z.Z.Z.Z.Z.D.V.D.Q   X   > X o     o.n.Z.Z.Z.Z.Z.Z.Z.Z.Z.Z.Z.Z.C.Z.Z.Z.C.D.F.n.  t.Z.A.Z.Z.Z.Z.Z.Z.Z.Z.Z.Z.Z.Z.Z.Z.Z.Z.C.n   . O X # . o = , O .   ! A.Z.Z.Z.Z.Z.Z.Z.Z.Z.Z.Z.Z.Z.Z.Z.Z.V.Z.C.A.Z.V.n.    O O .     E Z.Z.Z.Z.Z.Z.Z.Z.Z.Z.Z.Z.Z.Z.Z.Z.Z.C.n.A.V.D.C.b.    . = 5 q 5 =   w.Z.C.A.Z.V.C.Z.Z.Z.Z.Z.Z.Z.Z.Z.Z.Z.Z.Z.Z.Z.Z.Z.0.        O $ , 5 2 1 1 # + z } _ p p 8 2 5 2 2 2 2 2 2 2 2 1 1 2 2 1 # % , % 1 = # # # = = = = % % % # # % % # # # # # # + + X + O O # 1 : # + + + # # = # # % o o % #                 ",
"# # 3 l f 2 w g C b K b C J J J J C J L J J J J L J L O.p.p.y.y.y.6.2.2.<.1.6.9.2.<.@.<.<.2.2.2.$.<.<.o.<.<.<.y.j.o.r e 9 9 H  .<.$.1.1.o.Q o.o.W o. . .X.E r 8 * 3 S.A.V.V.A.S.Z.Z.Z.Z.Z.Z.Z.Z.Z.Z.Z.Z.Z.Z.Z.Z.Z.Z.Q # # O     E D.V.A.Z.C.Z.Z.Z.Z.Z.Z.Z.Z.Z.Z.Z.Z.Z.Z.Z.Z.Z.Z.C. .  %     +   >.Z.C.Z.Z.C.Z.S.Z.Z.Z.Z.Z.Z.Z.Z.Z.Z.Z.Z.Z.Z.Z.Z.w.+ . 7 3 2 $ X t.Z.C.Z.Z.Z.C.Z.Z.Z.Z.Z.Z.Z.Z.Z.Z.Z.Z.Z.Z.Z.Z.Z.Q O 2 w m E P H r 3 , 0 V.D.C.Z.Z.Z.Z.Z.Z.Z.Z.Z.Z.A.V.V.D.Z.F.t   W A.V.V.D.C.C.Z.Z.Z.Z.Z.Z.Z.Z.S.V.M.C.S.e @   X z c f 1 X 0.V.Z.Z.Z.Z.Z.Z.Z.Z.Z.Z.Z.Z.Z.Z.Z.Z.Z.C.S.w.  w.C.Z.Z.Z.Z.Z.Z.Z.Z.Z.Z.Z.Z.Z.Z.Z.Z.Z.V.Q + * q r J T R T n e 2   E Z.Z.Z.Z.Z.Z.Z.Z.Z.Z.Z.Z.Z.Z.Z.Z.Z.C.Z.C.A.V.C.b.. $ 2 f 5 u X ! D.Z.Z.Z.Z.Z.Z.Z.Z.Z.Z.Z.Z.Z.Z.Z.Z.C.n.S.C.C.V.n.O $ 9 H R R J 7 + w.Z.C.A.Z.C.C.Z.Z.Z.Z.Z.Z.Z.Z.Z.Z.Z.Z.Z.Z.Z.Z.Z.w.      X O . + 3 + $ 1 ,   v Q.h.L 7 2 p 2 3 2 2 2 1 4 4 4 1 2 2 2 , , , : : : * * = # - J ..{ R  . .R E E E E r m m Z [ c + + + + O # : : + + + + # * 1 1 # + + # # O                 ",
"h 8 8 h g g x b K C b J J K J J J C J J J J J J K L L ] ..+.@.5.j.W.W.W.W.W.W.`.k.j.Y.W.W.`.`.W.k.W.`.`.`.`.`.|.W. .e w w e v R  .$.y.j.W.W.R.y.1.h.W.W.y.1.R g + . n.n.S.C.n.S.Z.Z.Z.Z.Z.Z.Z.Z.Z.Z.Z.Z.Z.Z.Z.Z.Z.A.2.  O   .   W D.V.A.A.C.Z.A.Z.Z.Z.Z.Z.Z.Z.Z.Z.Z.Z.Z.Z.Z.Z.Z.S.T . 7 q 2 #   2.Z.S.Z.Z.C.Z.C.Z.Z.Z.Z.Z.Z.Z.Z.Z.Z.Z.Z.Z.Z.Z.Z.w.# - g c g - . t.Z.C.Z.Z.Z.C.Z.Z.Z.Z.Z.Z.Z.Z.Z.Z.Z.Z.Z.Z.Z.Z.Z.Q # f Y O.6.6.4. .b 2 $ t.n.C.Z.Z.Z.Z.Z.Z.Z.Z.Z.Z.S.Z.V.D.Z.S.!   Q A.V.V.D.C.Z.Z.Z.Z.Z.Z.Z.Z.Z.n.Z.A.C.t.    . X 6 3 2 # O w.C.Z.Z.Z.Z.Z.Z.Z.Z.Z.Z.Z.Z.Z.Z.Z.Z.Z.A.V.0.  0.S.S.Z.Z.Z.Z.Z.Z.Z.Z.Z.Z.Z.Z.Z.Z.Z.Z.S.2.% F _ O.u.U.U.d.@.R z % W Z.Z.Z.Z.Z.Z.Z.Z.Z.Z.Z.Z.Z.Z.Z.Z.Z.C.Z.C.A.V.C.b.. = e q - *   W n.C.C.C.C.Z.Z.C.C.C.C.C.C.Z.Z.Z.Z.Z.D.Z.n.Z.S.D.  2 v Y R T x 2 X w.Z.C.A.Z.V.C.Z.Z.Z.Z.Z.Z.Z.Z.Z.Z.Z.Z.Z.Z.Z.Z.Z.w.      X O . O 2 . $ , , . H !.[.h.H 8 2 8 5 2 2 2 2 1 1 1 2 2 2 2 , , , , 1 1 1 1 1 = = w n x H  .u.T.Y.j.g.y.@.T h f g 5 X + + + # : : : + + + + # * * , # + + # # +                 ",
"A q C h C C c Z J J b K J C J J L J J J K J L J K J L L R R R R o.j.`.`.`.`.z.|.k.l.g.~.[.`.`.W.`.[.[.'.|.|.].|.[.W 9 r r w r H r H H W y.W.W.<.0 ! j.W.j.y.W x .   t.n.S.C.n.V.Z.Z.Z.Z.Z.Z.Z.Z.Z.Z.Z.Z.Z.Z.Z.Z.Z.S.0.      .   2.Z.V.A.A.C.Z.A.Z.Z.Z.Z.Z.Z.Z.Z.Z.Z.Z.Z.Z.Z.Z.Z.V.3 = e V w - + 0.Z.S.A.Z.C.Z.C.Z.Z.Z.Z.Z.Z.Z.Z.Z.Z.Z.Z.Z.Z.Z.Z.w.# 2 g b g - . t.Z.C.Z.Z.Z.C.Z.Z.Z.Z.Z.Z.Z.Z.Z.Z.Z.Z.Z.Z.Z.Z.Z.Q O 2 T @.s.l.y.+.J q # 0.D.V.V.Z.Z.Z.Z.Z.Z.Z.Z.S.C.V.C.D.V.S.Q   w.Z.Z.Z.Z.S.V.Z.Z.Z.Z.Z.Z.Z.Z.A.D.n.S.0..     X & X   .   t.S.Z.Z.Z.Z.Z.Z.Z.Z.Z.Z.Z.Z.Z.Z.Z.Z.Z.A.n.>.  0.C.S.Z.Z.Z.Z.Z.Z.Z.Z.Z.Z.Z.Z.Z.Z.Z.Z.S.0., q C { @.a.R.U.4.] c % Q Z.Z.Z.Z.Z.Z.Z.Z.Z.Z.Z.Z.Z.Z.Z.Z.Z.C.Z.C.A.V.C.b.. 4 1         W C.C.C.C.C.V.V.C.C.C.C.C.C.C.C.C.C.C.n.Z.D.Z.V.V.X 2 g c x 8 2 #   w.Z.C.A.Z.V.C.Z.Z.Z.Z.Z.Z.Z.Z.Z.Z.Z.Z.Z.Z.Z.Z.Z.0.    O O O . O # + % 1 , . H [.{.[.s.L & 2 6 1 6 4 1 2 , 2 2 2 2 2 2 2 2 2 1 1 * # # # o o $ . & - L a.W.k.j.g.5.r o o   # X O + # # # , # + + + + # 1 1 1 # + + 1 1 + X               ",
"b q c g Z c C Y K K K K K b K J L K J L K J L J Y L Y L R  .[ [ R y.`.`.`.`.m.|.m.6.o.$.$.o.1.1.9.6.6.y.j.k.|.|.W.E e x r r r v v v H H P $.W.R.T 0 y.k.k.y. .m #   w.A.V.V.A.V.Z.Z.Z.Z.Z.Z.Z.Z.Z.Z.Z.Z.Z.Z.Z.Z.Z.Z.w..         0.Z.V.A.A.C.Z.A.Z.Z.Z.Z.Z.Z.Z.Z.Z.Z.Z.Z.Z.Z.Z.Z.b.. 3 e b x 0 # 0.Z.C.A.C.Z.Z.S.Z.Z.Z.Z.Z.Z.Z.Z.Z.Z.Z.Z.Z.Z.Z.Z.w.. = % 3 2 $   t.Z.C.Z.Z.Z.C.Z.Z.Z.Z.Z.Z.Z.Z.Z.Z.Z.Z.Z.Z.Z.Z.Z.>.O * J @.g.l.y.@.T w O E Z.V.S.Z.Z.Z.Z.Z.Z.Z.Z.S.C.Z.C.A.n.S.2.  t.V.D.Z.V.S.Z.Z.Z.Z.Z.Z.Z.Z.Z.A.n.S.b.E     X + .         b.Z.Z.Z.Z.Z.Z.Z.Z.Z.Z.Z.Z.Z.Z.Z.Z.Z.C.Z.Z.W   o.C.S.Z.Z.Z.Z.Z.Z.Z.Z.Z.Z.Z.Z.Z.Z.Z.Z.V.t.$ 3 3 x H { +.$.{ H 8 $ Q A.Z.Z.Z.Z.Z.Z.Z.Z.Z.Z.Z.Z.Z.Z.Z.Z.C.Z.C.A.V.C.b.. 4 X X . @ O E A.A.A.A.A.A.A.A.A.A.A.A.A.A.A.A.A.D.Z.S.n.V.S.D.. . # #           w.Z.C.A.Z.C.C.Z.Z.Z.Z.Z.Z.Z.Z.Z.Z.Z.Z.Z.Z.Z.Z.Z.0.    O O O . O . # 1 4 2 $ H R.m.`.R.y.H 7 5 2 4 4 2 - = 2 2 1 2 2 2 2 2 1 2 1 1 1 = # # .   . + . - @.`.z.k.j.4.- . #   # # # + # # * # + + + + + # * 1 1 # + + 1 1 # + X             ",
"c Z g K C h b J K C K J J C C J J J J K J C J J K J Y L L [ {  .R <.[.|.|.`.|.N.`.1.E H H P E W R W E P E W 1.W.W.P e x w r r v r r r r 0 P 4.[.5.0 ! l.k.y.o.T =   2.Z.Z.V.D.Z.Z.Z.Z.Z.Z.Z.Z.Z.Z.Z.Z.Z.Z.Z.Z.Z.A.n.t..   X     w.Z.V.A.Z.Z.Z.S.Z.Z.Z.Z.Z.Z.Z.Z.Z.Z.Z.Z.S.Z.Z.C.t.  3 r V x 0 # 0.Z.C.A.Z.S.Z.C.Z.Z.Z.Z.Z.Z.Z.Z.Z.Z.Z.Z.Z.Z.Z.Z.w.. o .         t.Z.C.Z.Z.S.C.Z.Z.Z.Z.Z.Z.Z.Z.Z.Z.Z.Z.Z.Z.Z.Z.Z.>.  . J $.y.k.j.6.E h   . b.Z.C.Z.Z.Z.Z.Z.Z.Z.Z.Z.C.Z.C.Z.Z.Z.0.. F.V.D.Z.V.C.Z.Z.Z.Z.Z.Z.Z.Z.Z.Z.C.C.F.O     + + . O X   ; n.Z.Z.Z.Z.Z.Z.Z.Z.Z.Z.Z.Z.Z.Z.Z.Z.Z.V.Z.S.G   Q C.C.Z.Z.Z.Z.Z.Z.Z.Z.Z.Z.Z.Z.Z.Z.Z.Z.A.b.. :   O . o . $ o o     Q Z.Z.Z.Z.Z.Z.Z.Z.Z.Z.Z.Z.Z.Z.Z.Z.Z.Z.Z.C.A.V.C.b.. o   .   O O W Z.Z.Z.Z.Z.Z.Z.Z.Z.Z.Z.Z.Z.Z.Z.Z.Z.Z.Z.S.V.S.F.n.                  w.Z.C.A.Z.C.C.Z.Z.Z.Z.Z.Z.Z.Z.Z.Z.Z.Z.Z.Z.Z.Z.Z.0.    O X O . +   # 1 4 3 = G l.k.z.`.W.y.H 2 6 4 4 2 - % 2 2 1 2 1 2 2 2 1 1 1 1 1 * + # + + #   + . E l.l.f.j.+.$ . + O . X . + * 1 # # + + # + + # * # # # # + # * # + X             ",
"Z K Z Y K C c J J b C K n C c K J J K K J J J L L L ] Y Y [ [ [ [ o.`.|.|.|.|.m.`.<.R R T T {  . . .] T L r P 1.W.H e v r r r v r r r r e 9 H U.T.E t o.k.l.$.T q   o.Z.S.S.A.Z.Z.Z.Z.Z.Z.Z.Z.Z.Z.Z.Z.Z.Z.Z.Z.Z.S.Z.b.      O   w.Z.S.A.V.Z.Z.C.Z.Z.Z.Z.Z.Z.Z.Z.Z.Z.Z.Z.S.C.Z.C.w.X 1 x Z x 7 # 0.Z.V.A.V.S.Z.Z.Z.Z.Z.Z.Z.Z.Z.Z.Z.Z.Z.Z.Z.Z.Z.C.w.+ * O   X     t.Z.C.Z.Z.S.C.Z.Z.Z.Z.Z.Z.Z.Z.Z.Z.Z.Z.Z.Z.Z.Z.Z.0.  . J $.y.f.k.y.W c . O w.D.n.Z.Z.Z.Z.Z.Z.Z.Z.Z.C.D.S.Z.A.Z.t.0 Z.V.Z.Z.Z.C.Z.Z.Z.Z.Z.Z.Z.Z.Z.Z.C.C.w.O   .   O . X O   m Z.V.Z.Z.Z.Z.Z.Z.Z.Z.Z.Z.Z.Z.Z.Z.Z.Z.C.Z.A.0   E A.C.Z.Z.Z.Z.Z.Z.Z.Z.Z.Z.Z.Z.Z.Z.Z.Z.A.F.3 : O . X   . # O + O   Q Z.Z.Z.Z.Z.Z.Z.Z.Z.Z.Z.Z.Z.Z.Z.Z.Z.Z.Z.V.A.V.Z.b.. o X     X   Q V.V.V.Z.V.V.V.Z.Z.V.C.V.V.V.V.V.V.D.n.V.C.A.Z.D.        O X       w.Z.C.A.Z.C.C.Z.Z.Z.Z.Z.Z.Z.Z.Z.Z.Z.Z.Z.Z.Z.Z.Z.0.    O X O . + X . 1 , 2 = r <.y.k.k.`.k.5.x 2 3 2 2 - & = 6 1 2 1 2 1 2 1 1 1 * 1 # O O + O + O , . H l.l.l.g. .o + O : # # # # = = # # . + # + + # * # # # # # * * # + X             ",
"b c K C C Y C Y K K K K J J J K K J K K L L J L L L L L Y [  .{ R o.`.`.|.|.|.|.`.<.T R Y T [  ...[ [ ' L m r { L.J e x v w r v v r r v x e e  .!.g.G t y.l.1.R c + H Z.S.V.n.V.Z.Z.Z.Z.Z.Z.Z.Z.Z.Z.Z.Z.Z.Z.Z.Z.S.C.F..     O   t.V.A.A.V.Z.Z.C.Z.Z.Z.Z.Z.Z.Z.Z.Z.Z.Z.Z.Z.Z.Z.Z.0.  # w J m 8 # 0.Z.V.A.V.Z.A.Z.Z.Z.Z.Z.Z.Z.Z.Z.Z.Z.Z.Z.Z.Z.Z.Z.w.. # + O :     t.Z.C.Z.Z.S.C.Z.Z.Z.Z.Z.Z.Z.Z.Z.Z.Z.Z.Z.Z.Z.Z.Z.0.    C +.6.f.k.l.o.b O   Q D.C.Z.Z.Z.Z.Z.Z.Z.Z.Z.C.Z.Z.V.D.Z.b.! D.A.C.Z.Z.C.Z.Z.Z.Z.Z.Z.Z.Z.Z.Z.D.C.Q O X   @ O + X O . W S.C.Z.Z.Z.Z.Z.Z.Z.Z.Z.Z.Z.Z.Z.Z.Z.Z.C.D.n.o   T A.C.Z.Z.Z.Z.Z.Z.Z.Z.Z.Z.Z.Z.Z.Z.Z.Z.C.S.E # X   > # O @ O O O   Q S.Z.Z.Z.Z.Z.Z.Z.Z.Z.Z.Z.Z.Z.Z.Z.Z.C.Z.V.A.V.C.b.. & @ O     o Q D.A.A.A.C.C.C.A.A.C.C.C.C.C.A.A.A.D.D.C.D.n.D.n.                X w.Z.C.A.Z.C.C.Z.Z.Z.Z.Z.Z.Z.Z.Z.Z.Z.Z.Z.Z.Z.Z.Z.0.      X   . X + X # + # # 0 [ <.y.l.k.`.Y.5.r 3 - = % . % 2 1 , 1 2 1 2 1 2 1 1 1 * # + + + O + O . R W.k.l.y.] $ # # : # + + # = * # o + + # + + # * # # # # * 1 1 # + X             ",
"g K K ' K ' Y K L ' K J K L ' b K J K J L L C J Y Y L ] R ] { [ R o.`.|.|.|.|.|.`.o.T ] R T ] { ..[ } ' K K g n 5.H g x v w v x r v v H x w e r 6.[.X.t E y.6.{ c 1 $ D.V.n.D.V.Z.Z.Z.Z.Z.Z.Z.Z.Z.Z.Z.Z.Z.Z.Z.Z.A.C.V.3     O   b.Z.A.A.C.Z.Z.C.Z.Z.Z.Z.Z.Z.Z.Z.Z.Z.Z.Z.Z.Z.Z.Z.Q   O - m m 8 # 0.V.V.A.V.Z.A.Z.Z.Z.Z.Z.Z.Z.Z.Z.Z.Z.Z.Z.Z.Z.Z.Z.w.+ O     <     t.Z.C.Z.Z.S.C.Z.Z.Z.Z.Z.Z.Z.Z.Z.Z.Z.Z.Z.Z.Z.Z.Z.0.O   C +.9.f.z.l.1.J     t F.D.Z.Z.Z.Z.Z.Z.Z.Z.A.C.D.Z.V.D.V.V.Q D.A.V.Z.D.V.Z.Z.Z.Z.Z.Z.Z.Z.Z.S.n.V.;   O   > X > X O   o.A.V.Z.Z.Z.Z.Z.Z.Z.Z.Z.Z.Z.Z.Z.Z.Z.Z.A.D.x.    t D.C.Z.Z.Z.Z.Z.Z.Z.Z.Z.Z.Z.Z.Z.Z.Z.Z.n.S.Q # X   > : > > O @ O   Q C.Z.Z.Z.Z.Z.Z.Z.Z.Z.Z.Z.Z.Z.Z.Z.Z.C.Z.V.A.V.C.b.. $   @ O O   o 0 2 - - = = = = = = = = = - - - - ; ; ; 2 - ; 0 >   O X     .     w.Z.C.A.Z.V.C.Z.Z.Z.Z.Z.Z.Z.Z.Z.Z.Z.Z.Z.Z.Z.Z.Z.0.    O X       X   . O + . = J  .o.l.l.k.k.h...7 ; % o   # 6 1 , 1 2 , 2 2 2 1 1 * # # + + # O O + + T l.k.l.s.Y o # : # # , : = 1 * o o # + # + + # * # # 1 # 1 1 # + +               ",
"Y K Y L n J K J K K K C C K K K Y L Y J J L J L L ] Y R R R [ [ R o.`.|.|.|.`.`.[.<.T ] Y R R  . . . .R ] m H m [ n x r r v r r m v v v r w e e R R.h.E 0 $.6.X.n 2 + b.C.D.Z.Z.Z.Z.Z.Z.Z.Z.Z.Z.Z.Z.Z.Z.Z.Z.Z.Z.C.Z.D.G         Z.Z.Z.Z.Z.Z.Z.Z.Z.Z.Z.Z.Z.Z.Z.Z.Z.Z.S.Z.Z.D.n.V.W     + f b q o w.V.C.A.Z.Z.Z.C.Z.Z.Z.Z.Z.Z.Z.Z.Z.Z.Z.Z.Z.Z.Z.Z.w.o #   # 1     t.Z.C.Z.Z.S.C.Z.Z.Z.Z.Z.Z.Z.Z.Z.Z.Z.Z.Z.Z.Z.Z.Z.0.    v $.y.l.k.j.y.' O X   t.D.Z.S.S.Z.A.A.Z.V.Z.Z.Z.Z.Z.Z.Z.Z.w.n.A.V.Z.V.A.Z.Z.Z.Z.Z.Z.Z.Z.Z.Z.D.w.  @   + @ . . X     0.Z.Z.Z.Z.Z.Z.Z.Z.Z.Z.Z.Z.Z.Z.Z.Z.Z.Z.S.n.t.  O - C.A.Z.Z.Z.Z.Z.Z.Z.Z.Z.Z.Z.Z.Z.Z.Z.Z.Z.Z.0.#   X + % + + @ .     Q Z.Z.Z.Z.Z.Z.Z.Z.Z.Z.Z.Z.Z.Z.Z.Z.Z.Z.Z.C.A.Z.C.b.+ o O   O @ # O O                       X = 2 - = 2 %       O   X   X O O O       w.Z.V.Z.Z.C.C.Z.Z.Z.Z.Z.Z.Z.Z.Z.Z.Z.Z.Z.Z.Z.Z.Z.0..     X   X       O       # f T  .@.l.k.k.l.g.X.9 o X O , , 2 2 3 6 2 2 6 2 4 1 1 # + O O X X   X o H j.`.k.h.R . # : # # * # # = * o . # # + + + # 1 1 # # # 1 1 , 1 X X             ",
"K J K J J ' Y K K L L K K K K ' Y L K L J J J J Y ] R R R R [ [ R o.`.|.|.|.`.`.[.<.T R R E R  . . .{ R R H H H L r v x r v r v v v v r r w w w r 4.R.1.t E 5.o.J 7 + t.C.Z.Z.A.Z.Z.Z.Z.Z.Z.Z.Z.Z.Z.Z.Z.Z.Z.Z.Z.V.Z.Z.E       = Z.Z.Z.Z.Z.Z.Z.Z.Z.Z.Z.Z.Z.Z.Z.Z.S.Z.S.Z.Z.A.Z.S.r   X O = x q + w.V.C.A.Z.Z.Z.Z.Z.Z.Z.Z.Z.Z.Z.Z.Z.Z.Z.Z.Z.Z.Z.Z.w.. #   : :     t.Z.C.Z.Z.S.C.Z.Z.Z.Z.Z.Z.Z.Z.Z.Z.Z.Z.Z.Z.Z.Z.Z.0.  X v ..6.l.m.k.y.[ O     0.A.Z.Z.Z.Z.Z.Z.S.C.Z.Z.Z.Z.Z.Z.Z.Z.x.D.Z.Z.S.Z.A.Z.Z.Z.Z.Z.Z.Z.Z.Z.Z.A.>.    O + @ . . O     w.A.Z.Z.Z.Z.Z.Z.Z.Z.Z.Z.Z.Z.Z.Z.Z.Z.Z.V.D.0.    . Z.Z.Z.Z.Z.Z.Z.Z.Z.Z.Z.Z.Z.Z.Z.Z.Z.Z.V.A.w.+   O + % + @ O .     Q S.Z.Z.Z.Z.Z.Z.Z.Z.Z.Z.Z.Z.Z.Z.Z.Z.Z.Z.C.A.Z.C.b.+ #     @ O # : # + + O O X X     X   = g x x x x c 2 .     X + .   X O O O       w.Z.V.Z.Z.V.C.Z.Z.Z.Z.Z.Z.Z.Z.Z.Z.Z.Z.Z.Z.Z.Z.Z.n.w.t.t.t.t.t.t.t.t.t.t.x.x.t.t.e R o.1.l.k.k.R.g. .- # + . 8 2 1 3 8 6 6 6 2 2 1 1 # + O O X O + # o H j.W.k.h.R o # : # # 1 # # 1 * o . # # + + + # 1 1 # # # 1 1 1 1 X X             ",
"J J L Y L ] ] Y K ' ' ' K K K K Y L J Y L J J L Y ] ] R R R ] [  .o.`.|.|.|.`.`.`.<.R R R R R  .X. . .R R H H G v w v v r r r v v v v v r w w w 9 H U.~.R t R #.T e # 0.C.Z.Z.S.Z.Z.Z.Z.Z.Z.Z.Z.Z.Z.Z.Z.Z.Z.Z.Z.V.S.Z.Q       r Z.Z.Z.Z.Z.Z.Z.Z.Z.Z.Z.Z.Z.Z.Z.Z.Z.Z.S.Z.C.Z.Z.Z.o   O O   g q # w.V.C.A.Z.Z.Z.Z.Z.Z.Z.Z.Z.Z.Z.Z.Z.Z.Z.Z.Z.Z.Z.Z.w.. # + 2 @ .   t.Z.C.Z.Z.Z.C.Z.Z.Z.Z.Z.Z.Z.Z.Z.Z.Z.Z.Z.Z.Z.Z.Z.0.  X v ..y.k.`.`.l...#     ! S.S.Z.Z.Z.Z.Z.Z.S.Z.Z.Z.Z.Z.Z.Z.Z.A.D.n.V.S.Z.A.Z.Z.Z.Z.Z.Z.Z.Z.Z.Z.V.t     # O @ # . O X   t.D.C.Z.Z.Z.Z.Z.Z.Z.Z.Z.Z.Z.Z.Z.Z.Z.Z.V.D.Q       b.Z.Z.Z.Z.Z.Z.Z.Z.Z.Z.Z.Z.Z.Z.Z.Z.Z.V.D.t.    O . + + @ O       Q S.Z.Z.Z.Z.Z.Z.Z.Z.Z.Z.Z.Z.Z.Z.Z.Z.Z.Z.C.A.V.C.b.. #   X #     . . . . .             $ r T T T T H n o     # . .   . . . O + X     w.Z.V.A.Z.C.C.Z.Z.Z.Z.Z.Z.Z.Z.Z.Z.Z.Z.Z.Z.Z.Z.Z.n.D.D.D.A.V.V.A.S.Z.A.n.S.S.Z.x.2 n R <.l.z.k.`.R.h.] 7 o = 2 6 6 p p 3 3 2 2 2 2 2 = + O + + O + O   v y.k.W.W.R o # : : , 1 * 1 1 # # + # # + + # 1 1 1 1 # # 1 1 1 , + X X           ",
"Y K K K C K ' ] L Y ' K K K K K ' Y K Y J J J Y R R [ R R R ]  . .o.`.|.|.|.`.'.`.<.R R R R {  ..... .R R P H r v r v r r v v v r r r v r w w r r r  .XXa.r H  .R e % 2.V.Z.Z.V.Z.Z.Z.Z.Z.Z.Z.Z.Z.Z.Z.Z.Z.Z.Z.Z.V.S.Z.2.      E Z.Z.Z.Z.Z.Z.Z.Z.Z.Z.Z.Z.Z.Z.Z.Z.Z.S.S.S.S.V.Z.b.  X   . . 8 8 # w.V.C.A.Z.Z.Z.Z.Z.Z.Z.Z.Z.Z.Z.Z.Z.Z.Z.Z.Z.Z.Z.Z.w.. # , 2 O     t.Z.C.Z.Z.Z.C.Z.Z.Z.Z.Z.Z.Z.Z.Z.Z.Z.Z.Z.Z.Z.Z.Z.0.  X n $.g.`.`.`.j...o     % x.S.Z.Z.A.C.Z.Z.Z.Z.Z.Z.Z.Z.Z.Z.Z.Z.Z.b.S.S.V.A.A.Z.Z.Z.Z.Z.Z.Z.Z.V.b..   + X + > @ X O   . b.D.C.Z.Z.Z.Z.Z.Z.Z.Z.Z.Z.Z.Z.Z.Z.Z.Z.Z.A.Q       t.A.Z.Z.Z.Z.Z.Z.Z.Z.Z.Z.Z.Z.Z.Z.Z.Z.C.D.n.$   O . # O @ O       Q C.Z.Z.Z.Z.Z.Z.Z.Z.Z.Z.Z.Z.Z.Z.Z.Z.Z.Z.C.A.V.C.b.+ +     +   # : # > > > # + O O + o g Y { R R [ Y x . O + + + o % . . . . X X     w.Z.V.Z.Z.C.C.Z.Z.Z.Z.Z.Z.Z.Z.Z.Z.Z.Z.Z.Z.Z.Z.Z.Z.D.n.D.Z.V.Z.Z.C.V.Z.V.V.Z.Z.x.2 w R @.l.k.k.`.`.W.a...7 2 2 6 p p y 6 6 2 2 2 2 2 1 # + + + + # # # v 6.l.l.y.Y o # : : % 1 # 1 1 # # + # # # + # , 1 1 1 , # = = 2 % # X             ",
"Y K K K K ] K L ] K K ] ] Y Y ] Y L L K H L H L R ] [ R Y R ]  . .o.`.|.|.|.|.`.`.<.E ] R R  . .O... .R R L H r v v r r x v v r x r x v r w w g r e G s.[.X.9 L R w 1 W Z.Z.Z.V.Z.Z.Z.Z.Z.Z.Z.Z.Z.Z.Z.Z.S.Z.Z.Z.Z.C.Z.0.      E Z.Z.Z.Z.Z.Z.Z.Z.Z.Z.Z.Z.Z.Z.Z.Z.Z.A.Z.S.S.V.Z.t.      X o - 3 # w.V.V.Z.Z.Z.Z.Z.Z.Z.Z.Z.Z.Z.Z.Z.Z.Z.Z.Z.Z.Z.Z.Z.w.o # 1 1       t.Z.C.Z.Z.Z.C.Z.Z.Z.Z.Z.Z.Z.Z.Z.Z.Z.Z.Z.Z.Z.Z.Z.0.    b @.h.`.`.`.W.+.$ O     w.Z.Z.Z.Z.C.Z.Z.Z.Z.Z.Z.Z.Z.Z.Z.Z.Z.V.Z.S.V.V.S.Z.Z.Z.Z.Z.Z.Z.Z.Z.Z.w.O O     : # > X O   0 Z.n.C.Z.Z.Z.Z.Z.Z.Z.Z.Z.Z.Z.Z.Z.Z.Z.Z.Z.Z.E       w.Z.Z.Z.Z.Z.Z.Z.Z.Z.Z.Z.Z.Z.Z.Z.Z.Z.Z.A.V.e   O   > X @ O       Q C.Z.Z.Z.Z.Z.Z.Z.Z.Z.Z.Z.Z.Z.Z.Z.Z.Z.Z.C.A.V.Z.b.X o         . X X O O O O X   X X % x T T H T H n %   X O   o . . # # + . X       w.Z.C.A.Z.C.C.Z.Z.Z.Z.Z.Z.Z.Z.Z.Z.Z.Z.Z.Z.Z.Z.Z.V.V.S.C.V.C.S.C.S.n.A.A.A.A.D.t.# 8 L X.y.g.k.|.`.W.R.T. .w - 8 p p 6 6 3 6 2 = 2 2 2 % + + + + @ @ % H y.j.j.y.T . # : : # : * 1 1 # # # # # # + # * 1 1 1 1 , # % 2 % = . X           ",
"' ] ] [ ] [ K K ] ' ' ] ] ' K L K K ' Y J Y J L R ] [ R R R ] {  .o.{.}.'.}.'.'.'.<.E [ R R {  ..... .R R T H H r v v v v r v v v v v v r w w x w 9 r E W.T.r e H c 2 r Z.Z.Z.A.Z.Z.Z.Z.Z.Z.Z.Z.Z.Z.Z.Z.Z.Z.Z.Z.Z.C.C.w.      Q Z.Z.Z.Z.Z.Z.Z.Z.Z.Z.Z.Z.Z.Z.Z.Z.Z.A.Z.V.C.Z.D.w.        . = 8 o w.V.V.Z.Z.Z.Z.Z.Z.Z.Z.Z.Z.Z.Z.Z.Z.Z.Z.Z.Z.Z.Z.Z.w.o * 1 #       t.Z.C.Z.Z.Z.C.Z.Z.Z.Z.Z.Z.Z.Z.Z.Z.Z.Z.Z.Z.Z.Z.Z.0.  X b @.h.`.'.`.W.@.% O O   Q A.A.C.Z.Z.Z.C.Z.Z.Z.Z.Z.Z.Z.Z.Z.A.Z.S.Z.Z.Z.S.Z.Z.Z.Z.Z.Z.Z.Z.Z.D.! O + X O @ + @ X X   G S.C.C.Z.Z.Z.Z.Z.Z.Z.Z.Z.Z.Z.Z.Z.Z.Z.Z.A.S.0       w.Z.Z.Z.Z.Z.Z.Z.Z.Z.Z.Z.Z.Z.Z.Z.Z.Z.Z.A.Z.E   X   @ O @ O       Q C.Z.Z.Z.Z.Z.Z.Z.Z.Z.Z.Z.Z.Z.Z.Z.Z.Z.Z.C.A.V.Z.b.X X         X   X X X X   X     X = q w w w w e 7 X     +   . + : % % # # .       w.Z.C.A.Z.C.C.Z.Z.Z.Z.Z.Z.Z.Z.Z.Z.Z.Z.Z.Z.Z.Z.Z.Z.C.S.n.Z.n.n.D.C.C.C.S.S.C.A.t.+ 8 w H 6.Y.`.|.m.`.R.W.Y.X.9 0 7 5 3 3 8 9 2 2 2 3 2 1 # + + # : # . r l.k.j.y.T o # : : # # , 1 1 # # # # # # + # * 1 1 1 1 1 = = 1 = 2 # X           ",
"] ` ] _ K K K ' K K ' K K ' ' K K L ' ] Y ] Y R R [ [ ] R R ] ] R +.oX:X}.-X$X}.{.<.R  .R R R  .O... .R R T H H v v v v x r r r v v r r r w r x r v t r <.W.4.e r c 3 & n.V.Z.A.Z.Z.Z.Z.Z.Z.Z.Z.Z.Z.Z.Z.Z.Z.Z.Z.Z.C.C.t.      >.Z.Z.Z.Z.Z.Z.Z.Z.Z.Z.Z.Z.Z.Z.Z.Z.Z.Z.Z.C.V.Z.D.>.    O   . % 7 o w.V.C.Z.Z.Z.Z.Z.Z.Z.Z.Z.Z.Z.Z.Z.Z.Z.Z.Z.Z.Z.Z.Z.w.. = % O O     t.Z.C.Z.Z.S.C.Z.Z.Z.Z.Z.Z.Z.Z.Z.Z.Z.Z.Z.C.Z.Z.Z.0.O   b @.h.z.'.'.!.4.$       e n.S.A.C.Z.Z.S.Z.Z.Z.Z.Z.Z.Z.Z.Z.Z.Z.Z.Z.Z.A.Z.Z.Z.Z.Z.Z.Z.Z.Z.Z.b.o   O + # O # @ X   O Q Z.C.Z.Z.Z.Z.Z.Z.Z.Z.Z.Z.Z.Z.Z.Z.Z.Z.Z.A.F.X X     0.Z.Z.Z.Z.Z.Z.Z.Z.Z.Z.Z.Z.Z.Z.Z.Z.Z.Z.C.S.o.    X @ O > @ X     Q C.Z.Z.Z.Z.Z.Z.Z.Z.Z.Z.Z.Z.Z.Z.Z.Z.Z.Z.C.A.V.C.b.X > O O + O     .                 % % % % % % % o     O +     % O # # % % o X     w.Z.C.A.Z.C.C.Z.Z.Z.Z.Z.Z.Z.Z.Z.Z.Z.Z.Z.Z.Z.Z.Z.Z.Z.Z.Z.D.Z.Z.S.Z.Z.Z.Z.Z.Z.D.t.# 7 2 - [ s.W.m.m.m.`.R.k.j. .r 9 q 3 3 8 9 7 2 2 3 2 1 # + # # # # % v R.[.`.j.T o # @ # # # 1 = # # # # # # # # # # * 1 1 1 1 1 2 = 1 2 = X           ",
"K U U Y K L C J K K ' ' K K K ' ' ' ' ] ] Y R R ]  . .[ R Y ] ] R o.:X5X:X:X5X:X}.<.R  . .R {  .O.....[ R T H H H H v v x v r r v v r r r r r x r w e t G U.R.H ; g 3 & x.Z.D.C.Z.Z.Z.Z.Z.Z.Z.Z.Z.Z.Z.Z.Z.Z.Z.Z.Z.C.n.t.      0.Z.Z.Z.Z.Z.Z.Z.Z.Z.Z.Z.Z.Z.Z.Z.Z.Z.Z.A.A.V.Z.D.Q     O + O 1 5 o w.V.C.Z.Z.Z.Z.Z.Z.Z.Z.Z.Z.Z.Z.Z.Z.Z.Z.Z.Z.Z.Z.Z.w.. 2 O O       t.Z.C.Z.Z.S.C.Z.Z.Z.Z.Z.Z.Z.Z.Z.Z.Z.Z.Z.C.C.Z.Z.0.    b &.h.z.'.}.[.u.2 X   X   x.n.A.C.Z.S.A.Z.Z.Z.Z.Z.Z.Z.Z.Z.Z.Z.A.Z.A.Z.Z.A.Z.Z.Z.Z.Z.Z.Z.Z.w.  X   . > X # @ .   O 2.Z.C.V.Z.Z.Z.Z.Z.Z.Z.Z.Z.Z.Z.Z.Z.Z.Z.Z.n.x.      O Q Z.Z.Z.Z.Z.Z.Z.Z.Z.Z.Z.Z.Z.Z.Z.Z.Z.Z.C.A.0.O   O @ O @ O X     Q C.Z.Z.Z.Z.Z.Z.Z.Z.Z.Z.Z.Z.Z.Z.Z.Z.Z.Z.C.A.V.Z.b.X     t E E E ! ! ! ! ! ! ! ! ! ! ! P E E ! E E H ! E E E ! W E o O + # % .       w.Z.C.A.Z.C.C.Z.Z.Z.Z.Z.Z.Z.Z.Z.Z.Z.Z.Z.Z.Z.Z.Z.A.Z.V.S.n.Z.S.V.Z.A.Z.Z.S.Z.Z.t.o 3 8 = 7 X.j.m.m.|.m.k.k.k.g. .e e 3 3 9 9 9 7 2 3 6 1 # + + # # : # r R.}.}.!.Y % # @ # # # 1 = # # # # # # # # # # * 1 1 1 1 1 2 = 2 2 1 X           ",
"A ] U ' K K K ] ' K ] ' ] [ K K ] ] ] ] Y Y ] R ] {  .{ R R ] ] R #.3X7X4X4X7X5X X5.R {  .R R  .+..... .T R H H H H v v x r r v x v v v r r r r r r r r r X.~.@.0 7 ; # w.A.n.S.Z.Z.Z.Z.Z.Z.Z.Z.Z.Z.Z.Z.Z.Z.Z.Z.C.n.Z.n.      0.Z.Z.Z.Z.Z.Z.Z.Z.Z.Z.Z.Z.Z.Z.Z.Z.Z.n.D.S.S.n.S.T   O X +   - 3 % w.V.C.A.Z.Z.Z.C.Z.Z.Z.Z.Z.Z.Z.Z.Z.Z.Z.Z.Z.Z.Z.Z.w.# * O X @     t.Z.C.Z.Z.Z.C.Z.Z.Z.Z.Z.Z.Z.Z.Z.Z.Z.Z.Z.Z.Z.Z.Z.0.    n #.a.z.'.-X Xa.2 + O X   0.S.n.C.D.Z.C.A.Z.Z.Z.Z.Z.Z.Z.Z.Z.Z.Z.Z.Z.Z.Z.Z.S.D.n.C.D.Z.V.C.$.    O @ O # > O O   O w.V.Z.C.Z.Z.Z.Z.Z.Z.Z.Z.Z.Z.Z.Z.Z.Z.Z.Z.S.e.@       W S.Z.Z.Z.Z.Z.Z.Z.Z.Z.Z.Z.Z.Z.Z.Z.Z.A.Z.C.w.O O   O @ > @ X     Q Z.Z.Z.Z.Z.Z.Z.Z.Z.Z.Z.Z.Z.Z.Z.Z.Z.Z.A.C.A.Z.Z.b.      2.C.Z.C.A.S.Z.Z.Z.Z.Z.Z.Z.Z.Z.Z.Z.Z.Z.Z.Z.Z.Z.C.Z.A.V.Z.C.  X + # # + X     w.Z.C.A.Z.C.C.Z.Z.Z.Z.Z.Z.Z.Z.Z.Z.Z.Z.Z.Z.Z.Z.Z.Z.Z.Z.Z.Z.Z.Z.Z.Z.Z.A.S.S.Z.Z.t.. 5 7 - - r @.W.`.`.|.c.m.m.W.j.X.r 7 e w 7 8 7 3 3 2 , # # # # # # . v R.}.}.[.R = + # # # 1 1 # # # # # # # # # + 1 2 1 1 2 1 2 2 = 1 2 1 .           ",
"U K ] ' ] K ] K J K ' _ K ' ' ] [ ] Y Y Y ] ] ] [ {  . .[ R ] [ ] @.4X7X7X7X7X4X:X5.R [ [  . . ....... .R R L T H H n m v r v v x v v v r r r v r r r v r H 5.a.T % = = 0.C.A.F.Z.Z.Z.Z.Z.Z.Z.Z.Z.Z.Z.Z.Z.Z.Z.Z.C.A.V.n.o     w.Z.Z.Z.Z.Z.Z.Z.Z.Z.Z.Z.Z.Z.Z.Z.Z.Z.C.D.V.Z.C.V.7   # O .   3 q . w.V.C.A.Z.Z.Z.C.Z.Z.Z.Z.Z.Z.Z.Z.Z.Z.Z.Z.Z.Z.Z.Z.w.# #     O   O t.Z.C.Z.Z.Z.C.Z.Z.Z.Z.Z.Z.Z.Z.Z.Z.Z.Z.Z.Z.Z.Z.Z.0.    n @.h.`.}.5XoXK.2 + O     ! F.D.n.D.S.V.A.Z.Z.Z.Z.Z.Z.Z.Z.Z.Z.Z.Z.Z.Z.Z.Z.Z.n.S.C.Z.A.S.Z.e   + O # X # # o O   O t.Z.Z.C.Z.Z.Z.Z.Z.Z.Z.Z.Z.Z.Z.Z.Z.Z.Z.Z.S.w.O       E Z.Z.Z.Z.Z.Z.Z.Z.Z.Z.Z.Z.Z.Z.Z.Z.Z.Z.A.C.t.  O   O O > @ X     Q Z.Z.Z.Z.Z.Z.Z.Z.Z.Z.Z.Z.Z.Z.Z.Z.Z.Z.Z.C.A.Z.Z.b.      >.Z.Z.C.A.Z.Z.Z.Z.Z.Z.Z.Z.Z.Z.Z.Z.Z.Z.Z.Z.Z.Z.C.Z.A.V.Z.C.  X + # # + X     w.Z.C.A.Z.C.C.Z.Z.Z.Z.Z.Z.Z.Z.Z.Z.Z.Z.Z.Z.Z.Z.Z.Z.Z.Z.Z.Z.Z.Z.Z.Z.Z.A.S.S.Z.Z.t.+ 3 q - 8 7 r 5.W.`.m.|.k.k.`.W.T. .r e w - 7 2 5 3 2 % # # # # # # . v W.}.}.[.Y = + , # # % : # # # # # # # # # + 1 2 1 1 1 = 1 1 1 1 2 1 .           ",
"K U ' ' ] K J K K ' ] ] ] ' ' K [ ] ' ] ] ] ] [ [ {  . . .] ] [ ] #.3X4X7X7X7X7X:X4.R  .{  . ...+.+... . .[ L L L H H H m r v v x v r r r r v v r r e v r r R L.&.7 % # Q A.C.V.Z.Z.Z.Z.Z.Z.Z.Z.Z.Z.Z.Z.Z.Z.Z.Z.V.D.V.D.7     t.Z.Z.Z.Z.Z.Z.Z.Z.Z.Z.Z.Z.Z.Z.Z.Z.Z.A.D.V.S.A.b..   X + . $ w q # w.V.C.A.Z.Z.Z.Z.Z.Z.Z.Z.Z.Z.Z.Z.Z.Z.Z.Z.Z.Z.Z.Z.w.+ # . X O     t.Z.C.Z.Z.Z.C.Z.Z.Z.Z.Z.Z.Z.Z.Z.Z.Z.Z.Z.Z.Z.Z.Z.0.    b @.h.'.$X8X:Xa.- + O     $ b.A.n.A.S.n.S.Z.Z.Z.Z.Z.Z.Z.Z.Z.Z.Z.Z.Z.Z.Z.Z.S.n.S.V.Z.Z.n.t.    O O # O # O o O     b.V.D.V.Z.Z.Z.Z.Z.Z.Z.Z.Z.Z.Z.Z.Z.Z.Z.Z.S.0.        G V.Z.Z.Z.Z.Z.Z.Z.Z.Z.Z.Z.Z.Z.Z.Z.Z.Z.Z.C.F.$ O   O O > @ X     Q Z.Z.Z.Z.Z.Z.Z.Z.Z.Z.Z.Z.Z.Z.Z.Z.Z.Z.A.C.A.Z.Z.b.      Q Z.Z.C.A.Z.Z.Z.Z.Z.Z.Z.Z.Z.Z.Z.Z.Z.Z.Z.Z.Z.Z.V.V.A.V.Z.C.  X X + + + X     w.Z.C.A.Z.C.C.Z.Z.Z.Z.Z.Z.Z.Z.Z.Z.Z.Z.Z.Z.Z.Z.Z.Z.Z.Z.Z.Z.Z.Z.Z.Z.Z.A.S.S.Z.Z.t.+ 5 c $ 2 8 7 H 6.{.`.m.m.z.k.`.R.U. .r w 3 3 3 8 5 3 = # # # > : # . r R.}.}.[.Y $ + , * # # # # # # # # # # # # # 1 2 1 1 * # # 2 2 1 2 1 +           ",
"' { ] ] ' Y K ] ] ] ] ] ] ] ] ] ] ] ] ] [ ] ] [ ] [  .....[ ] [ ] #.3X4X7X7X7X7X>X5.R  . . .X.o.O.+.+. . . .R R  .H H H n v m v v v r v v v r r r v e r m r x &.i.Z o X E D.n.Z.Z.Z.C.Z.Z.Z.Z.Z.Z.Z.Z.Z.Z.Z.Z.Z.V.A.V.D.m     b.Z.Z.Z.Z.Z.Z.Z.Z.Z.Z.Z.Z.Z.Z.Z.Z.Z.C.A.C.S.C.b.      % . 3 m 3 = w.V.C.A.Z.Z.Z.Z.Z.Z.Z.Z.Z.Z.Z.Z.Z.Z.Z.Z.Z.Z.Z.Z.w.+ o .   X     t.Z.C.Z.Z.S.C.Z.Z.Z.Z.Z.Z.Z.Z.Z.Z.Z.Z.Z.Z.Z.Z.Z.0.    n @.U.'.:X5X-Xa.= + + X     w.V.C.A.Z.Z.S.Z.Z.Z.Z.Z.Z.Z.Z.Z.Z.Z.Z.Z.Z.Z.Z.Z.Z.Z.V.S.Z.Z.0.  +     # O # # .     o Z.V.Z.V.Z.Z.Z.Z.Z.Z.Z.Z.Z.Z.Z.Z.Z.Z.Z.Z.Z.Q         7 V.Z.Z.Z.Z.Z.Z.Z.Z.Z.Z.Z.Z.Z.Z.Z.Z.S.V.S.Z.t O +   O > @       Q Z.Z.Z.Z.Z.Z.Z.Z.Z.Z.Z.Z.Z.Z.Z.Z.Z.Z.A.C.A.Z.Z.b.      Q Z.Z.C.A.V.Z.Z.Z.Z.Z.Z.Z.Z.Z.Z.Z.Z.Z.Z.Z.Z.Z.V.Z.A.V.Z.C.    X + + . X     w.Z.C.A.Z.C.C.Z.Z.Z.Z.Z.Z.Z.Z.Z.Z.Z.Z.Z.Z.Z.Z.Z.Z.Z.Z.Z.Z.Z.Z.Z.Z.Z.A.C.S.Z.Z.t.# 2 g 2 2 p g 0 H p.[.m.|.m.k.z.`.W.R...e 3 5 3 5 7 3 - % # # > # # # r Y.{.}.{.Y $ . # * # # # # # # # # # # # # : 1 1 # # + . . 2 2 2 2 2 # X         ",
"[ ' ' ' K K K K J ' ] ] Y Y Y L L ] [ ] ] ] ] [ { { ..O.O... .{  .@.:X5X:X:X>X>X:Xy.R R  .X.o.o.o.@.$.o.X.X.X.o. .H H H n m m v v r r r v v r r e v r v x r r L *.{ 2 O 0 D.S.Z.Z.Z.Z.Z.Z.Z.Z.Z.Z.Z.Z.Z.Z.Z.Z.Z.Z.V.Z.A.!     n.Z.Z.Z.Z.Z.Z.Z.Z.Z.Z.Z.Z.Z.Z.Z.Z.Z.C.Z.Z.V.n.w.    + # $ x J 7 o w.V.C.Z.Z.Z.Z.Z.Z.Z.Z.Z.Z.Z.Z.Z.Z.Z.Z.Z.Z.Z.Z.Z.w.. o $ . # .   t.Z.C.Z.Z.Z.C.Z.Z.Z.Z.Z.Z.Z.Z.Z.Z.Z.Z.Z.Z.Z.Z.Z.0.  X n &.U.'.-X:X-Xa.= + # O   O Q C.A.A.Z.Z.C.Z.Z.Z.Z.Z.Z.Z.Z.Z.Z.Z.Z.Z.Z.Z.Z.S.A.V.V.A.V.D.G   X X + + @ @ > O +   t D.C.Z.C.Z.Z.Z.Z.Z.Z.Z.Z.Z.Z.Z.Z.Z.Z.Z.Z.Z.W         . F.Z.Z.Z.Z.Z.Z.Z.Z.Z.Z.Z.Z.Z.Z.Z.Z.Z.V.C.Z.E   X X O @ O       Q Z.Z.Z.Z.Z.Z.Z.Z.Z.Z.Z.Z.Z.Z.Z.Z.Z.Z.A.C.A.Z.Z.b.      Q Z.Z.C.A.Z.Z.Z.Z.Z.Z.Z.Z.Z.Z.Z.Z.Z.Z.Z.Z.Z.Z.C.Z.A.V.Z.C.    X . . .       w.Z.C.A.Z.V.C.Z.Z.Z.Z.Z.Z.Z.Z.Z.Z.Z.Z.Z.Z.Z.Z.Z.Z.Z.Z.Z.Z.Z.Z.Z.Z.Z.A.C.Z.Z.Z.t.. 8 q 3 8 3 p w 9 P y.}.|.m.m.f.z.k.[.7.J q 3 2 3 3 3 - = # # # + # o e Y.}.-X XT $ . # , = # # # # # # # # # # # 1 1 # + + O . . = 2 2 2 2 # +         ",
"[ [ [ { ' [ K ' Y ] [ ] Y Y L J Y [ [ R ] [ [ ] {  ...O.$.O... . .$.:X:X:X:X:X-X5X{.Y.h.W.W.W.W.W.W.W.W.W.Y.Y.g.R H H H H v m v v r r v m v r r r r r v r r v w Y O.c O . b.S.Z.Z.Z.Z.Z.Z.Z.Z.Z.Z.Z.Z.Z.Z.Z.Z.Z.Z.V.Z.n.W   o V.Z.Z.Z.Z.Z.Z.Z.Z.Z.Z.Z.Z.Z.Z.Z.Z.Z.C.C.Z.V.A.0.    . . w ] J q + w.V.C.Z.Z.Z.Z.Z.Z.Z.Z.Z.Z.Z.Z.Z.Z.Z.Z.Z.Z.Z.Z.Z.w.. 2 8 q 8 - + t.Z.C.Z.Z.Z.C.Z.Z.Z.Z.Z.Z.Z.Z.Z.Z.Z.Z.Z.Z.Z.Z.Z.0.  X n &.U.`.}.-X:XK.= + # +   O e Z.n.S.Z.Z.Z.Z.Z.Z.Z.Z.Z.Z.Z.Z.Z.Z.Z.Z.Z.Z.Z.A.Z.Z.A.n.V.z..     + + O > > @ O +   ! A.A.V.S.Z.Z.Z.Z.Z.Z.Z.Z.Z.Z.Z.Z.Z.Z.Z.Z.V.H     O     b.Z.Z.Z.Z.Z.Z.Z.Z.Z.Z.Z.Z.Z.Z.Z.Z.Z.S.C.Z.>.    + X O O       Q Z.Z.Z.Z.Z.Z.Z.Z.Z.Z.Z.Z.Z.Z.Z.Z.Z.Z.A.V.A.Z.Z.b.      Q A.Z.C.A.Z.Z.Z.Z.Z.Z.Z.Z.Z.Z.Z.Z.Z.Z.Z.Z.Z.Z.C.Z.A.V.Z.C.    X X . .       w.Z.V.A.Z.V.C.Z.Z.Z.Z.Z.Z.Z.Z.Z.Z.Z.Z.Z.Z.Z.Z.Z.Z.Z.Z.Z.Z.Z.Z.Z.Z.Z.Z.C.Z.Z.Z.t.. q w ; 8 q 3 8 w e P s.$X'.`.m.`.{.g.L w w h 5 2 2 3 2 = # o # # + # e R.:X-X{.J $ + * 1 = # # # # # # # # # # # 1 1 # + + + # . = 2 2 2 1 # +         ",
"Y [ ] { ' [ C ] { ] ] L L ] ] ] ] [ [ ] R ] [ { { ......O.#... . .o.oX-X:X:X:X$X$X:X:XoX:X:X:X:X-X}.{.}.}.{.{.j.R H L H H v v m v r v H H v r v r r r v v r v r w [ K < X t.C.D.Z.Z.Z.Z.Z.Z.Z.Z.Z.Z.Z.Z.Z.Z.Z.Z.Z.V.Z.n.Q   7 V.Z.Z.Z.Z.Z.Z.Z.Z.Z.Z.Z.Z.Z.Z.Z.Z.Z.V.S.D.Z.S.o.    . 7 [ O.n 5 # w.Z.V.Z.Z.Z.Z.Z.Z.Z.Z.Z.Z.Z.Z.Z.Z.Z.Z.Z.Z.Z.Z.Z.w.+ 3 c b l 3 + t.Z.C.Z.Z.Z.C.Z.Z.Z.Z.Z.Z.Z.Z.Z.Z.Z.Z.Z.Z.Z.Z.Z.0.  X C &.U.`.}.:X:Xa.= # : + O   . t.Z.S.Z.Z.Z.Z.Z.Z.Z.Z.Z.Z.Z.Z.Z.Z.Z.Z.Z.Z.Z.Z.Z.Z.D.C.S.w.  + X . O > > @ X X     Q Z.D.V.S.Z.Z.Z.Z.Z.Z.Z.Z.Z.Z.Z.Z.Z.Z.Z.Z.Z.3 .   >     t.Z.Z.Z.Z.Z.Z.Z.Z.Z.Z.Z.Z.Z.Z.Z.Z.Z.C.C.Z.w.    +   O O       Q V.Z.Z.Z.Z.Z.Z.Z.Z.Z.Z.Z.Z.Z.Z.Z.Z.Z.Z.V.A.Z.Z.b.      Q A.V.C.A.V.Z.Z.Z.Z.Z.Z.Z.Z.Z.Z.Z.Z.Z.Z.Z.Z.Z.C.Z.A.V.Z.C.    X   . .       w.Z.V.A.Z.V.C.Z.Z.Z.Z.Z.Z.Z.Z.Z.Z.Z.Z.Z.Z.Z.Z.Z.Z.Z.Z.Z.Z.Z.Z.Z.Z.Z.Z.C.Z.Z.Z.t.1 3 w 3 q z 8 f g x 7 T W. X}.{.W.!.7.7 e [ ..e 3 2 2 2 1 # # o # + o e R.-XoX[.n $ # * 1 = # # # # # # 1 # # # # = # + # # # # # 2 2 2 2 , # + X       ",
"[ Y [ [ ] ] K K ] Y ] L L ] Y R ] ]  .{ R R ] { { ....O.+.@.O.{  .o.}.oX:X:X:X}.:X}.{.!.[.[.{.}. X{.{.{.{.{.-X~.R H L H H v v m m m m H H v r r r r m v v r r H w x K a + w.S.Z.Z.Z.Z.Z.Z.Z.Z.Z.Z.Z.Z.Z.Z.Z.Z.Z.V.S.Z.A.H.  x V.Z.Z.Z.Z.Z.Z.Z.Z.Z.Z.Z.Z.Z.Z.Z.Z.D.V.S.D.V.V.W   O 2 ] #.O.J 3 O w.Z.V.Z.Z.Z.Z.Z.Z.Z.Z.Z.Z.Z.Z.Z.Z.Z.Z.Z.Z.Z.Z.Z.w.. 2 g h f 2 + t.Z.C.Z.Z.Z.C.Z.Z.Z.Z.Z.Z.Z.Z.Z.Z.Z.Z.Z.Z.Z.Z.Z.0.  X C *.T.{.-X:X:Xa.= # : @ # X O 0.A.C.Z.V.Z.Z.Z.Z.Z.Z.Z.Z.Z.Z.Z.Z.Z.Z.Z.Z.Z.S.Z.V.Z.A.n.W O   + + + > @ + X O   O 0.Z.D.C.S.Z.Z.Z.Z.Z.Z.Z.Z.Z.Z.Z.Z.Z.Z.Z.Z.V.      >   X w.Z.Z.Z.Z.Z.Z.Z.Z.Z.Z.Z.Z.Z.Z.Z.Z.D.C.A.V.t.      X O O       Q V.Z.Z.Z.Z.Z.Z.Z.Z.Z.Z.Z.Z.Z.Z.Z.Z.Z.Z.V.A.Z.Z.b.      Q A.Z.C.C.V.Z.Z.Z.Z.Z.Z.Z.Z.Z.Z.Z.Z.Z.Z.Z.Z.Z.C.Z.A.V.Z.C.    X   . .       w.Z.C.A.Z.V.C.Z.Z.Z.Z.Z.Z.Z.Z.Z.Z.Z.Z.Z.Z.Z.Z.Z.Z.Z.Z.Z.Z.Z.Z.Z.Z.Z.Z.C.Z.Z.Z.t.# f x 2 q l h c c l 8 g [ !. XY.d.7.O.w O.Q.T.$.3 3 6 4 4 : + # . + # e Y.oXoX{.H $ + # * # # 1 # # # # 1 1 # # # = # + # * o o = 2 2 2 2 , + + X       ",
"' ' ] K ' J ' ' L [ [ ] L Y ] ] ] [ { { [ [  . . ...O.$.+.&.O. . .o.}.:X:X6X:X-X:Xg.o.#.+.o.@.<.1.1.6.y.s.!. XY.R H P P H H H H r H H H H v r v r r v v v r v v e 9 c F % 0.n.S.Z.Z.Z.Z.Z.Z.Z.Z.Z.Z.Z.Z.Z.Z.Z.Z.Z.A.V.Z.w.  P Z.Z.Z.Z.Z.Z.Z.Z.Z.Z.Z.Z.Z.Z.Z.Z.Z.S.n.A.C.n.V.n . % J O.*.} h %   w.Z.C.n.Z.V.Z.Z.Z.Z.Z.Z.Z.Z.Z.Z.Z.Z.Z.Z.Z.Z.Z.Z.w.o - % = # . X t.Z.C.Z.Z.S.C.Z.Z.Z.Z.Z.Z.Z.Z.Z.Z.Z.Z.Z.Z.Z.Z.Z.0.    C *.Y.{.5X5X:XU.- # > : +   @ T S.C.D.F.S.Z.Z.Z.Z.Z.Z.Z.Z.Z.Z.Z.Z.Z.Z.Z.Z.Z.D.C.A.D.F.& o 2   + @ @ @ O .     O w.A.C.Z.C.Z.Z.Z.Z.Z.Z.Z.Z.Z.Z.Z.Z.Z.Z.Z.Z.x.O     +     0.C.V.Z.Z.Z.Z.S.Z.Z.Z.Z.Z.Z.Z.Z.Z.Z.C.A.Z.b.    O X O +       Q Z.Z.Z.Z.Z.Z.Z.Z.Z.Z.Z.Z.Z.Z.Z.Z.Z.Z.Z.V.A.Z.C.b.      Q n.C.C.Z.C.Z.Z.Z.Z.Z.Z.Z.Z.Z.Z.Z.Z.Z.Z.Z.Z.Z.C.Z.A.C.Z.C.        .         w.Z.C.A.Z.C.C.Z.Z.Z.Z.Z.Z.Z.Z.Z.Z.Z.Z.Z.Z.Z.Z.Z.M.D.C.A.n.S.n.S.V.C.S.n.A.n.D.t.= z b 2 q q l f z z 8 c 8 { *.Y m w x w L.XX/.!.O.w 1 < 4 :   * + * . 0 Y.:X-X!.m $ # # : # # # # # = = * # # # # = # # # o * * 3 2 2 2 = # # + X       ",
"' ] ' ' Y ' ] ] ' ] ] ] ] Y ] { ] [ [ [ ] [ { {  ...O.$.$.&.+. .W o.oX:X:X5X5X$X}.y. ... . .o.o.X.+.#.+.+.4.s.p.R P P H H L L H H H H H H v r r r r r v m v m m r 9 3 k $ Q Z.V.Z.Z.Z.Z.Z.Z.Z.Z.Z.Z.Z.Z.Z.Z.Z.Z.Z.A.V.Z.w.  E Z.Z.Z.Z.Z.Z.Z.Z.Z.Z.Z.Z.Z.Z.Z.Z.Z.V.A.Z.V.n.V.= # g Y  .] g .     w.V.V.n.Z.V.Z.Z.Z.Z.Z.Z.Z.Z.Z.Z.Z.Z.Z.Z.Z.Z.Z.Z.w.. * . . +     t.Z.C.Z.Z.S.V.Z.Z.Z.Z.Z.Z.Z.Z.Z.Z.Z.Z.Z.Z.Z.Z.Z.0.    V *.Y.[.}.-X Xa.= # > : + .   = x.C.A.D.V.Z.Z.Z.Z.Z.Z.Z.Z.Z.Z.Z.Z.Z.Z.Z.Z.Z.Z.C.Z.Z.t.% 2 q + + @ @ @       O   t.A.C.Z.Z.Z.Z.Z.Z.Z.Z.Z.Z.Z.Z.Z.Z.Z.Z.Z.Z.t.      O     2.S.V.Z.S.Z.Z.Z.Z.Z.Z.Z.Z.Z.Z.Z.Z.A.A.Z.Z.n.;     X O +       Q Z.Z.Z.Z.Z.Z.Z.Z.Z.Z.Z.Z.Z.Z.Z.Z.Z.Z.Z.V.A.Z.C.b.  X   Q Z.Z.S.Z.D.Z.Z.Z.Z.Z.Z.Z.Z.Z.Z.Z.Z.Z.Z.Z.Z.Z.C.Z.A.C.Z.C.        .         w.Z.C.A.Z.V.C.Z.Z.Z.Z.Z.Z.Z.Z.Z.Z.Z.Z.Z.Z.Z.Z.Z.Z.V.b.S.S.V.F.V.Z.Z.S.Z.D.Z.V.t.3 b Z 3 5 3 5 1 2 3 , f 2 3 q q w 8 8 w u./.*X3X/...3 4 + + #   # * # e Y.:X:X[.x $ # : , # # # # # = = # # # # # * # # * * 1 2 2 = = 1 # # + + X       ",
"K ] [ [ ' ' _ ' ] [ ] ] ] ] ] ] { { [ [ [ {  . .{ ..O.$.$.&.$. . .$.}.-X-X:X5X5X$X6.W +.X.X.o.o.#.8.&.&.&.+.+.+.{ R P P T R R L P H H H H H H H v v r r m r m H r e q V ; H S.Z.Z.Z.Z.Z.Z.Z.Z.Z.Z.Z.Z.Z.Z.Z.Z.Z.Z.S.Z.Z.t.  W V.Z.Z.Z.Z.Z.Z.Z.Z.Z.Z.Z.Z.Z.Z.Z.Z.V.A.Z.C.A.b.  % 8 8 - ; % .     w.V.V.n.S.Z.Z.Z.Z.Z.Z.Z.Z.Z.Z.Z.Z.Z.Z.Z.Z.Z.Z.Z.w.. #   X X     t.Z.C.Z.Z.Z.C.Z.Z.Z.Z.Z.Z.Z.Z.Z.Z.Z.Z.Z.Z.Z.Z.Z.0.O . C *.Y.[.}.-X{.d.% : > : + .     w.C.V.D.V.Z.Z.Z.Z.Z.Z.Z.Z.Z.Z.Z.Z.Z.Z.Z.Z.Z.n.S.C.Z.Q % f g # + @ > @ + X   O   b.A.V.Z.V.Z.Z.Z.Z.Z.Z.Z.Z.Z.Z.Z.Z.Z.Z.Z.Z.w.      O     Q Z.Z.Z.S.Z.Z.V.S.Z.Z.Z.Z.Z.Z.Z.Z.A.S.Z.Z.A.m     X O +       Q Z.Z.Z.Z.Z.Z.Z.Z.Z.Z.Z.Z.Z.Z.Z.Z.Z.Z.Z.V.A.Z.C.b.  O O Q A.A.C.n.A.Z.Z.Z.Z.Z.Z.Z.Z.Z.Z.Z.Z.Z.Z.Z.Z.Z.C.Z.A.C.Z.C.        . .       w.Z.C.A.Z.V.C.Z.Z.Z.Z.Z.Z.Z.Z.Z.Z.Z.Z.Z.Z.Z.Z.Z.C.C.D.Z.D.A.D.Z.C.C.C.n.C.C.n.b.w J ] f 5 1 1 # O 1 : 4 2 # . 2 g 8 1 2 { =X*X{.3X!.*.2 : # # # @ : # 9 U.:X-X[.v % # , 1 # # # # # = = # # * * # * * = = = 2 6 2 = = 1 = # # + X       ",
"] Y { ' L K ' ] ' [ ] ] ] ] Y Y { [ [ [ [ {  . .{ ..$.$.$.&.$. . .$.{.:X:XoX5X5X:X6. .#.#.o.+.#.8.4.@.8.4.#.X... .R P R  .{ R R E P H H H H H H v H r v r r H H r v U V ; - V.A.Z.Z.Z.Z.Z.Z.Z.Z.Z.Z.Z.Z.Z.Z.Z.Z.Z.Z.S.Z.b.  Q V.Z.Z.Z.Z.Z.Z.Z.Z.Z.Z.Z.Z.Z.Z.Z.Z.Z.A.Z.C.A.t.  X   . o % o       w.V.V.n.S.Z.Z.Z.Z.Z.Z.Z.Z.Z.Z.Z.Z.Z.Z.Z.Z.Z.Z.Z.w.+ * . O O     t.Z.C.Z.Z.Z.C.Z.Z.Z.Z.Z.Z.Z.Z.Z.Z.Z.Z.Z.Z.Z.Z.Z.0.    b *.Y.{.oX:X{.d.= : : : +     > Q Z.V.M.S.Z.Z.Z.Z.Z.Z.Z.Z.Z.Z.Z.Z.Z.Z.Z.Z.Z.Z.A.C.V.v % z w o O @ > @ @ +     ; Z.C.V.Z.Z.Z.Z.Z.Z.Z.Z.Z.Z.Z.Z.Z.Z.Z.Z.Z.Z.0.          O E Z.Z.Z.Z.S.Z.Z.S.Z.Z.Z.Z.Z.Z.Z.Z.Z.C.V.C.D.Q   X X O +       Q Z.Z.Z.Z.Z.Z.Z.Z.Z.Z.Z.Z.Z.Z.Z.Z.Z.Z.Z.V.A.Z.C.b.      Q Z.M.S.V.C.Z.Z.Z.Z.Z.Z.Z.Z.Z.Z.Z.Z.Z.Z.Z.Z.Z.C.Z.A.C.Z.C.        . .       w.Z.C.A.Z.C.C.Z.Z.Z.Z.Z.Z.Z.Z.Z.Z.Z.Z.Z.Z.Z.Z.Z.y.                X X       # q n ] ..h f # # = , 1 : # , 1 * = 2 y 6 2 q u.=X!. X3XXX[ * # #   @ : @ 3 a.-X-X!.x % 1 , = # # # # # = = # # * * # = = 2 2 = 2 2 2 = 2 2 1 % # #         ",
"[ K ] ' ] [ [ ] ' ] ' [ ] L Y [ [ [ [ [ [ {  . . ...$.$.$.@.+. . .$.}.5X5X-X5X-X:X9. .#.#.X.+.@.8.8.@.<.@.#.+.X. .{ R R +.X. .R R P H H H H H H H G v H r v H H H [ ..C 3 . x.A.Z.Z.Z.Z.Z.Z.Z.Z.Z.Z.Z.Z.Z.Z.Z.Z.S.V.Z.Z.b.  2.Z.Z.Z.Z.Z.Z.Z.Z.Z.Z.Z.Z.Z.Z.Z.Z.Z.C.n.Z.V.Z.w..     + # = % .     w.V.V.n.Z.Z.Z.Z.Z.Z.Z.Z.Z.Z.Z.Z.Z.Z.Z.Z.Z.Z.Z.Z.w.. * + + @     t.Z.C.Z.Z.S.C.Z.Z.Z.Z.Z.Z.Z.Z.Z.Z.Z.Z.Z.Z.Z.Z.Z.0.  X V *.R.{.-X5X Xd.= : > : # X     9 V.C.Z.Z.Z.Z.Z.Z.Z.Z.Z.Z.Z.Z.Z.Z.Z.Z.Z.Z.Z.A.C.V.t.$ - V 7 o + @ > @ O + X   G Z.C.C.Z.C.Z.Z.Z.Z.Z.Z.Z.Z.Z.Z.Z.Z.Z.Z.Z.Z.2.            r A.A.Z.Z.A.S.Z.Z.Z.Z.Z.Z.Z.Z.Z.Z.Z.S.V.V.A.0.    X O +       Q Z.Z.Z.Z.Z.Z.Z.Z.Z.Z.Z.Z.Z.Z.Z.Z.Z.Z.Z.V.A.Z.S.b.  O   >.V.Z.Z.Z.n.Z.Z.Z.Z.Z.Z.Z.Z.Z.Z.Z.Z.Z.Z.Z.Z.Z.C.Z.A.C.Z.C.      . . .       w.Z.C.A.Z.C.C.Z.Z.Z.Z.Z.Z.Z.Z.Z.Z.Z.Z.Z.Z.Z.Z.Z.0.                X         3 K { #.*.l 3 # # = 1 # 1 = # # . # 1 y 6 2 - e h.W.{. X*XQ.T $ # # @ : # 3 s.:X-X!.x % # : 1 % # * # : : # # # * * * = = 2 2 2 2 = 2 = 1 1 1 , # +         ",
"{ ] ] } [ { ] Y ] ] ] ] ] Y R { [ [ {  . . . . . ...+.$.$.@.+... .<.-X:X-X:X5X:X-X6.X.#.+.+.+.@.4.4.4.5.<.@.@.X... .R E X.o.X.R R P P P P P H H H r v H r r r r R 4.O.U 2 + t.Z.Z.Z.Z.Z.Z.Z.Z.Z.Z.Z.Z.Z.Z.Z.Z.Z.S.V.Z.Z.V.o 0.C.Z.Z.Z.Z.Z.Z.Z.Z.Z.Z.Z.Z.Z.Z.Z.Z.C.A.D.V.n.0.      . # 2 #       w.V.V.Z.Z.Z.Z.Z.Z.Z.Z.Z.Z.Z.Z.Z.Z.Z.Z.Z.Z.Z.Z.Z.w.. *   X O     t.Z.C.Z.Z.S.C.Z.Z.Z.Z.Z.Z.Z.Z.Z.Z.Z.Z.Z.Z.Z.Z.Z.0.O . Z *.Y.'.}.:X}.d.= : > : : +       t.C.A.V.Z.Z.Z.Z.Z.Z.Z.Z.Z.Z.Z.Z.Z.Z.Z.Z.Z.A.C.S.0.+ q V =   + > > @ @ + O   Q Z.C.C.Z.n.Z.Z.Z.Z.Z.Z.Z.Z.Z.Z.Z.Z.Z.Z.Z.Z.Q         O   o Z.A.A.Z.A.S.Z.Z.Z.Z.Z.Z.Z.Z.Z.Z.A.S.V.V.n.w.    X O +       Q Z.Z.Z.Z.Z.Z.Z.Z.Z.Z.Z.Z.Z.Z.Z.Z.Z.Z.Z.V.A.Z.S.b.  +   2.D.n.F.D.C.Z.Z.Z.Z.Z.Z.Z.Z.Z.Z.Z.Z.Z.Z.Z.Z.Z.C.Z.A.C.Z.C.      . .         w.Z.C.A.Z.C.C.Z.Z.Z.Z.Z.Z.Z.Z.Z.Z.Z.Z.Z.Z.Z.Z.Z.0..     O   O O     X X X . w { @.s.J.f = # = = % 1 = # = % o = 4 1 , 3 5 ; E d.W.[.}.{.j.T $ # + : # 2 p.-XoXW.x % # : # % * * # : 1 = * * * = * = = 2 3 2 2 = 2 1 1 = # = # +         ",
"} } [ { K ' ] ' ' [ ] ] ] ] ] ] [ [ [ {  . . . . ...#.#.#.@.+.X. .<.:X$X}.:X5X5X}.6.X.+.+.o.o.@.<.<.<.@.<.<.<.+.X.X. .R  .o.o.X.R R E E E E P H P G v v r r t E 1.a.o.H 1 . 0.C.Z.Z.Z.Z.Z.Z.Z.Z.Z.Z.Z.Z.Z.Z.Z.Z.S.C.Z.Z.V.5 w.Z.Z.Z.Z.Z.Z.Z.Z.Z.Z.Z.Z.Z.Z.Z.Z.Z.C.A.D.C.V.Q   X . . # 1 =       w.V.V.Z.Z.Z.Z.Z.Z.Z.Z.Z.Z.Z.Z.Z.Z.Z.Z.Z.Z.Z.Z.Z.w.. * O X X     t.Z.C.Z.Z.S.C.Z.Z.Z.Z.Z.Z.Z.Z.Z.Z.Z.Z.Z.Z.Z.Z.Z.0.    C @.h.z.|.}.{.d.; # > : : @ +   O 0.Z.A.V.Z.Z.Z.Z.Z.Z.Z.Z.Z.Z.Z.Z.Z.Z.Z.Z.Z.C.C.D.E = h c o   # > > > @ O     2.Z.C.V.Z.C.Z.Z.Z.Z.Z.Z.Z.Z.Z.Z.Z.Z.Z.Z.Z.Z.E               x.Z.A.Z.S.S.Z.C.Z.Z.Z.Z.Z.Z.Z.Z.A.Z.V.C.n.t.      O +       Q Z.Z.Z.Z.Z.Z.Z.Z.Z.Z.Z.Z.Z.Z.Z.Z.Z.Z.Z.V.A.Z.S.b.  . X           Q Z.Z.Z.Z.Z.Z.Z.Z.Z.Z.Z.Z.Z.Z.Z.Z.Z.C.Z.A.C.Z.C.      . . .       w.Z.C.A.Z.C.C.Z.Z.Z.Z.Z.Z.Z.Z.Z.Z.Z.Z.Z.Z.Z.Z.Z.0.&     @ X   + + O O # + . T 7.a.Q.P.q # = 1 1 1 3 # + % % o = 2 # * , O = & W [.`.|.'.`.j.T $ # # # - 5.{.`.j.w $ # : : # # : # 1 1 1 1 = = = * = # 1 2 2 3 2 1 1 1 # # 1 : O         ",
"] ] ] ] K ' { K K Y ' [ [ ] R [ { [ {  . ... . . ...#.#.@.8.+.X.X.<.:X:X$X:X:X:X-Xy.o.+.o.$.o.@.<.5.1.<.4.<.@.@.+.X.+.W  .o.$.@.X.X. .W W E P G P H m v v r G $.k.g.$.m +   2.V.Z.Z.Z.Z.Z.Z.Z.Z.Z.Z.Z.Z.Z.Z.Z.Z.S.C.Z.Z.C.h w.Z.Z.Z.Z.Z.Z.Z.Z.Z.Z.Z.Z.Z.Z.Z.Z.Z.S.n.D.S.C.! X     . # 1 %       w.V.V.Z.Z.Z.Z.Z.Z.Z.Z.Z.Z.Z.Z.Z.Z.Z.Z.Z.Z.Z.Z.Z.w.. * . X X     t.Z.C.Z.Z.S.C.Z.Z.Z.Z.Z.Z.Z.Z.Z.Z.Z.Z.Z.Z.Z.Z.Z.0.  O n $.g.z.|.}.'.d.; # > < : # X     ! C.A.V.Z.Z.Z.Z.Z.Z.Z.Z.Z.Z.Z.Z.Z.Z.Z.Z.D.C.V.b.. = c x o   # > > @ +       0.A.A.V.Z.A.Z.Z.Z.Z.Z.Z.Z.Z.Z.Z.Z.Z.Z.Z.Z.Z.m               t.n.A.Z.Z.Z.Z.A.Z.Z.Z.Z.Z.Z.Z.Z.A.Z.F.S.n.b.X     O +       Q Z.Z.Z.Z.Z.Z.Z.Z.Z.Z.Z.Z.Z.Z.Z.Z.Z.A.Z.V.A.Z.S.b.        +       2.Z.Z.Z.Z.Z.Z.Z.Z.Z.Z.Z.Z.Z.Z.Z.Z.Z.C.Z.A.C.Z.C.      . .         w.Z.C.A.Z.V.C.Z.Z.Z.Z.Z.Z.Z.Z.Z.Z.Z.Z.Z.Z.Z.Z.Z.0.  @ X   o . + . . + + . o  .T.!./.Q.e * * # 1 : : : 2 # + + # , = # # 4 h ] 4.`.`.].|.].`.U.Y % # # 3 4.`.R.g.w o = , : # # : # 1 1 1 1 = = = = = # * 2 2 3 2 = 1 1 + + # :           ",
"K ` ] } [ Y _ ' ] ] { ' { ] [ [ [ ] [  . ... . ...+.#.@.@.#.+.+.X.<.:X:X$X$X$X:X:X6.o.o.$.$.o.o.<.1.5.1.<.<.<.1.@.o.o. . .o.$.1.o.$.o.o.W E E P P T H v r G W R.W.g.o.0 % X W C.Z.Z.Z.Z.Z.Z.Z.Z.Z.Z.Z.Z.Z.Z.Z.Z.Z.b.A.Z.F.H t.V.Z.Z.Z.Z.Z.Z.Z.Z.Z.Z.Z.Z.Z.Z.Z.Z.C.Z.V.A.V.8 O       # 2 #   X   0.C.Z.A.V.Z.S.Z.Z.Z.Z.Z.Z.Z.Z.Z.Z.Z.Z.Z.Z.Z.Z.Z.w.. * O O O     t.D.Z.Z.Z.A.Z.Z.Z.Z.Z.Z.Z.Z.Z.Z.Z.Z.Z.Z.Z.Z.Z.Z.0.  X m $.y.z.m.|.}.s.; : > : : # . O     b.Z.A.Z.Z.Z.Z.Z.Z.Z.Z.Z.Z.Z.Z.Z.Z.Z.Z.Z.V.Z.w.. 2 m 3 . X + > > # @     + w.D.C.Z.Z.Z.Z.Z.Z.Z.Z.Z.Z.Z.Z.Z.Z.Z.Z.Z.Z.Z.2 .             w.n.D.Z.Z.A.Z.A.Z.Z.Z.Z.Z.Z.Z.Z.Z.Z.A.V.D.V.0     X   O O   Q Z.Z.Z.Z.Z.Z.Z.Z.Z.Z.Z.Z.Z.Z.Z.Z.Z.Z.Z.C.A.V.C.b.X +             2.Z.Z.Z.Z.Z.Z.Z.Z.Z.Z.Z.Z.Z.Z.Z.Z.Z.C.Z.A.C.Z.C.    X . o .   X   w.Z.V.Z.Z.C.C.Z.Z.Z.Z.Z.Z.Z.Z.Z.Z.Z.Z.Z.Z.Z.Z.Z.w.    X X + . + + + . # O o +.!.oX3X/.f # = # # : : : # # # # # 1 2 + 1 , C K.!.[.[.'.'.].'.{.T.n $ - $ @.W.`.j.e = , * # # # * # 1 1 1 1 = = 1 * * # * 1 6 2 1 = = # 1 # + # X         ",
"' } [ [ { ..{ ' ] K ] Y ] [  . . .[  ....... .....+.#.@.<.@.+.+.X.<.}.$X}.$X$X:X:X6.o.$.@.<.o.@.<.1.5.5.1.1.1.1.1.@.o.o.o.o.o.@.@.<.<.@.X.R E E E P H v r W y.`.W.s.E 7 .   t Z.Z.Z.Z.Z.Z.Z.Z.Z.Z.Z.Z.Z.Z.Z.Z.Z.Z.n.A.Z.S.E b.S.Z.Z.Z.Z.Z.Z.Z.Z.Z.Z.Z.Z.Z.Z.Z.Z.S.Z.S.A.F..         % 2 #   X   0.C.Z.A.V.Z.S.Z.Z.Z.Z.Z.Z.Z.Z.Z.Z.Z.Z.Z.Z.Z.Z.Z.w.. * O O O     t.D.Z.Z.Z.Z.Z.Z.Z.Z.Z.Z.Z.Z.Z.Z.Z.Z.Z.Z.Z.Z.Z.Z.0.  X m #.d.z.m.|.}.g.; : > : : # . O     b.Z.C.Z.Z.Z.Z.Z.Z.Z.Z.Z.Z.Z.Z.Z.Z.Z.Z.Z.V.Z.0.. 3 x = X   + # @ @ + X     t.D.C.Z.A.S.Z.Z.Z.Z.Z.Z.Z.Z.Z.Z.Z.Z.Z.Z.Z.Z.S.C.V.C.S.C.Z.C.n.D.Z.n.A.A.Z.Z.Z.Z.Z.Z.Z.Z.Z.Z.S.n.A.V.Z.S.E     X   O O   Q Z.Z.Z.Z.Z.Z.Z.Z.Z.Z.Z.Z.Z.Z.Z.Z.Z.Z.Z.C.A.V.C.b.X +   X   .     0.Z.Z.Z.Z.Z.Z.Z.Z.Z.Z.Z.Z.Z.Z.Z.Z.Z.C.Z.A.C.Z.C.      . . .       w.Z.V.Z.Z.V.C.Z.Z.Z.Z.Z.Z.Z.Z.Z.Z.Z.Z.Z.Z.Z.Z.Z.w.    X X X o + + . . # # ; @.}. X4X*XV # # . : : : : # # # # # 1 # # # : 2 J 7.[.[.].}.'.}.[.XXp.J . 0 +.W.W.g.e = < * # # : * # 1 1 1 1 = = = * * # * 1 6 2 1 1 1 # 1 # # :           ",
"' [ { { [ [ ' K ] K [ Y ]  .[ ]  .{  .........X.X.+.#.@.<.#.+.+.X.1.{.}.}.:X$X-X-X6.o.<.<.<.$.<.<.1.5.5.5.1.<.1.1.<.<.<.$.o.o.o.<.<.<.<.o.W W E P H L H P 6.'.`.W.<.r 9 # + o n.Z.Z.Z.Z.Z.Z.Z.Z.Z.Z.Z.Z.Z.Z.Z.Z.Z.V.C.Z.S.W F.S.Z.Z.Z.Z.Z.Z.Z.Z.Z.Z.Z.Z.Z.Z.Z.Z.S.Z.S.n.x.          % 2 #   X   0.C.Z.A.V.Z.Z.Z.Z.Z.Z.Z.Z.Z.Z.Z.Z.Z.Z.Z.Z.Z.Z.Z.w.. * O O O     t.Z.Z.Z.Z.A.Z.Z.Z.Z.Z.Z.Z.Z.Z.Z.Z.Z.Z.Z.Z.Z.Z.Z.>.  X m @.d.z.m.|.'.g.- # : : # # . O     b.V.C.Z.Z.Z.Z.Z.Z.Z.Z.Z.Z.Z.Z.Z.Z.Z.Z.C.V.Z.0.# 5 7 X X X + # @ @ O     . F.Z.V.Z.A.C.Z.Z.Z.Z.Z.Z.Z.Z.Z.Z.Z.Z.Z.Z.Z.Z.Z.Z.Z.Z.Z.Z.Z.Z.D.A.Z.Z.S.C.Z.A.Z.Z.Z.Z.Z.Z.Z.Z.Z.n.S.Z.Z.S.o.    X   O O   Q Z.Z.Z.Z.Z.Z.Z.Z.Z.Z.Z.Z.Z.Z.Z.Z.Z.Z.Z.C.A.V.C.b.X +   X   .     0.Z.Z.Z.Z.Z.Z.Z.Z.Z.Z.Z.Z.Z.Z.Z.Z.Z.V.Z.A.C.Z.Z.      . . .       w.Z.V.A.Z.C.C.Z.Z.Z.Z.Z.Z.Z.Z.Z.Z.Z.Z.Z.Z.Z.Z.Z.w.    X X X o + + + + # # ; @.}. X:X/.b + # . 1 : : : # # # # # 1 + # + : # $ T j.[.}.}.].}.{.[.[.5.H ; X.R.W.y.e = : , * # : # # 1 1 1 1 = = = * # * * 1 2 2 2 1 1 # * 1 1 :           ",
"] _ K ' K ' [ ' K Y ] ] {  .Y [  .[  . . .X.X...X.+.#.<.<.@.+.#.X.1.[.'.}.}.}.}.}.6.o.1.<.<.<.<.<.1.6.6.6.1.1.1.1.1.1.1.1.<.o.o.<.<.1.<.o. .W E P H P P o.W.|.`.j.R 0 9 2 +   v.Z.Z.Z.Z.Z.Z.Z.Z.Z.Z.Z.Z.Z.Z.Z.Z.Z.C.C.Z.V.2.Z.Z.Z.Z.Z.Z.Z.Z.Z.Z.Z.Z.Z.Z.Z.Z.Z.Z.Z.Z.V.Z.t.          = 2 #       0.C.Z.A.V.Z.Z.A.Z.Z.Z.Z.Z.Z.Z.Z.Z.Z.Z.Z.Z.Z.Z.Z.w.. * O O O     t.Z.Z.Z.Z.A.Z.Z.Z.Z.Z.Z.Z.Z.Z.Z.Z.Z.Z.Z.Z.Z.Z.Z.>.  X m @.d.z.`.|.|.g.- # : : # # . O     b.V.C.Z.Z.Z.Z.Z.Z.Z.Z.Z.Z.Z.Z.Z.Z.Z.Z.S.Z.A.0.# 6 = X O X + # @ @ O     e S.Z.C.Z.Z.Z.Z.Z.Z.Z.Z.Z.Z.Z.Z.Z.Z.Z.Z.Z.Z.Z.V.Z.Z.V.V.Z.Z.V.n.Z.S.S.V.Z.C.Z.Z.Z.Z.Z.Z.Z.Z.Z.Z.D.V.Z.D.Z.2.    X   X O   Q Z.Z.Z.Z.Z.Z.Z.Z.Z.Z.Z.Z.Z.Z.Z.Z.Z.Z.Z.C.A.V.C.b.X +   X   .     0.Z.Z.Z.Z.Z.Z.Z.Z.Z.Z.Z.Z.Z.Z.Z.Z.Z.C.Z.A.C.Z.C.                  w.Z.V.Z.Z.C.C.Z.Z.Z.Z.Z.Z.Z.Z.Z.Z.Z.Z.Z.Z.Z.Z.Z.w.    X O X o + + + + # o % @.}.}.}.W.x + # + : : : # # # # # # 1 # # # : 1 = - T U.W.{.[.}.`.|.`.!.y.G <.z.W.y.0 % 1 < * 1 , * , 1 1 1 1 = = = = # * * 1 2 2 2 1 1 = # 1 1 #           ",
"V _ ' ] ] [ } K Y ' ' [ { ] Y [  .[  . .X.+.+.X.X.#.@.8.<.#.+.@.o.6.[.'.'.'.}.'.'.9.<.1.1.1.<.<.<.1.6.y.6.6.1.6.1.9.1.9.6.6.1.<.<.1.1.1.o.X.W E E P H  .k.`.`.`.<.r e 9 = O   w.Z.Z.Z.Z.Z.Z.Z.Z.Z.Z.Z.Z.Z.Z.Z.Z.Z.S.Z.A.V.w.A.V.Z.Z.Z.Z.Z.Z.Z.Z.Z.Z.Z.Z.Z.Z.Z.Z.V.S.Z.A.0.          = 2 # X     0.Z.A.A.V.Z.Z.A.Z.Z.Z.Z.Z.Z.Z.Z.Z.Z.Z.Z.Z.C.C.C.w.. * O O O     t.Z.Z.Z.Z.A.Z.Z.Z.Z.Z.Z.Z.Z.Z.Z.Z.Z.Z.Z.Z.Z.Z.Z.>.  X n @.g.z.`.|.`.g.- # : : # # . O     b.V.A.Z.Z.Z.Z.Z.Z.Z.Z.Z.Z.Z.Z.Z.C.S.S.S.V.A.0.# * . + + O # # @ + O X   ! S.A.S.Z.Z.S.Z.Z.Z.Z.Z.Z.Z.Z.Z.Z.Z.Z.Z.Z.Z.Z.A.A.A.A.A.A.A.A.S.S.S.V.b.S.A.Z.Z.Z.Z.Z.Z.Z.Z.Z.Z.A.V.Z.A.V.w.    X   X O   Q Z.Z.Z.Z.Z.Z.Z.Z.Z.Z.Z.Z.Z.Z.Z.Z.Z.Z.Z.C.A.V.C.b.X +       .     0.Z.Z.Z.Z.Z.Z.Z.Z.Z.Z.Z.Z.Z.Z.Z.Z.Z.C.Z.A.C.Z.C.                  w.Z.C.A.Z.C.C.Z.Z.Z.Z.Z.Z.Z.Z.Z.Z.Z.Z.Z.Z.Z.Z.Z.w.      . X o + + + + # # ; @.{.|.{.W.m 1 # + : : : # # # # # # 1 # # 1 # # 2 $ ; Y T.W.[.`.`.`.`.W.W.l.l.W.R.6.0 % 4 1 = 1 1 * , 1 1 1 1 = * * = = # 1 1 2 2 2 1 2 1 # : 1 +           ",
"b ] { ] [ [ } [ [ ] ] ] J L ] Y  .{  ...+.#.+.X.+.@.8.8.<.+.+.<.<.6.{.'.'.'.}.}.[.9.<.1.9.1.1.<.<.1.6.y.6.y.9.y.9.6.6.9.6.y.9.<.<.1.1.1.<.X.W E E P E d.'.`.}.l.P r r 9 = +   0.Z.Z.Z.Z.Z.Z.Z.Z.Z.Z.Z.Z.Z.Z.Z.Z.Z.S.Z.A.A.t.Z.V.Z.Z.Z.Z.Z.Z.Z.Z.Z.Z.Z.Z.Z.Z.Z.Z.A.V.C.A.2.  X   . . = 2 * X     2.Z.A.A.C.Z.V.A.Z.Z.Z.Z.Z.Z.Z.Z.Z.Z.Z.Z.Z.Z.Z.C.w.. * O O O     t.Z.Z.Z.Z.A.Z.Z.Z.Z.Z.Z.Z.Z.Z.Z.Z.Z.Z.Z.Z.Z.Z.Z.Q O   n @.g.m.`.|.`.j.0 + : : # # . O     b.V.A.Z.Z.Z.Z.Z.Z.Z.Z.Z.Z.Z.Z.Z.C.Z.S.C.V.A.0.+     > @ @ @ # + + O     Q V.C.S.Z.Z.S.Z.Z.Z.Z.Z.Z.Z.Z.Z.Z.Z.Z.Z.Z.Z.Z.Z.Z.Z.Z.Z.Z.Z.Z.A.Z.Z.Z.Z.Z.S.Z.Z.Z.Z.Z.Z.Z.Z.Z.Z.C.V.D.Z.C.b.          O   W Z.Z.Z.Z.Z.Z.Z.Z.Z.Z.Z.Z.Z.Z.Z.Z.Z.Z.Z.C.A.V.C.b.X +       .     0.Z.Z.Z.Z.Z.Z.Z.Z.Z.Z.Z.Z.Z.Z.Z.Z.Z.C.Z.A.C.Z.C.        . .       w.Z.C.A.Z.C.C.Z.Z.Z.Z.Z.Z.Z.Z.Z.Z.Z.Z.Z.Z.Z.Z.Z.0.    + . X o X + # # : # ; $.`.`.'.Y.m 1 . # < : : # # # # # # 6 , = % # # 1 % % - ] a.W.`.`.m.m.z.k.`.`.W.k.<.0 % 4 < = 1 1 * 1 1 2 2 1 1 = = = = 1 2 2 2 2 2 1 1 1 # : 1 O           ",
"K K { { [ ] [ ] _ Y [ Y J ]  .Y  . .....+.#.+.+.&.8.8.<.<.@.@.<.1.1.`.'.'.'.'.'.[.9.<.1.1.1.9.1.<.1.9.y.6.y.6.y.y.y.6.6.6.6.9.1.<.1.1.1.<.o.W W E E 1.W.`.`.`.W G H x w - #   Q Z.Z.Z.Z.Z.Z.Z.Z.Z.Z.Z.Z.Z.Z.Z.Z.Z.Z.Z.Z.A.V.Z.Z.Z.Z.Z.Z.Z.Z.Z.Z.Z.Z.Z.Z.Z.Z.Z.Z.D.V.V.Z.W   X   . . = 2 = O     2.V.Z.Z.C.Z.V.A.Z.Z.Z.Z.Z.Z.Z.Z.Z.Z.Z.Z.Z.Z.C.C.w.. * O X O     t.Z.Z.Z.Z.A.Z.Z.Z.Z.Z.Z.Z.Z.Z.Z.Z.Z.Z.Z.Z.Z.Z.Z.Q O X J <.j.m.|.|.'.Y.0 # > : # # . O     b.V.A.Z.Z.Z.Z.Z.Z.Z.Z.Z.Z.Z.Z.Z.Z.Z.S.A.V.Z.0.X     > > > @ # + O X     0.b.A.Z.Z.Z.C.Z.Z.Z.Z.Z.Z.Z.Z.Z.Z.Z.Z.Z.Z.Z.Z.S.C.S.S.S.C.V.V.V.Z.Z.A.S.Z.Z.S.Z.Z.Z.Z.Z.Z.Z.Z.Z.n.C.D.V.A.F..         O   W Z.Z.Z.Z.Z.Z.Z.Z.Z.Z.Z.Z.Z.Z.Z.Z.Z.Z.Z.C.A.C.S.b.X +       .     0.Z.Z.Z.Z.Z.Z.Z.Z.Z.Z.Z.Z.Z.Z.Z.Z.Z.C.Z.A.C.Z.C.  X   . . . X     w.Z.C.A.Z.C.C.Z.Z.Z.Z.Z.Z.Z.Z.Z.Z.Z.Z.Z.Z.Z.Z.Z.w.    + o o o X # * # # # ; $.`.m.m.h.x # o # < : : # # # 1 1 1 5 1 % # # < 1 = = % $ T a.Y.W.`.v.m.k.k.`.z.k.1.; % 4 < * 1 1 * 1 1 2 2 1 1 1 = = = 1 2 2 2 2 2 1 1 1 # 1 1 X           ",
"` b ..[ g x K K K C ] Y ] { [ ]  . ...O.+.#.#.@.4.5.8.<.<.<.1.1.6.1.`.'.'.'.'.`.'.6.o.1.1.1.9.1.1.1.1.y.6.y.y.y.l.l.y.y.6.6.9.9.o.1.1.1.1.o.W W E o.k.W.'.`.y.P H J x w - #   ! Z.Z.Z.Z.Z.Z.Z.Z.Z.Z.Z.Z.Z.Z.Z.Z.C.Z.Z.Z.A.S.V.Z.Z.Z.Z.Z.Z.Z.Z.Z.Z.Z.Z.Z.Z.Z.Z.Z.n.S.V.Z.P       . . = 2 = O     >.Z.A.Z.C.Z.V.Z.Z.Z.Z.Z.Z.Z.Z.Z.Z.Z.Z.Z.Z.Z.C.C.w.. # O X O     t.Z.Z.Z.Z.A.Z.Z.Z.Z.Z.Z.Z.Z.Z.Z.Z.Z.Z.Z.Z.Z.Z.Z.Q O O J <.j.m.|.|.'.R.7 # : : # # . O     b.V.A.Z.Z.Z.Z.Z.Z.Z.Z.Z.Z.Z.Z.Z.Z.Z.Z.A.Z.Z.0.X   X @ > > > > + O X   + w.C.A.n.Z.A.C.Z.Z.Z.Z.Z.Z.Z.Z.Z.Z.Z.Z.Z.Z.Z.Z.Z.Z.Z.Z.Z.Z.S.A.Z.A.Z.Z.Z.A.Z.Z.Z.Z.Z.Z.Z.Z.Z.Z.Z.A.V.Z.Z.C.V.g     X   O   W Z.Z.Z.Z.Z.Z.Z.Z.Z.Z.Z.Z.Z.Z.Z.Z.Z.Z.Z.C.A.C.S.b.X +   X X .     0.Z.Z.Z.Z.Z.Z.Z.Z.Z.Z.Z.Z.Z.Z.Z.Z.Z.V.Z.A.C.Z.C.  X X . . . X     w.Z.C.A.Z.C.C.Z.Z.Z.Z.Z.Z.Z.Z.Z.Z.Z.Z.Z.S.Z.C.Z.0.    O o o o X + # # # # ; $.`.m.m.h.n # # + : , : : # 1 1 1 1 y # o 2 : @ 2 1 2 1 % 0 E d.W.m.m.z.z.k.l.k.k.y.0 , 4 1 * 1 1 = 1 1 2 2 2 1 1 1 = 1 1 2 2 2 2 2 2 1 1 # 1 1 X O         ",
"c C [ ' c 9 ] J ] K ] n Y L ] Y  .....+.@.@.@.<.1.1.<.4.4.<.8.y.9.6.W.`.`.`.'.'.'.l.o.1.8.8.8.6.1.9.6.y.y.y.y.y.l.l.y.y.9.y.y.1.<.<.9.1.9.1. .X.X.j.|.'.z.l.W P P P G r 7 o o 5 C.S.M.Z.S.Z.C.n.Z.Z.Z.Z.Z.Z.Z.Z.Z.Z.Z.Z.Z.Z.Z.Z.Z.Z.Z.Z.Z.Z.Z.Z.Z.Z.Z.Z.Z.Z.Z.Z.C.Z.A.V.= X   X . . - - = . X   Q C.D.V.C.Z.D.C.Z.Z.Z.Z.Z.Z.Z.Z.Z.Z.Z.Z.Z.Z.Z.Z.w.# , .         t.D.Z.V.S.Z.Z.Z.Z.Z.Z.Z.Z.Z.Z.Z.Z.A.A.Z.Z.Z.V.V.W   % T <.j.m.|.].].k.0 ; o # X @ . X     n.S.A.Z.Z.Z.Z.Z.Z.Z.Z.Z.Z.Z.Z.Z.Z.Z.Z.C.V.Z.0.      @ > > # # @ O X   O t.C.Z.C.Z.Z.C.Z.Z.Z.Z.Z.Z.Z.Z.Z.Z.Z.Z.Z.Z.Z.Z.Z.Z.Z.Z.Z.Z.Z.Z.Z.Z.Z.Z.Z.Z.Z.Z.Z.Z.Z.Z.Z.Z.Z.Z.Z.C.V.D.A.C.D.!   X     X   E Z.Z.Z.Z.Z.Z.Z.Z.Z.Z.Z.Z.Z.Z.Z.Z.Z.Z.A.C.n.C.C.b.. +   O         0.Z.Z.Z.Z.Z.Z.Z.Z.Z.Z.Z.Z.Z.Z.Z.Z.Z.C.Z.A.V.Z.C.    X + + .       w.Z.C.A.Z.C.C.Z.Z.Z.Z.Z.Z.Z.Z.Z.Z.Z.Z.Z.Z.Z.Z.Z.w.    . + # o + X = # # $ 0 X.j.z.`.k.H & % < # : : # * * * 1 : 3 2 * # # # % , , 5 : 2 2 T h.W.k.k.k.f.f.f.j.6.3 2 1 4 1 = % = = # - - - 2 = = = % = 2 2 2 2 2 2 , 1 # : 1 X           ",
"3 8 ' K 2 7 [ J ] C K ' L J [ L ....+.&.8.8.4.<.@.<.1.4.5.5.6.g.9.y.`.'.'.'.'.`.'.l.<.6.6.6.6.6.9.6.6.6.y.g.g.g.l.l.l.y.9.y.y.9.2.o.9.9.1.1.o.X.y.}.`.m.l.<.G E E E P v 9 %     n.S.D.V.Z.Z.C.A.Z.Z.Z.Z.Z.Z.Z.Z.Z.Z.Z.Z.Z.Z.Z.Z.Z.Z.Z.Z.Z.Z.Z.Z.Z.Z.Z.Z.Z.Z.Z.Z.C.Z.Z.b.      # . . 2 2 = .     Q C.D.V.C.S.D.C.Z.Z.Z.Z.Z.Z.Z.Z.Z.Z.Z.Z.Z.Z.Z.Z.w.+ , . X O     t.D.Z.Z.S.Z.Z.S.Z.Z.Z.Z.Z.Z.Z.Z.Z.Z.S.Z.Z.C.S.Z.E   # T 4.j.m.|.|.`.!.e $ + # : @ + @     x.V.n.Z.Z.Z.Z.Z.Z.Z.Z.Z.Z.Z.Z.Z.Z.Z.Z.C.V.Z.0.      # # # # # # + X     b.G.Z.V.Z.V.C.Z.Z.Z.Z.Z.Z.Z.Z.Z.Z.Z.Z.Z.Z.Z.Z.Z.Z.Z.Z.Z.Z.Z.Z.Z.Z.Z.Z.Z.Z.Z.Z.Z.Z.Z.Z.Z.Z.Z.Z.Z.C.V.D.Z.C.D.Q         X   E Z.Z.Z.Z.Z.Z.Z.Z.Z.Z.Z.Z.Z.Z.Z.Z.Z.Z.Z.C.A.Z.V.b.. 1   O     X   0.Z.Z.Z.Z.Z.Z.Z.Z.Z.Z.Z.Z.Z.Z.Z.Z.Z.C.Z.A.V.Z.C.    X + + .       w.Z.C.A.Z.C.C.Z.Z.Z.Z.Z.Z.Z.Z.Z.Z.Z.Z.Z.Z.Z.Z.Z.w.    . . # # # O * , : $ 0 o.j.z.z.j.P & # # 1 : # O # * = 1 , 3 1 * # # # % 2 1 1 4 1 # ; E g.`.k.k.z.f.l.W.y.2 % 1 4 2 2 2 2 1 = 2 2 - 2 2 2 = % = 2 2 2 2 2 1 1 1 # 1 2 +           ",
"f O | c % c J K b ' Y } J [ [ Y ..+.@.8.8.4.<.@.<.4.5.5.1.6.g.y.6.l.`.`.m.|.|.`.`.k.9.6.6.6.9.6.9.6.9.6.y.l.l.l.l.l.l.6.6.y.6.6.9.2.1.1.6.9.<.9.`.|.`.`.l.W P W W W E H w 2 .   t.C.A.C.V.Z.C.A.Z.Z.Z.Z.Z.Z.Z.Z.Z.Z.Z.Z.Z.Z.Z.Z.Z.Z.Z.Z.Z.Z.Z.Z.Z.Z.Z.Z.Z.Z.Z.Z.C.C.S.t.      . . o 3 2 = .     Q C.A.V.S.S.D.Z.Z.Z.Z.Z.Z.Z.Z.Z.Z.Z.Z.Z.Z.Z.Z.Z.w.+ , o X     X t.Z.Z.Z.S.Z.Z.S.Z.Z.Z.Z.Z.Z.Z.Z.S.Z.Z.S.S.C.Z.Z.E   # Y 5.j.m.|.`.R.!.L & < : > : + @     b.S.A.Z.Z.Z.Z.Z.Z.Z.Z.Z.Z.Z.Z.Z.Z.Z.Z.C.V.Z.0.      # @ # # # # + X   $ Z.G.Z.Z.A.V.A.Z.Z.Z.Z.Z.Z.Z.Z.Z.Z.Z.Z.Z.Z.Z.Z.Z.Z.Z.Z.Z.Z.Z.Z.Z.Z.Z.Z.Z.Z.Z.Z.Z.Z.Z.Z.Z.Z.Z.Z.Z.C.C.Z.Z.V.Z.0.    O       H V.Z.Z.Z.Z.Z.Z.Z.Z.Z.Z.Z.Z.Z.Z.Z.Z.S.Z.V.D.Z.V.b.. =         X   0.Z.Z.Z.Z.Z.Z.Z.Z.Z.Z.Z.Z.Z.Z.Z.Z.Z.C.Z.A.V.Z.C.      X . O       w.Z.C.A.Z.C.C.Z.Z.Z.Z.Z.Z.Z.Z.Z.Z.Z.Z.Z.Z.Z.Z.Z.0.    . . + o # @ : < : # 7 +.g.f.j.h.T $ # + 1 # , * = = = 1 # 3 2 # # * # # , 4 < < : = $ ; R g.W.z.k.f.k.W.y.- % 1 6 2 2 2 3 2 = 2 2 - 2 2 2 3 2 2 2 2 2 2 2 1 , 1 1 2 2 + X         ",
"2   3 7 h g K K C ' { K Y L Y R ..#.*.8.&.@.@.@.<.4.5.5.1.y.g.y.9.k.`.m.m.|.|.|.}.`.q.9.9.6.9.9.9.9.9.l.l.l.l.l.j.k.k.9.6.y.9.y.9.9.2.<.9.9.9.m.|.|.`.`.Q W W W W W W P v 7 $ . w.V.S.S.V.Z.V.A.Z.Z.Z.Z.Z.Z.Z.Z.Z.Z.Z.Z.Z.Z.Z.Z.Z.Z.Z.Z.Z.Z.Z.Z.Z.Z.Z.Z.Z.Z.Z.Z.C.V.A.w.  X + X . # 3 2 % o     E C.A.V.A.S.D.Z.Z.Z.Z.Z.Z.Z.Z.Z.Z.Z.Z.Z.Z.Z.Z.Z.w.+ 2 % o       t.Z.Z.Z.C.A.Z.S.Z.Z.Z.Z.Z.Z.Z.Z.S.Z.Z.Z.Z.Z.Z.Z.m X # R 4.j.m.m.m.`.W.@.9 . + : # X O     x.V.C.Z.Z.Z.Z.Z.Z.Z.Z.Z.Z.Z.Z.Z.Z.Z.Z.C.V.Z.0.      # @ @ # # # + X   m D.n.Z.S.S.V.A.Z.Z.Z.Z.Z.Z.Z.Z.Z.Z.Z.Z.Z.Z.Z.Z.Z.Z.Z.Z.Z.Z.Z.Z.Z.Z.Z.Z.Z.Z.Z.Z.Z.Z.Z.Z.Z.Z.Z.Z.Z.V.C.Z.Z.V.V.t.  O O       r V.Z.Z.Z.Z.Z.Z.Z.Z.Z.Z.Z.Z.Z.Z.Z.Z.S.Z.V.A.Z.S.n.. #   X O       0.Z.Z.Z.Z.Z.Z.Z.Z.Z.Z.Z.Z.Z.Z.Z.Z.Z.C.Z.A.V.Z.C.        X O X     w.Z.C.A.Z.C.C.Z.Z.Z.Z.Z.Z.Z.Z.Z.Z.Z.Z.Z.Z.Z.Z.Z.0.      O + . + @ @ < : # 3  .1.y.y.6.L . % # # # , = 1 1 1 2 1 3 2 1 # , # # , : 1 < : , 1 % ; E y.{.m.z.'.`.y.- % 2 6 2 2 2 3 2 = 2 2 2 2 2 3 3 2 2 2 2 = 2 2 , # : , 1 2 # X         ",
"2   % g J K K ] J K { L ] L [ [ [ ..*.&.@.@.<.@.4.5.6.6.9.l.j.l.l.W.'.`.`.|.|.`.`.|.m.k.q.9.9.q.q.q.9.l.l.j.j.k.`.`.k.2.9.q.q.l.q.9.9.<.<.9.k.].m.].`.l.W X.W o.<.o.X.W H 7 $ . 2.V.V.S.C.Z.Z.S.Z.Z.Z.Z.Z.Z.Z.Z.Z.Z.Z.Z.Z.Z.Z.Z.Z.Z.Z.Z.Z.Z.Z.Z.Z.Z.Z.Z.Z.Z.Z.Z.A.V.Z.0.  X . # . = 3 3 % o     T S.C.V.A.Z.Z.Z.Z.Z.Z.Z.Z.Z.Z.Z.Z.Z.Z.Z.Z.Z.Z.Z.t.. 6 7 2 + .   x.Z.S.Z.Z.A.Z.S.Z.Z.Z.Z.Z.Z.Z.Z.S.Z.Z.Z.Z.Z.Z.A.e O 2 R 1.l.v.m.c.`.`.W.o.r ; $ % . O X   b.S.C.Z.Z.Z.Z.Z.Z.Z.Z.Z.Z.Z.Z.Z.Z.Z.Z.C.V.A.w.      @ # # # # # O X   W A.n.S.Z.A.C.A.Z.Z.Z.Z.Z.Z.Z.Z.Z.Z.Z.Z.Z.Z.Z.Z.Z.Z.Z.Z.Z.Z.Z.Z.Z.Z.Z.Z.Z.Z.Z.Z.Z.Z.Z.Z.Z.Z.Z.Z.Z.V.Z.Z.S.C.Z.b.  O   X     ; Z.Z.Z.Z.Z.Z.Z.Z.Z.Z.Z.Z.Z.Z.Z.Z.Z.Z.Z.C.D.V.A.n.  # .   X       w.Z.Z.Z.Z.Z.Z.Z.Z.Z.Z.Z.Z.Z.Z.Z.Z.Z.C.Z.A.V.Z.C.          X X     w.Z.C.A.Z.C.C.Z.Z.Z.Z.Z.Z.Z.Z.Z.Z.Z.Z.Z.Z.Z.Z.Z.0.        O . + # O # # # - Y  .X.+...L $ $ = * 1 1 1 2 2 2 1 , 5 2 1 , , # # 1 1 < : < : , 2 o ; R Y.{.`.`.`.g.0 - 3 3 2 2 2 2 2 2 2 3 3 7 3 3 3 2 2 2 = = 2 1 1 , # # 1 1 # X         ",
"1 . 2 Z x K Z K w ] L [ Y [ R  .Y ..*.&.@.@.4.4.5.5.6.y.6.l.j.l.l.W.`.`.m.`.m.k.|.|.`.|.`.m.k.f.k.k.f.k.k.z.`.`.`.|.k.2.q.q.q.q.q.q.9.2.9.k.m.|.|.|.|.l.9.<.<.2.2.2.o.W H 9 = X X.S.V.Z.C.Z.Z.S.Z.Z.Z.Z.Z.Z.Z.Z.Z.Z.Z.Z.Z.Z.Z.Z.Z.Z.Z.Z.Z.Z.Z.Z.Z.Z.Z.Z.Z.Z.Z.Z.n.V.Z.o.    . # o = 3 3 % %   X w Z.S.V.A.V.Z.Z.Z.Z.Z.Z.Z.Z.Z.Z.Z.Z.Z.Z.Z.Z.Z.Z.t.. 2 q w 5 %   b.Z.S.S.Z.A.Z.C.Z.Z.Z.Z.Z.Z.Z.Z.Z.S.S.Z.Z.S.C.Z.o   8  .y.k.m.m.m.`.|.'.`.y.o.P w ; o     x.V.n.Z.Z.Z.Z.Z.Z.Z.Z.Z.Z.Z.Z.Z.Z.Z.Z.C.V.A.w.      @ # # # # @ O X   Q A.C.S.V.C.V.Z.Z.Z.Z.Z.Z.Z.Z.Z.Z.Z.Z.Z.Z.Z.Z.Z.Z.Z.Z.Z.Z.Z.Z.Z.Z.Z.Z.Z.Z.Z.Z.Z.Z.Z.Z.Z.Z.Z.Z.Z.A.Z.V.Z.Z.Z.Z.Z.o O   +     . Z.Z.Z.Z.Z.Z.Z.Z.Z.Z.Z.Z.Z.Z.Z.Z.Z.Z.Z.S.D.V.A.n.. , o           w.Z.Z.Z.Z.Z.Z.Z.Z.Z.Z.Z.Z.Z.Z.Z.Z.Z.C.Z.A.V.Z.C.  . . X           w.Z.C.A.Z.C.C.Z.Z.Z.Z.Z.Z.Z.Z.Z.Z.Z.Z.Z.Z.Z.Z.Z.0.              O   X X . = v J H R R T 9 $ $ o # * 1 3 2 # # # a 6 1 , 1 , , , 4 1 # : 1 4 : : $ 0 R j.[.`.[.h.0 - 3 6 2 2 2 2 2 2 3 8 7 8 3 3 3 2 2 2 = = 2 1 1 1 # # 1 # # X         ",
". X % U 8 Z _ Y K [ L [ [ ] Y ..] ..&.&.@.@.4.5.4.5.6.6.6.y.j.l.k.`.`.'.`.'.|.`.`.|.`.`.m.m.|.|.|.|.|.|.`.|.`.`.`.`.q.9.l.q.q.q.q.q.q.q.k.|.|.|.|.].`.k.2.9.9.2.2.<.o.W H r - . H Z.V.Z.V.Z.Z.C.Z.Z.Z.Z.Z.Z.Z.Z.Z.Z.Z.Z.Z.Z.Z.Z.Z.Z.Z.Z.Z.Z.Z.Z.Z.Z.Z.Z.Z.Z.Z.Z.Z.V.D.E   O $ # # = 2 3 % % X X % Z.S.V.A.C.V.Z.Z.Z.Z.Z.Z.Z.Z.Z.Z.Z.Z.Z.Z.Z.Z.Z.t.. * 7 e 5 % X n.Z.S.S.Z.A.Z.C.Z.Z.Z.Z.Z.Z.Z.Z.V.S.C.Z.C.A.Z.b.  + h  .y.k.W.`.`.`.|.`.`.[.W.d.@.R h =   b.S.A.Z.Z.Z.Z.Z.Z.Z.Z.Z.Z.Z.Z.Z.Z.Z.Z.C.V.Z.w.      @ # # # # O O     0.C.D.V.Z.A.C.Z.Z.Z.Z.Z.Z.Z.Z.Z.Z.Z.Z.Z.Z.Z.Z.Z.Z.Z.Z.Z.Z.Z.Z.Z.Z.Z.Z.Z.Z.Z.Z.Z.Z.Z.Z.Z.Z.Z.Z.Z.Z.S.Z.Z.Z.Z.A.S.t O X .       b.Z.Z.Z.Z.Z.Z.Z.Z.Z.Z.Z.Z.Z.Z.Z.Z.Z.Z.C.A.V.C.V.3 # = o . . X   t.Z.Z.Z.Z.Z.Z.Z.Z.Z.Z.Z.Z.Z.Z.Z.Z.Z.C.Z.A.V.Z.C.  . . . X   X     w.Z.V.Z.Z.V.C.Z.Z.Z.Z.Z.Z.Z.Z.Z.Z.Z.Z.Z.Z.Z.Z.Z.0.                        % 3 7 e x n T n w 3 3 2 = # 2 1 # # 1 f 3 1 1 1 , , 1 , 4 2 : 1 4 : 1 1 % $ R a.!.[.L.0 2 3 6 2 2 2 3 3 3 q q q 8 3 3 3 2 2 2 2 2 2 1 1 1 # 1 1 # # X         ",
"    # Z g C [ ` K K J ' Y ..[ L  ...&.&.@.@.4.5.5.5.6.6.y.j.R.R.W.`.W.`.m.`.|.`.`.|.|.`.k.k.`.`.|.`.m.|.`.`.`.|.`.`.9.9.l.l.q.l.f.l.k.|.`.`.`.z.`.|.`.`.j.y.6.<.<.o.W W P r 2 . - F.C.A.V.Z.Z.C.Z.Z.Z.Z.Z.Z.Z.Z.Z.Z.Z.Z.Z.Z.Z.Z.Z.Z.Z.Z.Z.Z.Z.Z.Z.Z.Z.Z.Z.Z.Z.Z.D.V.D.G # * q 2 = - 3 3 % = X     b.C.V.D.C.Z.Z.Z.Z.Z.Z.Z.Z.Z.Z.Z.Z.Z.Z.Z.Z.Z.Z.b.. # - 3 = $ . Z.Z.S.S.Z.D.Z.C.Z.Z.Z.Z.Z.Z.Z.Z.Z.S.Z.Z.S.A.n.x.. 2 C  .1.j.j.R.W.k.k.'.`.W.W.j.y. .m 2 X b.S.C.Z.Z.Z.Z.Z.Z.Z.Z.Z.Z.Z.Z.Z.Z.Z.Z.C.V.Z.0.      @ # # # @ O X     w.A.Z.F.A.A.V.D.Z.Z.Z.Z.Z.Z.Z.Z.Z.Z.Z.Z.Z.Z.Z.Z.Z.Z.Z.Z.Z.Z.Z.Z.Z.Z.Z.Z.Z.Z.Z.Z.Z.Z.Z.Z.Z.Z.Z.Z.V.A.Z.S.Z.Z.A.V.W > .         t.Z.Z.Z.Z.Z.Z.Z.Z.Z.Z.Z.Z.Z.Z.Z.Z.A.Z.V.A.V.C.S.x + 2 2 2 % O   b.Z.Z.Z.Z.Z.Z.Z.Z.Z.Z.Z.Z.Z.Z.Z.Z.Z.C.Z.A.V.Z.C.      . . . X X   w.Z.C.Z.Z.V.C.Z.Z.Z.Z.Z.Z.Z.Z.Z.Z.Z.Z.Z.Z.Z.Z.Z.0.                X   O   + . . % - q m Y ] ] ] } C 2 1 2 1 1 * f 5 1 1 1 , , , 1 1 # : 1 1 6 : : 1 - ; P h.!.u.9 3 5 6 2 2 2 3 3 5 g h q 8 3 7 3 3 3 2 2 - 2 1 1 1 # 1 1 + + X         ",
"      = C ' K K C ' ] K [ Y ] ]  ...&.&.&.&.5.5.4.5.y.y.y.y.g.j.g.g.g.j.l.l.l.l.k.j.k.k.l.l.l.l.l.q.q.l.l.l.l.l.l.9.9.l.l.l.l.q.q.q.q.q.9.6.6.6.6.6.y.y.y.6.6.9.<.<.o.W E H q 1 . b.A.C.M.Z.A.C.Z.Z.Z.Z.Z.Z.Z.Z.Z.Z.Z.Z.Z.Z.Z.Z.Z.Z.Z.Z.Z.Z.Z.Z.Z.Z.Z.Z.Z.Z.Z.Z.D.n.V.O + 6 2 2 = - 3 3 2 % .     t.D.Z.F.S.n.Z.C.C.Z.C.Z.Z.Z.Z.Z.Z.Z.Z.Z.Z.Z.Z.b.+   . # X   r Z.Z.Z.Z.Z.Z.Z.Z.Z.Z.Z.Z.Z.Z.Z.Z.Z.V.Z.Z.S.Z.V.w.  # - q c x n n L L R  . .X.O...[ L z = . b.Z.Z.Z.Z.Z.Z.Z.Z.Z.Z.Z.Z.Z.Z.Z.Z.Z.Z.C.V.Z.0.    . @ # > + O +       x.n.A.S.Z.Z.S.Z.Z.Z.Z.Z.Z.Z.Z.Z.S.Z.Z.Z.Z.C.Z.Z.Z.A.A.Z.Z.Z.Z.D.V.V.n.Z.V.D.n.C.Z.Z.Z.Z.Z.Z.Z.Z.Z.Z.Z.Z.Z.Z.Z.Z.2.O   .   O . w.n.D.Z.V.A.Z.Z.V.Z.Z.Z.Z.Z.Z.Z.Z.D.V.C.A.Z.C.D.!     > O X   ; V.Z.Z.Z.Z.Z.Z.Z.Z.Z.Z.Z.Z.Z.Z.Z.Z.Z.C.Z.A.Z.Z.C.      . .         w.Z.C.A.Z.C.C.Z.Z.Z.Z.Z.Z.Z.Z.Z.Z.Z.Z.Z.Z.Z.Z.Z.Z.Z.Z.Z.Z.Z.Z.Z.Z.Z.Z.Z.Z.Z.Z.Z.V.A.0.= 3 g b Z A l 5 = = 2 2 2 f 6 1 # 1 1 : , 1 2 , # , 1 1 # : : 1 - ; J 5.@.2 6 3 6 3 3 3 3 f h g q 3 3 8 8 q 3 3 3 2 6 1 1 2 1 # * 1 # +           ",
"X     2 C { C ] x ..[ T ] [ [  .] #.8.&.8.8.4.5.5.6.y.y.y.y.g.j.j.j.k.k.k.k.k.k.W.k.k.z.z.z.k.k.l.q.q.q.q.l.q.q.l.q.q.k.l.l.l.q.q.q.q.q.l.g.k.Y.h.j.j.j.j.j.Y.U.j.g.1.X.W E x 2 . t.Z.C.D.Z.Z.V.Z.Z.Z.Z.Z.Z.Z.Z.Z.Z.Z.Z.Z.Z.Z.Z.Z.Z.Z.Z.Z.Z.Z.Z.Z.Z.Z.Z.Z.Z.Z.Z.Z.V.x.O   + % = = 2 8 7 2 % X   O 0.C.Z.S.b.D.Z.C.C.Z.Z.Z.Z.Z.Z.Z.Z.Z.Z.Z.Z.Z.Z.S.9 O       O E Z.Z.Z.Z.Z.Z.Z.Z.Z.Z.Z.Z.Z.Z.Z.Z.Z.S.Z.n.C.V.S.0.    . o = o % $ % $ $ $ $ $ ; $ - % #     b.S.Z.Z.Z.Z.Z.Z.Z.Z.Z.Z.Z.Z.Z.Z.Z.Z.Z.C.Z.Z.0.    . @ + > @ # +     X b.Z.A.S.Z.C.C.Z.Z.Z.Z.Z.Z.Z.Z.Z.Z.Z.Z.Z.C.Z.Z.Z.w.H.0.0.0.0.0.0.2.Z.D.V.V.D.A.V.Z.Z.Z.Z.Z.Z.Z.Z.Z.Z.Z.Z.Z.Z.Z.Z.0.  X       O 0.A.n.Z.A.V.A.V.Z.Z.Z.Z.Z.Z.Z.Z.Z.Z.Z.V.Z.S.C.D.2.      X   > W Z.Z.Z.Z.Z.Z.Z.Z.Z.Z.Z.Z.Z.Z.Z.Z.Z.Z.C.Z.A.Z.Z.C.      . .         w.Z.C.A.Z.C.C.Z.Z.Z.Z.Z.Z.Z.Z.Z.Z.Z.Z.Z.Z.Z.Z.Z.Z.Z.Z.Z.Z.Z.Z.Z.Z.Z.Z.Z.Z.Z.Z.Z.Z.A.0.  . o % 2 3 2 = = 2 2 2 2 z 6 2 = 1 1 1 1 1 1 1 # 1 1 1 # < , 1 2 $ ; v e 1 3 5 6 3 3 3 3 q f q 3 3 3 8 8 q 3 2 2 2 6 1 1 2 1 # # # # # X         ",
"      b h K [ ..{ { { ] Y ..Y  .[ &.4.@.4.4.4.5.5.6.6.y.y.y.g.j.j.k.k.k.k.k.k.z.`.`.`.`.`.`.`.W.k.k.f.k.f.k.k.k.f.f.k.k.l.q.q.q.q.q.q.e.f.R.[.+X).)././.).XXOXXX!.Q.L.6.1. .n 7 . 0.Z.C.A.Z.Z.C.Z.Z.Z.Z.Z.Z.Z.Z.Z.Z.Z.Z.Z.Z.Z.Z.Z.Z.Z.Z.Z.Z.Z.Z.Z.Z.Z.Z.Z.Z.Z.Z.Z.S.t..     o % % 2 8 8 3 = X     Q V.S.Z.Z.D.F.Z.Z.S.Z.Z.Z.Z.Z.Z.Z.Z.Z.Z.Z.Z.Z.n.Q   O   O   w.Z.Z.Z.Z.Z.Z.Z.Z.Z.Z.Z.Z.Z.Z.Z.Z.A.V.A.Z.Z.S.F.!   O + # , # 1 1 : # = = = = = = o $ + X   b.Z.Z.Z.Z.Z.Z.Z.Z.Z.Z.Z.Z.Z.Z.Z.Z.Z.Z.C.Z.Z.0.      @ # > + # +     e Z.S.S.Z.Z.C.Z.Z.Z.Z.Z.Z.Z.Z.Z.Z.Z.Z.S.S.Z.Z.Z.Z.Y . .           . t.A.S.S.Z.S.Z.Z.Z.Z.Z.Z.Z.Z.Z.Z.Z.Z.Z.Z.Z.Z.Z.t.  O         E V.S.Z.A.S.V.Z.Z.Z.Z.Z.Z.Z.Z.Z.Z.V.S.Z.Z.A.V.Z.z.  O     + . z.n.Z.Z.Z.Z.Z.Z.Z.Z.Z.Z.Z.Z.Z.Z.Z.Z.Z.C.Z.A.Z.Z.C.      . X         w.Z.C.A.Z.C.C.Z.Z.Z.Z.Z.Z.Z.Z.Z.Z.Z.Z.Z.Z.Z.Z.Z.Z.Z.Z.Z.Z.Z.Z.Z.Z.Z.Z.Z.Z.Z.Z.Z.V.C.2.    . o = = 1 = 1 2 2 2 3 l 2 2 2 2 = 1 % 2 2 1 , , 1 1 , < < 1 2 = % % % 2 5 5 2 3 3 3 3 q f 5 3 3 8 q q q 3 2 2 2 2 2 1 2 1 : # # # # X         ",
"    X 5 ' ` ' { Y Y [ ] n .. .#.+.4.4.8.5.6.6.6.6.6.y.y.y.y.g.k.k.k.k.k.k.k.z.z.z.`.'.`.`.'.`.'.z.k.f.f.f.c.m.k.z.z.`.`.k.k.k.f.l.l.q.l.k.`.XXOXOXOX1X<X<X<X<X<XOXOX/.Q.s.$.T e % 2.Z.C.A.Z.Z.S.Z.Z.Z.Z.Z.Z.Z.Z.Z.Z.Z.Z.Z.Z.Z.Z.Z.Z.Z.Z.Z.Z.Z.Z.Z.Z.Z.Z.Z.Z.Z.Z.S.Z.0.    + $ = % 7 8 8 7 = .     ; Z.b.A.D.b.S.Z.Z.Z.Z.Z.Z.Z.Z.Z.Z.Z.Z.Z.Z.Z.Z.A.V.E O   $ 2.n.Z.Z.Z.Z.Z.Z.Z.Z.Z.Z.Z.Z.Z.Z.Z.Z.A.n.S.A.A.V.b.$     O # # : < 1 # : : # , , , < = % @ X   b.Z.A.Z.Z.Z.Z.Z.Z.Z.Z.Z.Z.Z.Z.Z.Z.Z.Z.C.Z.Z.0.      @ # > + # O   X T A.Z.Z.Z.Z.Z.Z.Z.Z.Z.Z.Z.Z.Z.Z.Z.Z.Z.S.Z.Z.Z.Z.Z.T                 t.n.n.n.n.C.Z.Z.Z.Z.Z.Z.Z.Z.Z.Z.Z.Z.Z.Z.Z.Z.Z.b.  O   O X   - b.C.A.n.S.V.A.Z.Z.Z.Z.Z.Z.Z.Z.Z.V.A.Z.A.S.n.Z.D.w.; O . e w.V.A.Z.Z.Z.Z.Z.Z.Z.Z.Z.Z.Z.Z.Z.Z.Z.Z.Z.C.Z.A.Z.Z.C.      .           w.Z.C.A.Z.C.C.Z.Z.Z.Z.Z.Z.Z.Z.Z.Z.Z.Z.Z.Z.Z.Z.Z.Z.Z.Z.Z.Z.Z.Z.Z.Z.Z.Z.Z.Z.Z.Z.Z.V.C.>.  X # * 2 6 5 2 4 2 1 2 p V 2 2 3 2 = 2 = 2 1 2 1 , 1 1 1 < 1 1 , 2 2 2 1 2 5 5 2 3 3 3 3 q q 3 3 3 3 8 8 q 3 2 2 2 6 2 2 2 1 1 = # # # .         ",
"    + U 8 ` ] T [ ..J [ J J  .*.4.4.4.6.6.6.y.6.y.6.y.g.y.y.g.k.k.k.k.k.k.k.z.`.`.'.'.`.'.'.`.'.`.k.k.c.c.m.`.`.W.[.}.{.{.[.[.`.R.R.j.k.R.{.,XeXwXwXwXeXeXwXwXwXwX<XOX).L.&.Y e = W Z.V.Z.Z.Z.A.Z.Z.Z.Z.Z.Z.Z.Z.Z.Z.Z.Z.Z.Z.Z.Z.Z.Z.Z.Z.Z.Z.Z.Z.Z.Z.Z.Z.Z.Z.Z.Z.V.Z.2.    # . % % 2 9 9 9 2 .       w.A.n.D.Z.Z.Z.Z.Z.Z.Z.Z.Z.Z.Z.Z.Z.Z.Z.Z.Z.Z.M.x.V.b.t.n.V.Z.Z.Z.Z.Z.Z.Z.Z.Z.Z.Z.Z.Z.Z.Z.Z.Z.Z.Z.S.V.D.V.w.  X + # # : : , , 1 1 1 # * : : 1 # . O X X b.Z.A.Z.Z.Z.Z.Z.Z.Z.Z.Z.Z.Z.Z.Z.Z.Z.Z.C.Z.Z.0.      @ @ # + #     O Q S.Z.Z.Z.Z.Z.Z.S.Z.Z.Z.Z.Z.Z.Z.Z.Z.Z.S.Z.Z.Z.S.Z.e       +         w.V.D.D.D.V.Z.Z.Z.Z.Z.Z.Z.Z.Z.Z.Z.Z.Z.Z.Z.Z.Z.V.- O   O       t.V.C.D.V.C.Z.A.Z.Z.Z.Z.Z.Z.Z.Z.S.Z.Z.A.Z.V.V.S.Z.V.t.x.D.V.V.n.Z.Z.Z.Z.Z.Z.Z.Z.Z.Z.Z.Z.Z.Z.Z.Z.Z.C.Z.A.Z.Z.C.                  w.Z.V.A.Z.C.C.Z.Z.Z.Z.Z.Z.Z.Z.Z.Z.Z.Z.Z.Z.Z.Z.Z.Z.Z.Z.Z.Z.Z.Z.Z.Z.Z.Z.Z.Z.Z.Z.Z.Z.A.>.  X # o , 1 3 2 3 2 2 2 f A 1 1 5 2 = 2 2 2 1 1 1 1 1 1 1 , : 6 1 # 4 1 1 6 5 5 2 2 3 5 5 5 q 3 2 3 2 3 3 f 3 6 6 4 6 2 2 2 1 1 = # # # +         ",
"    X f 5 U ..] [ T ..T [ O...+.4.4.5.p.p.6.y.6.s.y.s.g.y.y.g.k.k.k.k.k.k.k.m.`.'.'.'.`.'.'.'.'.`.W.z.m.`.`.[.{..X,X3X,X,X.X.X.XOXXX[.[.{.*X2XeXrXeXeXeX2X2XeXeX,XOXOXXXU.@.Y w o r D.Z.Z.Z.A.Z.Z.Z.Z.Z.Z.Z.Z.Z.Z.Z.Z.Z.Z.Z.Z.Z.Z.Z.Z.Z.Z.Z.Z.Z.Z.Z.Z.Z.Z.Z.Z.Z.C.Z.Q     . . % & - 7 7 8 2 . . X O W D.A.D.Z.V.Z.Z.Z.Z.Z.Z.Z.Z.Z.Z.Z.Z.S.S.Z.Z.Z.G.A.V.S.n.C.S.Z.Z.Z.Z.Z.Z.Z.Z.Z.Z.Z.Z.C.S.Z.Z.A.Z.S.n.Z.D.E     X # # # 1 * 1 # # # = # # 1 1 1 $ @ X   b.V.Z.Z.Z.Z.Z.Z.Z.Z.Z.Z.Z.Z.Z.Z.Z.Z.Z.C.Z.Z.0.      @ @ # + > O     0.S.S.C.C.Z.Z.Z.Z.Z.Z.Z.Z.Z.Z.Z.Z.Z.C.Z.Z.Z.S.S.V.; .     X   X     w.S.D.n.n.V.Z.Z.Z.Z.Z.Z.Z.Z.Z.Z.Z.Z.Z.Z.Z.Z.Z.C.H X           W D.V.D.V.C.Z.C.Z.Z.Z.Z.Z.Z.Z.Z.S.Z.Z.S.V.A.Z.V.C.V.D.D.Z.A.D.D.Z.Z.Z.Z.Z.Z.Z.Z.Z.Z.Z.Z.Z.Z.Z.Z.Z.C.Z.A.S.A.C.              X   w.Z.V.Z.Z.C.C.Z.Z.Z.Z.Z.Z.Z.Z.Z.Z.Z.Z.Z.Z.Z.Z.Z.Z.Z.Z.Z.Z.Z.Z.Z.Z.Z.Z.Z.Z.Z.Z.Z.Z.A.Q   X # # 1 4 5 2 6 1 2 2 z Z 2 2 3 2 = 2 2 1 1 1 1 1 1 1 1 1 # 2 1 , 1 1 4 3 5 3 2 3 3 3 5 5 q 3 3 3 2 3 3 q 3 3 6 4 6 2 3 1 1 = = # * # +         ",
"        3 [ [ ....Y ..[ ..[ &.&.&.5.7.s.a.p.p.y.s.s.g.g.g.l.l.k.k.k.k.k.k.z.`.'.'.'.'.'.'.'.'.'.'.`.`.{.{.{.*X,X2XeXeXeXrXeXtXeXeX<X2X3X3X3X2X2X2X3X.X.X.XoXoX.XXX{.+X!.y.o.L e # ; b.A.V.Z.S.Z.Z.Z.Z.Z.Z.Z.Z.Z.Z.Z.Z.Z.Z.Z.Z.Z.Z.Z.Z.Z.Z.Z.Z.Z.Z.Z.Z.Z.Z.Z.Z.Z.C.D.P X   o $ % & - 3 3 9 2 . .   O   t.S.V.V.S.Z.Z.Z.Z.Z.Z.Z.Z.Z.Z.Z.Z.S.S.Z.Z.F.C.A.V.S.A.C.F.Z.Z.Z.Z.Z.Z.Z.Z.Z.Z.Z.Z.Z.Z.Z.Z.S.V.C.A.b.t..   X + # 1 # 2 # 1 # # = 2 , # # # = o       x.Z.A.Z.Z.Z.Z.Z.Z.Z.Z.Z.Z.Z.Z.Z.Z.Z.Z.C.Z.Z.0.    . @ > + # # X O . w.Z.S.S.Z.Z.Z.Z.Z.Z.Z.Z.Z.Z.Z.Z.Z.Z.S.Z.Z.Z.S.Z.b.    O O # O O O   0.Z.Z.Z.D.A.Z.Z.Z.Z.Z.Z.Z.Z.Z.Z.Z.Z.Z.Z.Z.Z.Z.C.Q         O X $ b.V.D.S.V.D.C.Z.Z.Z.Z.Z.Z.Z.Z.C.Z.A.V.C.D.Z.V.D.Z.D.Z.b.n.Z.V.Z.Z.Z.Z.Z.Z.Z.Z.Z.Z.Z.Z.Z.Z.Z.Z.Z.C.Z.A.S.A.S.              X   w.Z.C.A.Z.C.C.Z.Z.Z.Z.Z.Z.Z.Z.Z.Z.Z.Z.Z.Z.Z.Z.Z.Z.Z.Z.Z.Z.Z.Z.Z.Z.Z.Z.Z.Z.S.S.S.Z.A.Q     + o , 5 f 2 2 = 2 2 c b 3 5 3 2 1 6 1 2 1 1 1 1 2 1 1 2 , 1 2 2 , , 2 5 5 3 2 3 3 3 q q q 5 3 5 3 5 8 5 3 3 3 4 6 2 3 2 1 1 = * = * + X       ",
"      # 3 [ [ Y ..O...&.&...#.*.4.p.p.s.h.g.s.s.s.s.g.g.g.l.g.k.k.k.k.k.z.z.m.'.'.'.'.'.}.}.'.'.}.'.}.oX X,X2X2XtXiXaXrXsXyXyXyXiXeXeX2X3X2X2X2X.XXX[.[.[.`.W.R.R.g.g.y.<.X.T r 1   b.A.V.Z.S.C.Z.Z.Z.Z.Z.Z.Z.Z.Z.Z.Z.Z.Z.Z.Z.Z.Z.Z.Z.Z.Z.Z.Z.Z.Z.Z.Z.Z.Z.Z.Z.Z.V.Z.0     # $ % $ - 7 3 9 - . # o O   Q Z.V.S.C.Z.Z.Z.Z.Z.Z.Z.Z.Z.Z.Z.Z.Z.Z.Z.Z.S.A.n.D.D.C.C.D.Z.Z.Z.Z.Z.Z.Z.Z.Z.Z.Z.Z.Z.Z.Z.Z.Z.Z.C.A.C.! O X X + : < > 1 # , 1 # * 1 # # 1 1 = $ +     b.V.Z.Z.Z.Z.Z.Z.Z.Z.Z.Z.Z.Z.Z.Z.Z.Z.Z.C.Z.Z.0.    . # > # . + X O . t.Z.Z.Z.Z.Z.A.S.Z.Z.Z.Z.Z.Z.Z.Z.Z.Z.S.Z.Z.S.S.n.b.      O . X       0.D.C.V.C.C.M.Z.Z.Z.Z.Z.Z.Z.Z.Z.Z.Z.Z.Z.Z.Z.Z.A.2.    . O       >.V.D.Z.Z.D.C.Z.Z.Z.Z.Z.Z.Z.Z.V.A.A.V.S.Z.Z.C.C.Z.Z.V.S.C.Z.C.Z.Z.Z.Z.Z.Z.Z.Z.Z.Z.Z.Z.Z.Z.Z.Z.Z.C.Z.A.S.A.S.      . . . . X   w.Z.C.A.Z.C.C.Z.Z.Z.Z.Z.Z.Z.Z.Z.Z.Z.Z.Z.Z.Z.Z.Z.Z.Z.Z.Z.Z.Z.Z.Z.Z.Z.Z.Z.Z.Z.Z.S.Z.A.Q X   + # 1 6 p 1 2 1 2 3 b l q f 3 1 4 y 4 1 1 , 1 1 2 1 1 # 1 2 2 5 2 1 2 5 5 3 2 3 3 3 q q q 3 3 3 3 3 5 3 2 3 3 2 2 2 3 3 2 1 1 = 1 * +         ",
"        8 ] ] { { &.&.O.*.@.&.4.5.p.p.a.h.h.h.h.s.s.g.g.g.g.g.g.k.k.k.k.z.m.`.'.'.}.}.}.}.}.-X-XoX-X:X3XtXtXuXaXaXaXfXaXaXuXiXhXiX4X2X3X:XoXoXoX{.`.k.k.f.f.l.l.l.q.3.3.2.W P r - o w.C.A.Z.Z.A.Z.Z.Z.Z.Z.Z.Z.Z.Z.Z.Z.Z.Z.Z.Z.Z.Z.Z.Z.Z.Z.Z.Z.Z.Z.Z.Z.Z.Z.Z.Z.Z.C.F.    O o o % % % 7 7 8 - o . &   O O t.C.C.D.C.A.D.V.C.Z.Z.S.Z.Z.Z.Z.Z.Z.Z.Z.Z.Z.Z.Z.Z.Z.Z.Z.Z.Z.Z.Z.Z.Z.Z.Z.C.C.S.A.D.D.n.A.S.V.D.D.w.    X + # : # : + 1 1 1 # # 2 + # # # # o +     b.Z.A.Z.Z.Z.Z.Z.Z.Z.Z.Z.Z.Z.Z.Z.Z.Z.Z.S.Z.Z.0.    . # O @ >   #     b.Z.Z.Z.Z.Z.Z.Z.Z.Z.Z.Z.Z.Z.Z.Z.Z.A.V.Z.C.A.Z.V.t.    X + + + X   O Q Z.V.A.Z.C.n.Z.Z.Z.Z.Z.Z.Z.Z.Z.Z.Z.Z.Z.Z.Z.Z.C.w.O         O O $ z.Z.C.C.S.D.Z.A.Z.Z.A.A.S.S.Z.Z.Z.Z.Z.Z.Z.Z.Z.Z.Z.Z.Z.Z.Z.Z.A.V.Z.Z.V.Z.n.C.Z.Z.Z.Z.Z.Z.Z.Z.Z.C.Z.A.C.Z.C.        . . X     w.Z.C.A.Z.V.C.Z.Z.Z.Z.Z.Z.Z.Z.Z.Z.Z.Z.Z.Z.Z.Z.Z.Z.Z.Z.Z.Z.Z.Z.Z.Z.Z.Z.Z.Z.Z.Z.Z.Z.Z.>.    # o 4 y p 1 1 2 3 q b b f 5 6 6 1 4 4 1 1 4 1 2 6 2 2 2 2 2 2 2 2 1 6 5 3 6 3 5 3 5 8 5 q q 3 2 5 5 3 3 3 3 3 6 3 6 2 3 2 2 2 2 2 1 1       X ",
"    O # c ] ..&.O.&.4.4.4.@.4.5.6.p.p.a.h.h.U.h.g.s.s.g.g.g.g.j.k.k.k.k.m.`.'.'.}.{.}.}.$X$X-X:X3X3X4XiXuXaXaXkXsXsXsXsXaXiXiX4X3X:X:XoX{.[.[.[.`.m.f.f.f.e.q.q.q.q.q.3.2.Q E r 2 . 0.Z.A.Z.Z.A.Z.Z.Z.Z.Z.Z.Z.Z.Z.Z.Z.Z.Z.Z.Z.Z.Z.Z.Z.Z.Z.Z.Z.Z.Z.Z.Z.Z.Z.Z.Z.Z.C.t.    O . . $ $ = 2 2 7 - o $ O   X   r V.V.Z.Z.V.Z.D.Z.C.S.A.Z.Z.Z.Z.Z.Z.Z.Z.Z.Z.Z.Z.Z.Z.Z.Z.Z.Z.Z.Z.Z.Z.Z.Z.Z.S.Z.V.V.Z.S.V.Z.V.S.b.9   O X + + : : 1 + 1 1 1 1 # 1 + + + + * o +     b.Z.A.Z.Z.Z.Z.Z.Z.Z.Z.Z.Z.Z.Z.Z.Z.Z.Z.S.Z.Z.0.    . # + @ >   O   % n.Z.Z.Z.Z.Z.Z.Z.Z.Z.Z.Z.Z.Z.Z.Z.Z.A.V.Z.C.A.Z.V.t.    X + # + X     Q Z.V.Z.Z.C.A.Z.Z.Z.Z.Z.Z.Z.Z.Z.Z.Z.Z.Z.Z.Z.Z.C.t.      X . O #   W D.Z.A.n.Z.Z.S.A.A.Z.n.n.Z.Z.Z.Z.Z.Z.Z.Z.Z.Z.Z.Z.Z.Z.Z.Z.Z.Z.Z.S.V.A.Z.A.V.Z.Z.Z.Z.Z.Z.Z.Z.Z.C.Z.A.C.Z.C.        . .       w.Z.C.A.Z.V.C.A.Z.Z.Z.Z.Z.Z.Z.Z.Z.Z.Z.Z.Z.Z.Z.Z.Z.Z.Z.Z.Z.Z.Z.Z.Z.Z.Z.Z.Z.Z.Z.Z.Z.Z.>.    # # 4 5 1 , 5 5 q l b h 5 3 1 6 1 4 1 2 4 6 6 2 2 2 3 6 2 2 2 2 2 6 5 5 3 6 3 5 3 5 5 8 q 5 3 3 q q 3 2 3 3 3 3 5 3 3 2 2 2 2 2 2 2 2 2 .     ",
"  + O X f %...O.&.u.p.7.7.4.7.s.U.U.h.h.U.h.U.j.h.g.y.g.g.g.j.k.k.k.R.`.`.`.'.'.}.}.}.-X-X:X4X4XtXiXiXjXkXsXdXsXsXsXsXaXhX4X3X:X$X}.}.|.`.m.m.m.c.c.c.e.e.r.q.q.q.q.3.3.2.,.E r 3 o Q Z.C.C.Z.S.Z.Z.Z.Z.Z.Z.Z.Z.Z.Z.Z.Z.Z.Z.Z.Z.Z.Z.Z.Z.Z.Z.Z.Z.Z.Z.Z.Z.Z.Z.Z.Z.S.w.O     o o o $ - - - 7 7 o % % <     + o.F.C.D.Z.V.Z.D.Z.b.S.Z.Z.Z.Z.Z.Z.Z.Z.Z.Z.Z.Z.Z.Z.Z.Z.Z.Z.Z.Z.Z.Z.Z.Z.A.A.A.V.C.V.b.S.C.Z.V.W   O X # # # : 1 2 # 1 1 # # 1 1 2 1 1 1 # o @     b.Z.A.Z.Z.Z.Z.Z.Z.Z.Z.Z.Z.Z.Z.Z.Z.Z.Z.C.Z.Z.0.    . # # @ >   O   r V.Z.Z.Z.Z.Z.Z.Z.Z.Z.Z.Z.Z.Z.Z.Z.Z.A.V.Z.V.A.Z.V.w.    X + # + X     W Z.V.Z.Z.C.A.Z.Z.Z.Z.Z.Z.Z.Z.Z.Z.Z.Z.Z.Z.Z.Z.C.b.. X   X . O O . . w.V.A.D.V.S.Z.Z.C.Z.S.A.A.Z.Z.Z.Z.Z.Z.Z.Z.Z.Z.Z.Z.Z.Z.Z.Z.D.Z.C.S.Z.S.b.S.Z.Z.Z.Z.Z.Z.Z.Z.Z.C.Z.A.C.Z.C.    X . . .       w.Z.C.A.Z.Z.C.A.Z.Z.Z.Z.Z.Z.Z.Z.Z.Z.Z.Z.Z.Z.Z.Z.Z.Z.Z.Z.Z.Z.Z.Z.Z.Z.Z.Z.Z.Z.Z.Z.Z.Z.Q     # # 6 5 # , 6 3 f b g 8 2 2 2 4 1 2 1 3 6 6 3 6 2 3 3 6 1 1 6 2 2 5 p p 3 2 3 5 5 5 5 q 8 3 3 5 q q 3 2 3 5 5 5 5 5 3 3 3 2 2 3 5 3 = 2 + X X ",
"    X + 2 %.&.#.*.s.s.s.L.a.K.T.Q.Q.T.U.U.g.h.j.j.g.g.g.g.k.k.k.k.k.`.`.[.'.'.}.}.}.-X:X4X4XiXiXuXaXsXsXdXsXsXsXfXaXaXiX4X>X$X}.].].|.m.v.c.v.m.c.c.e.e.e.r.r.r.q.q.q.q.3.2.W G 9 $ ! Z.C.V.Z.V.Z.Z.Z.Z.Z.Z.Z.Z.Z.Z.Z.Z.Z.Z.Z.Z.Z.Z.Z.Z.Z.Z.Z.Z.Z.Z.Z.Z.Z.Z.Z.Z.C.0.    X o o o $ 7 - 2 7 8 $ % % . . X     0.Z.V.A.V.V.V.D.Z.C.Z.Z.Z.Z.Z.Z.Z.Z.Z.Z.Z.Z.Z.Z.Z.Z.Z.Z.Z.Z.Z.Z.Z.Z.C.A.Z.Z.Z.D.D.n.Z.S.2.    O   > # # : 1 4 # 1 , + * 2 1 3 1 # # * o @     b.Z.A.Z.Z.Z.Z.Z.Z.Z.Z.Z.Z.Z.Z.Z.Z.Z.Z.S.Z.Z.0.    . # # @ > .     E S.Z.Z.Z.Z.Z.Z.Z.Z.Z.Z.Z.Z.Z.Z.Z.Z.C.V.Z.V.Z.Z.C.0.  X O # # # X     E S.S.A.Z.C.A.Z.Z.Z.Z.Z.Z.Z.Z.Z.Z.Z.Z.Z.Z.Z.Z.C.D.0     O O + X     - t.V.A.C.C.S.S.V.V.A.A.n.Z.Z.Z.Z.Z.Z.Z.Z.Z.Z.Z.Z.Z.Z.Z.Z.Z.S.D.n.Z.w.S.n.Z.Z.Z.Z.Z.Z.Z.Z.Z.C.Z.A.C.Z.C.    X . . .       w.Z.C.A.Z.Z.C.A.Z.Z.Z.Z.Z.Z.Z.Z.Z.Z.Z.Z.Z.Z.Z.Z.Z.Z.Z.Z.Z.Z.Z.Z.Z.Z.Z.Z.Z.Z.Z.Z.Z.Z.Q     # # 6 5 2 2 1 3 g b 2 2 2 6 6 2 1 4 6 2 3 2 3 5 2 5 3 2 , 2 3 1 2 5 5 p 3 2 3 5 8 8 8 q 5 3 3 5 q 5 3 3 3 5 5 5 5 5 5 5 5 3 2 3 q 3 = # . + + ",
"    X X = { O.7.7.7.s.E.E.E.Q.Q.!.!.Q.Q.T.U.j.j.j.g.g.g.k.k.k.k.k.z.`.`.'.}.}.$X-X-X3X2X4XiXhXjXsXsXsXsXsXsXsXsXaXsXiXiX7X:X$X].].|.N.m.v.c.v.m.c.c.e.e.e.e.r.r.q.q.q.r.3.2.W H 9 % 0 Z.A.V.D.V.Z.Z.Z.Z.Z.Z.Z.Z.Z.Z.Z.Z.Z.Z.Z.Z.Z.Z.Z.Z.Z.Z.Z.Z.Z.Z.Z.Z.Z.Z.Z.Z.C.2.    X $ o . % 7 - 2 9 g % % 2 , + # X   O w.V.A.n.G.V.V.Z.V.Z.Z.Z.Z.Z.Z.Z.Z.Z.Z.Z.Z.Z.Z.Z.Z.Z.Z.Z.Z.Z.Z.Z.Z.V.V.D.D.Z.n.n.A.n.0.. O   X   : # # : : : # 1 # # 1 2 1 3 1 , , # o O     b.C.A.Z.Z.Z.Z.Z.Z.Z.Z.Z.Z.Z.Z.Z.Z.Z.Z.C.Z.Z.0.    . # # @ @ .     o.S.Z.Z.Z.Z.Z.Z.Z.Z.Z.Z.Z.Z.Z.Z.Z.Z.Z.Z.Z.C.Z.Z.S.2.  X O # # # O X   v Z.A.A.Z.V.C.Z.Z.Z.Z.Z.Z.Z.Z.Z.Z.Z.Z.Z.Z.Z.Z.C.D.!   X + X > # O     c F.x.A.n.Z.S.S.V.Z.Z.Z.Z.Z.Z.Z.Z.Z.Z.Z.Z.Z.Z.Z.Z.Z.Z.Z.Z.V.A.Z.w.t S.n.Z.Z.Z.Z.Z.Z.Z.Z.Z.C.Z.A.C.Z.C.      . .         w.Z.C.A.Z.Z.C.A.Z.Z.Z.Z.Z.Z.Z.Z.Z.Z.Z.Z.Z.Z.Z.Z.Z.Z.Z.Z.Z.Z.Z.Z.Z.Z.Z.Z.Z.Z.Z.Z.Z.Z.>.    + % 3 3 2 2 3 z b b 7 2 2 2 2 2 2 3 5 2 3 2 5 5 2 3 6 2 1 3 6 1 2 8 5 5 3 2 3 5 8 8 8 8 8 5 3 5 5 3 2 3 3 5 5 5 8 8 8 5 5 5 2 2 3 3 2 = . X + ",
"    # . # { &.O.s.K.a.T.Q.Q.!.!.!.).!.!.!.R.U.h.g.g.g.j.k.k.k.k.z.W.`.'.{.}.$X-X:X4X4XiXiXaXjXkXsXkXkXsXsXaXsXsXaXaXiX4X5X$X#X].].M.N.m.v.v.v.v.c.B.e.e.e.e.e.e.r.r.q.q.3.2.W P 9 = . b.A.V.Z.Z.Z.Z.Z.Z.Z.Z.Z.Z.Z.Z.Z.Z.Z.Z.Z.Z.Z.Z.Z.Z.Z.Z.Z.Z.Z.Z.Z.Z.Z.Z.Z.Z.Z.W     X $ . . % 7 ; - 7 g = % # 2 % . O   + . q.D.C.n.n.S.C.Z.Z.Z.Z.Z.Z.Z.Z.Z.Z.Z.Z.Z.Z.Z.Z.Z.Z.Z.Z.Z.Z.Z.Z.Z.V.Z.Z.A.C.C.S.n.0.  .   @ o 1 X # : : # : # 1 # : 1 1 , 1 1 1 1 # o O     b.C.A.Z.Z.Z.Z.Z.Z.Z.Z.Z.Z.Z.Z.Z.Z.Z.Z.C.Z.Z.w.    . # # > # .     0.C.Z.Z.Z.Z.Z.Z.Z.Z.Z.Z.Z.Z.Z.Z.Z.Z.V.Z.Z.C.Z.Z.D.Q   X + # # # O X   7 V.S.Z.Z.V.C.Z.Z.Z.Z.Z.Z.Z.Z.Z.Z.Z.Z.Z.Z.Z.Z.C.Z.Q   X + O # O :   O   v t.D.D.A.V.V.S.Z.Z.A.Z.Z.Z.Z.Z.Z.Z.Z.Z.Z.Z.Z.Z.Z.Z.Z.Z.C.V.b.e   t.D.Z.Z.Z.Z.Z.Z.Z.Z.Z.C.Z.A.C.Z.Z.      . .         w.Z.C.A.Z.V.C.A.Z.Z.Z.Z.Z.Z.Z.Z.Z.Z.Z.Z.Z.Z.Z.Z.Z.Z.Z.Z.Z.Z.Z.Z.Z.Z.Z.Z.Z.Z.Z.Z.Z.A.>.    # % 5 8 3 2 f V b b b g 8 3 3 2 3 3 2 z 8 2 2 2 5 5 5 5 5 5 3 2 3 q 3 3 2 2 5 5 8 8 7 8 8 5 5 3 3 2 2 2 2 3 5 8 8 q q q f q 3 = % - 2 5 #   X ",
"O   +   f ] *.&.K.Q.U.T.Q.!.!./.).).).).).!.Q.T.Y.U.j.Y.Y.R.k.W.`.`.[.{.}.-X:X4X4X4XiXuXuXaXsXdXdXdXkXsXsXsXsXaXaXiXiX4X>X$X#X#XM.M.N.N.m.v.v.v.c.c.B.e.e.B.e.e.e.q.q.q.q.3.o.E r - O t.A.S.Z.S.Z.Z.Z.Z.Z.Z.Z.Z.Z.Z.Z.Z.Z.Z.Z.Z.Z.Z.Z.Z.Z.Z.Z.Z.Z.Z.Z.Z.Z.Z.Z.Z.Z.r     + % & o ; 2 ; - 7 w 2 2 2 $ . 3 . > X O   o.b.D.D.D.n.C.Z.Z.Z.Z.Z.Z.Z.Z.Z.Z.Z.Z.Z.Z.Z.Z.Z.Z.Z.Z.Z.Z.Z.Z.V.A.b.S.V.Z.N.Q   >   O X , + # > : : # : # 1 1 1 1 # # + + # + # . O     b.C.C.Z.Z.Z.Z.Z.Z.Z.Z.Z.Z.Z.Z.Z.Z.Z.Z.C.Z.Z.w.    . # # : # X     w.C.Z.Z.Z.Z.Z.Z.Z.Z.Z.Z.Z.Z.Z.Z.Z.Z.Z.Z.Z.C.C.Z.Z.W   O + # # # + X   & F.C.Z.D.V.Z.Z.Z.Z.Z.Z.Z.Z.Z.Z.Z.Z.Z.Z.Z.Z.Z.V.Z.0..     . + + O @ X   . w t.n.D.Z.n.S.Z.n.Z.Z.Z.Z.Z.Z.Z.Z.Z.Z.Z.Z.Z.Z.Z.Z.Z.D.S.n.! O O 2.V.Z.Z.Z.Z.Z.Z.Z.Z.Z.V.Z.A.C.Z.Z.      .   . . X   w.Z.C.A.Z.V.C.A.Z.Z.Z.Z.Z.Z.Z.Z.Z.Z.Z.Z.Z.Z.Z.Z.Z.Z.Z.Z.Z.Z.Z.Z.Z.Z.Z.Z.Z.Z.Z.Z.Z.A.>.    # = F f 3 1 f z g h b c h q q 7 q 8 8 b g 5 2 3 8 8 5 f q 5 3 3 5 5 3 2 2 3 5 8 8 8 8 q 8 5 5 7 3 3 3 3 3 3 8 8 8 8 q q f g 8 - = = 2 F = O X ",
"    O   o C *.u.a.L.E.!.!.!./././.OX/.OXOXXXXX/.!.W.R.W.W.W.W.W.[.[.{. X-X*X4X4X4XiXaXaXaXaXaXfXfXkXkXkXsXsXsXaXsXiX4X4X>X$X#X#XM.M.N.N.N.v.v.v.c.c.c.c.e.e.e.e.B.e.e.e.q.3.<.W r 3 : w.n.S.Z.Z.Z.Z.Z.Z.Z.Z.Z.Z.Z.Z.Z.Z.Z.Z.Z.Z.Z.Z.Z.Z.Z.Z.Z.Z.Z.Z.Z.Z.Z.Z.Z.Z.Z.&     . # $ o - - - - 7 9 2 2 $ , 2 $ % o O X @   t t.V.C.D.A.Z.Z.Z.Z.Z.Z.Z.Z.Z.Z.Z.Z.Z.Z.Z.Z.Z.Z.Z.Z.Z.Z.Z.Z.Z.n.D.n.S.w.0   >   @ . % + > : : > > > : # 1 2 # # # 2 # 1 2 1 : # O     b.C.C.Z.Z.Z.Z.Z.Z.Z.Z.Z.Z.Z.Z.Z.Z.Z.Z.C.Z.Z.w.    . > + : @ X X   t.A.Z.Z.Z.Z.Z.Z.Z.Z.Z.Z.Z.Z.Z.Z.Z.Z.Z.Z.Z.C.S.Z.F.!   O + # # # + O   + F.A.C.D.V.Z.Z.Z.Z.Z.Z.Z.Z.Z.Z.Z.Z.Z.Z.Z.Z.Z.S.Z.w..   O # + + . @ @   X   $ 0.b.D.Z.Z.A.Z.A.Z.Z.Z.Z.Z.Z.Z.Z.Z.Z.Z.Z.Z.Z.Z.Z.D.V.W     X e V.Z.Z.Z.Z.Z.Z.Z.Z.Z.C.Z.A.C.Z.C.    X . . . . X   w.Z.C.A.Z.V.C.A.Z.Z.Z.Z.Z.Z.Z.Z.Z.Z.Z.Z.Z.Z.Z.Z.Z.Z.Z.Z.Z.Z.Z.Z.Z.Z.Z.Z.Z.Z.Z.Z.Z.Z.>.  X : = f q 2 1 q 3 3 8 q g h h c g x c c h h c f 8 8 5 8 f 5 3 3 5 q 3 3 2 3 5 8 f p 8 8 q 8 5 5 8 8 5 8 3 3 8 8 8 8 3 3 5 8 q q 8 3 2 2 F 1 # 1 ",
"#   X   8 c i.u.L.T.Q.!.).)./.XXOXOXOXOX<X,XOXOXOX/./.).!.!.[.{.-X-X-X*X3X2X4XiXiXuXaXaXfXfXfXfXsXsXsXsXsXsXaXaXsXiX4X>X>X$X#X#XM.M.M.N.N.m.v.m.c.B.c.B.B.e.e.B.e.c.B.e.q.3.2.W G 9 $ 0.n.A.n.A.A.Z.Z.C.A.Z.Z.Z.Z.C.C.Z.Z.C.C.C.Z.S.S.Z.Z.Z.S.S.Z.Z.Z.Z.C.C.C.C.x.+ + X . $ + o ; - - - 7 e 7 - % = = % % % % o . O O . Q t.S.C.Z.Z.A.A.Z.Z.D.Z.Z.Z.Z.Z.Z.Z.Z.Z.Z.F.Z.S.V.Z.Z.Z.C.V.D.t.Q     O O + + # + : # # # : # : # # 1 1 + + + # , # 1 2 =   o +   b.D.n.Z.Z.Z.Z.Z.Z.Z.Z.Z.Z.Z.Z.Z.Z.Z.C.Z.A.A.w.O @ + # : # > X O . n.A.Z.Z.Z.Z.A.S.S.S.Z.Z.Z.Z.Z.Z.Z.Z.C.Z.D.V.A.C.F.c   X # # # + + O X   z.V.D.C.Z.A.Z.Z.Z.Z.Z.Z.Z.Z.A.Z.Z.Z.Z.Z.Z.S.C.D.t..   + X O O O + + O O       ! z.Z.V.C.C.C.C.C.A.A.A.n.A.A.Z.Z.D.n.C.V.C.V.b.R       O . t.Z.C.S.Z.C.S.S.Z.C.S.V.A.A.V.S.O       . o . X   t.Z.Z.Z.S.Z.D.Z.Z.Z.Z.Z.Z.Z.V.V.A.n.A.Z.Z.A.Z.Z.Z.C.C.C.C.C.Z.Z.Z.Z.Z.Z.Z.Z.Z.Z.A.V.0.. # o 3 f 5 = 5 8 3 q w w w h h b w q x w g h U C g 8 3 2 8 3 3 5 5 5 5 3 3 5 8 f f f 8 8 7 8 8 5 5 8 q 8 8 8 8 8 8 3 8 8 q q q q q 3 3 8 3 3 # X ",
"O #   X K { 7.K.U.T.Q.!.)././.XXOXOX,X,X<X<X<X<X<XOXOX,X.X X X:X:X3X3X3XtXiXiXiXuXuXaXfXfXfXfXfXsXsXsXsXsXsXaXaXaXiX4X>X>X$X#X#X].M.M.M.N.N.m.m.v.c.c.B.c.c.c.c.c.c.c.c.e.q.2.Q P v 9 >.C.n.V.V.Z.Z.Z.S.S.S.Z.S.Z.Z.Z.Z.Z.Z.Z.Z.Z.Z.Z.Z.Z.C.C.C.A.A.Z.Z.Z.Z.Z.S.z.O   o # $ $ o - 0 0 7 7 w 7 ; % % % % ; = = % % o     O $ W t.V.S.Z.n.C.C.C.V.S.Z.Z.Z.V.V.Z.Z.A.n.C.C.C.C.Z.Z.F.t.W . O O X . . # # # + : : : # : > : # # 1 1 # + # # , , 2 3 : : : #   F.n.C.Z.Z.Z.Z.Z.Z.Z.Z.V.Z.Z.Z.Z.Z.C.C.V.V.C.w.. O @ : # + > X O e V.V.S.Z.Z.Z.Z.Z.V.V.Z.S.C.Z.Z.Z.Z.Z.C.n.D.C.n.C.S.$   X # # # # + O   . b.C.Z.V.V.C.Z.Z.Z.Z.Z.S.S.A.A.Z.Z.S.C.Z.Z.S.V.Z.V..   + < > O + + + + O X X   O . Q b.V.C.D.Z.V.V.Z.Z.S.Z.Z.V.V.Z.Z.C.S.n.e.0           o 0.S.S.S.Z.Z.C.C.Z.Z.n.D.A.n.S.F..     . . # . X   t.Z.Z.C.V.V.Z.V.C.C.C.C.C.C.C.Z.A.Z.A.Z.Z.A.Z.A.C.C.C.C.C.Z.Z.Z.Z.Z.Z.Z.Z.Z.Z.Z.n.S.0.  O = 5 f q 2 3 2 2 w w v x b q q w q w q q g b h C g = 5 5 3 3 5 3 3 5 5 5 8 f f f 8 8 8 5 8 8 5 8 q q 8 5 8 8 8 8 8 q q q q q q q 8 8 8 3 2 .   ",
"O   O X 8 } i.7.Q.Q.!.!./././././.OX,X,X,X,X1XeXeX<X<X2X,XXXXX*X3X2X2XtXiXuXuXuXaXaXaXaXfXfXfXfXsXdXsXdXkXsXaXaXhXiX4X>X>X$X#X#X#X].M.M.N.N.m.v.m.v.c.B.c.c.c.c.c.v.c.c.f.q.9.2.W H 9 ! 0.0.0.0.2.2.2.2.>.2.2.2.2.2.2.2.2.2.2.2.0.2.2.2.2.2.2.2.2.2.2.2.0.0.0.0.o.+ X # + $ % % 7 9 9 9 7 e 7 - = % % ; - - 2 2 3 o % # O       t Q t.Z.S.C.n.D.A.A.Z.Z.Z.A.D.D.C.C.C.V.Z.n.t.>.8     X + # # $ . 1 2 2 # , > # # : > : # # 1 # # # + # # # 1 2 # # #   # 0.y.0.0.0.0.0.2.2.2.2.2.2.2.2.2.0.2.2.0.0.0.o.. O # : # # > o + x w.w.0.0.0.0.0.0.0.0.0.0.0.0.0.0.0.0.0.2.0.0.0.0.0.. X + # @ @ @ # + X . 0.w.w.0.0.0.0.0.0.0.0.0.0.0.0.0.0.0.0.0.0.0.0.l.w.7 #     , + @ @ + + O + + O   .      .w.b.Z.C.C.V.V.C.Z.n.D.D.V.V.V.w.E   O O   X .     o % % o $ o o o o $ % o o % o ; > . . o o # o . . w.t.t.t.t.w.t.t.w.w.w.t.t.w.t.t.t.w.t.w.w.t.w.w.t.t.t.w.t.t.t.t.w.w.w.w.t.t.t.t.t.t.Q ; # - 5 j 3 2 3 2 8 g g h x C q 7 g q 8 q q w q w Z z 2 8 8 5 8 5 2 2 5 q q f f 8 8 8 8 8 8 8 5 5 8 q q 8 5 8 8 8 q q q q q g g g g g q q 3 #     ",
"  O   X A Z i.K.!.!.!././././././.XXOXOXOXOX<X<XeXwXeXeX1X*X.X*X2XiXiXuXuXuXyXuXaXaXaXaXdXdXfXdXdXdXdXsXkXsXaXaXhXiXiX4X>X&X#X#X#X].].M.N.N.m.m.m.m.c.B.c.c.c.c.c.m.c.c.c.q.3.2.W E H r 0 & & # # # o . . . . . . . . .       X .     . .       .           . . .   o # , $ . % 7 w r e 7 e 7 - = % ; ; - - 7 9 0 % 4 : . o   O   X   . H o.0.w.x.x.n.n.Z.n.b.x.z.w.0.<.E $   O @   #     * % 1 3 5 3 2 # # : : # : # : > > 1 : # # + # # # # # 2 # : # :   O                                   .   .   O * * : O : > $ X   .                                               o > + + # @ @ @ # # > > . . O                                       .     O @ * X X + @ # @ @ O + # >       . o   $ W 2.f.b.b.b.V.Z.x.t.w.o.0       O X . + +   .                     +       . . .   . o o o o o o   .                                 .                                         X . . % > < 2 3 3 2 2 3 5 f h q q 8 b g q g q q g w w w q g q 8 5 8 8 8 8 3 3 8 f f f 8 8 8 8 8 8 8 8 5 5 8 q q q 8 8 8 8 8 q q g q g h g g g g q z = X O ",
"    O X %.K.O.T.Q.!.!././././././.XX.XOXOXOX<X<XrXrXyXeXeX2X2X2XiXiXaXaXaXaXaXaXaXaXaXsXfXfXdXaXdXdXdXsXsXsXsXsXaXaXiX4X>X>X$X#X#X#X].].M.M.N.m.m.m.c.c.c.c.c.c.m.m.c.c.c.e.3.3.>.W P H r r e 3 2 2 - = = - = * = = = * = = * * * # # # # . . . . . X           o 2 $ o , $ . 7 e v x w 9 r 9 - - % ; - - - 9 9 8 w = = % . . .   + +           X                         X + O   X   O 1 # . 2 5 5 5 3 2 , : : # : # : # # 1 # # # + # # # # + + 4 : # + O < o                                   @ #   # + # : > > > + # #   >                                       X @ +   @ + # # @ @ # # # X ,     > O                                     O O X > > O : : @ # # # @ @ @ # O @ > >     + O                           +   % , . . . . . . . . . . . . . . . .     X O O . .   . o o o o o # O O           O                   + + X X       O O O O O O O O O O O O O O @ @ O X % 2 4 3 q 3 2 3 3 5 g z 8 q 2 g h h h g g h c w e w 3 8 q 3 q 5 3 5 5 8 q q f q 8 8 8 8 q f 8 8 8 8 8 8 8 8 8 8 8 8 8 q g g q g h g g h h g z #     ",
"      X g *.i.!.Q.!.)./././././.XXXXXXOXOX,X<X<XwXrXyXrXeXyXiXiXiXaXaXaXaXaXaXaXaXaXsXaXsXsXaXaXdXdXdXsXsXsXsXsXaXaXiX4X4X>X$X$X#X#X].].M.M.N.N.m.N.v.v.v.v.v.v.v.m.c.c.c.f.3.3.2.,.W E E P G t r v v r r r r w e 9 9 7 9 7 7 7 7 7 7 7 2 2 - = % $ $ $ # $ $ # + . o % % $ ; 0 x v r e e m e ; ; % ; - - - 7 9 y 8 0 ; 2 1 : + > + . .           X X X         X         X .   , , : 1 X X = . # # 1 2 3 1 # O + # + # # # # # + + + # # # # # + # + # = = # o + + + O O + + + O O + + + + O O o O   : o 4 1 > < > : > @ + O O O O O O X X O O + O O O O O O O O > .   >   : o # + + # @ + # # > O # + + X + . O O O O O O O O + + # + O + + + X   #     O # > @ # > # @ @ @ # >   . + O :     O @ @         O X     #   + #   o % . $ o   . .         . # # . X :     : @     . . o o . . o o X X O X X   X O X X X X X X X X X # # # # + . + . . . . . . . . X X X X X X X X > u 1 2 y 3 2 3 2 3 8 f h z q f 8 w h c h h c b b h q h g q 8 q g 8 8 8 q q f q q q 8 8 8 8 8 f 8 q f f q 8 8 8 8 q 8 8 q g h h g h h h g h h h h 2 .   ",
"      . g C T.Q.!.).XX/././././.XXXX*X*X,X,X1X<XeXrXyXrXrXuXuXuXuXaXaXaXaXaXaXaXaXaXaXsXsXsXaXaXsXsXsXsXsXsXsXsXaXaXiXiX4X>X>X$X#X#X].].].M.N.N.m.M.m.N.v.v.v.v.v.m.c.c.c.e.q.3.2.2.>.W W W W W ! E E P P P P G G G G G G G r r r r r r t 9 0 0 7 - ; ; ; $ $ $ = - % $ o $ 7 w r v r e e n w - - ; - - - 7 9 9 w 7 p p 8 6 # % # o . . . .       # # # X X O O @ O + : # X . . . X X # : + > # + X X   + + + O X O X O O X # X + O + + + + + + # $ 2 # # % = 1 . . . # # # + + # + # # # # + + > > + <   : : > O O # > # + * o + + # # + + + + # + + + + + + + X >     1 o < . + + + # # + + + , + : X o . o o . . . . . . . . . + + . X X O + + + + # . % + + @ + # # # @ @ # * .   + X O   @         X + O     . .   . . * 1 - . o . . >   + . . .   . $ % o . . . $ .   . . . . . .   . . . . . & o . o . . # # # # # # # # , 2 % 2 2 , % % % % % % # % # % % % % % % % % % $ 2 ; ; f 5 3 5 2 5 q h c g q f g z h l c c c b h x w n b w e w h g q f q f q q f f f f 8 8 8 q f f f f q q 8 8 8 q q q q g h h g h h h h h h g h 8 #   ",
"O   +   h ] K.!.!./.XX/./././.OX,X,X,X,X,X,X1X1XeXeXrXrXyXaXuXuXuXaXaXaXsXsXaXaXsXsXsXsXsXsXsXaXaXsXsXsXsXsXsXsXsXsXsXiX4X7X5X>X#X#X].].].M.M.N.m.M.m.M.v.v.v.v.v.N.v.c.c.f.q.q.3.3.>.>.,.Q ,.Q Q o.o.Q W W W W W E P P P P P P H H H v r r r 9 8 7 2 - - - - - $ - & $ $ $ 7 x r v r e 9 v g 7 - - 2 3 7 7 9 8 8 7 9 7 - = 3 + o 1 : O O     . O 1 3 1 + X + + . . # + X O @ + @ O O X o       X X X       X         X     O   X X X X X X X + @ . # 5 1 , o # @ # # : : : : : : # : # > > > > O : X @ o < > : : 1 X + : @ > < > @ # # : # @ > @ @ @ @ @ @ @ @ @ > # > @ @ > # + + + + + + + + . , > > < > # + > @ @ @ @ @ @ @ > : : > @ > > > @ > > @ @ O : > @ + + # > > @ @ @ @ + #   . X   @ @ @ @ O   X o >   . o % + % $ 4 o O . .   o   . . . . . $ % o # % . O . X + . . o o       . . % . . # # = # . . . . o o o o o 3 3 = 2 5 2 = = 1 1 1 1 1 1 1 1 1 1 1 2 1 2 2 2 3 y 3 2 y 5 q 2 2 5 f c c f f f q z z z h z g b q h x C x w w w h g g g q q q q f f f f 8 5 5 8 f q 8 8 8 8 8 8 8 q q q q g h h g g h h h h g q g g 3 # ",
"+   X , 7  .).).!./.XX/././.OXOX,X1X1X,X,X,X1X1XeXrXyXyXyXaXuXaXaXuXuXuXaXfXfXfXfXaXaXaXsXsXsXaXsXsXdXsXsXsXdXkXfXfXfXsXiX7X7X5X:X$X$X$X#X].M.N.N.N.N.M.N.m.v.m.v.m.v.c.c.c.e.e.e.3.3.2.2.2.2.2.2.2.2.2.2.W Q W W W W W W W W W E I E P G H r r r 9 0 0 - - ; - = = $ $ $ ; e r r v r r w m g 7 7 2 7 3 2 7 9 e g e 0 7 = % # # : 1 O # X   # + + a y 4 # # # : + X X +     + X X       X                                 X     X   X X   X +     + O 1 # 6 % + # O < > : : @ : > > > : > > : @ @ @ @ @ : # : : , + X # + + : O @ : : @ # > + @ # : > > > > > > > : > > @ @ : @ > > > @ : O O + # : : > > > > > # # # # + + + + # # # @ @ @ @ @ @ @ @ @ @ @ @ @ @ @ @ @ @ @ @ @ > @ @ @ O O O O O @   O X X X X X     . % . = = 3 . . o   . .   . o . . . $ o o $ % $ . . . o o . .   .   # o o   .   X = 2 2 * o . o . % % o 2 g = % - q q 3 2 1 1 = 3 2 = 2 1 2 1 1 5 f 1 2 2 2 5 3 3 8 8 8 3 5 3 g V g z 8 z f 8 8 f g 8 8 f 7 c K b x x b h h g q q 8 q q f f g g q q 8 8 8 8 8 q f q q q 8 8 f g q f h h h h g h h g g q q q q q q ",
"2 # X c x i.E.).!.).XX/././.OX,X,X1X1X1X,X1X1X2XeXrXyXyXyXaXaXaXaXuXuXaXaXaXfXfXfXfXaXaXsXsXsXfXaXsXsXsXsXsXdXdXfXfXsXsXsXhX7X7X>X:X:X:X$X$X}.].'.|.N.|.|.m.m.m.v.m.v.v.v.c.e.e.e.q.q.3.2.2.2.2.2.2.3.9.2.2.Q W Q W W W W W W W W E E R H G r r e 9 0 0 - - - - = = $ $ ; 0 e r t v v r 9 v w 7 7 3 8 7 7 9 9 9 9 e 0 ; 7 2   2 % % % . =   $ = o h 5 * = # * + + X   X X         1 A %.J.I.^.(.(.(.wXwXwXwXwXwXwXwX(.(.^.I.=.%._ 2   X X       X X   # X # # % = 2 1 2 2 = 2 = = 2 2 2 % % - 2 - = = - 2 - - 2 o = ; 3 3 = 2 5 < : @ : < @ @ : + # O O @ @ @ @ # # O > : : > > > @ @ @ O : O + . + @ @ @ @ + X . . + + + + + + # + + + + + + + + + + + + # # # # + + O O + + # # # # + + + + # , : # = o . o - # = % o . o = 2 7 o % .     .   . o . o . o o o - % $ . . . o o . #     . = 2 % . o . . # 2 3 = . . o o $ % % 3 8 - = 2 g w 3 = 2 2 1 3 3 1 2 2 2 1 1 3 q 2 3 1 3 8 5 5 8 8 q 8 g g h c z f 8 f q 8 8 8 8 5 5 5 q g b b C Z m x h g 8 q 8 q q f g g q q q q q f 8 8 q f 8 8 q 8 q g g g g h h h h c h g q g g g 8 q q q ",
"2 = . 8 K *.!.!.!.).XX/././.,X,X,X1X1X1X1X1X2XeXwXrXyXyXuXaXaXaXyXuXuXaXaXaXfXfXsXaXaXaXsXaXaXaXaXsXsXsXsXsXsXdXsXsXsXsXsXiXiX4X7X7X4X7X4X4X:X:X$X}.}.}.}.].N.N.m.m.v.m.m.v.e.f.r.q.r.3.3.3.2.2.2.2.q.3.9.2.2.,.Q ,.W W W W W W W E E E H G e t e 9 9 0 7 - - - ; ; ; - - 0 e r r r r r 9 r 9 7 2 2 9 7 7 9 7 9 7 r o.@.@. .L #.O. .@.5.$.R { { J U m c q 2 3 # + #   2 } P.wXpXHXKXJXJXJXJXJXJXJXJXJXJXJXJXJXJXJXJXJXJXJXJXJXJXJXJXKXfXwX^.=.A X X X 1 % 5 q f l Z ' { O.@.*.5.u.u.7.5.p.p.p.y.u.u.u.u.u.u.u.u.y.p.d.d.u.i.=.O.* : : @ @ @ O # , 2 2 2 2 2 3 7 8 7 % # # # , 4 2 2 3 3 1 O # O X . # @ O X . # 3 5 8 q q q q q 8 q 8 8 8 8 8 3 5 5 5 5 8 8 8 8 8 8 5 3 3 5 8 8 8 q q q q g c b Z ' { ..$.@.*.*.7.} % . o = :.=.[ 2   . %   . o . . o o o o o % 7 % . . . . o #   o   o 3 7 3 = o o . . o 2 3 % o . o o o % = q 2 2 3 2 g w 2 % 2 1 1 2 2 2 2 2 1 1 1 2 5 3 3 1 3 5 3 5 8 8 f g h c c g f 8 8 8 7 8 8 5 5 5 5 5 q 8 g c C U c x h g 8 q 8 f q f g q q q f f f f f f f f 8 8 q q f g z g g h h h g c c g g g g q q w h h ",
"2 # # % J *.!.).!./.XX/./.OX1X1X<X1X<X<X1X1X2XeXwXrXyXyXuXaXaXaXaXuXuXiXuXaXaXaXfXaXaXaXaXaXaXaXaXsXsXsXsXsXsXsXfXfXfXdXsXaXiXiXiXiXiXhXjXhXhXiX4X4X4X3X>X$X'.].|.N.m.N.m.m.f.e.r.r.q.3.3.3.3.2.3.2.q.3.3.9.2.2.Q ,.W W W W W W W E P P G r r r 9 9 9 7 7 7 - - ; ; - - 0 9 r r r r r r 9 r 9 - 2 2 7 2 2 9 7 9 0 m j.k.k.j.6.y.1.6.d.6.y.X.$.{ T m x q = 2 + = %.(.CXKXJXJXJXJXJXJXJXJXJXJXJXJXJXJXJXJXJXJXJXJXJXJXJXJXJXJXJXJXJXJXJXJXJXJXJXKXHXpXP.` # . 2 8 g b U { $.1.y.j.k.W.`.{.}.}.'.'.'.'.'.'.'.'.'.'.`.'.[.[.!.XXK.T # * : @ : # + . 9 x C n n H { o.#.+.R r e 7 g Z ] ] U b f 2 = # . # # .     # = - 2 2 3 3 2 2 2 2 2 2 2 2 2 - 2 - - - - = - - 2 2 - = = = = - 2 = 2 2 2 2 3 q h m T ..@.y.y.U.T...2 2 = = b i.*.c %     .       . . . . o o o % 7 $ . o . . o . . . . 3 b 8 3 = $ $ o o o 2 3 % # . . o $ % 2 g 2 7 q 3 g 8 = 1 2 1 1 2 2 2 2 2 2 1 2 3 5 3 2 1 2 5 3 3 8 8 g h z b g q f q f 8 5 7 5 5 5 5 8 8 q 3 g c C K x x g q 8 q 8 g q q g q q q f f f f f 8 q q 8 8 q f g z h h h c c h h c c h g h g q w g x x ",
"V V # Z m K.Q.!.)./.XX/./.OX1X1X1X<XwX2X2X2X2XeXrXrXuXuXuXaXaXaXaXuXeX2XtXuXaXaXaXaXaXaXaXaXaXaXsXsXsXsXsXsXsXdXdXfXdXdXsXsXaXaXuXuXaXkXkXkXkXkXkXjXhXhX7X>X-X$X}.}.].m.m.v.c.e.e.e.r.3.3.3.3.3.2.2.q.q.3.3.2.,.,.,.W W W W W W E E P P G G r r t e 9 7 7 - - - ; ; 0 7 9 9 t r r r r r e v 9 - 7 3 7 2 7 9 7 9 9 v Y.`.z.l.2.k.l.y.y.o.o.E R H w 7 = o % -.wXKXJXJXJXJXJXJXJXJXKXJXJXJXJXJXJXJXJXJXJXJXJXJXJXJXJXJXJXJXJXJXJXJXJXJXJXJXJXJXJXJXJXJXJXJXAX<X%.. = = w m H R o.y.l.z.m.`.|.'.].#X#X].].].'.'.'.'.].'.`.{.!.5.H $ . # : : # o - w r H H H H W <.l.j.k.y.o.X.$.*.u.*.$.{ U h 3 * * + X     X X . . . . + + . . . . . . . . . . . . . . .   . . . . . . . . . . . . . . . . . . # % 7 m T  .1.a.5.[ 7 & $ % 3 *.O.x % . % . .   . . .       o o o % - . . . . . o   o o $ w b 3 3 2 $ $ $ $ $ - 3 $ % o o % % = 2 8 = 8 g q g 7 = 2 3 2 2 2 2 2 2 2 2 1 2 5 5 5 2 2 2 5 3 5 8 8 q g q c q q 8 z z f 8 8 8 8 8 5 8 q q 8 h h c K h x g q 8 q q g q f q q q q f f f 8 8 8 8 q 8 q g g g g z h c c c c b h g g g g g g w g x x ",
"b f   g b u.!.!.)./.XX/./.OX1X1XwXwXwXeX2X2XeXeXrXyXuXuXuXaXaXaXaXuX2X2XeXiXaXaXaXaXaXaXaXaXaXaXsXsXsXsXsXsXsXdXdXdXdXdXdXsXsXsXsXsXkXkXkXkXkXkXsXsXsXjXcXhX4X4X4X5X5X`.m.c.c.f.e.e.q.q.3.3.3.3.2.2.3.q.3.2.2.,.>.,.W W W W W W E E P P G G r r r e e 9 7 7 - - - 0 9 e e t r r r r H v e r 9 7 7 7 9 9 9 7 3 3 - r g.W.`.k.l.l.y.y.<.o.R H w 7 - % C ^.AXJXJXJXJXJXJXJXJXJXJXJXJXJXJXJXJXJXJXJXJXJXJXJXJXJXJXKXJXJXJXJXJXJXJXJXJXJXJXJXJXJXJXJXJXJXJXJXJXJXJXAX^.z # = 7 m E  .2.y.k.`.].].#X].].].].M.N.M.M.M.N.'.'.W.@.r . $ # : : + % w Y O.o. .R E R @.y.k.'.}.'.W.W.~.~.~.T.d.&.R b 5 (.JXJXJXJXJXJXJXJXJXJXJXJXJXJXJXJXJXJXJXJXJXJXJXJXJXJXJXJXJXJXJXJXJXJXJXJXJXJXJXJXJXJXJXJXJXJXJXJXJXJX^.n ] ....v & + % o w &.} q ; 2 o .           .       o o $ $ & . . . . o o   . $ 7 v v 7 3 - $ $ $ % % % 2 $ % $ % - 2 - 2 % % 2 g w g 2 = 5 5 2 3 2 1 2 2 3 2 1 3 q 8 5 2 3 3 5 5 8 8 3 3 5 8 h 8 f 8 z f f 8 8 5 8 8 8 8 f 8 8 g g h Z c h g q 8 q q g q f q q q q f f q 8 8 8 q f 8 q g g g f g z h c c c b h g h h g q g h x v n ",
"b * z   J i.Q./.)./.XX/./.OX<X<XeXeXeXeXeXeXeXeXrXyXuXuXuXaXaXaXaXuX2X3X2XuXaXaXaXaXfXaXaXaXaXaXsXsXsXsXsXaXsXdXkXkXkXdXkXkXkXsXsXkXkXkXkXkXkXkXsXdXsXsXsXsXaXaXhXhX7X}.m.c.c.f.e.e.q.q.3.3.3.3.2.2.2.q.2.2.2.,.2.,.W W W W W W E E P P H G G r r e e 9 7 0 - - - 7 e e e r r r v r H v 9 r 9 7 7 3 9 9 9 7 2 3 w r y.W.R.g.Y.a.5.$.O.T x 8 = = l (.KXJXJXJXJXJXJXJXJXJXJXJXJXKXJXJXJXJXJXJXJXJXJXJXJXJXJXJXJXJXKXJXJXJXJXJXJXJXJXJXJXJXJXJXJXJXJXJXJXJXJXJXJXJXJXKX(.V 1 3 9 H R $.y.j.k.W.'.'.].].].].'.'.'.'.'.'.k.X.7 . : # > : # 1 C &.K.U.p.5.@.@.5.d.Y.W.W.{.{.{. X.X.X/.Q.i.O.U g 1 CXJXJXJXJXJXJXJXJXJXJXJXJXJXJXJXJXJXJXJXJXJXJXJXJXJXJXJXJXJXJXJXJXJXJXJXJXJXJXJXJXJXJXJXJXJXJXJXJXJXJXQ.8 c q 2 .   # X b &.{ ; $ = = = %   . $ o . .   .   o . o o . . . . . . .   . = w n w 7 - ; & $ $ % % % % $ % % = 2 2 2 2 % % = 8 8 8 2 2 5 5 2 3 1 # 2 2 3 3 2 3 q 5 q 2 3 3 f q q 8 3 8 8 g g f g 8 f 8 8 8 8 8 8 8 f f f 8 8 g q h b c g g q 8 q f g q f q q q q f g f f 8 f g z q f z z z g g h c c c c h g h b c g q g h x m H ",
"# . 5 o T Q.!./.!.).XX/./.OX1X<XeXeXeXeXeXeXeXrXrXyXuXuXuXaXaXaXaXuX2X2X2XiXuXpXaXaXaXaXaXaXaXaXaXsXsXsXaXaXsXsXkXkXkXkXkXkXsXsXsXsXaXsXsXsXkXkXkXvXsXsXsXsXsXkXjXhX7X-X`.c.f.f.f.f.r.q.q.3.q.3.2.2.2.q.3.3.2.,.2.Q W W W W W E E E P P H G G r r e 9 9 9 7 - 7 7 9 w r r r r G H r m r 9 v 9 7 7 3 9 9 9 7 2 5 3 e E P E L ] n r x 7 = -   + P.JXJXJXJXJXKXJXJXJXJXJXJXJXKXKXJXJXJXJXJXJXJXJXJXJXJXJXJXJXJXJXJXJXJXJXJXJXJXJXJXJXJXJXJXJXJXJXJXJXJXJXJXJXJXJXJXJXJXJXJX^.3 = 7 v ] O. .E W y.{.}.}.}.}.'.}.{.'.'.j.E ; . @ > > > : : 2 g n T T H m m m H T T E E E E E R R R T J b q 3   ' JXJXJXJXJXJXJXJXJXJXJXJXJXJXJXJXJXJXJXJXJXJXJXJXJXJXJXJXJXJXJXJXJXJXJXJXJXJXJXJXJXJXJXJXJXJXJXJXJXJXJXP.# + .   > O @ B ;.U $ o . 3 8 % . o % % . .     .   . . o . . . . . o . . . . ; x C e 3 ; - $ $ $ % - $ $ $ % - - 2 2 2 8 = = = 3 - - = 2 5 3 2 3 1 # 2 2 3 5 5 5 5 5 f 2 2 3 f z g q q g g c g h g 8 f 8 8 q f f 8 8 f f 8 8 g h q h c c h g q 8 f q f q f q q q q f g z z g z h h g g h h c h h b V b b b h h c b h g g h c c n J ",
"# D 2 :.{ Q.)././.XXXX/./..X2X<XeXeXeXeXeXtXeXeXeXrXuXaXaXpXpXpXuXiX4X:X:X4XiXuXaXaXaXaXaXaXaXaXaXsXdXsXaXaXsXdXdXdXdXdXdXsXsXsXsXsXsXsXsXdXdXdXkXvXvXcXsXsXsXsXdXkXhX:X|.m.f.e.e.f.e.q.3.3.3.3.3.3.2.q.q.q.2.2.2.W W W W W W E E E P P H G r r r r 9 9 9 9 0 0 e r r r r r H H L H v r w v 9 7 9 - 9 9 - 7 3 3 3 3 - $ - = 2 1 % o .   X ` dXJXJXJXJXJXJXJXJXJXJXJXJXJXJXJXJXJXJXJXJXJXJXJXJXJXJXJXJXJXJXJXJXJXJXJXJXJXJXJXJXJXJXJXJXJXJXJXJXJXJXJXJXJXJXJXJXJXJXJXJXKXJXAX%.# 2 h z = 3 ..W.W.}.}.].].|.'.'.[.a.H $ # > > > > @ : > > @ @ # * @ @ @ O O # . X X o # + + , . $ # X     X ^.JXJXJXJXJXJXJXJXJXJXJXJXJXJXJXJXJXJXJXJXJXJXJXJXJXJXJXJXJXJXJXJXJXJXJXJXJXJXJXJXJXJXJXJXJXJXJXJXJXJXKXP.X   +     # m { q o o o   - 3 % o o o % .     . .     .   . . . . . .   . . . = x w w % $ % % = % % = % o o % 2 2 2 - 3 2 = = 2 7 7 2 2 3 7 5 2 2 1 = 2 2 3 q 3 8 8 8 5 2 2 5 g x w w x n C g g h h 8 8 q g f z q 8 q q f f 5 z z 8 c n x h g q q q q f f f z f q g g q f g g g g g g g h x c h C Z Z Z n m c c b b c c c h x v m n ",
"  ' ` } U E.Q./.E./.XXXXXX.X1X<XeXeXeXeXeXeXtXrXeXrXyXaXaXaXaXpXuXuX4X:X:X4XiXuXaXaXaXaXaXaXaXfXaXsXdXsXaXaXsXsXdXdXdXdXdXsXsXsXsXsXsXsXsXkXkXkXvXkXdXvXvXvXsXaXsXuXhX5X}.m.c.f.e.e.e.r.3.3.3.3.3.3.3.q.q.q.2.2.2.Q W W W W W W E E P P H H r r r r e 9 9 9 0 0 e e r r r r H H v r r e 9 v e 9 9 - 9 7 - 3 ; ; ; ; 0 ; ; - - = % .   X -.KXJXJXJXJXJXJXJXJXJXJXJXJXJXJXJXJXJXJXJXJXJXJXJXJXJXJXJXJXJXJXJXJXJXJXJXJXJXJXJXJXJXJXJXJXJXJXJXJXJXJXJXJXJXJXJXJXJXJXJXKXJXJXJXJXJX^.# . o = T 4.d.W.z.'.].].].'.W.1.v . # : : 4 O @ # : # # : : : # @ + + + + + + + # + + + + : > O   #       dXJXJXJXJXJXJXJXJXJXJXJXJXJXJXJXJXJXJXJXJXJXJXJXJXJXJXJXJXJXJXJXJXJXJXJXJXJXJXJXJXJXJXJXJXJXJXJXJXJXJXJXJ.    + + % K J 8   o   $ $ = 2 o o o o $ . .   . .   . .   .     . o o . . . . 3 x r e = $ % % % % % = % o % % 2 = - - 3 = = = 2 8 7 3 2 3 3 3 2 2 2 = 2 2 5 q 5 8 q 8 8 2 2 5 z c x x n J n q g h z 8 q g f g z f q q 8 q q f z f q c C x g g q q q q q q q f f f g g f z h h h g g h x x v b c C K J C n n b n C b c b b h g x c m ",
", 1 f = g i.).).Q./.XX.XXX.X<XeXeXeXeXeXeXeXrXyXyXeXyXiXuXaXaXpXaXiXtX3X3X4XiXuXaXaXaXaXaXaXaXfXaXsXsXsXaXaXsXsXdXdXdXdXdXsXsXsXkXkXkXkXkXkXkXkXkXkXkXkXkXvXkXsXhX4X7X8X}.m.c.f.e.e.f.r.q.3.3.q.q.3.3.3.q.q.2.2.,.,.Q W W W W W E E P P H H r r r r e e e 9 0 0 r e r e e r r r v v r e 9 m w 7 e - 7 0 ; ; ; ; ; ; ; ; $ ; = % .     J.JXJXJXJXJXJXJXJXJXJXJXJXJXJXJXJXJXJXJXJXJXJXJXJXJXJXJXJXJXJXJXJXJXJXJXJXJXJXJXJXJXJXJXJXJXJXJXJXJXJXJXJXJXJXJXJXJXJXJXJXKXJXJXJXJXKXJXKXwX= . 5 Y  .y.l.f.m.].`.'.W.o.e $ o : # O # + = , , & & $ & & & & & & & $ + + % % . . % .   < < X #   X A JXJXJXJXJXJXJXJXJXJXJXJXJXJXJXJXJXJXJXJXJXJXJXJXJXJXJXJXJXJXJXJXJXJXJXJXJXJXJXJXJXJXJXJXJXJXJXJXJXJXJXJXI.  +   # C _ 3 . . o   % o - = % % o . . . .   .   . . . . .     . % o o . . . - w w w 3 = $ % % % o % o o % = 2 % = 2 3 = # = 3 8 8 7 2 2 3 2 2 2 2 1 2 2 5 q 3 8 q 8 5 3 5 3 g b m m J J h q c g f f z h q q z g f f 8 q q z z q z b K h w h g q q f q f z z l h h h h x h h h g h x b b b b n Z K K J n J J n n n n b m v v m n C ",
"  O z z 3 Q.!.!.!.XX)..XXXOX1XeXeXeXeXeXeXeXrXyXyXyXrXrXuXuXyXyXaXuXiX4X2X2XiXaXaXaXaXaXaXaXaXfXaXsXsXsXaXaXsXsXsXdXdXdXdXsXsXsXsXsXkXkXkXkXkXkXkXkXkXkXkXkXkXkX7X:X:X5X}.m.c.c.f.e.f.e.q.q.q.q.q.3.3.2.q.q.3.2.2.,.Q W W W W W E E P P G H G r r r t r e 0 0 t r r r e 9 r t e e r e e w L v 9 9 7 7 0 ; ; ; ; H R R R T H e ; 2   J.JXJXJXJXJXJXJXJXJXJXJXJXJXJXJXJXJXJXJXJXJXJXJXJXJXJXJXJXJXJXJXJXJXJXJXJXJXJXJXJXJXJXJXJXJXJXJXJXJXJXJXJXJXJXJXJXJXJXJXJXJXJXJXJXJXJXJXKXJXJXpX= 5 w T o.y.k.m.`.'.W. .9 .   : O @ 4 5 h n n L L P P P L L P T R R R R R {  . . . ...O.} l : X     P.JXJXJXJXJXJXJXJXJXJXJXJXJXJXJXJXJXJXJXJXJXJXJXJXJXJXJXJXJXJXJXJXJXJXJXJXJXJXJXJXJXJXJXJXJXJXJXJXJXJXJXJXJ.  X 2 Z C 2   o o . o 2 . = 3 = % .   . . .   .   . o o . . . . . o o . . . o - q w x 8 3 % $ $ $ o % % % = = 2 % % - 2 # # 2 3 8 8 7 2 2 2 1 1 2 2 1 2 2 3 8 3 8 8 5 3 5 q 5 q m J n J J q g b g f z z h q 8 z z z z 8 q f z z q c b K g g g q q g g w g c b b c c x x b b x h h c n C J C m J J n J T J J L H H J J n n n b b n n ",
"# + z f q J.).Q.Q./.!.XXXXOX<XeXeXeXeXeXeXrXyXyXyXyXtXeXeXeXyXyXpXaXiXiXiXiXiXuXaXaXaXpXaXuXaXaXaXsXsXsXaXaXsXsXsXsXsXsXdXsXsXsXkXkXsXkXkXkXkXkXjXjXkXkXkXjXhXhX5X}.'.].|.m.m.c.c.e.e.e.r.q.q.r.q.q.3.2.3.q.q.2.2.>.Q W W W W W W E E P t G G r G r r r e 0 e r r r r r 9 r 0 t 9 t e e e H r 7 7 7 7 3 ; ; ; 0 u.!.E.U.5...n 7 % ` JXJXJXJXJXJXJXJXJXJXJXJXJXJXJXJXJXJXJXJXJXJXJXJXJXJXJXJXJXJXJXJXJXJXJXJXJXJXJXJXJXJXJXJXJXJXJXJXJXJXJXJXJXJXJXJXJXJXJXJXJXJXJXKXKXJXKXJXJXJXJXJXwX. 2 m R <.y.z.`.Y. .- + : : @ > 4 V ` } 7.s.T.Y.Y.Y.Y.Y.U.j.j.Y.W.W.W.~.~.~.{.{.{.*X).u.T #       dXKXJXJXJXJXJXJXJXJXJXJXJXJXJXJXJXJXJXJXJXJXJXJXJXJXJXJXJXJXJXJXJXJXJXJXJXJXJXJXJXJXJXJXJXJXJXJXJXJXJXJXJXJ.  * l b 2   # .   o # % o = 3 = % .   o . .       . o o . . . . o o . . .   $ - 3 h w 3 = $ o o $ % % % = = % 2 # # = = . = = 3 8 8 2 = = = 1 1 2 2 2 3 2 6 3 2 8 5 5 2 5 8 f 8 c J n J C q g c 8 f h f z q 8 z h c h q q f h z q c b C g x w w h b b x x c b m m n n m n C m b b n J J J J J J J J L Y J J L H L L L L J H n b b c ",
": # # = . { Q.Q.!././.XXXXOX<XeXeXeXeXeXeXyXyXrXuXuXeX<X<XeXyXaXyXyXyXuXuXuXuXuXaXfXfXaXuXaXaXaXaXaXsXsXsXaXsXsXsXsXsXsXdXsXsXsXkXsXaXaXsXjXkXjXjXjXkXjXjXhX7X4X}.`.m.N.m.m.v.c.c.f.e.r.q.q.q.q.q.q.q.2.3.3.q.2.2.2.Q W W W W W W E I E G G G r G r r r 9 0 e r H r r 0 9 r r t t t r e 9 r 9 7 9 9 7 3 ; ; ; ; T  .{ R H x 7 . q SXJXJXJXJXJXJXJXJXJXJXJXJXJXJXJXJXJXJXJXJXJXJXJXJXJXJXJXJXJXJXJXJXJXJXJXJXJXJXJXJXJXJXJXJXJXJXJXJXJXJXJXJXJXJXJXJXJXJXJXJXJXJXJXJXJXJXJXJXJXJXJXJXJX^.. 7 m R <.d.y.T ; $ + > > > > y V V b Y R { R R R R E E R R R R R R R R E R R  . .m = o O X X A KXJXJXJXJXJXJXJXJXJXJXJXJXJXJXJXJXJXJXJXJXJXJXJXJXJXJXJXJXJXJXJXJXJXJXJXJXJXJXJXJXJXJXJXJXJXJXJXJXJXJXJXKXI.  3 q .   . X . . # o . % = - % o . . % o .   .   . o . . . . . o o . . . . $ 7 2 x - = o $ $ o % = = = = = % - % % = = o = = 3 8 8 3 2 - = 2 = 2 2 2 3 2 2 2 2 g 8 8 2 5 8 f 8 b J J J n q h h 8 g h z z g f h h c h q q f z z f b b C x c v v m C J n n n n n H L T J J J J J C J T J J J T J J Y Y Y J T L L L L L Y L H J n b c ",
"  O   X # &././.!./.XXXXXX.X<X<XeXeXeXeXeXrXyXyXuXuXtX2X2XeXyXyXyXyXyXaXaXaXaXaXaXaXaXaXaXaXaXaXaXaXsXsXsXsXsXsXaXsXsXsXdXsXsXsXkXaXaXaXuXaXhXjXkXjXjXjXhX7X:X}.|.N.m.N.m.m.v.c.c.c.f.r.r.r.q.r.q.q.q.2.2.q.q.2.2.2.,.Q W W W W W E I E G G G G G r r r 0 9 r r T H r r r H r e e 0 e 9 9 9 9 e 8 9 7 3 ; ; ; ; ; ; & ; . .   + ^.JXJXJXJXJXJXJXJXJXJXJXJXJXJXJXJXJXJXJXJXJXJXJXJXJXJXJXJXJXJXJXJXJXJXJXJXJXJXJXJXJXJXJXJXJXJXJXJXJXJXJXJXJXJXJXJXJXJXJXJXJXJXJXJXKXJXJXJXJXJXJXJXJXJXJX-.= e H  .O.m ; $ + : > : :   : , X o # $ = o o # o # # + # # # $ $ $ $ $ & & & % % . # X     P.JXJXKXJXJXJXJXJXJXJXJXJXJXJXJXJXJXJXJXJXJXJXJXJXJXJXJXJXJXJXJXJXJXJXJXJXJXJXJXJXJXJXJXJXJXJXJXJXJXJXJXJXJXJ.+ # X .   .   +   . % % o $ = o o . . % o . . . . . . .   . . . o o . . o o % 8 3 q = = = % $ # % 2 2 - = % = = o % # = # = = 3 8 8 7 3 2 = 1 = 2 2 2 6 2 2 2 3 h q q 3 8 8 8 q m T J H b q h g g z h h h g z z g z h q f z z f g c b C c b n n n n H J J J L L L Y R Y L J J J T T T J J J Y J T Y Y T L Y R T L L L L L H n m m b ",
"O   + X o &.K.L.Q.!.!.XXXXOX<X<XeXeXyXeXeXeXyXyXrXyXtXeXeXyXyXyXyXyXpXpXaXaXaXaXaXaXaXaXaXaXaXaXaXaXsXsXsXsXsXsXaXsXdXdXdXsXsXsXsXaXuXuXuXiXiXhXaXhXjXhXhX:X}.'.].|.N.m.v.v.v.c.c.c.f.r.r.r.q.r.q.q.3.2.2.q.q.2.2.2.,.,.W W W W W W I I P G G G G r r r e r r G G G r G H v r 0 r 0 9 9 e 9 0 9 9 e 7 3 3 = ; ; ; & ; $ $ . X ~ JXKXJXJXJXJXJXJXJXJXJXJXJXJXJXJXJXJXJXJXJXJXJXJXJXJXJXJXJXJXJXJXJXJXJXJXJXJXJXJXJXJXJXJXJXJXJXJXJXJXJXJXJXJXJXJXJXJXJXJXJXJXJXJXJXJXKXJXJXJXKXJXJXJXJXJXKXf 2 w m 7 $ % % # # > @ @ : @ + # + . > : > < i > > > > > > > : , : + > > : : # %   X       dXJXJXJXJXJXJXJXJXJXJXJXJXJXJXJXJXJXJXJXJXJXJXJXJXJXJXJXJXJXJXJXJXJXJXJXJXJXJXJXJXJXJXJXJXJXJXJXJXJXJXJXJXJXI.    X   .   .   . . o o o % 2 % o . . % o   . .   . .     . . . o o . o % % . = = o = o 3 % % # % 2 2 2 = o - = $ = # % # = = 2 8 8 8 8 3 = = = 2 2 2 6 2 6 3 5 c 8 8 5 g q f g m J n n b g x g g z g h h g f f 8 f f 8 f z l f g c C C n C J J J J L T Y Y Y Y Y R ] ] R Y T T Y Y T T L Y T L Y T J T Y Y  .T L Y Y L L L H n n n ",
"  # O   . Y u.L.Q.Q.XXXX/.OX1X<X<XeXyXeXeXrXyXeXiXrX<XrXaXyXyXyXpXpXpXyXyXaXaXaXaXaXaXaXaXaXaXaXaXaXaXsXfXfXfXsXsXsXfXfXsXsXsXkXsXaXuXiXiXiXiXiXhXhXhXiX4X$X].].|.N.m.N.N.v.c.v.c.c.f.f.r.q.q.q.q.q.3.2.2.2.q.2.2.,.,.,.W W W W W W E P P G G G G r r r r r G G G H r r r r r e e 0 0 e 9 9 9 - v 9 7 e ; 2 - = % = o . #     wXJXJXJXJXJXJXJXJXJXJXJXJXJXJXJXJXJXJXJXJXJXJXJXJXJXJXJXJXJXJXJXJXJXJXJXJXJXJXJXJXJXJXJXJXJXJXJXJXJXJXJXJXJXJXJXJXJXJXJXJXJXJXJXJXJXJXJXJXJXJXJXJXJXJXJXKXJXwX+ 1 % + O # : O # o + # # @ + @ # : : : > > > > > > > > @ > > > @ @ @ @ @ @ > > @ @ X   V JXJXJXJXJXJXJXJXJXJXJXJXJXJXJXJXJXJXJXJXJXJXJXJXJXJXJXJXJXJXJXJXJXJXJXJXJXJXJXJXJXJXJXJXJXJXJXJXJXJXJXJXJXJXJ.    X + X X X X O . o o % % 3 = . . . . $ . o .   . .     . o o . . . o 3 = = o % o o o 2 2 % % % 2 2 2 o = 2 = % = # # = = 2 5 8 g q g 2 % % 2 2 2 5 5 2 3 3 5 c q q 3 8 f q q b J n n x g c g x h q z g f g f f f q 8 f l z g h h C J m C J T Y Y Y Y L L T Y R R R R R R T T T T T T ] L J Y L J T T L Y Y Y Y L J L K K C n n b ",
"    O   % g ).Q.OXQ.2X/././.,X1X<XeXeXtXeXyXiXiXtXeX<XeXuXyXyXyXpXpXpXpXyXuXaXaXaXaXaXaXaXaXaXaXaXaXaXaXaXaXsXsXaXsXfXfXsXsXsXkXjXiXiXiX4X4X4X4X7X4X4X4X:X$X].M.|.N.N.N.N.m.v.c.c.c.f.f.r.q.q.r.q.q.3.2.2.2.q.3.>.>.,.>.,.W W W W W E I P P G H G t r G 9 t G P H G r t r r r r e 9 0 9 9 9 9 9 r 7 7 9 % - - = % % % #     _ JXJXJXJXJXJXJXJXJXJXJXJXJXJXJXJXJXJXJXJXJXJXJXJXJXJXJXJXJXJXJXJXJXJXJXJXJXJXJXJXJXJXJXJXJXJXJXJXJXJXJXJXJXJXJXJXJXJXJXJXJXJXJXJXJXJXJXJXJXJXJXJXJXKXJXJXJXJXJX=.    + + # : O # . + # # @ + @ @ : : : # : # # # # # @ @ @ # # @ + @ @ > @ > : @ +   + P.JXKXJXJXJXJXJXJXJXJXJXJXJXJXJXJXJXJXJXJXJXJXJXJXJXJXJXJXJXJXJXJXJXJXJXJXJXJXJXJXJXJXJXJXJXJXJXJXJXJXJXJXJXJXJ.    X + X X X X O . o $ $ $ - % . . . o $ . .   . . . .   . . . . o . % 2 2 = o o . o % 2 = % % % 2 3 2 o = - = = = # # = = 2 8 g w 8 g 3 2 2 3 5 f g q 8 3 3 q h 8 w 8 q q z q n J J m v g c g c g z f f p g g g g q 8 f h z z h c C C c C T ] [ ] ] R T L T R R R R R R R T T H T Y Y ] L L Y J J L L J Y Y Y T J J J J K n n n b ",
"O O   # 2 J.E././.E.XXOX/.2X,XeX1X<XeXeXtXtXiXiXeX1X<XeXyXyXpXyXpXpXpXpXpXpXuXaXpXpXaXaXaXaXaXaXaXaXaXaXaXaXsXsXaXaXfXfXdXsXkXkXhXiX4X4X4X>X>X>X>X:X:X$X$X].].M.N.N.m.m.m.m.v.c.c.c.f.f.r.q.r.e.e.e.3.2.2.2.q.q.2.2.>.2.>.Q W W W W W E P P P G G P G r r t t G G G G t r r r r r t e 9 e e e e 9 7 7 7 % % = = % % # X   X (.KXJXJXJXJXJXJXJXJXJXJXJXJXJXJXJXJXJXJXJXJXJXJXJXJXJXJXJXJXJXJXJXJXJXJXJXJXJXJXJXJXJXJXJXJXJXJXJXJXJXJXJXJXJXJXJXJXJXJXJXJXJXJXJXJXJXJXJXJXJXJXJXJXJXJXJXKXJXJXCX+ X   + : + # + + + # @ @ @ @ # > # # # # # + # # # # + + # # @ @ @ @ # > # # + X X   fXJXJXJXKXJXJXJXJXJXJXJXJXJXJXJXJXJXJXJXJXJXJXJXJXJXJXJXJXJXJXJXJXJXJXJXJXJXJXJXJXJXJXJXJXJXJXJXJXJXJXJXJXJXJXJ.    X + X X X X . . o % % % = = o o o $ % # . . o $ o . . o o . . o . = = 3 2 % . o $ = - % % % = 2 2 2 % 2 = = = = * # = = 2 w h w 8 q 2 2 3 8 8 g g 8 8 2 7 g x w w 7 g g g q C J J n x e b g c f h f z p z g z z q 8 g c g h c C C b c b T ] ] ] { { R R R R  .W W R R R T T T T T Y Y L Y Y J J J J J L L T T J J J J J n n n b ",
"  O   3 2 %.).Q./.P././.OX/.,X2X<X2XeXeXeXeXeXiXiX1X<XyXyXyXaXyXpXpXpXpXpXpXaXaXpXaXaXaXaXaXaXaXaXaXaXaXaXaXsXsXaXaXfXsXsXsXaXaXhX4X4X>X>X>X>X>X:X$X$X}.].].].M.M.M.N.m.m.m.m.v.f.c.f.e.q.q.e.e.e.f.q.3.2.2.3.q.2.2.2.>.2.,.Q 2.2.Q W W P P P G G G r G t W g.o.E P G r r G H v r r t 9 e e e e 9 7 - - - - - - = o % #   + KXJXJXJXJXJXJXJXJXJXJXJXJXJXJXJXJXJXJXJXJXJXJXJXJXJXJXJXJXJXJXJXJXJXJXJXJXJXJXJXJXJXJXJXJXJXJXJXJXJXJXJXJXJXJXJXJXJXJXJXJXJXJXJXJXJXJXJXJXJXJXJXJXJXJXJXJXJXKXJXJX=.O X O # O : O # # # @ @ @ @ # # # # # # # + # # # # # # # # # # # # # : # # O     V JXJXJXJXJXJXJXJXJXJXJXJXJXJXJXJXJXJXJXJXJXJXJXJXJXJXJXJXJXJXJXJXJXJXJXJXJXJXJXJXJXJXJXJXJXJXJXJXJXJXJXJXJXJXJXJ.    X + X X . . . . o % % % 2 = o o $ $ % = . . $ % o . . $ % o . o . 2 = 8 2 % . o o = % % # % = = = = = 3 = = = = * % = = 7 e w w 8 5 # 1 2 3 3 8 8 2 7 2 3 w x e e 7 g g w g C J n J x h b h z f z z z g z z h z q q g c h c c Z Z c b b C J Y R {  . . .X. . . .W R R E Y J T U J J J J J J J J J J J J J L L J J J J n n n b b ",
": : + 3 o h L.7.P.Q././.,X/.,X,X2X2X2X2X2XeXeXtXiX1XeXaXyXyXaXpXaXpXpXpXpXaXpXpXaXaXaXaXaXaXaXfXaXaXaXaXaXaXsXsXaXaXfXsXaXuXiXiXhX4X4X>X>X>X$X$X$X$X$X}.].].].N.].].M.N.m.m.m.m.f.c.f.f.r.q.r.q.r.e.r.3.3.2.3.q.2.2.>.>.>.>.2.2.2.2.o.W E P P P G G G t G o.y.6.W G P G G G G H G r r 0 e e 9 7 9 7 0 - - - - - - % . X   =.JXJXJXJXJXJXJXJXJXJXJXJXJXJXJXJXJXJXJXJXJXJXJXJXJXJXJXJXJXJXJXJXJXJXJXJXJXJXJXJXJXJXJXJXJXJXJXJXJXJXJXJXJXJXJXJXJXJXJXJXJXJXJXJXJXJXJXJXJXJXJXJXJXJXJXKXJXJXJXJXJXAX      + 2 # # + # # # @ @ # # # # : : : # # : : : : : > > > : : # # # : # + X     P.JXJXJXKXJXJXJXJXJXJXJXJXJXJXJXJXJXJXJXJXJXJXJXJXJXJXJXJXJXJXJXJXJXJXJXJXJXJXJXJXJXJXJXJXJXJXJXJXJXJXJXJXJXJXJXJ.    X + + . . . . o o % % % 2 % . o o . o = . . o o o o o % $ o . % o 2 % 3 % % . o . # o % # % - % % % = 3 2 = = * # = 2 2 0 7 q w 7 3 # f 5 2 7 x c g h g x n m x x w x w g w n T J J h x n b f f f j f j z z h z g g h c x c c Z Z c C b C J J R { { R  .X.X.X.X.X. .R R Y J J C J Z C K C n C J n n J J J J J J n n C m n m b b ",
":     X   U 7.Q.Q./.L.OX).1XOX3X2X1X1X2X2XeXtXyXyXeXyXaXpXpXpXaXaXaXpXpXpXaXaXaXaXaXaXaXaXaXaXaXaXaXaXaXaXaXsXsXsXsXsXaXuXiXiX4X7X4X>X>X>X$X$X$X$X%X$X#X].].].].].|.].N.m.v.m.v.v.v.f.f.e.q.r.q.r.r.q.q.3.3.3.q.2.2.>.>.>.2.2.2.2.2.2.o.W P P P G P G G P G E E W t E G W { P r H G r e e e e 7 9 7 - 7 - 2 - - 2 . #   X wXJXJXJXJXJXJXJXJXJXJXJXJXJXJXJXJXJXJXJXJXJXJXJXJXJXJXJXJXJXJXJXJXJXJXJXJXJXJXJXJXJXJXJXJXJXJXJXJXJXJXJXJXJXJXJXJXJXJXJXJXJXJXJXJXJXJXJXJXJXJXJXJXJXJXJXJXJXJXJXKXJXJX=.X +   # + : , # # # # # # # # # : : : > > : : : : : > > > > : : # # : # +     X dXKXJXJXJXJXJXJXJXJXJXJXJXJXJXJXJXJXJXJXJXJXJXJXJXJXJXJXJXJXJXJXJXJXJXJXJXJXJXJXJXJXJXJXJXJXJXJXJXJXJXJXJXJXJXJXJ.    X # + . o . . . o % % % 2 o . o $ . o = $ $ o o $ % % % o . . = = - % = . o . o o o o % % % = $ $ % 2 3 2 = = * # = 2 3 7 7 e q 2 = 2 C C q x K ] Y U ] } ..{ [ { [ ] U J w m C ] U h h n C f z p j j j z z z z g g h c x x c b C b C b n J J ]  .[ R  . . .X.+.o.X. .R Y J n C n n n J J C C n n J J J J J J J C C n m m b b b ",
"    X q   q E./.OX2XQ.L.L.2X1XXX1X1X,X3X2XeXtXyXyXrXpXpXpXaXyXaXaXaXpXpXyXyXaXaXaXaXaXaXaXaXaXaXaXaXaXaXaXaXsXsXsXfXsXaXiXiX4X4X>X>X>X>X>X$X$X$X$X$X#X#X].].].].].|.N.N.m.v.m.v.v.v.f.f.f.q.q.3.q.q.q.q.3.3.3.3.3.2.>.>.2.2.2.2.2.2.2.<.W I P E W G G G P G G X.P W 6.W  . .R R P H H r 9 r r 9 9 0 0 e - 2 - - % 2   .   AXJXJXJXJXJXJXJXJXJXJXJXJXJXJXJXJXJXJXJXJXJXJXJXJXJXJXJXJXJXJXJXJXJXJXJXJXJXJXJXJXJXJXJXJXJXJXJXJXJXJXJXJXJXJXJXJXJXJXJXJXJXJXJXJXJXJXJXJXJXJXJXJXJXJXJXJXJXJXKXJXKXJXgX  X X # , # @ # # # # # # # # # : : : # # # # # # # # > > > # : # # # > O X   l KXJXKXJXJXJXJXJXJXJXJXJXJXJXJXJXJXJXJXJXJXJXJXJXJXJXJXJXJXJXJXJXJXJXJXJXJXJXJXJXJXJXJXJXJXJXJXJXJXJXJXJXJXJXJXJXJ.    O # # # o . . . o $ % % 2 % . % $ $ - = % % o o % - - % o o % 2 - = = % . o o % = % # % = o % o % % 2 2 = = = * * - 3 8 q 7 7 3 2 2 3 _ ' Z Y ' Y ' ] { { { { ] Y Y ] { ..J J b K ' c x c C g z f z z j z z z f g h c c b c b b b C K K J L Y [  . . . . . . .X.+... .R T Y J m b c C K J K C n C J K K J J J J C C n b b b n b ",
"+ X # %.2 b K.E.OXQ./.E.).1X,X,X,X,X1X1X2XeXyXrXpXgXpXpXpXaXrXyXpXpXpXpXyXyXaXuXpXpXpXaXaXaXaXaXaXaXaXaXaXaXaXaXsXfXsXuXiX4X4X>X>X>X>X&X&X$X$X%X#X#X#X#X].].].].].|.N.N.m.v.m.v.m.c.f.f.f.r.q.q.r.q.q.q.3.3.3.3.3.2.>.>.2.3.3.2.2.2.2.2.W I P W g.t W t E W G l.W y.y.W X. . .R E T P r e r v e 9 0 7 r - - - - 2 . . X ` JXJXJXJXJXJXJXJXJXJXJXJXJXJXJXJXJXJXJXJXJXJXJXJXJXJXJXJXJXJXJXJXJXJXJXJXJXJXJXJXJXJXJXJXJXJXJXJXJXJXJXJXJXJXJXJXJXJXJXJXJXJXJXJXJXJXJXJXJXJXJXJXJXJXJXJXKXJXJXJXKXJXJXJXV   X + # # # # # # # # # # # # # # # # # # # @ @ @ # # # @ @ : > # # # O X   P.JXJXJXJXJXJXJXJXJXJXJXJXJXJXJXJXJXJXJXJXJXJXJXJXJXJXJXJXJXJXJXJXJXJXJXJXJXJXJXJXJXJXJXJXJXJXJXJXJXJXJXJXJXJXJXJXJ.  X O # # # o . . . o $ % % 2 % . o o % 3 2 % $ . . $ - ; $ o % - 3 2 = 3 - o o $ % 3 = % # = o % o % = 2 = = = = * * 2 5 8 w 3 2 - 3 8 8 ' ] ' ` C q b K ] { ..{ n - 0 n ..{ { } U C ' c g h b h z z z z j f f z f z l b b C b K C C K Y Y Y ] [ {  . .R R {  . . . . .] Y Y ] J x b n J n Z C n b J K K K J J J C C C V b b b n n ",
"1   + 5 3 *.).E.OXQ.).,X/.2X,X2X,X3X2X2X2XeXyXyXyXpXyXpXpXpXpXpXaXaXyXyXpXaXaXaXaXaXyXaXaXaXaXaXaXaXaXaXaXaXaXaXfXaXaXiX4X4X>X>X>X>X$X$X%X%X%X%X#X#X$X#X].].].].].|.N.N.N.m.m.m.m.v.f.f.e.e.q.q.r.r.q.q.3.3.3.3.2.2.>.2.2.3.2.2.2.2.2.2.W W I P X. .5.t P I P G P 1.$.X.o... .R R R R T H m v 9 e 9 9 w - - 7 - % #     P.JXJXJXJXJXJXJXJXJXJXJXJXJXJXJXJXJXJXJXJXJXJXJXJXJXJXJXJXJXJXJXJXJXJXJXJXJXJXKXJXJXKXJXJXJXJXJXJXJXJXJXJXJXJXJXJXJXJXJXJXJXJXJXJXJXJXJXJXJXJXJXJXJXJXJXJXJXJXJXJXJXJXJXJX^.  X + O + : # # # # # # # # # # : : > # > > > # # # # # # @ > : + + :       fXKXJXJXJXJXJXJXJXJXJXJXJXJXJXJXJXJXJXJXJXJXJXJXJXJXJXJXJXJXJXJXJXJXJXJXJXJXJXJXJXJXJXJXJXJXJXJXJXJXJXJXJXJXJXJXJXJ.  X X + # + . . . . o o % % 3 = . . = $ - = $ o . o . % = = % 2 2 2 2 3 8 3 = % % % 2 % = = % % % % o = 2 2 = = # % = % q 3 9 ; 7 h C Z V _ _ ` U 3 8 8 h b } { [ L v w v .... .#...] ..] w b g c 8 h g g z h g g h x v n J Y L Y n H H Y ]  . .......R ] { [ R T T T Y Y T ] [ J x m x b b C C C C C J J J Z Z C C n b b b b n n n ",
"    O   c OX).<XOX1X,X).,X*X2X2X2X2X2XeXeXyXuXpXpXpXpXpXaXaXpXpXyXyXpXpXyXaXaXaXaXaXuXpXpXaXaXuXaXaXaXaXaXfXaXaXaXuXiXiX4X>X>X>X>X%X$X%X%X$X%X%X#X#X$X].].].].].].'.N.|.N.m.m.m.m.c.f.f.e.r.q.r.e.r.r.q.3.3.3.3.3.3.>.2.3.3.2.2.>.2.2.2.2.W W G P  XX.G P P P ! G W o.W  .X. ...R R E L J ] C e e 9 9 r 7 - 7 = % . X X IXJXJXJXJXJXJXJXJXJXJXJXJXJXJXJXJXJXJXJXJXJXJXJXJXJXJXJXJXJXJXJXJXJXJXJXJXJXJXJXKX^.} f + V =.gXJXJXKXJXJXJXJXJXJXJXJXJXJXJXJXJXJXJXJXJXJXJXJXJXJXJXJXJXJXJXJXJXJXJXJXJXKXCX    # + 1   # # # # # # # # # # : > > # # > > # # # # # # # : > + + #   X l KXJXJXJXJXJXJXJXJXJXJXJXJXJXJXJXJXJXJXJXJXJXJXJXJXJXJXJXJXJXJXJXJXJXJXJXJXJXJXJXJXJXJXJXJXJXJXJXJXJXJXJXJXJXJXJXJXJ.    + + + + . . . . o o % % 8 = . . = = - = = o . $ o o $ % o 2 2 - 2 8 8 8 3 3 2 = 2 = 2 % = o o % = 2 2 % % = # % f g 8 g r w C ` U q 2 C | ' V q 5 3 q K { [  .{  .] Y  .....#.+. ...{ J { K K n J n x g g g x m J T ] {  . . .[ [ Y [ {  .......+. . .R R T L L J T T L T Y J x m x b b Z Z C C C C C J C C C C n b b b C C C C ",
"    O 3 { Q./.<X1XOX1X/.,X2X,X2X2X2X2XtXtXrXrXyXpXpXpXpXpXpXpXpXyXaXaXpXpXpXpXpXaXaXyXyXpXpXpXyXaXaXaXaXaXaXaXaXuXuXiX4X4X>X>X>X>X%X%X%X%X%X#X%X#X#X#X].].].].].].'.N.N.N.m.m.m.v.c.v.f.e.q.q.e.e.e.r.q.3.3.3.3.3.3.3.3.q.3.2.2.2.2.2.2.2.W <.G X..XG I I I E W ! P W 1.1.R ..R R E E T H Y T c e e r v 9 - 2 % o . X   PXJXJXJXJXJXJXJXJXJXJXJXJXJXJXJXJXJXJXJXJXJXJXJXJXJXJXJXJXJXJXJXJXJXJXJXJXKXKXdXV               P.KXJXJXJXJXJXJXJXJXJXJXJXJXJXJXJXJXJXJXJXJXJXJXJXJXJXJXJXJXJXJXJXJXJXJXJXJX5   + + O : # # # # # # # # # # : > > # # # # # # # # # # # : # # # X X X J.JXJXJXJXJXJXJXJXJXJXJXJXJXJXJXJXJXJXJXJXJXJXJXJXJXJXJXJXJXJXJXJXJXJXJXJXJXJXJXJXJXJXJXJXJXJXJXJXJXJXJXJXJXJXJXJXJXJ.  X + + # . . . . . o o % = 3 = . o - - = = 3 ; $ $ o . o $ o = - = = q 3 3 2 8 8 8 8 2 2 2 = = 2 2 2 = 2 8 c z l b A ' ' ] T U ` ` K g g ' ' K f 3 2 w m ] [ [ [ [  . . ...O.#.#.#....... ... . .{  . .] Y Y [ [ {  ...+.@.#.+.X.X.X.R  . . . .....#.O...R R L H H J J T T L T n v x m C Z J J Z C n n C C C C C n n b n b n n n n ",
"+   V ..7.Q.OX/.OXOXOX2X,X1X3X,X,X1X2XeXrXrXrXrXrXpXpXpXpXpXyXyXaXaXaXaXaXpXpXaXaXpXyXyXpXpXyXiXuXuXuXuXiXiXiXuXiXiX4X4X>X>X>X>X%X$X$X$X%X$X%X%X#X$X#X].#X}.].].].'.N.N.N.m.m.m.v.c.m.f.e.q.e.f.e.r.r.q.q.q.q.q.3.3.q.q.q.3.3.2.2.2.>.,.2.W 9.W.oXE P P W W E W E E W }.W.o.W R E E R P E  .{ m e r v v 9 - % % o .   + HXJXJXJXJXJXJXJXJXJXJXJXJXJXJXJXJXJXJXJXJXJXJXJXJXJXJXJXJXJXJXJXJXJXJXJXJXJXJXA   X       X X     (.KXJXJXJXJXJXJXJXJXJXJXJXJXJXJXJXJXJXJXJXJXJXJXJXJXJXJXJXJXJXJXJXJXJXJXJX=.  X O + : # # # # : # # # # # : : > # # # # # # # # # # # : : # #       fXJXJXJXJXJXJXJXJXJXJXJXJXJXJXJXJXJXJXJXJXJXJXJXJXJXJXJXJXJXJXJXJXJXJXJXJXJXJXJXJXJXJXJXJXJXJXJXJXJXJXJXJXJXJXJXJXJXJ.  X + + + . . . . . . o % = - - . $ = % $ 3 7 2 ; o o o $ o . % = = = q = - = 2 q h h 2 q b b c g h c b b C K U U ` _ U ' K ] [ [ ' U ' ' } ] ` C h h J Y [ ] {  . . . ... .+.#.@.@.+.X.X.+.+...O....... . .R  . . ...X.+.#.@.#.+.+.#. .X. . . .....#.+.X.R T L J J J J T T J J n n m C J J J Z Z C C C C C C Z C C C C C V C C V C ",
"  , %.=.L.L.!.1X/.OX1X1X2X,X2X3X<X<XeXiXiXrXrXrXyXyXpXpXpXyXyXuXaXaXpXaXpXpXpXpXpXyXyXyXpXaXuXiXiXiXiXiX4X4X4X4X4X4X4X4X>X>X>X>X%X$X$X$X%X$X%X#X$X$X].].#X$X].].].'.|.N.m.m.m.m.v.f.m.f.f.e.f.f.e.r.r.r.q.q.q.q.q.3.q.r.q.q.q.q.2.>.>.>.2.W W 9.I W I I I I I E P E W o.k.j.o.Q Q o.l.6.<.1. .v w w r r - % % % % .   A JXJXJXJXJXJXJXJXJXJXJXJXJXJXJXJXJXJXJXJXJXJXJXJXJXJXJXJXJXJXJXJXJXJXJXJXJXJX(.  X     X   X   X X 3 JXJXJXJXJXJXJXJXJXJXJXJXJXJXJXJXJXJXJXJXJXJXJXJXJXJXJXJXJXJXJXJXJXJXJXJXwXX X O # # # # # : # # # # # # : : : > # # # # # # # : > # # : + + +   l KXJXJXJXJXJXJXJXJXJXJXJXJXJXJXJXJXJXJXJXJXJXJXJXJXJXJXJXJXJXJXJXJXJXJXJXJXJXJXJXJXJXJXJXJXJXJXJXJXJXJXJXJXJXJXJXJXJXJ.  X + + # . . . . . . . o % 3 2 o % = = ; 3 7 - = o o o $ . o o % - = 8 o % % # = 8 8 o 8 C Z K K Z Z Z K U Z ' K K _ ] ' ] [ ] ] ] [ { ] ] [ { ] ] ] [ [ [ [  . ..... ... .+.#.@.+.+.X.X.+.+.+.+.+. . . . .{  . . .+.#.#.<.#.+.+.X.#.@.+.X. . .....+.$.+.R T L J J J J J J n J T T J C C C J Z Z C Z Z Z C C C C C C C C C C V V V ",
"# z K J.L.).L.OX1X)./.OX1X1X2X2X2XeXrXuXuXrXrXyXyXyXyXpXpXyXuXuXuXuXpXpXaXaXaXaXyXyXiXiXuXuXiXtX4X4X4X4X4X3X4X4X4X4X4X>X>X>X>X>X>X$X$X$X#X#X#X#X$X$X#X].$X$X].].].'.|.N.m.m.m.m.v.f.v.f.f.c.v.f.f.r.r.r.q.q.q.q.r.3.r.e.q.e.f.q.q.2.>.>.,.,.W I W W I I I I I W R.{.g.l.z.k.j.j.l.l.l.9.W W  .H r w 9 - % 7 - 2 % . X %.JXJXJXJXJXJXJXJXJXJXJXJXJXJXJXJXJXJXJXJXJXJXJXJXJXJXJXJXJXJXJXJXJXJXJXJXJXJX%.  +   + # . . 2 8 =   wXJXJXJXJXJXJXJXJXJXJXJXJXJXJXJXJXJXJXJXJXJXJXJXJXJXJXJXJXJXJXJXJXJXJXKXCX    O O # # # # # # # # # # # : : : > # # > # # > # : : # # : + O O   J.JXJXJXJXJXJXJXJXJXJXJXJXJXJXJXJXJXJXJXJXJXJXJXJXJXJXJXJXJXJXJXJXJXJXJXJXJXJXJXJXJXJXJXJXJXJXJXJXJXJXJXJXJXJXJXJXJXJXJ.  X + + # + + . . . . . # % 8 2 o $ - - = 2 3 $ o o o o o o o o % 2 2 3 . o o o # % = . = q b A K K K K Z C ' b h q c ' U ] [ [ [ [ [ [ ] [ ] ] [ [ { { {  . . .{ .. .{ ..+.#.#.@.+.+.+...+.#.#.+.#...+... . ... . .+.#.o.o.o.o.+.o.#.@.X. ... . . .+.$.$.{ Y T J J J J J J n J Y T J n n C J J Z Z Z J Z C C C C C C C C C V b b V ",
". q ' Q.E.OXQ./.OX).E.,X1X1XtX3XeXeXiXiXrXrXyXiXuXyXyXyXyXyXuXiXiXtXiXuXuXyXyXyXeXeX4XiXiXiX2X4X3X4X4X4X>X>X>X>X>X>X>X>X>X>X>X>X>X$X$X$X$X$X#X#X$X#X$X#X$X$X].].'.'.|.N.m.m.m.m.m.f.v.v.f.m.m.c.f.r.r.r.r.r.q.q.q.3.r.r.e.e.r.q.2.3.>.>.,.,.W W W I I I I W P W j.k.'.z.z.z.z.l.j.y.W W P  .X.x r r 9 - % 9 2 2 # . X J.KXJXJXJXJXJXJXJXJXJXJXJXJXJXJXJXJXJXJXJXJXJXJXJXJXJXJXJXJXJXJXJXJXJXJXJXJXJX3 X X X 1   % b ] c - # P.JXJXJXJXJXJXJXJXJXJXJXJXJXJXJXJXJXJXJXJXJXJXJXJXJXJXJXJXJXJXJXJXJXJXKXJX+     : # # # # # # # # # # # : : : # # # > # # > : : : : : : #     X pXJXJXJXJXJXJXJXJXJXJXJXJXJXJXJXJXJXJXJXJXJXJXJXJXJXJXJXJXJXJXJXJXJXJXJXJXJXJXJXJXJXJXJXJXJXJXJXJXJXJXJXJXJXJXJXJXJXJXJ.  X + + # # . . . . . . # = q 2 $ $ ; = ; ; $ o . o . . o o o % # % = = o o # = = % = % - 2 q c U ' K Z K ' K 8 q q V ] ' ] ' [ { { { { [ [ [ [ [ ] [ [  . .{  . ..... ...#.#.+.#.+.+.+...+.#.@.#.#.#.#.+...X.X...+.+.#.@.o.@.@.#.+.#.@.+..... . . .X.X.#. .R Y T J J J J J J J T J n n C J J J J Z K J Z C C C C C C Z Z C Z V V C ",
"  . C /.T.K.L./.)./.).OX2X2X1X2X2XeXeXrXrXrXiXiXiXyXyXyXyXyXiXiX2XtXiXiXiXyXtXeX2X2X2X4X4X4X3X3X4X4X4X4X:X>X>X>X>X>X>X>X>X>X>X;X>X$X$X$X%X$X%X#X$X$X$X$X$X$X].].'.|.|.N.m.m.m.m.m.v.v.m.c.N.N.v.f.r.r.r.r.r.r.3.3.r.f.r.f.r.q.q.3.2.>.,.,.,.,.W W ! ! I P G P E G ! 2.`.m.z.z.z.j.Q W ! E 1. .b e r w - & 7 2 2 %   X P.JXKXJXJXJXJXJXJXJXJXJXJXJXJXJXJXJXJXJXJXJXJXJXJXJXJXJXJXJXJXJXJXJXJXJXJXJXAXX   X X + 3 [ i.*.] w = %.JXJXJXJXJXJXJXJXJXJXJXJXJXJXJXJXJXJXJXJXJXJXJXJXJXJXJXJXJXJXJXJXJXJXJXKX` X O   # # # # # # # # # # # : : : # # # > > # > : : : : : # O O O z KXJXJXJXJXJXJXJXJXJXJXJXJXJXJXJXJXJXJXJXJXJXJXJXJXJXJXJXJXJXJXJXJXJXJXJXJXJXJXJXJXJXJXJXJXJXJXJXJXJXJXJXJXJXJXJXJXJXJXJ.  X O + # # . . . o o o % = 8 3 - ; ; ; ; $   o . o   o o . o % # o % % % o . % % o % % 3 7 3 2 q c C K U U Y b x c _ ' ' { ] ] [ } } ] ] ] [ ] [ [ [ [ {  . . . . . . ...@.@.+.X...O...+.+.+.#.#.@.@.@.@.#.#.+.+.#.+.+.+.o.<.@.X.+.#.+.#..... . . . . .#...] R Y T J J J J J H J n J T C J J J J J J J K Z Z Z C C Z Z Z C Z C b V ",
"  # h %.T.K..XQ.!.OXOXtXeX1XeXeXeXeXeXeXeXeXyXiXtXiXiXrXyXiXiX2X3X2X2XiX2X2X2X2X2X3X3X3X4X4X4X3X4X>X>X>X>X>X>X>X>X>X;X%X;X>X>X>X>X$X$X$X$X$X$X#X$X#X$X$X}.].].].|.'.'.|.N.m.m.m.m.m.m.m.v.m.v.m.r.e.r.r.e.r.q.q.r.r.f.e.r.q.e.q.3.2.>.>.,.>.,.,.,.W W E W <.! W W ! >.N.z.m.z.0.<.W W W E 5.R v e e r 0 0 9 2 - o .   (.JXJXJXJXJXJXJXJXJXJXJXJXJXJXJXJXJXJXJXJXJXJXJXJXJXJXJXJXJXJXJXJXJXJXJXJXJXdX    O . 7 } W.!.u.{ q . V JXJXJXJXJXJXJXJXJXJXJXJXJXJXJXJXJXJXJXJXJXJXJXJXJXJXJXJXJXJXJXJXJXJXJXJXJ.  X + + # # # # # # # # # : : > # : : # # # # # : : : # # # X     J.JXJXJXJXJXJXJXJXJXJXJXJXJXJXJXJXJXJXJXJXJXJXJXJXJXJXJXJXJXJXJXJXJXJXJXJXJXJXJXJXJXJXJXJXJXJXJXJXJXJXJXJXJXJXJXJXJXJXJXJ.    X . # # . . . . o . # 2 8 - - ; - = =   . . . . . . o . o # o o o o o o $ % % % % % 3 2 = 2 % 2 2 g x Y ' K C K ' ] ] K { ] { ] [ ] ] ] ] [ [ [ [ [  . . .{ {  . .[ ..@.#.O.+.#...X.+.<.#.#.#.&.@.@.&.#.X.+.X.#.X.#.@.+.@.@.#.+.#.+.+.+... . . . ...+... . .Y T J J J T J J J J J J J J J J J Z J K J Z Z C C Z Z Z Z C C n b b ",
"    ..K L.7.)././.OX/.2XeXeXtXtXeXyXeXeXeXeX<X<X2XuXuXuXiXtX2X3X*X3X3X4X2X2X3X3X>X>X>X>X>X>X>X>X>X>X>X>X>X>X>X>X>X>X;X%X;X>X>X>X>X>X$X$X$X$X$X%X$X$X$X$X].].].].|.].|.N.m.m.m.m.m.m.m.m.v.m.f.c.r.e.r.r.r.r.r.r.r.e.f.e.e.e.e.q.3.3.>.>.>.>.,.,.,.W W P :X`.! 2.2.>.f.N.N.z.z.0.Q Q Q W E 4.v v 0 e H e 9 - 9 - o .   wXJXJXJXJXJXJXJXJXJXJXJXJXJXJXJXJXJXJXJXJXJXJXJXJXJXJXJXJXJXJXJXJXJXJXJXJXJXwX  #   2 ..T.=XXXa.T 2     JXJXJXJXJXJXJXJXJXJXJXJXJXJXJXJXJXJXJXJXJXJXJXJXJXJXJXJXJXJXJXJXJXJXJXJX^.  X X # # # # # # # # # # # # : : # # # # # # : : : : # + + +   X pXJXKXJXJXJXJXJXJXJXJXJXJXJXJXJXJXJXJXJXJXJXJXJXJXJXJXJXJXJXJXJXJXJXJXJXJXJXJXJXJXJXJXJXJXJXJXJXJXJXJXJXJXJXJXJXJXJXJXJXJ.    + + # + # o o # # o # = 8 - 7 - ; - o X . . . . . . o o o o $ o o o o o 2 % o % = 2 8 2 = 2 2 2 - 2 - q x g b ] ' U Z 3 c ' ..{ [ { [ } [ [ [ Y ] [  . ... .{  . . .#.&.#.+.+.#.+.+.@.4.#.@.@.@.@.@.&.+.+.+.#.@.+.o.#.+.@.#.o.+.#.#.#.+.O... . .....O.O.O.O.Y J J J J T J J J J J J J J K K K J J K K Z Z Z C Z Z Z Z Z Z Z C b ",
"  . } ).!.K././.OXOX).<XeXeXeXyXeXiXeXeX2XeX,XOX3X2X2X3X3X*X*X-X-X*X3X3X3X:X:X:X;X;X;X;X>X>X>X>X>X>X>X>X>X>X>X>X>X>X;X%X;X;X>X;X>X$X$X$X$X$X$X$X}.$X$X$X}.].].].'.].'.N.m.m.m.m.m.v.m.m.v.v.f.f.e.e.e.r.r.r.r.r.r.e.e.e.f.e.r.r.q.3.3.3.3.,.,.,.,.,.E 9.6Xz.m.m.N.m.N.v.v.m.N.z.z.>.! ! ! 1.H m r 0 v w v 7 9 % o     wXJXJXJXJXJXJXJXJXJXJXJXJXJXJXJXJXJXJXJXJXJXJXJXJXJXJXJXJXJXJXJXJXJXJXJXJXJX(.    = Y h.=X4XXX*.3 .   O HXJXJXJXJXJXJXJXJXJXJXJXJXJXJXJXJXJXJXJXJXJXJXJXJXJXJXJXJXJXJXJXJXJXJXJXwX  X   # # # # # # # # # # # : : : : # > # : : : : : # # # +   X f KXJXJXJXJXJXJXJXJXJXJXJXJXJXJXJXJXJXJXJXJXJXJXJXJXJXJXJXJXJXJXJXJXJXJXJXJXJXJXJXJXJXJXJXJXJXJXJXJXJXJXJXJXJXJXJXJXJXJXJXJ.  X + + # + # # o # # o o = 7 - 7 - $ -   o . . . . . . o o . o $ $ o o o o 2 # o = % 2 7 = = = 2 2 2 2 2 7 = g 8 b } Z 3 8 g b K ..] [ [ { [ ] [ [  . ... ... . . . . .&.&.#.....+.#.#.<.<.@.8.@.@.@.&.&.+.#.+.#.@.@.@.o.<.@.o.X.o.@.@.#.+.O......... .........Y L L T J T T L J J J J J J K U U K J K K J Z C Z Z Z K Z Z Z Z Z b ",
"    # P.2X1X1X1X1X,XOXeXeXeXeXiXeXiXeXeXOXOX.X,X,X3X.X X X XoX-X-X-X>X>X:X;X;X;X;X;X;X;X>X>X>X>X>X>X>X>X>X>X>X>X>X>X;X;X%X;X$X;X$X$X$X$X$X$X$X$X}.$X$X$X}.].].].].].'.N.m.N.N.m.v.v.v.v.v.v.f.f.f.e.e.e.r.r.e.r.B.e.e.e.f.e.r.r.3.3.3.3.3.>.,.,.,.W l.8X].N.D.#XN.b.z.M.b.N.z.m.z.f.q.W G <.r x r 9 L v r 9 7 2 #     pXJXJXJXJXJXJXJXJXJXJXJXJXJXJXJXJXJXJXJXJXJXJXJXJXJXJXJXJXJXJXJXJXJXJXJXJXJX(.X o n #.Y.3X2XL.r . - 2 . HXJXJXJXJXJXJXJXJXJXJXJXJXJXJXJXJXJXJXJXJXJXJXJXJXJXJXJXJXJXJXJXJXJXJXJXpX      # : # # # # # # # : # : 1 1 : : : # : : : : > # # #   +   J.JXJXJXJXJXJXJXJXJXJXJXJXJXJXJXJXJXJXJXJXJXJXJXJXJXJXJXJXJXJXJXJXJXJXJXJXJXJXJXJXJXJXJXJXJXJXJXJXJXJXJXJXJXJXJXJXJXJXJXJXJ.  X + + # + # # . . # # % = 7 - 3 ; $ = . = . . o . . . o o . o $ $ o o $ % % # # = o 3 7 = 2 2 = = 2 2 7 8 q h 3 q Z q - g x w g } [ [ K J { [ { {  .]  ... . . . . ...&.#.+.....#.#.&.8.@.@.@.@.@.@.@.@.+.@.#.@.<.@.<.@.1.@.$.X.+.@.@.#.X..... ..... . . .Y ] T T T T L T T L J T U J K K U U U K J K K Z C C C Z A K K Z Z Z Z V ",
"    5 P.OX,X1X1X2X2XeXeXyXeXyXuXeXyXeXiXOX/.XX3X,X3X X XoX}.}.}.$X$X;X>X;X;X;X;X;X;X;X>X>X>X:X:X>X>X>X>X>X>X>X>X>X>X;X;X;X;X;X$X;X;X$X$X$X$X$X$X$X$X$X$X}.].].'.].].|.N.N.N.N.m.v.c.c.f.c.f.v.f.c.e.e.r.r.r.e.e.v.v.e.e.f.e.q.r.q.3.3.3.>.,.,.,.W 2.6XN.M.b.b.Z.D.b.b.b.M.N.N.N.z.f.z.f.,.W G v e r [ H r g 9 2 %     fXJXJXJXJXJXJXJXJXJXJXJXJXJXJXJXJXJXJXJXJXJXJXJXJXJXJXJXJXJXJXJXJXJXJXJXJXJX^.. 8 ] *.Q.1XL.h = x Z 3 X SXJXJXJXJXJXJXJXJXJXJXJXJXJXJXJXJXJXJXJXJXJXJXJXJXJXJXJXJXJXJXJXJXJXJXJXCX    X + : # # # # # # # : # # : : > > : # : : : : # # # O X     pXJXJXJXJXJXJXJXJXJXJXJXJXJXJXJXJXJXJXJXJXJXJXJXJXJXJXJXJXJXJXJXJXJXJXJXJXJXJXJXJXJXJXJXJXJXJXJXJXJXJXJXJXJXJXJXJXJXJXJXJXJ.  X . . # # # # . . # # % = 8 2 ; $ = % % = . . o o . . o o . o $ o o o # % % # % = o q q = 2 2 % 2 2 2 7 3 g g g q w 3 8 q 8 c 9 b K K g x Y J J Y {  ..... . . .......&.+.+.+.+.#.@.8.@.#.<.@.#.@.@.#.#.#.@.@.8.8.<.@.@.1.@.@.+.#.@.#.+....... .....[ ] [ Y ] T Y J J T Y L L T T Y T U U U U U K J Z K Z Z Z Z Z K K K Z Z Z C C ",
"  X   J.)./.,XeXeX2XeXeXyXeXyXyXyXyXrXuX<X,XOX2X3X,X X{.}.}.}.}.-X$X-X:X;X;X;X;X;X;X>X>X:X>X>X>X:X>X>X>X>X>X>X>X>X>X;X;X;X;X$X$X;X;X$X$X$X$X$X$X$X$X$X$X}.].].].].].N.N.N.N.m.v.v.v.v.f.v.f.f.f.e.e.r.r.r.e.B.B.e.B.f.v.f.e.r.r.q.>.>.>.,.,.,.,.2.].#X#XD.n.V.D.D.n.D.b.M.N.N.m.v.z.e.r.f.l.G H v r H H m v 8 = = .   dXJXJXJXJXJXJXJXJXJXJXJXJXJXJXJXJXJXJXJXJXJXJXJXJXJXJXJXJXJXJXJXJXJXJXJXJXJX^.. f ] 7.E.&.w 3 ] &.C 5 . CXJXJXJXJXJXJXJXJXJXJXJXJXJXJXJXJXJXJXJXJXJXJXJXJXJXJXJXJXJXJXJXJXJXJXJXAXX   + X # # # # # # # # : # # : : # > : > : : : : > # # +   X 5 JXJXJXJXJXJXJXJXJXJXJXJXJXJXJXJXJXJXJXJXJXJXJXJXJXJXJXJXJXJXJXJXJXJXJXJXJXJXJXJXJXJXJXJXJXJXJXJXJXJXJXJXJXJXJXJXJXJXJXJXJXJ.  X O . # # # # + . # % o % 7 - o o = o 2 # . . o o . o o o o o o o o . $ = % % % = = h q $ 2 2 % 3 2 3 q 8 2 b c 3 g 8 q q w h 7 9 h h 8 h w w g b ] ....{ .. . . .....&.+.O.+.+.#.#.#.@.#.<.@.+.@.&.#.#.@.@.@.+.+.@.@.4.@.@.@.#.#.@.#.X........... .R Y Y ] ] T Y T T T T T T Y Y Y U U U U U U J Z A K K Z Z Z Z K K K Z A Z C Z ",
"    # ..OXOX1XeXeXeXeXwXrXrXyXyXyXrXrXyXyXeXeXeX3X,XXX{.{.{.}.}.-X-X-X:X-X-X;X;X;X;X>X;X;X;X;X;X:X>X>X>X>X>X>X>X;X;X;X;X;X;X;X;X;X;X;X$X$X$X$X$X$X$X$X$X].].].].].|.N.N.N.m.m.v.m.m.m.v.v.f.v.f.e.e.e.e.e.e.B.B.e.e.f.v.f.f.e.e.r.e.3.3.>.,.W e.&X#X&XD.n.D.A.n.D.#XD.N.b.M.N.N.m.N.e.e.e.q.P H H G r H H r 9 9 = .   CXJXJXJXJXJXJXJXJXJXJXJXJXJXJXJXJXJXJXJXJXJXJXJXJXJXJXJXJXJXJXJXJXJXJXJXJXJX^.= z ] %.[ - r i.E.*.Y 3 # CXJXJXJXJXJXJXJXJXJXJXJXJXJXJXJXJXJXJXJXJXJXJXJXJXJXJXJXJXJXJXJXJXJXJXJXKX    + O # # # # # # # # : # # # # # # # # # # : : # # # X X X J.JXJXKXJXJXJXJXJXJXJXJXJXJXJXJXJXJXJXJXJXJXJXJXJXJXJXJXJXJXJXJXJXJXJXJXJXJXJXJXJXJXJXJXJXJXJXJXJXJXJXJXJXJXJXJXJXJXJXJXJXJXJ.  X . . # # # # # . # % % = 7 3 . $ % % 3 o . . o o . o o . o o # o o o $ % % % o = = g 3 o 2 2 = 2 2 2 q 8 g C C 8 q 8 g 8 x 3 8 c x g g g 8 g h g x C ` ...... .......@.+.X.X.+.#.+.+.#.@.8.<.#.#.@.#.@.8.&.@. .[ ..+.4.@.@.&.@.@.@.+.+.+.+.o.....{ Y Y T Y Y T ] Y T T L Y Y Y Y Y U U U U U U J J K K K Z Z K K K K J Z Z Z C V ",
"    # -.2X1X*XeXeXeXyXrXrXyXrXyXyXyXyXyXyXyXeXeX3X,X X}.}.}.}.oX-X-X-X:X-X-X;X;X;X;X;X;X;X;X;X;X;X;X>X>X>X>X>X>X;X;X;X;X;X$X;X;X%X%X$X$X$X$X$X$X$X}.$X$X].].].].].|.m.N.N.N.m.m.m.m.m.m.m.f.v.f.v.B.B.e.e.e.B.v.v.v.f.v.f.v.f.e.e.e.q.3.>.v.&X&X#X#XM.D.D.Z.D.D.D.#XD.N.D.D.N.N.N.v.f.t.e.l.G P H H P H H n w 9 % o   CXJXJXJXJXJXJXJXJXJXJXJXJXJXJXJXJXJXJXJXJXJXJXJXJXJXJXJXJXJXJXJXJXJXJXJXJXJXP.# q Y c o T T.3XQ.&.T 3 # CXJXJXJXJXJXJXJXJXJXJXJXJXJXJXJXJXJXJXJXJXJXJXJXJXJXJXJXJXJXJXJXJXJXJXJXKX    X # # # # # # # # # # # # # # # # # # # # : : : # # X     pXJXJXJXJXJXJXJXJXJXJXJXJXJXJXJXJXJXJXJXJXJXJXJXJXJXJXJXJXJXJXJXJXJXJXJXJXJXJXJXJXJXJXJXJXJXJXJXJXJXJXJXJXJXJXJXJXJXJXJXJXJXJ.  X O . # + # # + . o % = - 7 0 . % $ % 2 . . . o o . o o . o o o # o o o % % % $ - = q 2 % 2 = 2 2 8 3 c g h b c 7 g 7 q g h 3 q x h g q z g q z g g q A } ........+.+.#.+.+.+.#.#.+.+.@.4.8.4.#.#.@.@.<.8.8.4. .P R ] &.*.@.*.&.&.@.+.#.@.@.+... .] Y Y T Y Y T Y T T T Y U U Y Y Y U U U U U K J J U K K K K K K K K Z Z C Z C c ",
"      | eX/.1X2X<XyXrX<XeXrXeXyXrXyXyXeXeXyXiXtX2X3X*X-X-X-X-X:X-X-X-X-X-X-X-X;X;X;X;X;X;X>X>X;X;X;X;X>X>X>X>X;X>X;X;X%X%X%X;X;X$X$X$X$X$X$X$X$X$X$X].].].].].].].N.m.N.N.N.m.N.m.m.m.m.m.v.f.v.v.c.B.e.e.e.B.B.v.v.v.v.v.f.v.M.B.f.2.Q 5X6X6X5X`.W m.#XD.D.D.D.D.D.#XM.M.D.].N.].m.m.e.f.q.G I H H P P H m g 7 = o X CXJXJXJXJXJXJXJXJXJXJXJXJXJXJXJXJXJXJXJXJXJXJXJXJXJXJXJXJXJXJXJXJXJXJXJXJXJXP.2 5 3 $ H ).lX*XQ.&.U q . CXJXJXJXJXJXJXJXJXJXJXJXJXJXJXJXJXJXJXJXJXJXJXJXJXJXJXJXJXJXJXJXJXJXJXJXKXX   + X # # : : # # # # : : # # # # # # # # # > : , # X X   5 JXJXJXJXJXJXJXJXJXJXJXJXJXJXJXJXJXJXJXJXJXJXJXAXCXJXKXJXJXJXJXJXJXJXJXJXJXJXJXJXJXJXJXJXJXJXJXJXJXJXJXJXJXJXJXJXJXJXJXJXJXJXJ.    X # + + # + # . # % % 7 7 ; $ & . 3 % o . . . . . o o . o o o o $ % $ o % o = = = 3 = % % % = 2 c 3 Z c h h q 3 g 8 8 b g 8 h c h g q h h z g g f f g h .... .O.&.+.#.#.#.#.#.#.#.@.8.4.4.@.@.&.8.&.8.<.8.4.X.R X...@.&.8.8.8.#.@.#.+.O.+.O.O. .Y T Y T ' ' T T Y T T T U U U U U U U U U U K K K U U U K K K K A A K J K Z Z l ",
"O   + q 1X/.OX2XiXeXeXiXeXrXyXwX/.eXyXeXuXeX1X2X3X*X*X-X-X-X-X-X-XoXoX-X-X-X;X;X;X;X;X;X;X;X;X;X;X;X;X>X>X>X;X;X>X;X;X%X%X%X$X$X$X$X$X$X$X$X$X$X$X$X].].].].].].|.N.m.N.N.N.N.N.m.v.m.m.m.m.v.v.c.B.B.e.e.e.B.B.v.v.m.m.f.v.M.N.e.e.].6XW.7X6X:XE 0 q.&X#XD.D.D.D.#X#X].D.w.z.#XN.m.N.f.z.l.E P P P P P P H v 8 % .   CXJXJXJXJXJXJXJXJXJXJXJXJXJXJXJXJXJXJXJXJXJXJXJXJXJXJXJXJXJXJXJXJXJXJXJXJXJXQ.+ X . J T.=X7X3X~.@.U 5 X CXJXJXJXJXJXJXJXJXJXJXJXJXJXJXJXJXJXJXJXJXJXJXJXJXJXJXJXJXJXJXJXJXJXJXJXJX+   X X # # # # # # # # < @ O : : # + # # # # : : : # X   X J.JXKXJXJXJXJXJXJXJXJXJXJXJXJXJXJXJXJXJXJXJXJXJX(.CXJXJXJXJXJXJXJXJXJXJXJXJXJXJXJXJXJXJXJXJXJXJXJXJXJXJXJXJXJXJXJXJXJXJXJXJXJXJ.    + # + + # + # . # % % 7 7 7 % % $ = % o . . . . o o o o o o o o $ % $ $ % o = = 2 3 2 % = = = 3 g 8 b c q 8 3 3 g 8 g h 8 g c c g q q h h z g g g g z h  .O...&.+.O.#.#.#.#.#.#.#.@.4.4.4.8.@.8.&.8.@.<.5.5.8.@.5.4.4.5.4.@.8.&.@.@.+...+. ...R Y Y J Y ' ' Y Y Y Y T Y U U Y Y U U U U U U U J K U K K K K K K K A Z Z C C Z l ",
"  O X = Q.2X1X1X<XeXeXiXwXrXuXeX(.<XiXiX2X,X,X,X.X X X X-X-X-X-XoXoXoX-X-X-X;X;X;X>X;X;X;X;X;X;X:X:X:X>X>X>X>X:X>X;X;X%X%X%X$X$X$X$X$X$X$X$X$X$X$X}.].].].].].].N.N.N.N.N.N.m.m.m.m.m.m.m.m.v.v.v.v.B.B.B.B.B.B.v.v.v.m.v.B.e.B.m.#X8XxX7X9X6X:Xo.! z.&X#XD.D.D.D.#X#X&X#Xt.m.#Xf.f.m.q.2.y.W E P P P P P H v 9 = o   CXJXJXJXJXJXJXJXJXJXJXJXJXJXJXJXJXJXJXJXJXJXJXJXJXJXJXJXJXJXJXJXJXJXJXJXJXJXP.  + b 7.Q.=X7X{.T.*.T 3 + CXJXJXJXJXJXJXJXJXJXJXJXJXJXJXJXJXJXJXJXJXJXJXJXJXJXJXJXJXJXJXJXJXJXJXJXJXX   X X # # # # # # # # , # + # : # # # # # # > : # # X X   wXJXJXJXKXJXJXJXJXJXJXJXJXJXJXJXJXJXJXJXJXJXJXJX-.AXJXJXKXJXJXJXJXJXJXJXJXJXJXJXJXJXJXJXJXJXJXJXJXJXJXJXJXJXJXJXJXJXJXJXJXJXJXJ.    + # # # # # + . # % % 7 q 7 $ % - % % o o o o . o o o # . o o o $ $ o % % % = - 2 3 = # = = 2 8 8 q c c 8 3 3 q q 7 g 3 8 h c h q g g z h g g z z g g h L  .&.#...O.#.&.&.#.#.+.#.8.4.8.@.8.8.8.8.5.@.8.5.5.5.5.5.5.4.4.5.8.4.4.#.#.+. . ...R ] T Y L Y Y ' Y Y Y Y Y Y U Y ' ' ' Y U U U U U U U U K K U K K K A A Z Z A K C q ",
"      _ L.OXeX1XeXeX<XeXyXyXeXrXeX<X<X,XXX X*X X{.{.{.}.-X-X-X-XoXoXoX-X-X-X-X;X;X>X;X;X;X;X;X;X:X:X>X>X>X>X>X:X>X;X;X%X%X%X$X$X%X%X$X$X$X$X$X$X}.}.].].].].].].N.N.N.m.m.m.m.m.m.m.m.m.m.v.v.v.v.v.v.e.B.B.v.B.B.m.e.f.v.v.v.r.f.].xX7X7X7X7X9X$X].&X&X&XD.D.D.#X#X$X#X#X#X#X].q.l.3.G ! 9.o.E I P I P P H v 9 = o   CXJXJXJXJXJXJXJXJXJXJXJXJXJXJXJXJXJXJXJXJXJXJXJXJXJXJXJXJXJXJXJXJXJXJXJXJXJXP.+ 3 ] 7./. X}.W.d.&.J 2 + CXJXJXJXJXJXJXJXJXJXJXJXJXJXJXJXJXJXJXJXJXJXJXJXJXJXJXJXJXJXJXJXJXJXJXJXJX    X + # # # # # # # # # : : # # # # + + # # # # # + X   3 JXJXKXJXJXJXJXJXJXJXJXJXJXJXJXJXJXJXJXJXJXJXJXJXl AXJXJXKXJXJXJXJXJXJXJXJXJXJXJXJXJXJXJXJXJXJXJXJXJXJXJXJXJXJXJXJXJXJXJXJXJXJXJ.X   + # + + # # + . # % % 7 e ; $ % - $ % o o o o . o o o o . o o # # $ o % % = 2 2 3 3 2 = - = = 8 7 g g g 8 3 q g g 8 q 2 g c h q g h h g h z g h h g g h g L O.O.O...#.&.@.@.@.#.#.8.4.<.#.@.<.8.&.4. ...4.5.p.p.6.5.4.5.5.4.5.4.#.+...O. .{ Y R Y T Y T U ' Y Y Y Y Y Y Y ' ] ] ] ' Y U U U U U U U U K K K K K A Z Z Z Z A b 2 ",
"X + 5 Q.E.eXOX<XeXeXeX<XeXyXeXyXeX<XXX[.XX{.{.{.{.{.{.}.-X-X-X-XoXoX-X-X-X-X-X:X:X>X;X;X;X;X=X:X>X>X>X>X>X>X>X>X>X>X;X%X;X$X$X$X$X$X$X%X$X$X$X$X$X}.].].].].].|.m.|.N.m.m.m.m.m.m.m.m.v.v.v.v.m.v.v.v.B.B.v.v.v.v.f.v.v.v.m.v.f.$XxX9XzXxX7X6X6X6XqX&X#X&X#XD.D.#X].0.0.w.$XN.m.z.z.>.G Q l.<.E W E E I P H m 9 = o   CXJXJXJXJXJXJXJXJXJXJXJXJXJXJXJXJXJXJXJXJXJXJXJXJXJXJXJXJXJXJXJXJXJXJXJXJXJX_.  z ] 5.T.{.j.!.s.O.C 2   CXJXJXJXJXJXJXJXJXJXJXJXJXJXJXJXJXJXJXJXJXJXJXJXJXJXJXJXJXJXJXJXJXJXJXJXJX    X + # # # # # # # # # , 1 , : # # O + # @ # # # O     J.JXJXJXKXJXJXJXJXJXJXJXJXJXJXJXJXJXJXJXJXJXJXJXAX  CXJXJXJXJXJXJXJXJXJXJXJXJXJXJXJXJXJXJXJXJXJXJXJXJXJXJXJXJXJXJXJXJXJXJXJXJXJXJ.    O # # # # # + + $ % $ 3 7 $ 7 7 - o % % . o o o . . o o o o # # # o o # # = 2 2 2 3 3 q 3 = = 3 8 h q 8 3 7 c g h g 7 q c c g 8 g h h z h h h h h h h h w b [ ..O.....O.#.@.@.#.@.8.4.@.@.8.8.4.8.4.{ { ..p.p.p.y.6.5.5.4.6.5.4.@.#...&.=.] } J ] T T Y Y Y Y Y ] ' Y ' ' ' ] ] ] ' U U U U U U U U U U U K K J Z Z Z Z C C b 2 ",
"+ 2 ` <XL.eXi.E.eX<XeXeXeXrXyXyXeX3XXX[.{.{.[.[.{.{.{.{.}.-X-X-XoXoX-X-X-X-X-X:X:X;X>X;X;X;X;X:X>X>X>X>X:X>X>X>X;X>X;X%X;X$X$X$X$X$X$X%X$X$X$X$X$X}.].'.].].].m.m.N.N.N.m.m.m.m.m.m.m.v.v.v.v.m.m.m.m.v.v.v.v.B.v.v.m.v.m.z.k.5XxXzXxXzX7X9X8X8X&X&X&XqX&X#X&X&X#Xf.G ! ! ].z.m.m.z.w.>.2.l.9.E W W W E R P H 9 = o   CXJXJXJXJXJXJXJXJXJXJXJXJXJXJXJXJXJXJXJXJXJXJXJXJXJXJXJXJXJXJXJXJXJXJXJXJXJX^.1 q Y *.Y.5.Y.!.u.O.Z 2   CXJXJXJXJXJXJXJXJXJXJXJXJXJXJXJXJXJXJXJXJXJXJXJXJXJXJXJXJXJXJXJXJXJXJXJXKXX X X + # # # # # # # # # : 1 6 1 # + # # # # # # # O     wXJXJXJXJXJXJXJXJXJXJXJXJXJXJXJXJXJXJXJXJXJXJXJX(.  AXJXJXJXJXJXJXJXJXJXJXJXJXJXJXJXJXJXJXJXJXJXJXJXJXJXJXJXJXJXJXJXJXJXJXJXJXJXJ.    O # # # # # # + # % $ - 9 $ 7 2 % $ % o o o o o o o o o o o # # # # # # % 2 2 % = = 3 w 8 2 = 2 8 g 3 2 3 8 b g h g 3 h c c g q g g h h g g z h h c c c c x J ..O.#...O.#.@.@.@.@.8.4.@.4.8.@.4.4.5.X. ...s.p.y.y.6.6.5.5.6.5.4.4.#.{ O.J.} ` Y Y Y Y ] Y ] ' ] ] ] ] ] ] ] ] ] ] ' U U U U U U U U U U K K K Z Z Z Z Z K C l 3 ",
"# } i.Q.L.P.P.O.<XOX).eXyXeXeXrXiX2XXX{.[.`.{.{.{.{.{.{.}.oX-X:X=X=X-X-X-X-X-X:X:X;X;X;X;X;X;X:X>X:X:X>X:X:X:X:X;X>X;X;X;X$X$X$X%X%X$X%X%X%X%X$X}.}.].'.].].|.m.|.|.N.N.m.m.m.m.m.m.m.v.m.m.v.m.m.m.m.v.v.v.v.B.v.m.m.m.f.`.xXxXmXzXhXxX7X0X0X].$X6XqXqX&X&X&X&X&Xl.! W Q z.N.b.N.N.v.w.0.l.j.I W W W W R P H 9 2 o   CXJXJXJXJXJXJXJXJXJXJXJXJXJXJXJXJXJXJXJXJXJXJXJXJXJXJXJXJXJXJXJXJXJXJXJXJXJX^.1 q Y @.1.W.{.W.&.O.C # X CXJXJXJXJXJXJXJXJXJXJXJXJXJXJXJXJXJXJXJXJXJXJXJXJXJXJXJXJXJXJXJXJXJXJXJXAX    X + # # # # # # # # # # : 4 1 # # , # : # # # + X   3 KXJXJXJXJXJXJXJXJXJXJXJXJXJXJXJXJXJXJXJXJXJXJXJX%.  AXJXKXJXJXJXJXJXJXJXJXJXJXJXJXJXJXJXJXJXJXJXJXJXJXJXJXJXJXJXJXJXJXJXJXJXJXJXJ.    O # # # + + # + # o o ; 7 - - $ $ $ % o o o o o o o o o $ o o o # % % % % 2 = % % % - q h g 2 2 3 8 2 3 7 g b g g g q h h h g g g g c h q g g g z c c h c c c ....&.#.O.#.#.&.&.8.4.4.8.4.8.8.4.5.4.#...4.a.d.y.6.6.6.p.7.y.y.5.4.O.[ } -.-.' [ Y Y ] ] Y ] ] Y ] ] ] ` ] ] ] ] ] ' Y U U U U U U U U K K K K A Z Z Z Z K b f 2 ",
"f l =.I.L.%.i.L.7./.Q./.(.wXeXyX<X2XXX[.{.`.W.{.{.{.{.{.}.oX-X:X=X=X=X-X-X-X-X:X:X;X;X;X;X;X:X>X:X:X:X:X:X:X:X:X>X>X;X;X;X%X$X$X%X%X%X%X%X%X%X%X}.}.].'.].].].|.].'.N.N.N.m.m.m.m.m.m.m.m.m.m.m.v.m.m.v.v.v.v.v.v.B.v.v.'.0XNXmXmXnXhXlXxX8X0Xk.5X0X6XqXqX&X&X&XqX#X0.j.z.N.N.b.N.b.t.t.t.e.l.E W W W W W P H e 2 o   CXJXJXJXJXJXJXJXJXJXJXJXJXJXJXJXJXJXJXJXJXJXJXJXJXJXJXJXJXJXJXJXJXJXJXJXJXJX^.# q [ #.a. XXX!.#.[ c .   CXJXJXJXJXJXJXJXJXJXJXJXJXJXJXJXJXJXJXJXJXJXJXJXJXJXJXJXJXJXJXJXJXJXJXJXCX    X + # # # # : : # # # # # : # # : 1 * , , : # O X   J.JXJXJXJXJXJXJXJXJXJXJXJXJXJXJXJXJXJXJXJXJXJXJXJXl   AXJXJXJXJXJXJXJXJXJXJXJXJXJXJXJXJXJXJXJXJXJXJXJXJXJXJXJXJXJXJXJXJXJXJXJXJXJXJ.    O # # + + + # + # o . = $ 9 - $ $ o o o $ $ o o o o o % $ o o o # % % % o 2 , , 2 # = 3 b n 3 3 2 3 2 7 8 g c g g g h c g g 8 g g h b h q g z g z c c h c c b ....O.#.+.#.#.@.&.4.4.4.4.8.8.4.5.7.5.5.4.7.p.s.s.y.y.6.7.p.y.d.y.4...{ } } =.O.] ] ] ] ] Y ] Y Y ] ] ] } ` ` ] ] ] ' Y U Y Y U U U U U K K K K A A Z Z Z Z h g q ",
"1 f i.=.K.i.*.L.=.^.-.J.wXOX(.rX2X,X3X[.{.[.W.{.{.{.{.{.oX-X-X:X-X X=X-X-X;X;X;X;X>X;X;X:X*X=X;X:X:X>X>X>X>X>X>X:X:X:X:X;X;X$X$X%X%X%X%X%X$X%X}.}.}.}.].'.].].'.|.|.N.'.N.m.m.m.m.m.m.m.m.v.v.m.t.v.v.v.v.x.v.v.B.B.f.{.mXGXZXDXnXMXzXzX0X8X0Xf.6X0X0X8X6X6X&X&X&XM.M.#XM.N.M.#XN.N.N.e.t.e.q.W W W  . .R P H x 2 o   CXJXJXJXJXJXJXJXJXJXJXJXJXJXJXJXJXJXJXJXJXJXJXJXJXJXJXJXJXJXJXJXJXJXJXJXJXJX^.2 h ] *.s.Y.Q.E.] ' h #   AXJXJXJXJXJXJXJXJXJXJXJXJXJXJXJXJXJXJXJXJXJXJXJXJXJXJXJXJXJXJXJXJXJXJXJXpX    X + # # # # # # # # # O : , # # : + # # , # + X X   wXKXJXJXJXJXJXJXJXJXJXJXJXJXJXJXJXJXJXJXJXJXJXJXCX    AXJXJXJXJXJXJXJXJXJXJXJXJXJXJXJXJXJXJXJXJXJXJXJXJXJXJXJXJXJXJXJXJXJXJXJXJXJXJ.  X + # # # # # # + # . % . - 8 - o $ $ . o % $ o o o o o # . o # = o # # # % 2 + 1 # * = 5 9 J w 9 ; 2 3 g q q g q g g c g f q q f g h h g z z z h l c c c c V b K O.O.O.+.#.&.&.@.8.5.8.8.8.@.4.p.8.5.6.6.s.y.j.s.a.p.@.5.7.a.s.6.5... .} ..*.7. . .] [ ] ] ] ] ] ' ' | | ` ` ` ` ' ' ] ' ' ' U U U U U K Z U K C b b K Z V q g q ",
"+ U -.L.L.Q.Q.K.%.I.%.-.UXwX).wX2XXX3X.X X{.{.{.{.}.{.{.}.:X-X-X-X=X-X-X;X;X;X;X;X>X>X;X:X3X:X;X:X:X:X:X:X:X:X:X:X:X:X:X;X;X;X$X%X$X%X%X%X$X}.}.}.}.].'.].].'.'.|.m.m.N.N.m.m.m.m.m.m.m.m.v.v.m.v.v.N.N.v.n.M.v.v.f.].xXmXmXZXDXnXNXxX9XxX0X6Xl.$X6X8X8X6X&XqXD.M.M.D.&X#XM.].#XD.N.N.t.e.r.f.! o.X. .W R E H x 7 o # CXJXJXJXJXJXJXJXJXJXJXJXJXJXJXJXJXJXJXJXJXJXJXJXJXJXJXJXJXJXJXJXJXJXJXJXJXJX^.3 c } &.5.U.Q.O.n Z 3 X X AXJXJXJXJXJXJXJXJXJXJXJXJXJXJXJXJXJXJXJXJXJXJXJXJXJXJXJXJXJXJXJXJXJXJXJXwX  X   + # # # # # # # # : # O :   : # : # O # # +   X 3 HXJXJXJXJXJXJXJXJXJXJXJXJXJXJXJXJXJXJXJXJXJXJXKX(.    AXJXJXJXJXJXJXJXJXJXJXJXJXJXJXJXJXJXJXJXJXJXJXJXJXJXJXJXJXJXJXJXJXJXJXJXJXJXJ.  X + # # # # # # + # . = % 2 3 - % - = o . % o o o o o o # o # # = . # # # = 3 % 1 # * = 2 9 m x w - 3 h b e 7 q 7 h h C c 8 q g h h h h h z z h h l c D c c c Z b Y .. .*.@.@.&.&.&.8.5.8.8.4.5.6.5.6.s.p.p.y.y.@.@.#...+.4.u.p.5.5. ...O.&.*.*.#.#.O..... .{ [ ] ] [ } | } ` ` ` ' ' ] ] ] ' U U U U U K Z K Z Z C C Z C b 3 g q ",
"#   ` )./.).L.P.O.(.%.%...^.OXuX1X.X2X2X3X,X3X,X.X:XXX}.}.:X-X-X-X-X-X-X;X;X-X-X:X:X:X3X3X3X:X;X;X:X:X:X:X:X:X:X:X:X:X;X;X;X$X;X$X$X$X$X%X}.}.}.$X}.].'.].].].'.'.m.m.N.N.N.m.m.m.m.m.m.v.v.v.m.m.v.M.N.v.N.m.f.m.$X0XVXmXnXDXnXnXmXzXzXzXzXxXy.{.0X8X0XqXv.b.b.D.D.&X&X#X#X#X#X].M.N.t.t.e.m.W o.X.W W W R L v 8 2 % AXJXKXJXJXJXJXJXJXJXJXJXJXJXJXJXJXJXJXJXJXJXJXJXJXJXJXJXJXJXJXJXJXJXJXJXJXJX(.5 l _ ] [ { R w 3 = X X   HXJXJXJXJXJXJXJXJXJXJXJXJXJXJXJXJXJXJXJXJXJXJXJXJXJXJXJXJXJXJXJXJXJXJXJX(.  X   # # # # # # # # # # + O : , : # : : : # X + X   J.JXJXKXJXJXJXJXJXJXJXJXJXJXJXJXJXJXKXJXJXJXJXJXJX%.  X AXJXJXJXJXJXJXJXJXJXJXJXJXJXJXJXJXJXJXJXJXJXJXJXJXJXJXJXJXJXJXJXJXJXJXJXJXJXJ.  X + # # # # # # + # . 2 = 2 3 3 2 - % o . o o o o o o o # # # % = . # # % - 8 5 1 # * * - - w m C h h C h q q q 8 c b b c 8 g z c c h g h h h h l l D D c c c K C b ] Y ..&.&.&.8.&.&.5.8.4.5.p.5.6.p.h.a.d.d.5. .......{ { #.4.*.5.#.#...&.*.#.&.&.*.*.&.#.O... .{ { } } { } [ ` ] ] ] ] ] ' U U U U U K K K Z A K Z Z Z b 3 z 3 ",
", 1 2 ..^.7.L.%.J.(.J.-.7.^.^.Q.OXOX/.1XeX<X,X2XeX3X*X X X:X:X*X-X-X-X-X;X;X*X=X*X3X3X3X2X2X:X:X=X=X:X:X:X:X:X;X;X:X:X;X;X%X$X$X$X$X$X$X%X}.}.}.$X}.].'.].].'.N.m.|.N.N.N.N.m.m.v.m.m.m.m.v.v.N.m.N.m.N.b.v.m.'.>XxXxXzXmXnXvXLXZXDXcXhXzXzXxX9X9X0X0X&XM.n.b.D.D.D.#X#XD.#X#X#X#X].M.z.v.N.z.2.<.o.X.X. .R P H h 3 % AXJXJXJXJXJXJXJXJXJXJXJXJXJXJXJXJXJXJXJXJXJXJXJXJXJXJXJXJXJXJXJXJXJXJXJXJXJXwXX + # 2 - o $ o #   +     JXJXJXJXJXJXJXJXJXJXJXJXJXJXJXJXJXJXJXJXJXJXJXJXJXJXJXJXJXJXJXJXJXJXJXKXI.X   X # # # # # # # # # + 4 # : # 5 : # # + : #   X   pXJXJXJXJXJXJXJXJXJXJXJXJXJXJXJXJXJXJXJXJXJXJXJXJXz     AXJXJXJXJXJXJXJXJXJXJXJXJXJXJXJXJXJXJXJXJXJXJXJXJXJXJXJXJXJXJXJXJXJXJXJXJXJXJ.  X + # # # # # # # # . 2 = 2 3 7 3 $ . o o . . o o o o o # % % = = # # = = 2 8 g 2 = = # = - 7 x J J C C q q q g g C b h q q h h h c h g c l z h l l D V c c b Z K J J J J ..&.&.&.8.8.8.8.4.6.p.5.p.s.h.h.h.a.u. .O...O.{ O.....@.p.7.*.O.#.&.#.*.#.#.*.@.*.@.@.O. .{ { { { } [ [ ` ` ` ] ' ' U U U U U K K K K K K Z Z K C g g q ",
"+   f } Q.L.%.Q.%.=.^.7._.(.Q.u.<X<X).<X<XeX(./.iXeX2X,X*X*X:X*X=X=X=X=X;X3X*X*X3X3X2X2X2X2X:X:X;X;X:X>X>X:X;X;X=X;X;X;X;X-X%X%X%X$X$X$X%X}.}.}.$X}.].'.'.].|.N.|.|.|.N.N.m.m.m.v.m.m.m.m.v.m.N.m.M.N.N.v.v.$X0XmXzXmXmXbXnXSXAXAXFXMXzXzX7X9X9XqX&XM.v.B.x.n.D.D.D.#XD.M.M.#X&X#X#XN.].'.z.z.0.<.<.o.o.X. .R P v e w C V h l f f f f f f f q 5 f f f F 5 5 y y f f f f f f f f 5 5 f f f f f f c 1 # X 1 1 2 # # 1 # + + X z JXJXJXJXJXJXJXJXJXJXJXJXJXJXJXJXJXJXJXJXJXJXJXJXJXJXJXJXJXJXJXJXJXJXJXJX} X   + # # # # # # : : # #   , y V , O # + : # X X X 2 KXJXJXJXJXKXJXJXJXJXJXJXJXJXJXJXJXJXJXJXJXJXJXJXCX      AXJXJXJXJXJXJXJXJXJXJXJXJXJXJXJXJXJXJXJXJXJXJXJXJXJXJXJXJXJXJXJXJXJXJXJXJXJXJ.  X + # : # # # # # # . 2 2 3 - 2 2 $ . o . . . o o o o o # # # = = # % = = 2 8 g 2 1 = * 2 - 2 q C ' C c 3 8 q g h V c g q q h c h c c h h h z l b c c V c c C C K K n K C ] ..5.*.*.*.#.5.5.6.6.5.p.s.a.h.U.U.u...%...O.O.{ @.u.p.5.$.#.@.&.&.#.5.#. .+.@.*.@.&.#.O. .{ { { [ [ { [ } ` ' ' ' U U U U K Z Z U U K K Z C Z z z F z ",
"    ` J.=.Q.i.^.U J.^.wXrX(.<X1XeXeXOXuXOXwX<XOXyXeXiXeXtX,X3X*X=X=X=X=X;X3X*X*X3X3X3X2X2X2X3X:X;X;X;X:X;X;X;X;X;X;X;X;X;X;X-X-X%X%X%X$X$X}.}.}.}.}.].'.'.'.|.m.|.|.m.N.N.N.N.m.v.m.m.m.m.m.m.N.N.m.M.m.v.N.8X0XzXmXMXnXvXZXFXSXFXFXmXxXzX0X0X].N.r.v.v.x.x.D.D.D.D.#XD.D.M.#X#X&X#X$X].z.l.`.l.9.1.<.<.o.X.W E L v m x 8 3 o = = # : : : # + . + O X X X   X X                   X       X X X   #   , 2 , # + # 1 + O     } JXJXJXJXJXJXJXJXJXJXJXJXJXJXJXJXJXJXJXJXJXJXJXJXJXJXJXJXJXJXJXJXJXJXJXJX5     # + # # # # # : : : : , # : 4 1 # # , + # X     J.JXJXJXJXJXJXJXJXJXJXJXJXJXJXJXJXJXJXJXJXJXJXJXJX(.      AXJXJXJXJXJXJXJXJXJXJXJXJXJXJXJXJXJXJXJXJXJXJXJXJXJXJXJXJXJXJXJXJXJXJXJXJXJXJ.  X + # : : # # # + # o 3 3 = - 7 7 % o o . . . o o o o o # # # = # # % = = 2 8 w 2 2 = # 2 = 2 3 h Z g 8 3 q g g z h g g g 8 h c c b V c z z z V C c c V c C b Z C J C K K K ] *.5.&.*.&.7.5.5.5.p.s.a.s.h.a.U.u.O.O.O.O.O.#.u.L.s.5.@.O.O.7.4.*.4.&.....+.4.@.@.@.#.O.O. .{ [ [ [ { { | ' ] ' U U U U K Z K U U K U K b b 5 q F f ",
"  . | C O.K.L.J.} <XrXrXeX<XeX1X2X2X2XuXOX<XeXrXrXeXuXyXyXeXeX,X,X,X,X*X3X3X3X*X3X3X3X2X4X2X:X:X;X;X;X;X;X;X;X;X;X;X;X;X;X;X-X-X-X$X$X$X$X}.}.}.}.].].'.].'.].|.|.|.m.N.N.N.N.m.m.m.m.m.m.m.N.N.m.m.M.N.m.&X5X%X7XzXmXnXZXSXZXFXDXmXxX0X0X&Xv.v.e.v.v.B.n.x.D.#X#X#X#XD.D.D.D.M.#X#X#Xl.o.Q '.z.l.9.9.1.<.o.X.W E P R J x h h h f f y y 6 1 : # 1 : # + + X O O   X X . X X     X O X     X + X + . # 1 1 4 4 : , # X + +   =.JXJXJXJXJXJXJXJXJXJXJXJXJXJXJXJXJXJXJXJXJXJXJXJXJXJXJXJXJXJXJXJXJXJXJXCX    X + + # # # # # : : : # + # X 1 + # # # : #       wXJXJXKXJXJXJXJXJXJXJXJXJXJXJXJXJXJXJXJXJXJXJXKXJX%.      AXJXJXJXJXJXJXJXJXJXJXJXJXJXJXJXJXJXJXJXJXJXJXJXJXJXJXJXJXJXJXJXJXJXJXJXJXJXJ.  X + # : : : # # + # # 3 3 % 2 9 7 ; o o o . . o o o o o # # # = o # # 2 = 3 7 7 2 3 1 , 1 2 2 = 3 8 2 8 q g g h g q q f g q h c c b b c h h c Z K b c b c b b J Z J K K K K J ..&.*.4.8.7.5.5.7.s.s.a.a.a.a.a.d.4.4.&.*.7.a.L.a.a.p.@.@.u.5.7.5.5.5.4.@.@.4.@.@.&.&.&.#.O.O..... .{ } } ` ` ' U U U U U K U U U K K Z b Z z z l q ",
"X   } { =.i.Q.} (.wXwX<XwXeX,X1X1X2X2XyXeXrXwXyXeXeXrXgXrXyXtX3X1X2X2X3X3X3X3X*X;X3X4X2X4X3X:X;X;X;X;X;X;X;X;X;X;X;X-X-X%X$X;X-X-X$X%X$X$X}.}.}.}.}.].].].'.].'.|.|.|.|.N.m.m.N.m.m.m.m.m.N.N.N.N.N.m.M.m.0X'.{.:X4XzXmXZXAXZXSXNXBX8X$X].M.v.x.n.x.v.n.n.D.#X&X&X&X&Xn.n.M.D.D.D.D.'.1.H W W.N.l.l.6.6.9.1.$.o.W E #.R R } ` ' _ A V B z 6 1 1 3 2 1 # # # # # # # # # # # + . + + + + + # , # + # , # 6 y : > : + #     X ^.JXJXJXJXJXJXJXJXJXJXJXJXJXJXJXJXJXJXJXJXJXJXJXJXJXJXJXJXJXJXJXJXJXJXJX(.  + O + # # # # # # : : : # : # # : : # : # # O     1 KXJXJXJXJXJXJXJXJXJXJXJXJXJXJXJXJXJXJXJXJXJXJXJXJXf       AXJXJXJXJXJXJXJXJXJXJXJXJXJXJXJXJXJXJXJXJXJXJXJXJXJXJXJXJXJXJXJXJXJXJXJXJXJXJ.  X + # : : # # # # # # 2 = = 2 3 2 - % $ . o o o o o . . # % # = . # = 3 2 3 7 - 3 5 2 1 , 2 2 2 5 8 3 f 8 g z h h q q g g h h c b c c c h c c K _ V c b b c C b K K K K U Y K Y ..4.7.4.7.5.7.p.s.s.a.h.a.U.h.h.h.L.p.p.U.a.U.U.h.a.y.4.p.5.5.5.7.p.5.<.5.4.&.&.&.@.&.&.#.*.#.O...{ { } | ` ' U U U U U U U U U Z Z C b U h F l o ",
"  # | yX*.O.).K.P.(.yXeXeX1X2X3X/.2X2X2XtXtXyXeXyXyXrXpXwXpXwX(.eXeXeX2X3X3X;X:X:X:X3X3X4X3X:X:X;X:X:X:X:X;X;X;X;X-X-X;X;X$X-X;X-X$X$X%X%X}.}.}.'.'.].'.'.].'.].|.].|.'.N.m.N.|.m.m.m.m.N.M.N.N.N.M.N.N.].0X].`.'.].9XzXbXZXMXBX8X'.m.M.n.n.D.A.A.n.#X&X&X6XqXqXqX&X#XZ.Z.n.n.n.D.D.w.G H E j.z.3.3.6.9.1.9.<.o.X.o.+.O.7.&.%...} } ' ' z 3 3 3 f f 3 1 2 : : : # = # 1 # 1 1 + # * # # = = = 2 % 1 # # 2 1 # # + 1   +     dXJXJXJXJXJXJXJXJXJXJXJXJXJXJXJXJXJXJXJXJXJXJXJXJXJXJXJXJXJXKXJXJXJXJXJX%.  X X , # # # # # # : # # # # # # , # : : # + +     J.KXJXJXJXJXJXJXJXJXJXJXJXJXJXJXJXJXJXJXJXJXJXJXJXdXX       AXJXJXJXJXJXJXJXJXJXJXJXJXJXJXJXJXJXJXJXJXJXJXJXJXJXJXJXJXJXJXJXJXJXJXJXJXJXJ.  X + # : : # + # : + # = . % 3 2 8 = 2 o . . o o o o o o o = # o # # . 5 3 2 7 3 8 g 8 2 1 2 3 3 3 8 8 5 h h f z f g q g g c c b C c c h c h b Z U c V b b b b C K K K Y _ _ K U Y 7.4.u.i.7.p.p.s.a.h.U.U.j.Y.j.j.j.Y.U.T.T.Y.U.j.g.a.p.s.p.p.5.p.p.6.5.4.8.&.@.*.@.@.#.#.&.*.&.O. .{ { | ] ' U U U U U U J U U U U Z Z Z 2 = q = ",
"O z } (.i.L.OX7.J.P.aXyX<X2X2X,X,X2X2X2X2XeX2XeXeXyXrXyXwXpXyXwXyXiXtX2X,X3X:X:X:X:X3X:X3X:X:X:X;X;X;X:X:X;X;X;X;X-X-X$X;X$X-X;X-X$X$X%X%X}.}.}.'.'.].'.'.].'.].].].N.N.N.m.N.|.m.m.m.m.N.M.N.N.N.N.M.m.5X8X7X:X[.>XzXzXBXxX7X6X'.m.n.n.n.A.D.A.D.&X&X&X&XqXqX&X&X#XD.n.D.D.D.D.D.D.0.G t m y.z.2.2.9.2.<.<.1.1.<.1.1.@.i.%.%.-.%.| ' S f 3 5 f z z f 5 5 2 4 3 1 3 1 2 = 2 2 1 1 = # # 2 2 1 1 % , # # 1 1 # + # + O     z JXJXJXJXJXJXJXJXJXJXJXJXJXJXJXJXJXJXJXJXJXJXJXJXJXJXJXKXJXJXJXJXJXJXJXHX+ X +   # # # # # # # # # # # # : + , # : : # + X     wXJXJXJXJXJXJXJXJXJXJXJXJXJXJXJXJXJXJXJXJXJXJXJXJX(.X       AXJXJXJXJXJXJXJXJXJXJXJXJXJXJXJXJXJXJXJXJXJXJXJXJXJXJXJXJXJXJXJXJXJXJXJXJXJXJ.  X + # : : : + # : + # = o % 2 3 8 = = . o . . . . . . . # % % # # # # q 3 2 7 2 2 7 3 2 1 2 3 3 5 f 8 8 g z f g q g g h g b c b C b b c c h b C U b b b C b b C K U K U K K _ K J *.*.p.7.u.p.s.s.h.h.U.T.Y.Y.R.j.Y.R.Y.T.R.Y.Y.j.j.y.@.u.p.p.p.p.p.p.5.4.8.&.&.&.#.#.#.@.&.&.&.#.O...} ` ] ' U U U U U U U U J U A C Z Z h o = 1 ",
". z J.-.7.^.Q.U OXI.(.wXiX<X,X2X3X2X3X3X2X4X,X2XeXeXyXwXwXwXrXeXwXeXeX2X3X,X:X:X:X;X;X:X:X:X:X>X;X;X;X;X:X;X;X;X;X-X-X;X;X;X-X;X-X$X$X$X%X%X}.}.}.}.].'.'.].].].].].N.N.N.N.N.N.m.N.N.N.N.M.N.N.v.N.].'.zXhXbXnXiXmXNXxX7X$X].N.M.D.D.n.n.n.A.n.A.D.D.#X&X&X&X#XD.D.D.D.#X#XD.D.D.#Xz.E ! P 0.z.l.2.2.2.2.2.2.2.<.y.y.u.*.7.7.=.%.` A l g f 5 5 p f p 8 3 2 2 3 = 3 = = # 1 1 # = * # # = 1 # # 1 # # # , , # # X X +     ^.JXKXJXJXJXJXJXJXJXJXJXJXJXJXJXJXJXJXJXJXJXJXJXJXJXJXJXJXJXJXKXJXJXJXJX(.  X X + + + # # # # # # # # # # # + * # : : : +   + 1 KXJXJXJXJXJXJXJXJXJXJXJXJXJXJXJXJXJXJXJXJXJXJXJXJX%.        AXJXJXJXJXJXJXJXJXJXJXJXJXJXJXJXJXJXJXJXJXJXJXJXJXJXJXJXJXJXJXJXJXJXJXJXJXJXJ.  X + # : : : # # # + # = % = 2 2 q - = . # . . . . + + + + # # # # # = q 3 2 3 - % 2 2 2 2 3 5 2 8 g q q q q f q q h h b g c h b b b b c c h C Z U b b C Z C C C K U K K K U ' K Z ..&.s.p.p.s.a.a.h.U.U.Y.Y.Y.R.Y.R.W.Y.R.T.Y.R.j.Y.a.@.y.p.d.d.y.p.s.5.4.*.&.&.&.&.&.&.*.8.@.@.#.#.O...] ] ] ' Y U U U U U U J U K A U Z q   # + ",
"2 h _ ` J.-.I.} OX(.(.(.eX2X,XXX3X3X3X,X3X*X*X3XeXeXyXrXwX<XeXrX<X1XeX2X2X3X*X*X;X;X=X:X:X:X:X;X;X-X-X;X:X;X;X;X;X-X-X;X-X-X-X-X-X$X-X%X%X}.}.}.}.'.].'.'.].'.'.].'.N.N.|.N.N.N.N.N.N.N.N.M.N.M.N.M.'.>XMXZXAXCXAXvXmXzX].M.D.D.D.D.D.A.A.n.n.n.n.n.b.D.#XD.D.D.D.D.#X#X&X&X&X#X#X].'.o.E ! 0.'.k.q.l.q.q.0.9.1.1.y.j.@.&.*.7.%.' ' K b q w 3 2 3 8 7 5 3 2 2 3 2 3 - 2 = = = # * 1 , # # # # # * # + + + + X X X       f HXJXJXJXJXJXJXJXJXJXJXJXJXJXJXJXJXJXJXJXJXJXJXJXJXJXJXJXJXJXJXJXJXKXJXKXV +   1 1 X # # # # # # # # # # # + + 1 # : # + # +   =.JXJXJXJXJXJXJXJXJXJXJXJXJXJXJXJXJXJXJXJXJXJXJXJXKXf         AXJXJXJXJXJXJXJXJXJXJXJXJXJXJXJXJXJXJXJXJXJXJXJXJXJXJXJXJXJXJXJXJXJXJXJXJXJXJ.  X + # : : : # # # + % = = % - 2 3 = = o # . + + + + + + # # # # # , , 5 6 2 5 2 2 2 2 5 3 8 f 2 8 f 8 f 8 8 g q g b b C h h g b x c c c c c K K K C C K C K Z C Z K K _ U Y U K Y [ ..K.p.a.a.a.h.h.h.j.Y.Y.Y.Y.Y.W.W.R.R.Y.W.W.j.Y.j.y.d.d.a.d.y.y.s.p.5.@.O...%.%.&.@.@.<.@.@.#.#.O...{ ] ] ] Y Y U U Y U U U Z V V b F 3 O 2 + ",
"f _ ` ] P.-.P.O.(.yXwXeXaX2X1X3X3X3X,XXX*X!.*X.X1X2XeXrXyXwXyXuXwXeX2X3X*X*X;X;X;X;X*X:X:X:X:X:X:X-X-X;X;X-X-X-X-X-X-X;X-X-X-X-X-X$X%X%X%X}.}.}.}.}.].].'.].'.].].|.N.|.N.N.N.N.N.N.N.N.M.M.N.N.M.].$XmXnXSXSXbXnXmXxX8XN.#X&X&XD.D.D.D.D.D.n.D.D.D.D.D.D.D.D.D.D.D.&X&X&X&X&X&X&X%X].j.E E o.W.`.z.k.l.f.w.l.y.g.y.j.5.+.&.O.O.n T J n g q 7 7 3 7 5 5 5 3 2 3 2 3 = 2 2 = * * + # # + + + X X # X O + X X X X       # pXJXKXJXJXJXJXJXJXJXJXJXJXJXJXJXJXJXJXJXJXJXJXJXJXJXJXJXJXJXKXJXKXJXJXJX^.X X X # + + 1 # # # # # # # # # + # + 1 : # # # X     wXJXJXKXJXJXJXJXJXJXJXJXJXJXJXJXJXJXJXJXJXJXJXJXJXdX          AXJXJXJXJXJXJXJXJXJXJXJXJXJXJXJXJXJXJXJXJXJXJXJXJXJXJXJXJXJXJXJXJXJXJXJXJXJXJ.  X + # : : : : : # # % = = = 2 - 2 = = # o . . + + + # # # 1 # , , 1 : 4 6 1 5 6 2 2 3 8 5 f z 5 8 q 8 q 8 8 c g h b C Z c h h b x h h c b b _ K K Z Z J C K K Z Z K K _ ' Y Y ' ` ' ..K.u.a.h.h.h.U.U.j.Y.Y.Y.R.Y.W.W.W.W.Y.W.~.W.Y.Y.Y.a.h.g.d.d.y.d.s.p.*.O. ...O.&.*.4.@.@.@.#.#.O...} [ ] Y U Y U U Y U U U Z b b l 2 l + 1 1 ",
"z } Z { P.^.).I.<XwXwX<X2XeX2X1X,X,X.X X3X[.3X.X1X2XeXrXpXyXyXyXeXeX2X3X;X;X;X;X;X=X*X:X:X:X;X;X:X-X-X:X:X*X-X-X;X;X;X;X-X-X-X-X-X$X$X%X%X}.}.}.}.}.].].].].'.].].|.N.N.N.N.N.|.N.N.N.N.M.M.N.M.|.}.3XMXvXvXmXlX7X7X7X$XM.#XD.#XD.D.#XD.D.D.D.D.D.D.D.D.D.D.D.D.#X#XqXqXqX&X6X6X%X0XxX>X$.! Q W.}.'.z.f.z.z.l.j.k.j.j.$.5.O.{ O.T T n n C q q 7 3 3 7 3 8 3 3 2 = 3 * 1 1 1 # # + # + X X + X X X               X   l wXJXJXKXJXJXJXJXJXJXJXJXJXJXJXJXJXJXJXJXJXJXJXJXJXJXJXJXJXJXJXJXJXJXJXKXCX=     # # # # O # # # # # # # # : # # # 1 : : # O X X # KXKXJXJXJXJXJXJXJXJXJXJXJXJXJXJXJXJXJXJXJXJXJXJXJX^.          AXJXJXJXJXJXJXJXJXJXJXJXJXJXJXJXJXJXJXJXJXJXJXJXJXJXJXJXJXJXJXJXJXJXJXJXJXJXJ.  O + # : : : : : # # = = = 2 2 2 - = = # X + + + + + # # # , # # # 1 # 1 1 1 6 2 2 2 2 7 5 f g 8 f q 8 q 5 f b h h b C C c c c C b h h c b C U Z U Y Z J U U Y K K K K _ ' ] [ [ [ L #.K.p.a.h.h.U.U.U.Y.Y.R.Y.W.W.W.W.W.W.W.W.W.~.W.Y.R.j.j.j.j.h.h.h.a.d.p.*.O.&.&.*.*.<.@.<.<.@.#.O.O...{ [ Y U U U U U U U U U Z C C c A = 1 : ",
"z } } ' I.I.P.^.rXrXeXeX<X2X2X3X.X.X.X-X3X X3X.X1XeXeXyXyXrXeXwX1X1X3X3X3X;X;X;X:X;X*X3X3X3X;X;X:X-X-X*X;X;X-X-X;X;X;X;X-X-X%X%X-X$X-X$X%X}.}.}.}.].].].].].'.].].|.|.N.N.N.N.|.N.|.'.N.M.N.N.M.].'.7XhXmXmX7X$X%X%X$X#X#XD.D.&X#X#X#X#X#XD.D.D.D.D.D.D.D.#X#X#X&X&XqXqX6X6X6X6X6X%X7X7X!.o.Q W.'.}.W.z.z.z.k.`.W.W.j.1.1.$. . .T T T n J q 8 8 7 7 q 3 f 3 8 3 3 q 2 1 2 6 * +   X               X     X X + 2 %.(.KXJXJXKXJXJXJXJXJXJXJXJXJXJXJXJXJXJXJXJXJXJXJXJXJXJXJXJXJXJXJXJXJXKXJXJXJX`   # X X # 1 # : # # : : # # # # + # # # 1 # # #   X X =.JXJXJXJXJXJXJXJXJXJXJXJXJXJXJXJXJXJXJXJXJXJXJXJXJX} X         HXJXJXJXJXJXJXJXJXJXJXJXJXJXJXJXJXJXJXJXJXJXJXJXJXJXJXJXJXJXJXJXJXJXJXJXJXJXJ.  O # # : : : : : : : , = = 2 2 2 - = = # . o o + + # # # # # # # + , # # , 2 2 1 2 2 2 3 3 f q f f 8 8 8 8 f b c h h b c b c c b b c b c c C _ Z Y ` J U Y Y ' _ ' Y Y ] ] [ } [ ] ] 7.a.s.a.h.U.U.Y.U.j.Y.R.R.R.W.W.W.W.W.W.W.~.~.W.Y.W.R.Y.Y.j.j.j.h.g.a.p.4.@.*.&.@.@.@.<.<.4.&.@.O.O... .{ ] Y U U U U U J Z U :.C Z Z A 2 2 X ",
"-.l -.' J.I.J.i.yXrXeX2X2X,X3X3X.XXX X-X X{..X*X.X2XeXyXyXeXeXyX1X1X2X3X3X;X*X;X:X*X*X*X3X*X:X3X:X;X-X*X;X;X;X;X;X;X;X;X-X-X%X%X-X$X-X$X%X}.}.}.}.}.].}.].'.'.].].|.].'.N.].N.|.N.].].'.M.M.M.M.].$XxXzXzX7X}.'.D.].$X#X&XD.&X#X&X#X#X&X&X&X#XD.#XD.&X&X&X#X#X&X&X&XqXqX6X6X6X6Xz.l.-XzXhXY.Q W.>X$Xz.k.z.'.z.'.W.W.j.y.1.o.$. .R T H n C c 3 8 7 7 q 2 q 2 5 3 5 z 3 = 1 3 * X P.P.P.P.P.P.P.P.^.(.(.wXpXdXAXJXJXJXJXJXJXJXJXJXJXJXJXJXJXJXJXJXJXJXJXJXJXJXJXJXJXJXJXJXJXJXJXJXJXJXJXJXJXKX-.1 = . # 1 + : @ : # # : : # # # # + # : # , + # # X X   wXJXJXJXJXJXJXJXJXJXJXJXJXJXJXJXJXJXJXJXJXJXJXJXJXKX# X         HXJXJXJXJXJXJXJXJXJXJXJXJXJXJXJXJXJXJXJXJXJXJXJXJXJXJXJXJXJXJXJXJXJXJXJXJXJXJ.  O # # : : : : : > : , = = 2 = 2 2 2 % o o . . . + # # # # # # , + , , % , = % = 2 2 2 2 2 8 8 f q 8 8 q q q c c z g c h b h g h c l C c h C ] K Y ] U U Y ' ] ' ' ] ] { { ] { ] { #.s.p.a.h.U.U.U.U.U.h.j.Y.Y.R.W.W.!.W.W.W.W.!.R.!.W.W.W.R.Y.Y.j.j.h.h.s.s.5.4.4.@.@.@.8.1.4.@.@.@.#.O... .{ { ] Y U U U C T U U :.Z Z Z C = 1 X ",
"A } J.J.P.7.<X7.OXOX<XXXXX).*X.X{. X X XoXoX X*X!.!.uXeXyXrXrXrXeXeXeX2X2X3X3X3X2X3X*X*X*X3X3X3X:X3X*X;X3X:X3X*X:X;X;X;X-X-X-X;X%X%X%X%X%X}.}.}.}.].].}.].].'.].].].'.].].N.N.N.'.'.'.M.N.N.M.M.M.#X0X>X6X'.].#X#X#X#X&X#X#X#X#X&X&X&X&X#X#X#X#X&X&XqXqX&XqXqXqX&X&XqXqX6X6X>X$Xw.2.W.zX7X%Xz.%X6X>Xz.z.'.{.j.{.[.W.j.5.y.$.$.O.E R T T n g w 8 7 3 q 3 q 3 3 3 5 z q 3 # 2 1 O CXJXJXJXJXJXJXJXJXJXJXJXJXJXJXJXJXJXJXJXJXJXJXJXJXJXJXJXJXJXJXJXJXJXJXJXJXJXJXJXKXJXJXJXJXJXJXJXKXJXJXJXJX=.2 F c e o $ # : : + # # : : : # # : + # # # # 1 # X X X # KXJXJXJXJXJXJXJXJXJXJXJXJXJXJXJXJXJXJXJXJXJXJXJXJXpX            HXJXJXJXJXJXJXJXJXJXJXJXJXJXJXJXJXJXJXJXJXJXJXJXJXJXJXJXJXJXJXJXJXJXJXJXJXJXJ.  X + # : # : < : # : # = q q 8 = 8 2 = # O . . + + # # # # # # # # # # 1 1 % = 2 2 2 2 2 2 8 8 f 8 3 8 g g f g g g z h c h z z h c c c c c K U K U ' ] U ] ] ] [ [ ] [ { [ ] [ [ ..p.a.s.s.U.U.U.U.U.U.j.j.Y.R.W.W.W.W.W.!.W.W.W.W.W.!.!.!.~.W.Y.Y.Y.j.j.g.p.y.5.5.4.4.4.5.5.@.@.@.@.#.O.O.O.{ { { [ [ R Y U Y Z U Z D Z z A 1 X + ",
"z %.} i.P.K.Q.)././.,XXX).~.[.XX{.{. X}.}.oX X X.X/.,XeXyXrXrXyXrXrXeXeX2X2X2X2X2X2X3X*X*X*X*X3X;X=X=X=X;X;X;X=X;X;X;X;X-X-X-X%X-X%X%X%X%X}.}.}.}.}.}.}.].].'.'.].].].].].M.N.M.'.'.'.N.N.M.M.M.].].$X%X$X%X#X&X#X#X$X&X&X#X#X&X&X&XqX&X&X#X#X#XqXqXqXqXqX&XqXqX0X6XqX&X&X&X6X>Xl.2.g.>X9X0X6X>X6X$X'.z.$X%Xj.%X[.W.j.y.d.$.$. .T R Y J n x w 7 7 7 q 3 q q 3 3 3 F 5 2 2 * ,   CXJXJXJXJXJXJXJXJXJXJXJXJXJXJXJXJXJXJXJXJXJXJXJXJXJXJXJXJXJXJXJXJXJXJXJXJXJXJXJXJXJXJXJXJXJXKXJXJXJXJXKX-.# 3 U } ..e . #   # # # # # # # # # # + # * 1 1 1 # X     =.JXJXJXJXJXJXJXJXJXJXJXJXJXJXJXJXJXJXJXJXJXJXJXJXKX^.    O       HXJXJXJXJXJXJXJXJXJXJXJXJXJXJXJXJXJXJXJXJXJXJXJXJXJXJXJXJXJXJXJXJXJXJXJXJXJXJ.  X + # : : # : : : 1 = = 3 f 5 2 g 8 # . o o + + # # # # # # # , , # % 1 2 2 2 2 2 2 2 2 3 5 8 8 8 8 8 q g g g g g z z h h h h h c h c b c Z K C K Y ] Y ] ] { .. .{ ] { [ { Y Y 7.L.a.a.h.U.U.U.U.U.Y.Y.R.W.W.W.W.W.W.W.!.W.W.!.!.W.!.!.!.~.W.Y.R.R.j.j.g.d.p.y.5.4.4.1.5.<.@.@.@.@.#.O.O...{ { { { { ] Y J U Z Z Z :.b 3 V 2 # # ",
"' ' } -.=.Q.K.(./.).+X X X[.{.[.{.{. X}.{.}. X X*X3X1XtXyXyXyXrXgXrXrXrXrXeXeXeX2X2X2X2X3X*X3X3X=X=X=X*X3X3X3X3X=X=X;X;X;X;X$X%X-X%X%X%X$X}.}.}.}.}.}.}.}.].].'.].'.].].'.'.N.'.].'.'.N.M.M.M.#X#X#X%X%X%X$X#X#X#X#X$X&X&X&X&X&X&X6X6XqX&X#X#X&XqXqXqXqX6X6X9X9X9X0X6XqX&X#X6X&X'.y.j.7X9X$X%XN.$X%X'.W.;X%XW.-X{.~.j.y.5.@.$...R R Y J n x w 7 7 7 q 8 7 e 3 3 q q 5 2 2 # #   dXJXJXJXJXJXJXJXJXJXJXJXJXJXJXJXJXJXJXJXJXJXJXJXJXJXJXJXJXJXJXJXJXJXJXJXJXJXJXJXJXJXJXJXJXJXKXJXKXJXAX` 2 g J [ ..4...o # 1 , o # # # # : # # # + # 1 1 1 # + X +   wXJXJXKXJXJXJXJXJXJXJXJXJXJXJXJXJXJXJXJXJXJXJXJXJXJX}     O X     HXJXJXJXJXJXJXJXJXJXJXJXJXJXJXJXJXJXJXJXJXJXJXJXJXJXJXJXJXJXJXJXJXJXJXJXJXJXJ.  X + # : : # : < : 1 2 1 5 f q 8 h 8 # . o + + + + # # # # # % , , % % , 1 2 2 2 2 2 2 2 5 8 8 8 q g q 8 g g g g g z g z h h h c c c c C V C K C K Y ] Y [  .#.d.u.7. ... ...] u.L.d.a.a.h.U.Y.U.U.Y.R.Y.R.W.W.W.W.!.!.!.[.!.!.!.!.!.W.W.!.W.W.Y.R.R.j.j.h.a.d.p.5.5.4.1.5.4.<.4.*.@.#.O..... . . .}  .[ ] Y U C C b A f 2 F # O X ",
"f } %.%.7.).7.OXOX/.!.+XXXXX[.[.{.{.oX{.{.oX X X{.,X,XeXrXyXyXrXgXgXrXrXrXrXyXyXtXtXeX2X2X3X3X2X2X2X2X2X2X2X2X2X3X3X*X*X;X;X;X-X%X%X%X$X%X%X}.}.].].}.}.}.].].].'.'.].'.'.|.N.N.].].M.N.N.M.].#X#X#X$X%X%X$X#X#X$X$X$X&X&X&X&X&X6X6X6XqX&X#X&X&XqXqXqXqX6X9X9X9X9X9X0XqXqX&X&X&X9X$X6X0X6X%X'.N.'.}.`.{.:X-X{.{.{.[.g.y.o.+...$.E R Y J n x w 9 8 7 w 8 q q 5 5 f g 5 5 1 # + X fXJXJXJXJXJXJXJXJXJXJXJXJXJXJXJXJXJXJXJXJXJXJXJXJXJXJXJXJXJXJXJXJXJXJXJXJXJXJXJXJXJXJXJXJXJXJXKXJXgX3 + o m ] $.o.y.5.n . + # X # # # # : : # # # # 1 1 1 # X X   + KXJXKXJXJXJXJXJXJXJXJXJXJXJXJXJXJXJXJXJXJXJXJXJXJXKX#   X   X     HXJXJXJXJXJXJXJXJXJXJXJXJXJXJXJXJXJXJXJXJXJXJXJXJXJXJXJXJXJXJXJXJXJXJXJXJXJXJ.  X + # : : : : : : : 2 1 5 z z h g 2 # o . . . + + # # # # # # = 1 # # 1 1 1 1 2 2 2 2 5 8 8 q 8 8 g g 8 g f f g g z g z h h h c c c V C C C K Z U ] ` ] ]  .O.d.K.a.+.$.O.@.s.U.a.T.a.h.Y.Y.R.R.R.R.R.R.R.W.W.W.!.!.!.!.[.[.[.[.!.!.!.!.!.W.W.R.R.R.j.j.h.h.a.y.y.5.4.1.1.4.<.*.@.#.O....... . .{ { } { ] U U Z C U b z 5 z #   O ",
"2 -.-.I.J.I.I.).eX1XXX.XXXXX[.XX{.{.}.{.}.-X X XXX.XXXwXyXyXrXpXrXrXrXrXrXrXyXyXyXyXrXeXeX2X2XeXeXeXtXyXyXiXyXyXiXeX2X2X3X;X=X-X%X$X$X%X%X%X}.].}.'.}.}.'.}.].].'.'.'.'.'.'.'.'.'.].].M.N.M.#X#X#X#X%X%X%X%X$X&X%X$X$X&X&X&X&X&X6X6X6X6X&X&X&X&XqX&X6X6X9X9X9XzXzX9X9X6XqX&X$X6X0X0X0X5X%X#X#X#X'.}.{.5X>X-X-X-X{.[.Y.y.@.@.#.$.R R T T J v w e 8 7 x 8 q q q 5 q g q 3 # # X   pXJXJXJXJXJXJXJXJXJXJXJXJXJXJXJXJXJXJXJXJXJXJXJXJXJXJXJXJXJXJXJXJXJXJXJXJXJXJXJXJXJXJXJXJXKXJXKXJ.X     . C  .4.6.k.g.4.- : > : # # # : 1 : # # # # # 1 1 + X X   =.JXJXJXJXJXJXJXJXJXJXJXJXJXJXJXJXJXJXJXJXJXJXJXJXJXwX    O O X     FXJXJXJXJXJXJXJXJXJXJXJXJXJXJXJXJXJXJXJXJXJXJXJXJXJXJXJXJXJXJXJXJXJXJXJXJXJXJ.    + @ : : : : : : : 6 , 5 l V V q = # # . + . + # # # # # # # 1 1 , 1 # 1 , , 1 2 2 3 5 f 5 q 8 9 w g 8 8 q f z z g g g g h h h c c C C b V Z K K ] ] [ [  ...#.&.*.#.+.#.7.5.*.a.T.T.U.Y.Y.R.R.R.W.W.W.W.W.W.W.!.!.!.[.[.[.[.[.!.!.!.[.[.!.W.R.R.Y.j.j.h.g.a.p.y.5.5.4.<.@.#.#.+.O.O......... .{ { { [ ] ] ] J J C Z f z f # X X ",
"h =.P.J.^._.OX(.eXeX2XeX2X,XXXXX[.{.oX{.}.-X X*XXX,X1XeXpXpXrXyXyXrXrXrXrXrXrXyXpXyXyXyXrXrXrXrXyXyXyXyXyXyXyXyXyXyXiXiXtX2X3X=X-X-X-X%X%X%X].'.}.].'.].'.].}.].'.].'.'.'.].].'.'.].].'.'.].#X#X$X%X#X#X%X%X$X$X$X$X$X&X&X&X&X6X6X6X6X6X6X&X&X&X6XqX6X6X9XxX9XzXzX9X9X6XqX6X&X0X9XxX9X6X%X#X#X#X$X:X7X:X$X-X-X*X{.{.Y.p.@.4.&...R R T T J v w e 8 7 c q q q q 5 3 q q 3 = . +   pXJXJXJXJXJXJXJXJXJXJXJXJXJXJXJXJXJXJXJXJXJXJXJXJXJXJXJXJXJXJXJXJXJXJXJXJXJXJXJXJXJXJXJXJXJX(.f       O . 7 ..L.l.W.j.y.m # > : : # # : : : : # , # # # # + X   X wXJXJXKXJXKXJXJXJXJXJXJXJXJXJXJXJXJXJXJXJXJXJXJXJXJXP.X     O X     FXJXJXJXJXJXJXJXJXJXJXJXJXJXJXJXJXJXJXJXJXJXJXJXJXJXJXJXJXJXJXJXJXJXJXJXJXJXJ.    + # : : # : : : : y 1 y V V V q 1 # # # + + + # # # # * # 1 1 1 1 1 1 1 1 1 2 2 2 3 5 q 7 g w 9 w g g f f g z z h h h g h z h b V C C b V Z K K ] [ [ { ..#.#.O.O.#.#.#.@.+.O.4.U.R.h.Y.W.W.W.R.R.R.R.W.W.W.[.[.[.[.[.{.[.[.[.[.[.[.[.[.!.!.W.Y.Y.j.h.h.h.a.y.y.5.6.5.4.@.#.#.#.#.+.O....... . .{ { { ] T J T J K ' 2 2 X   X   ",
"_.P.OXJ.(.P.(.pX<XeXeXeXtXtX.XXX).!. X X{. X X3X!.*X2XrXwXpXyXrXrXrXrXyXrXrXeXeXyXyXyXyXyXyXyXyXyXyXyXyXyXyXyXyXyXyXyXyXiXtX2X*X=X=X=X}.%X%X}.'.}.].}.'.'.].].].].].].].].].].].].].].].].].$X$X%X$X%X%X&X$X$X$X$X$X>X>X&X>X6X6X6X6X6X6X6X6XqX&X6X6X6X6X9X9X9XzX9X9X0XqX6X6X9X0X9X0X9X>X#X#X#X#X$X6X>X{.[.:X-X-X{.{.j.y.$.1.@...R R T Y J m w e 8 8 b g q q q 8 2 q f 3 2 . +   pXJXJXJXJXJXJXJXJXJXJXJXJXJXJXJXJXJXJXJXJXJXJXJXJXJXJXJXJXJXJXJXJXJXJXJXJXJXJXJXJXJXJXJXpX`   X         = = Y a.!.W.l.k.$.  : : : # # : : : # # # # # : # + X   # HXJXJXJXJXJXJXJXJXJXJXJXJXJXJXJXJXJXJXJXJXJXJXJXJXJX}   X X + X     FXJXJXJXJXJXJXJXJXJXJXJXJXJXJXJXJXJXJXJXJXJXJXJXJXJXJXJXJXJXJXJXJXJXJXJXJXJXJ.    + # : : : : : : 1 j 6 j V z z 3 = # o o # + + : : # # * # # 1 1 1 1 1 1 1 1 2 2 2 3 5 8 8 f g g g h h z f f f z h h z z z z b C Z V C C C K A U ] { [ ....#.&.@.#.@.&.4.4.4.&.#.*.5.W.Y.W.W.W.R.R.R.R.W.W.`.[.[.[.[.{.{.{.{.{.{.[.[.[.[.!.!.W.R.Y.j.U.h.h.h.d.y.7.7.5.4.&.@.@.#.#.#.O.O... .{ { [ [ [ ] Y x Y w T K 3 =     X   ",
"^.<XOX^.wXwX(.wXeXrXeX<XeXiX3X.XXXU.!. X{. X.X*X.X1X,XrXyXyXyXyXyXrXrXyXrXrXeXrXyXyXyXyXyXyXyXyXyXyXyXyXyXyXyXyXyXyXyXyXiXtX2X,X*X*X=X X}.$X$X{.}.].].'.'.].].].].].].].].].].].].].].'.].$X$X}.}.$X$X$X&X$X$X$X$X$X>X>X6X>X6X8X6X6X8X6X6X6XqX&X&X6X6X6X9X9X9XzX9X9X9XqX6X6XVXxXxX7X0X&XN.#X#X#X%X6X'.`.'.6X$X;X{.!.Y.y.1.@.*.$.{ { R Y J m h 9 8 8 b h 8 g q q 3 q q q % .     pXJXJXJXJXJXJXJXJXJXJXJXJXJXJXJXJXJXJXJXJXJXJXJXJXJXJXJXJXJXJXJXJXJXJXJXJXJXJXJXJXJXJXJXAXP._       O +     e &.E.h.z.}.5.r . # : : # : : # # : + # : # + X X   -.JXJXJXJXJXJXJXJXJXJXJXJXJXJXJXJXJXJXJXJXJXJXJXJXJXKX    + + + X     AXJXJXJXJXJXJXJXJXJXJXJXJXJXJXJXJXJXJXJXJXJXJXJXJXJXJXJXJXJXJXJXJXJXJXJXJXJXJ.    + # : : < : : : 1 l p D V f 8 # # # # o # + # : , # # * # # # 1 1 1 , 1 1 1 1 2 2 6 3 5 q q g h h h c h z f f z h z z h z h V A A C C Z Z ' K ] ] } [ ..#.#.#.@.4.&.*.5.5.4.8.&.O.@.<.h.T.W.W.R.W.W.W.W.`.[.[.{.{.{.{.{.{.{.{.{.{.{.[.[.[.W.W.W.R.Y.Y.U.U.U.a.p.5.5.5.4.*.#.#.+.O.+.O.....{ [ [ ] ' ] ] { J L H J C = .         ",
"^.eX(.wXrXwXOX(.wXrXeXeXeXtXeX<X.XE.T..XXX.X,XXX*X2X2XeXyXrXrXrXrXrXrXrXrXrXrXrXrXyXyXyXyXyXyXyXyXyXyXyXyXyXyXyXyXrXyXaXeXiXiX2X,X*X,X3X3X-X}.}.].].].].].].}.}.].].].].].].].].].].].].].$X$X#X$X$X$X$X$X>X$X$X>X&X>X6X6X6X7X7X7X7X6X6X6X6X6XqXqX6X6X9X9X9XzXxX0X9X9X7X7X9XxXxXxX9X0X6X%X].].#X$X].'.].%X>X>X;X X{.Y.a.p.@.&.4. .] R T H n x g g 8 J b q h g 8 3 q q q # = X   pXJXJXJXJXJXJXJXJXJXJXJXJXJXJXJXJXJXJXJXJXJXJXJXJXJXJXJXJXJXJXJXJXJXJXJXJXJXJXJXJXJXJXJXJXJXKXwX}     X   # # f { 5.d.[.j. .- . # : + # , # # # # 1 1 + + X X   wXJXJXJXJXKXJXJXJXJXJXJXJXJXJXJXJXJXJXJXJXJXJXJXJXJXwX  X + # O O     HXJXJXJXJXJXJXJXJXJXJXJXJXJXJXJXJXJXJXJXJXJXJXJXJXJXJXJXJXJXJXJXJXJXJXJXJXJXI.    O # < > > < : 1 2 p z V V 3 = % . o # . + # # # # # # # # # # 1 1 , , 1 1 1 2 1 2 3 5 q q q g g x c c x c c h g l h z c c h C J Z b A C Z ` U Y [ {  ...#.#.@.@.4.6.4.5.u.5.4.4.@.&.#.&.s.h.!.R.W.W.R.W.[.[.[.{.{.oXoX{.{.{. X X X X[.[.[.!.W.W.W.W.W.Y.Y.U.a.s.p.5.5.4.@.#.#.#.+.O.....{ { [ R ' J Y [ Y J J ] v K 7 o         ",
"<XeX<XrXwXyXeX/.<X<XeXeXuX<X<XuXeX,X/.3XXX*X*X3X,X2XeXeXrXrXrXpXrXrXrXrXrXrXrXrXyXyXyXyXyXyXyXyXyXyXyXyXyXyXyXyXyXyXyXuXwXeXiXiX2X2X2XiX4X:X-X$X}.].].].].].].}.].].].].].].#X#X].].].].#X#X$X$X$X$X$X$X>X>X>X>X>X>X6X6X6X7X7X7X7X7X6X6X6X6X6XqX6X6X8X0X9X9XzXzX9X7X9X7X7X9XxXxXxXxX0X9X$X].].#X#X].#X'.%X6X;X;X-X{.~.s.u.5.4.$. .] R Y J n v g g w b K 8 h h 5 3 q q q # = X   pXJXJXJXJXJXJXJXJXJXJXJXJXJXJXJXJXJXJXJXJXJXJXJXJXJXJXJXJXJXJXJXJXJXJXJXJXJXJXJXJXKXJXJXKXJXJXKXJXwXV X X   + # $ r X.6.W.U.$ 1 # # O # , # : # # # # 1 +     + HXJXKXJXJXJXJXJXJXJXJXJXJXJXJXJXJXJXJXJXJXJXJXJXJXJXI.X X X + + O     HXJXJXJXJXJXJXJXJXJXJXJXJXJXJXJXJXJXJXJXJXJXJXJXJXJXJXJXJXJXJXJXJXJXJXJXJXJXJ.X +   . : > : : # 1 2 8 z M h 2 % # . # + . # # # # # # # # # # # , 1 1 1 1 1 2 1 1 2 3 5 8 g w g g c c c g x x h h g z h h b Z b b b C J K Y [ ] ] Y  . .+...@.4.@.4.5.5.p.p.5.5.4.8.4.@.&.4.5.W.R.W.`.W.W.[.[.[.{.{.}.}.{.[.{. X-X:X-X{.{.[.!.W.!.W.W.W.R.Y.Y.U.a.p.7.5.5.4.@.@.#.+.O.......{ [ ] Y [ ] T J R L n J U h %         ",
"rXeXrXOXeXrXwX<X<X/.<XeXOXeXwXeXeXeX<X,X,X,X.X.X1X1XeXyXrXrXrXyXrXrXrXrXrXrXrXrXyXyXyXyXyXyXyXyXyXyXyXyXyXyXyXyXyXyXrXrX<XeXyXuXiXeXiXhXiX3X-X}.}.}.].].%X].].}.].}.$X$X].].#X$X].].].].].#X#X#X$X$X$X>X>X>X>X6X6X6X6X6X5X7X7X7X7X7X6X6X6X6X6X6X6X6X8X0X9X9XzXzXxX9XzXzXzXzXNXNXzXxX0X0X7X$X$X$X%X#X#X'.$X>X;X;X=X{.~.a.4.h.4.+. .{ R Y T n v x g g c ] q h x 8 3 h 3 q % = X   pXJXJXJXJXJXJXJXJXJXJXJXJXJXJXJXJXJXJXJXJXJXJXJXJXJXJXJXJXJXJXJXJXJXJXJXJXJXJXJXJXJXJXJXJXKXJXJXJXKXKXJ.  X X 1 % $ t @.W./.J : # # # # 1 : : # # 2 # + + X X -.JXJXJXJXJXJXJXJXJXJXJXJXJXJXJXJXJXJXJXJXJXJXJXJXJXJX)   X + + + X     HXJXJXJXJXJXJXJXJXJXJXJXJXJXJXJXJXJXJXJXJXJXJXJXJXJXJXJXJXJXJXJXJXJXJXJXJXJXJ.% 2 = + : : : : : 1 2 y f z f = # o # = . + # # # , , # # # # # # , 1 1 1 1 1 1 1 2 6 5 8 8 z g x x b c c c c x b b h c b c C b b U C A ' K Y [ [ Y ] R ....#.&.4.8.4.5.7.p.p.p.5.5.4.*.*.*.*.p.!.W.W.[.`.[.[.`.[.[.{.{.{.{.[.{.{.-X:X:X X{.{.[.!.[.!.~.~.W.Y.Y.U.a.s.u.u.5.5.*.@.#.+.O....... . .] Y n T v H Y J L J n 8 q         ",
"<XyXeXwXwXyX(.eXeX)./.eXL.kXwXeXrXrXeXOX,X,XXXXXOX2XeXyXyXrXrXrXrXrXrXrXrXrXrXrXyXyXyXyXyXyXyXyXyXyXyXyXyXyXyXyXyXyXiXuXeXeXyXuXiXtXtXiXiX4X-X{.}.}.].}.%X%X}.}.%X].#X#X#X$X$X%X'.'.'.%X#X#X#X#X$X$X>X>X>X>X>X6X6X6X6X6X>X7X7X7X7X7X6X6X6X6X6X6X6X6X6X9X9XzXxXVXNXNXNXNXNXNXBXNXNXzXzXxX0X7X6X6X%X%Xz.'.>X>X>X:X=X!.~.Y.5.d.@.$...{ ] R T J v x g g x ] g x g q F b 2 q % 1 X   pXJXJXJXJXJXJXJXJXJXJXJXJXJXJXJXJXJXJXJXJXJXJXJXJXJXJXJXJXJXJXJXJXJXJXJXJXJXJXJXJXJXJXJXJXJXJXJXJXJXJXJXwX+   +   w { d.~.*X7.= # # # < 1 : , # # # 1 1   X   wXJXJXJXJXJXJXJXJXJXJXJXJXJXJXJXJXJXJXJXJXJXJXJXJXJXAXX   X # # + X     HXJXJXJXJXJXJXJXJXJXJXJXJXJXJXJXJXJXJXJXJXJXJXJXJXJXJXJXJXJXJXJXJXJXJXJXJXJXJ.= q q o X : : < , 2 6 p f f 8 = = o # =   # = # # 1 < : : : 1 # # 1 1 1 1 1 1 1 2 2 3 F f f g g x c b c b C b b n C b b C C b C n c n Z Y L J ' ] Y ] [ ....&.&.5.5.p.p.p.p.6.p.5.5.5.4.4.*.4.U.[.[.`.[.[.[.[.[.[.{.{.{.{.{.{.{.{.{.-X-X}. X{.{.[.[.!.~.~.W.Y.Y.h.a.a.s.p.7.5.4.@.@.#.O.O... . .[ Y ] w Y T 7 m  .H r J h =         ",
"eXeX<X/.<X1X<X<X<X<XK.eX).wXrXrXeXrXeXeXOX<X/./.).2X<XeXyXrXrXrXrXrXrXyXrXrXrXyXyXyXyXyXyXyXyXyXyXyXyXyXyXyXyXyXyXtXeXiXeXyXyXiXyXyXeX1X2X4X4X}.}.}.'.].].].}.}.$X#X#X#X].'.}.}.-X}.%X:X$X%X%X$X$X$X>X>X>X>X>X6X6X6X6X6X>X7X7X7X7X7X6X6X6X6X6X6X6X6X6X7X9XzXNXNXBXMXNXMXMXMXMXMXNXzXxXxXxXxX0X8X%X%Xz.z.%X>X:X:X=X/.~.h.u.*.$.$.X.{ ] R T J v x g g x K h x 3 q 3 b = q # = X   pXJXJXJXJXJXJXJXJXJXJXJXJXJXJXJXJXJXJXJXJXJXJXJXJXJXJXJXJXJXJXJXJXJXJXJXJXJXJXJXJXJXJXKXJXJXJXJXJXJXJXJXJXdX2   . V O.4.Y.{.XXw # + : 1 : : # # # 1 # X + X + AXJXJXJXJXJXJXJXJXJXJXJXJXJXJXJXJXJXJXJXJXJXJXJXJXJXwX  O X # O + X     HXJXJXJXJXJXJXJXJXJXJXJXJXJXJXJXJXJXJXJXJXJXJXJXJXJXJXJXJXJXJXJXJXJXJXJXJXJXJ.o g C 3 % 2 : , 1 2 8 f q q 8 2 = . # = X = 1 # # 1 < < : : 1 , * 1 1 1 2 2 2 2 2 3 3 q q g h g x m m m m n m n n C C n n J n Y L J C U J L Y J [ ] { ] ..O.@.&.5.a.U.h.a.d.s.s.6.y.5.5.5.*.1.~.!.W.`.`.[.[.[.[.[.{.{.{.{.{.{.[.{.{.{. X{. X{.{.[.{.!.!.~.W.Y.U.h.a.a.s.s.u.5.4.*.&.#.#.O... . .{ [ [ J Y { v w ] [ L T v = .       ",
"eXeXeXP.eX/.yX<XeXeX).<XrXwXwXyXeXeXeXeX1XeX,X/./.2X2XeXyXrXyXyXrXrXyXyXrXrXyXyXyXrXrXrXyXyXyXyXyXyXyXyXyXyXyXyXyXyXeXiXiXuXyXyXaXyX2X*X,X4X>X%X%X%X].'.].}.].].%X].}.}.{.{.-X4XhX4X7X7X;X%X%X$X$X>X>X>X>X>X>X6X>X>X>X>X>X6X7X7X7X7X6X6X6X6X6X6X6X6X6X7X9XzXBXMXMXMXMXMXMXMXMXMXNXzXxXzXzXxX0X9X%X%Xj.0.j.>X;X:X;X X~.a.5.&.$.+.O. .{ R T J m c x g b b c b 3 q 3 h - q # 1 +   pXJXJXJXJXJXJXJXJXJXJXJXJXJXJXJXJXJXJXJXJXJXJXJXJXJXJXJXJXJXJXJXJXJXJXJXJXJXJXJXJXJXJXJXJXJXJXJXJXJXJXJXKXJXdX#   3 ] &.j.=X=X{ # # 1 1 # : # = 1 # 1 X     %.JXJXJXJXJXJXJXKXJXJXJXJXJXJXJXJXJXJXJXJXJXJXJXJXJXJXJ.  O X # # + X     HXJXJXJXJXJXJXJXJXJXJXJXJXJXJXJXJXJXJXJXJXJXJXJXJXJXJXJXJXJXJXJXJXJXJXJXJXJXJ.X g Y x 7 . # # 1 2 8 q q 8 8 3 = o # # o - 1 * # , < < : : , : , 1 1 1 2 2 2 2 2 2 3 5 q q c c x J J T J C n J n C K J J R O.O...[ J { Y P R O...u.O.Y  .&.@.5.p.a.g.h.U.g.d.a.y.y.5.4.4.4.6.[.W.W.[.[.[.[.[.[.{.{.{.{.{.{.{.[.{.{. X X{. X{.{.{.{.!.~.W.T.h.U.h.h.s.p.p.p.5.4.*.&.#.#.#.O.O...O.] ] ] J [ ] Y Y ..R ] J 8 .       ",
"wXyXeX/.eX1XeXyXrXrXeXwXrXeXwXwXyXrXrXwXeXwXeXIX*X,XeXyXrXyXrXyXrXyXyXyXrXrXyXyXrXrXrXrXrXyXyXyXyXyXyXyXyXyXyXyXyXyXrXuXiXuXyXuXaXyXeX,X=X;X%X}.%X%X].].].%X}.].%X{.-X:X4XhXcXjXvXjXhX7X:X%X%X%X$X>X>X>X>X>X5X6X6X>X>X6X6X7X7X7X7X7X6X6X6X6X6X6X6X6X6X7X9XzXBXMXDXDXnXMXMXDXnXMXVXzXzXxXxXxX9X7X>X%Xl.o.0.;X>X>X-X X~.U.*.*.@.+.O. .{ R T J n m c g K b x b q q q h 2 f # 1 +   pXJXJXJXJXJXJXJXJXJXJXJXJXJXJXJXJXJXJXJXJXJXJXJXJXJXJXJXJXJXJXJXJXJXJXJXJXJXJXJXJXKXJXJXJXJXJXJXJXJXJXJXJXJXJXwX  # z O.d.W./.u.2 # 1 1 # , 1 = + 1 * X O   wXJXJXJXJXJXJXJXJXJXJXJXJXJXJXJXJXJXJXJXJXJXJXJXJXJXJXA     + # # # O     HXJXJXJXJXJXJXJXJXJXJXJXJXJXJXJXJXJXJXJXJXJXJXJXJXJXJXJXJXJXJXJXJXJXJXJXJXJXJ.  q J J J . * * 1 1 5 q q 8 8 8 % # % % - - = # : , < 1 1 : : : 1 1 1 1 2 3 3 2 2 2 5 q g g b b m J T Y L J J K C C J Y ] { 4.U.E.i.*.u.O.@.y.U.a.R.p.R ....4.5.y.s.s.a.j.h.d.a.a.y.6.y.y.y.j.{.[.[.[.[.[.[.[.{.{.}.{.{.{.{.{.{.{.{. X X X X{.{.{.[.!.W.R.Y.h.h.h.a.p.u.u.u.7.5.4.&.#.#.#.O.O...O.Y J T Y  . .[ R R R R Y 9         ",
"yXwXwXeX<XeXwXeXwXrXeXwXeXrXwXwXOXeXeXwXwXwXwX1X*X!.eXyXeXpXwXyXrXyXyXyXyXrXyXyXrXrXrXrXrXyXyXrXyXyXyXyXyXyXyXyXpXaXyXaXuXaXyXaXrXyXtX2X=X-X%X%X%X%X].}.%X%X}.].%X;X4XcXjXaXfXdXsXjXhX7X;X$X>X%X$X>X>X>X>X>X6X7X4X4X4X7X7X7X7X7X7X7X7X7X7X6X6X6X6X8X6X7X9XmXGXFXDXMXbXDXMXDXMXBXNXzXzXxXxXzXxX9X6X>Xj.$.0.;X>X;X-X[.{.Y.4.*.&...O...{ R T J H b x g K b h h q q q h 3 f # 1 +   pXJXJXJXJXJXJXJXJXJXJXJXJXJXJXJXJXJXJXJXJXJXJXJXJXJXJXJXJXJXJXJXJXJXJXJXJXJXJXJXJXJXJXJXJXJXJXJXJXKXJXJXJXJXKXJXP.  y ` 5.h.~.d.3 % 2 , + * = = # + O X   + HXJXJXJXJXJXJXJXJXJXJXJXJXJXJXJXJXJXJXJXJXJXJXJXJXJXAX    + # # # # O     HXJXJXJXJXJXJXJXJXJXJXJXJXJXJXJXJXJXJXJXJXJXJXJXJXJXJXJXJXJXJXJXJXJXJXJXJXJXI.  7 J ..7.H 1 1 1 , 5 5 q 8 e 8 % % % = 3 - # * : : 1 4 4 < , 1 1 2 1 1 2 3 5 3 3 3 q h x x b n m J H J H J J C n b C ]  . .X.O.s.K.@.R E p.R.j.j.j.Y.h.y.6.5.4.5.g.j.g.Y.h.h.h.h.s.j.{.{.[.[.[.[.{.[.{.{.{.{.{.}.}.{.{. X{. X{.{.{. X XXXXX{.{.[.!.W.Y.Y.j.j.h.d.d.p.p.p.u.u.7.5.*.#.#.#.#.O.O...O.J Y R R [ ] R R R ..] 3         ",
"rXwX<XeX(.(.eX<XOXyXrXrXwXeXwXwX*.OX<XeXwXeXrXeX<X,XeXyXeXrXyXrXyXyXyXyXyXyXyXyXrXrXrXrXrXyXyXrXrXrXyXyXyXyXyXyXyXyXuXyXyXyXuXuXyXyXrXyX2X*X-X-X%X$X}.{.%X%X{.%X3X*XiXiXaXaXsXkXvXjXhX*X$X$X$X$X:X>X>X>X>X>X7X7X7X4X4X7X7X7X7X7X7X7X7X7X7X6X6X6X6X6X7X6XzXBXMXDXGXDXDXnXMXDXDXMXNXVXzXzXxXxXxX0X6X7Xj.0.j.;X>X-X}.{.{.Y.5.5.@.$.$...{ R Y Y J m v x C b h g q q q x 3 g # 3 X X pXJXJXJXJXKXJXJXJXJXJXJXJXJXJXJXJXJXJXJXJXJXJXJXJXJXJXJXJXJXJXJXJXJXJXJXJXJXJXJXJXJXJXJXJXJXJXJXJXJXJXJXJXJXJXJXKX` : V O.u.~.L.e = : < O = # # + # X +   %.JXJXJXJXJXJXJXJXJXJXJXJXJXJXJXJXJXJXJXJXJXJXJXJXJXJX(.  O O # # # + X     HXJXJXJXJXJXJXJXJXJXJXJXJXJXJXJXJXJXJXJXJXJXJXJXJXJXJXJXJXJXJXJXJXJXJXJXJXJXJ.  2 J ..d.X.7 1 < , 5 8 q 9 w 7 - % % = - - 1 2 , 1 4 6 4 < : 1 , 1 2 3 = 3 5 2 2 5 f g h b v m n n m n n n n J n m J Y { O.@... .+.{ ] +.T.U.U.U.U.R.Y.~.[.Y.W.W.W.W.Y.j.j.W.[.W.[.`.{.[.[.[.{.{.{.{.{.{.{.{.{.}.}.{.[. XXX{.{.{.{.{.XXXX[.!.[.[.!.W.j.j.j.g.h.h.s.p.p.p.u.5.5.5.*.@.#.#.O.O.....{ ] v { ] ] ] [ Y E  .] 3         ",
"rXeXeXeX/.^.<XrXeXrXeXrXwX^.wXwX^.wX<XrXyXyXyXwXeX<XeXyXrXrXyXrXyXyXyXyXyXrXrXrXyXrXrXrXrXyXyXrXrXyXyXyXyXyXyXyXyXyXyXyXyXyXyXuXyXpXyXyX2X*X=X-X%X%X%X}.%X}.-X4X4X2XhXhXaXaXaXsXkXaXhX*X:X%X$X;X:X>X>X>X>X4X7X7X7X7X4X7X7X7X7X9X7X7X7X7X7X7X7X8X8X8X7X7XzXBXMXGXGXDXDXMXDXDXDXMXBXVXzXzXxXxXzX9X9X>Xj.j.%X>X;X-X-X{.!.a.4.*.@.#... .{ R Y Y J n x x J C g w q w w x 3 h = 3 X X fXJXJXJXJXJXJXJXJXJXJXJXJXJXJXJXJXJXJXJXJXJXJXJXJXJXJXJXJXJXJXJXJXJXJXJXJXJXJXJXJXJXJXJXJXJXJXJXJXJXJXJXJXJXJXJXJXwX# z Y *.a.d.Y = 1 1 # * * . # # X     (.JXJXJXJXJXJXJXJXJXJXJXJXJXJXJXJXJXJXJXJXJXJXJXJXJXJX=.X X # # : # + X     HXJXJXJXJXJXJXJXJXJXJXJXJXJXJXJXJXJXJXJXJXJXJXJXJXJXJXJXJXJXJXJXJXJXJXJXJXJXJ.  = Y *.5.<.w 1 : , q g g w e 7 2 2 = = = - 3 3 1 < 4 4 6 4 1 , 1 3 3 3 8 2 2 2 3 q f g h x x c m n n n n H n J J J J T { O.O. .R  .R R  .p.U.h.5.o.6.~.~.{.{.{.}.-X}.}.=X{.=X-X-X}.{.{.{.{.{.{.{.{.{.{.{.{.}.}.}.}.{.[.{.{.{.{.[.[.[.[.[.!.W.!.!.!.W.j.h.h.j.j.h.s.p.p.p.u.7.7.5.*.@.#.#.O.O.O...R { r  . .] { Y T R { ] 7         ",
"yXwXwXeX<XOX<X<XyXrXrXrX<XP.rXwXrXwX(.eXeXeXeX<XrXeXeXyXrXyXyXrXyXyXyXyXyXrXrXrXyXrXrXrXrXyXyXrXrXyXyXyXyXyXyXyXyXyXyXyXyXyXuXuXyXaXyXuXeX*X-X%X%X%X%X%X%X{.*XiXiXiXaXaXkXaXaXsXkXjXhX:X$X%X$X>X:X>X>X>X>X>X7X7X7X7X7X7X7X7X7X7XhX7X7X7X7X9X7X7X8X7X7XzXNXBXDXGXGXDXDXMXMXDXDXMXMXNXzXzXxXxXxX9X7X>X;X;X6X>X%X$X%X{.~.d.5.*.$.$.$...{ ] Y T J n m v C J g h 8 8 h x 3 c 2 3     fXJXJXJXJXJXJXJXJXJXJXJXJXKXJXJXJXJXJXJXJXJXJXJXJXJXJXJXJXJXJXJXJXJXJXJXJXJXJXJXJXJXJXJXJXJXJXJXJXJXJXJXJXJXJXJXJXJX` 6 n  .d.T.O.= : : # o = # 1 X   X X KXJXJXJXJXJXJXJXJXJXJXJXJXJXJXJXJXJXJXJXJXJXJXJXJXJXKXl     # # : : # X     HXJXJXJXJXJXJXJXJXJXJXJXJXJXJXJXJXJXJXJXJXJXJXJXJXJXJXJXJXJXJXJXJXJXJXJXJXJXI.  o T *.y.<.m 5 < * 3 q g w q 7 7 3 = = = = 3 3 1 < 4 6 6 4 1 1 2 3 5 c h 2 2 3 q f g g h x v m n n n n n n H J T J J J [ O.{  . ...] Y { 7.U.@. .R  .[.!.{.{.{.}.-X{.-X;X-X:X-X-X-X-X}.oX}.oXoX{.{.{.{.{.{.oX}.}.{.[.{.{.{.[.{.[.[.!.!.!.!.W.W.W.W.R.j.j.j.h.h.a.s.p.p.u.u.7.7.4.*.@.#.#.O.O.O.O. .{ R R { ] ] Y Y R R { 8         ",
"<XwXeXwXeXrXwX<XrXrXrXeXyX(.wX^.sXwXOX<XeXeXeXeXrXeXeXrXrXrXyXrXyXyXyXyXyXrXrXrXyXrXrXrXrXyXyXyXyXyXyXyXyXyXyXyXyXyXyXyXyXyXyXuXyXyXyXuXtX3X-X%X%X%X%X%X{.=X3XiXaXsXaXfXsXaXaXsXjXjXhX:X$X$X$X:X>X>X>X>X>X4X7X7X7X7X7X7X7X7XhXhXhX7X7X7X7X9X7X7X7X7X7XzXMXDXDXGXGXGXDXMXDXDXMXMXMXNXzXzXxXxXxX9X7X7X7X7X7X4X;X%X%X[.!.d.u.*.@.$.$.O. .] Y T J n v x m J g v e e x b 7 c 2 3 O X dXJXJXJXJXJXJXJXJXJXJXKXJXJXJXJXJXJXJXJXJXJXJXJXJXJXJXJXJXJXJXJXJXJXJXJXJXJXJXJXJXJXJXJXJXJXJXJXJXJXJXJXJXJXJXJXJXKX(.  h Y u.T.i.3 , # # o = = X + +   %.JXKXJXJXJXJXJXJXJXJXJXJXJXJXJXJXJXJXJXJXJXJXJXJXJXJXCX      # # , , # X     HXJXJXJXJXJXJXJXJXJXJXJXJXJXJXJXJXJXJXJXJXJXJXJXJXJXJXJXJXJXJXJXJXJXJXJXJXJXJ.  . n $.1.o.x 1 < 1 F q g w e 9 9 3 - = = = 1 2 1 1 4 6 6 6 2 3 3 3 8 Z c b 3 q g z h h x x v m n n n n H H H J Y J T J ]  . .X. ... .Y T O.T.{  .+.@.{.{.{.{.{.{.{.{.-X-X-X>X-X>X-X:X-X-X}.oX{.{.oXoX{.oXoX}.oX{.{.{.XX{.{.[.[.[.[.!.W.W.W.W.W.W.W.R.j.Y.h.h.a.s.s.p.p.u.u.u.7.4.*.@.#.#.#.O.O. .O.R ..T R { [ { { R T R q         ",
"<XeXeXwXeXeXwXrXeXeXrXwXrXaXwX/.aXrXeX<XeX1X2XeXeXeXrXrXrXrXyXyXyXyXyXyXyXrXrXrXyXrXrXrXrXyXyXyXyXyXyXyXyXyXyXyXyXyXyXyXyXyXyXuXyXyXyXuXiX3X;X%X%X%X#X'.%X3XtXiXaXsXaXfXsXaXsXkXjXjXhX-X$X$X;X>X>X>X>X>X4X4X4X7X7X7X7X7XhXhXhXhXhXhX7X7XzXzX7X7X7X7XhXmXDXDXDXGXGXGXDXMXMXDXMXMXMXNXzXzXxXxXxX9X9X7X7XzX7X7X:X$X{.W.~.d.4.&.&.$.O... .] R Y J n x x n J w x w w n m w b 3 3 + . CXJXJXJXJXJXKXJXJXJXJXJXJXJXJXJXJXJXJXJXJXJXJXJXJXJXJXJXJXJXJXJXJXJXJXJXJXJXJXJXJXJXJXJXJXJXJXJXJXJXJXJXJXJXJXJXJXJXHX+ 3 Z O.u.u.7 # : * * o 1 # X   X (.JXJXJXJXJXJXJXJXJXJXJXJXJXJXJXJXJXJXJXJXJXJXJXJXJXJX(.  O # # : : : + X     FXJXJXJXJXJXJXJXJXJXJXJXJXJXJXJXJXJXJXJXJXJXJXJXJXJXJXJXJXJXJXJXJXJXJXJXJXJXJ.X   m { W o.n 4 < , 3 q g x w e q 7 3 2 2 - = 1 , 1 4 6 y 6 3 5 5 5 8 h K ` g g g f g x x x v m n n n H J J J L T T Y J T {  ... ...{ ] { *.Q.+.+.+.h.W.[.[.{.}.}.-X-X-X[.{.}.-X:XoX}.:X5X:X:XoXoXoXoX}.oXoXoX-X}.{.{.XX{.{.{.{.[.[.!.W.W.R.W.W.W.W.Y.j.Y.U.a.d.s.s.s.p.u.u.7.7.5.*.@.#.#.#.O.#.R { R { R R Y  .[ {  .R T b .       ",
"eXyXeXwXwXeXwXeXrXeXwXwX<XyXwXaXrXrXeX<X<X,X,X,X1XeXyXyXrXrXyXyXyXyXyXyXyXrXrXrXyXrXrXrXrXyXyXyXyXyXyXyXyXyXyXyXyXyXyXyXyXyXyXuXyXuXyXiXeX2X;X-X}.%X{.%X=XiXaXuXaXuXaXsXaXaXaXkXjXhX4X-X$X$X;X:X>X>X>X>X4X4X4X7X7X7X7XhXhXhXhXhXhXzX9XzXzXzXzX9XhXhXzXmXDXZXZXGXGXGXDXMXMXDXMXnXMXNXxXzXzXxXxX9X7X7XhXzX7X6X>X$X'.j.~.d.4.*.&.O.....{ ] Y Y J J m m J J g H v e J m b b q F # . AXJXJXJXJXJXJXJXJXKXJXJXKXJXJXJXJXJXJXJXJXJXJXJXJXJXJXJXJXJXJXJXJXJXJXJXJXJXJXJXJXJXJXJXJXJXJXJXJXJXJXJXJXJXJXJXJXJXJX` 1 V { u.7.q + # o * o % # X   X KXKXJXJXJXJXJXJXJXJXJXJXJXJXJXJXJXJXJXJXJXJXJXJXJXJXJX-.O   + # : : : @ X     HXJXJXJXJXJXJXJXJXJXJXJXJXJXJXJXJXJXJXJXJXJXJXJXJXJXJXJXJXJXJXJXJXJXJXJXJXJXJ.    e {  . .J 6 4 * 2 q q w r e e q 8 3 3 2 2 2 , 1 4 6 6 5 3 5 3 2 8 8 } K h h g q w h x x m n n n n n J J J T T Y Y T J ] ]  . .....} ] { O.O.#.5.W.{.[.[.[. X X-X-X{.Y.Y.W.W.!.W.W. XoX X:X-X XoXoXoX-X:X:X:X}.[. XXX{.{.{.{.[.[.!.W.W.W.W.W.W.R.R.j.h.a.p.p.p.p.p.u.5.5.5.5.4.*.@.#.O.O.&.#. .x  .H { O.T [ ] T  .R [ C .       ",
"OXeXrXrXrXwXwXeXrXwXOXwXeXrX(.(.rXrXeX2X2X,X*X.X,X2XeXrXrXrXrXyXyXyXyXyXyXrXrXrXyXrXrXrXrXyXyXyXyXyXyXyXyXyXyXyXyXyXyXyXyXyXyXuXyXaXyXyXyX2X2X3X*X-X-X3X2XuXaXuXiXeXeXsXaXsXaXkXjXiX3X;X$X$X:X:X3X3X>X>X4X4X4X4X7X7X7XhXhXhXhXhXhXzXzXzXzXzXzXzXhXzXmXnXDXnXZXDXGXGXDXMXMXDXMXMXMXNXVXzXzXxXzX9X7XzXhXhX7X7X6X%XW.l.!.p.5.*.@.#.$... .] R Y J n v x H n v L L r J x J b h z = # X + # 2 5 V _ ` %.=.P.^.wXCXJXJXKXJXJXJXJXJXJXJXJXJXJXJXJXJXJXJXJXJXJXJXJXJXJXJXJXJXJXJXJXJXJXJXJXJXJXJXJXJXJXJXJXKXJXP.1 f ] *.d.c = * o $ # # O X   %.JXJXJXJXJXJXJXJXJXJXJXJXJXJXJXJXJXJXJXJXJXJXJXJXJXJXHXz     + : : < : # X     HXJXJXJXJXJXJXJXJXJXJXJXJXJXJXJXJXJXJXJXJXJXJXJXJXJXJXJXJXJXJXJXJXJXJXJXJXJXI.  . 3 { i. .x , 4 1 3 q q e r w e q q q 5 2 3 3 , < 4 4 6 5 3 5 f f h c ] w w g g g g g x c n J J C n C J J J J Y { R Y T Y ]  ... . . .....O.&.@.7.u.T.T.T.Y.!.!.{.{.~.Y.j.Y.Y.U.h.U.R.U.T.~.W.W.[.[.[.{.-X-X-X}.W. X X X{.[.{.!.!.!.W.~.W.W.W.W.W.Y.h.h.a.s.p.p.u.u.7.7.5.5.4.4.4.&.#.O.O.O..... . ...J ] { ]  .L R H  .x .       ",
"/.eXeXeXrXwXrXeX(.wXwXwXrXeXwX^.rXrXeXeX3XXX*X X*X3X2XeXeXrXrXyXrXrXrXrXrXrXrXrXyXyXrXrXrXyXyXyXyXyXyXyXyXyXyXyXyXyXyXyXyXyXyXuXyXaXpXpXyXyXiX2X2X2X4XiXaXpXaXaXiX*X1XiXiXsXaXkXjXiX3X;X>X$X;X3X4X3X>X>X7X4X4X4X7X7XhXhXhXhXhXzXhXzX9XzXzXzXzXzXhXNXMXMXDXZXGXZXDXGXDXMXMXDXMXMXMXNXVXzXzXxX0X0X7XzXzXhXzX>X>X%XW.g.!.5.4.*.$.*.$.O. .[ ] R T J v v J v r L L e L r U b b b 3 # # + X +   X   X   +     X   f J.CXKXJXJXJXJXJXJXJXJXJXJXJXJXJXJXJXJXJXJXJXJXJXJXJXJXJXJXJXJXJXJXJXJXJXJXJXJXJXJXJXJXJXwX, 5 Y *.u.w o * o * 1 O X X   (.JXJXJXJXJXJXJXJXJXJXJXJXJXJXJXJXJXJXJXJXJXJXJXJXJXJXCX    # # < : < # # X     HXJXJXJXJXJXJXJXJXJXJXJXJXJXJXJXJXJXJXJXJXJXJXJXJXJXJXJXJXJXJXJXJXJXJXJXJXJXI.    3 ..K.*.x 1 4 * * 3 q w r w e w q q 5 3 3 6 , 1 6 6 6 3 5 f b _ U K c g w g c x g g x m n C J C J J T Y T J R ..Y R Y T ] ]  . ..... ...#.@.#.*.4.p.y.5.y.a.h.W.Y.Y.R.R.W.Y.T.U.L.a.p.h.d.a.g.U.j.g.j.W.W.W.W.g.{.XXXX[.[.{.!.W.W.R.W.R.W.W.W.W.W.Y.h.a.a.s.s.p.u.7.7.7.5.5.5.7.5.&.O.O.O.{  ...{  .R T { { ..Y R R { C % + X   ",
"OXeXeXyXwXrXrXwXOXOXOXeXeXeXwXwXeX<XrXeX1X1X*X=X*X*X2X2X<XeXtXeXeXyXyXrXrXrXrXrXyXyXyXyXyXyXyXyXyXyXyXyXyXyXyXrXyXyXyXyXyXyXyXyXaXuXyXyXyXyXuXuXuXuXiXaXfXaXuXiX=X2XiXaXaXuXuXsXjX4X:X;X;X:X>X>X4X3X>X>X7X7X7X7X7X7X7XhXhXhXhXhXhXhXzX7XzXzXzXzXcXnXDXZXZXDXMXNXNXNXMXGXDXDXMXMXMXMXMXzXzXxX9X9X8X7XhXhX7X>X:X'.W.W.!.d.5.*.$.@.O... .{ ] R L J v J n v m J J r r x x m U b 3 = * # + . . + O X X X   X           J.KXJXJXJXJXJXJXJXJXJXJXJXJXJXJXJXJXJXJXJXJXJXJXJXJXJXJXJXJXJXJXJXJXJXJXJXJXJXJXJXJXAXX 2 l ' A 2 * @ * , # + +     HXJXJXJXJXJXJXJXJXJXJXJXJXJXJXJXJXJXJXJXJXJXKXJXJXJXJX^.X O + @ < < : , + X     HXJXJXJXJXJXJXJXJXJXJXJXJXJXJXJXJXJXJXJXJXJXJXJXJXJXJXJXJXJXJXJXJXJXJXJXJXJXJ.    5 } &.{ g % 1 4 2 5 8 w x w 9 g w w e 7 3 1 1 1 4 4 4 6 5 V V q q 7 w w e x m c h h c b C J C C C J L L J T T E  .R T R ] ]  . .....{ O.#.@.&.4.7.y.6.5.p.a.h.Y.Y.R.k.R.W.W.h.U.U.a.a.U.U.U.U.U.T.T.U.U.T.U.a.T.E.U.T.T.T.!.!.!.h.a.U.Q.R.W.W.W.W.Y.U.h.a.s.p.u.u.u.u.7.5.5.5.5.5.7.&.#.#... . . . .{ [ R  .X. .R  .[ Z .   X   ",
"<X2X<XeXeXrXrXyXeXiX<X1X2X1X<XrXrX(.OXeXeX,X*X*X*X*X2X2X1XeXeXeXeXrXrXrXrXrXrXrXyXyXyXyXyXyXyXyXyXyXyXyXyXyXyXyXyXyXyXyXyXyXyXyXaXaXyXyXyXyXuXaXyXuXuXaXsXaXaXiX=X2XuXsXaXuXuXsXiX4X:X;X;X:X>X>X3X3X>X7X4X7X4X7X7X7X7XhXhXzXzXzXhXhXzXzXzXzXzXcXmXnXDXZXAXDXMXmXzXNXNXGXDXDXMXMXMXMXNXzXzXzXxX9X5X7XzXhX7X>X:X'.~.W.!.p.5.*.@.&.O... .{ ] Y L J m H J v n J H w x m m n J h 2 3 1 1 * # # # # + # # + + X X       X U HXJXJXJXJXJXJXJXJXJXJXJXJXJXJXJXJXJXJXJXJXJXJXJXJXJXJXJXJXJXJXJXJXJXJXJXJXJXJXJXKX5 X + 1 2 O * * * , # #     %.JXJXKXJXJXJXJXJXJXJXJXJXJXJXJXJXJXJXJXJXJXJXJXKXJXJXJX%.  X # : < < : : + X     HXJXJXJXJXJXJXJXJXJXJXJXJXJXJXJXJXJXJXJXJXJXJXJXJXJXJXJXJXJXJXJXJXJXJXJXJXJXJ.X   = ] O.{ q # 4 4 2 3 q w r x w r v m e w f 2 1 1 4 4 2 6 6 z f q 8 7 w w h m n b x x c n n C C C C J L L Y R R R  .{ R Y [ [  .....O...&.&.&.*.5.u.p.y.p.a.h.h.T.j.R.R.`.W.W.Y.U.U.a.a.a.a.U.U.U.T.T.U.h.T.T.U.U.U.L.T.T.a.T.W.!.s.s.L.T.W.W.Y.W.W.Y.U.U.h.a.s.p.u.u.u.u.5.5.5.5.5.7.*.O.O.O.[ #. . ...[ R .. .R  . .] J   .     ",
"OX<X1XeXeXeXeXeX<X2XOX1X1X,X1XOXrXOXwX<X2X,X*XXX*X*X2X2X1X2XeXeXeXrXrXrXrXrXrXrXyXyXyXyXyXyXyXyXyXyXyXyXyXyXyXyXyXyXyXyXyXyXyXyXaXaXyXyXyXuXuXaXyXuXuXaXaXaXaX2X*X4XjXsXaXaXuXuXiX4X:X;X;X;X>X>X4X>X7X7X4X4X4X7XhXhXhXzXzXzXzXmXzXzXzXzXzXzXmXmXMXnXnXZXLXDXnXzXzXNXmXBXMXMXMXMXMXMXNXVXzX9XxX7X>X7XzXhXzX>X:X%X'.W.!.u.5.*.&.@..... .{ ] Y L J m n L v n J n r J m x J U b 3 q 6 2 2 1 1 1 1 1 # # # + X .   .       } JXJXJXJXJXJXJXJXJXJXJXJXJXJXJXJXJXJXJXJXJXJXJXJXJXJXJXJXJXJXJXJXJXJXJXJXJXJXJXJX} X .   # 1 = , * , +     + (.KXJXKXJXJXJXJXJXJXJXJXJXJXJXJXJXJXJXJXJXJXJXJXJXJXKXJX2     # : < < : , # X     HXJXJXJXJXJXJXJXJXJXJXJXJXJXJXJXJXJXJXJXJXJXJXJXJXJXJXJXJXJXJXJXJXJXJXJXJXJXI.    = ` { R h % 4 < 1 3 q w w x w w v n w w z 4 1 4 6 4 1 5 y f 5 q 8 w w w x b C m x x m n J C H n J J L Y R [ {  . ... .R [ [  ...O.O.O.*.&.&.4.u.a.a.p.d.Y.T.U.Y.j.R.W.[.{.!.R.U.T.s.a.s.a.U.T.T.T.T.U.U.U.T.U.a.a.a.U.U.U.a.h.Q.p.p.p.s.W.W.Y.!.[.W.U.U.h.a.s.s.p.u.u.p.y.5.5.5.5.5.&.O.#.&.{ ..{ [ ....#.R #.X.R R { [     1   ",
"/./.,X(.OX1X<X<X,X1XOX,XOX,X2X/.wXeXyX,X2X2X,X X.X.X3X2X1X1X2XeXeXrXrXrXrXrXrXyXyXyXyXyXrXyXyXyXyXyXyXyXyXyXyXyXyXyXyXyXyXyXyXyXaXaXyXyXyXuXaXaXaXuXaXaXuXuXiX,X2XiXaXuXaXaXaXuXiX2X3X;X;X;X>X4X>X>X7X7X4X4X4XhXhXhXzXzXcXcXmXmXmXzXzXzXzXzXmXmXDXDXZXZXLXGXnXzXzXzXzXMXMXMXMXMXMXMXNXBXzX9XxX7X>X0XzXhXhX>X:X$X[.Y.~.5.*.$.#.O.{ { { R R T J n v v J v m J m v T m r C U b q 5 3 6 2 2 2 2 2 2 1 2 1 1 # = . = #     + P.JXJXJXJXJXJXJXJXJXJXJXJXJXJXJXJXJXJXJXJXJXJXJXJXJXJXJXJXJXJXJXJXJXJXJXJXJXJXJXJ.  + # . = + # # , O       HXJXKXJXJXJXJXJXJXJXJXJXJXJXJXJXJXJXJXJXJXJXJXKXJXJXJXpX    O # : < : : , # X     HXJXJXJXJXJXJXJXJXJXJXJXJXJXJXJXJXJXJXJXJXJXJXJXJXJXJXJXJXJXJXJXJXJXJXJXJXJXJ.  X 3 { ..O.] 5 < 4 3 2 7 q w e w w e m n w z 6 1 4 4 4 4 y y p p g g h x x v m b b v x m n H H H H J J L Y R ]  ...{ ....{ R ]  .....O.+.*.*.@.@.5.a.d.d.d.h.h.h.R.W.[.{.}.}.[.W.U.U.a.s.s.U.U.T.T.T.T.U.h.L.U.L.a.p.d.a.a.U.p.s.U.a.p.a.y.W.!.W.!.[.!.U.h.L.a.a.a.s.p.5.p.y.y.y.5.5.5.*.#.O.#.O.{ ..] [ .. . . . .....L ] #   1 . ",
").T.OX/./.1XOXOXXX2X,X,X,X*X1X.XOX<X<X.X2X2X.X X.X.X3X3X,X1X1X2XeXeXrXrXrXrXrXrXyXyXyXyXyXyXyXyXrXrXrXrXrXrXyXyXyXyXyXyXyXyXyXyXaXuXyXyXyXuXaXaXaXaXaXaXiXiXiX*XaXiXuXuXaXsXaXaXiX4X3X;X:X:X>X>X>X>X4X4X4X4XhXhXcXcXcXcXcXmXmXmXmXmXzXzXzXzXnXMXDXDXDXZXZXGXMXmXxXNXzXMXNXMXMXNXMXMXMXBXzXzXxX6X>XxXzXhXzX>X;X$XW.h.T.&.O. .{ { Y Y T J J n v v g h c x g n x v v h w x b w 3 5 2 2 2 1 1 1 2 2 1 2 1 2 1 2 # = # .     1 AXJXJXJXJXJXJXJXJXJXJXJXJXJXJXJXJXJXJXJXJXJXJXJXJXJXJXJXJXJXJXJXJXJXJXJXKXJXJX^.  X 3 - 2 + * : # O .   %.JXJXJXJXJXJXJXJXJXJXJXJXJXJXJXJXJXJXJXJXJXJXJXJXJXJXJX^.X   O : : : : : , : X     FXJXJXJXJXJXJXJXJXJXJXJXJXJXJXJXJXJXJXJXJXJXJXJXJXJXJXJXJXJXJXJXJXJXJXJXJXJXI.  X # U { *.{ z 4 1 4 3 q w w w w w e r J h 5 2 1 1 4 4 4 5 y y f g g h c c c c c v v v n H J H H H C J L Y ] [ ..+.R  ...] Y ]  ...O.O.#.4.5.4.4.y.g.g.s.g.j.j.R.[.[.}.}.}.{.!.Y.U.U.L.a.a.U.U.U.U.U.T.T.a.a.a.d.d.i.p.p.a.s.p.a.K.L.p.p.y.W.!.W.!.{.!.U.h.U.U.U.h.a.p.p.p.p.p.p.5.4.4.4.&.O...+. . ...{ .. ...{ .... .] Y 3     = ",
"!.E.XX.X.X/.OXXXXX*X3X3X*X*X,XXX,X<X2XOX3X,XXX X.X.X3X3X,X,X3X2XeXeXrXrXrXrXrXrXrXrXyXyXyXyXyXyXrXrXrXrXrXrXyXyXyXyXyXyXyXyXyXyXyXyXyXyXyXuXaXaXuXaXaXaXuXiXtX1XuXuXuXuXsXaXaXsXaX2X3X;X:X>X>X4X4X4X4X4X4XiXhXhXjXhXcXcXmXmXmXmXmXmXzXzXzXmXnXMXSXDXGXZXZXGXDXMXNXNXzXMXMXMXMXMXMXMXMXBXzXzXxX7X>XzXzXzXzX>X-X{.Y.y.p.O.{ Y U J n n b x x h w q 8 8 q q 3 g 8 w 3 8 7 8 5 2 = 2 = = # # * # 1 1 * 1 = 1 1 1 3 * X # +   + P.KXJXJXJXJXJXJXJXJXJXJXJXJXJXJXJXJXJXJXJXJXJXJXJXJXJXJXJXJXJXJXJXJXJXJXJXJXJX(.  % b J q % 1 : # X X   (.JXJXJXJXJXKXJXJXJXJXJXJXJXJXJXJXJXJXJXJXJXJXJXJXJXJXJX%.  + + # : : # : 1 # X     HXJXJXJXJXJXJXJXJXJXJXJXJXJXJXJXJXJXJXJXJXJXJXJXJXJXJXJXJXJXJXJXJXJXJXJXJXJXJ.  # = K ..u.O.Z 6 1 1 2 3 e e x 9 9 e e c g 2 1 4 4 4 y 6 5 p f l f h h x c c v x v v v m H L L J H n n J T ] R ..+. . .....] [  ...O.+.@.4.5.5.5.y.s.g.g.j.W.[.{.}.{.{.{.oX{.!.T.U.a.U.a.h.a.a.U.U.U.T.T.U.a.d.u.u.u.u.p.a.s.s.i.p.s.s.g.g.W.W.W.[.{.!.j.h.U.U.U.h.g.y.p.y.p.p.p.6.4.4.8.&.@.#...#.R +.O. .O. ... . .[ L ..x $ 2 o ",
"/.!./.XXXXQ.OXOX3XXX,X*XXX.X,XXXOX,XtX,X.X,X*X*X.X.X3X,X*X,X3X1XeXeXrXrXrXrXrXrXrXrXyXyXyXyXyXyXrXrXrXrXrXrXyXyXyXyXyXyXyXyXyXyXyXyXyXyXyXuXaXuXuXaXaXaXuX2XtXtXpXaXuXuXsXfXfXsXaX2X3X;X:X>X>X4X4X4X4X4X4XhXhXhXjXjXcXcXmXbXbXbXmXmXmXzXzXmXbXMXnXDXDXZXZXDXDXMXMXNXmXMXNXMXMXMXDXDXDXMXNXxXzX9X>XzXzXzXzX:X{.W.h.@.#.] C c h g q q 7 3 8 3 2 2 = 2 = 2 % 2 = 2 = % = = = * # # + + + . . + + # # * = = 2 2 z 2 3 X #     V JXJXJXJXJXJXJXJXJXJXJXJXJXJXJXJXJXJXJXJXJXJXJXJXJXJXJXJXJXJXJXJXJXJXJXJXJXJXwXX = Z [ 8 # # # # O   X AXKXJXJXKXJXJXJXJXJXJXJXJXJXJXJXJXJXJXJXJXJXJXJXJXJXKXKX+ X X # : : : : , 1 # X     FXJXJXJXJXJXJXJXJXJXJXJXJXJXJXJXJXJXJXJXJXJXJXJXJXJXJXJXJXJXJXJXJXJXJXJXJXJXJ.  + = C { $.O.b + 6 3 2 7 C w e w 8 w e w 8 1 1 4 4 4 y 6 y f f z h c x g c x x x v v v H L L L L J n J L T R R  ... . .#.#. .{  ...O.+.@.4.5.5.5.6.s.j.R.W.`.{.}.oX}.}.}.-X{.W.R.U.a.U.U.U.a.a.a.U.U.T.T.L.a.p.u.7.7.u.u.s.a.p.i.i.s.U.!.W.[.W.W.!.[.[.Y.j.j.Y.Y.U.g.s.y.y.y.y.y.6.4.4.8.@.@.@...4...+.#.{ ..O... .T &.J ] ] 9 C 2 ",
"XX!./.E.XX*XXXXX/.!..XXX.X.X.X,X2XXX3X3X.X*X,X X.X.X,X,X.X3X3X1XeXeXrXrXrXrXrXrXrXrXrXyXyXyXyXyXyXrXrXrXrXyXyXyXyXyXyXyXyXyXyXyXyXyXyXyXyXuXaXaXuXaXaXuXiX2XeXhXfXsXuXuXsXdXdXdXaX2X3X>X:X>X>X4X4X4X4X4XiXhXhXhXjXjXcXmXmXmXbXbXmXmXmXmXzXmXbXMXnXnXDXZXZXDXDXDXMXMXmXBXMXMXMXMXDXGXDXnXNXNXzXzX7XxXzXhXhX;X{.W.d. .{ b q 3 - = = = o # # # . # . # . + + . # + . . . . . X X O X X       X X + O + + # 2 3 V 3 f # . + X   CXJXJXJXJXJXJXJXJXJXJXJXJXJXJXJXJXJXJXJXJXJXJXJXJXJXJXJXJXJXJXJXJXJXJXJXJXJXCX. 3 b { 3 2 1 > O X   } JXJXJXJXJXJXJXJXJXJXJXJXJXJXJXJXJXJXJXJXJXJXJXJXJXJXJXpX  X X # : : < < < 1 + X     FXJXJXJXJXJXJXJXJXJXJXJXJXJXJXJXJXJXJXJXJXJXJXJXJXJXJXJXJXJXJXJXJXJXJXJXJXJXJ.  # 5 ] &.u.*.` 2 1 1 3 7 x x - g w e x g 8 4 1 4 4 4 y 4 y y y f c b b w b h h x v v n H T T R Y J J J L Y R R  . . . .+.#... .{ ..O.#.*.4.4.5.y.j.W.{.[.`.[.{.{.}.}.}.}.oX{.W.W.U.a.a.U.h.a.a.a.a.L.T.T.K.s.u.u.7.7.u.u.p.a.u.K.u.p.s.[.`.`.W.W.W.~.{.Y.h.j.R.R.j.g.s.y.6.y.y.y.6.5.4.8.#.#.@.@.+.#. .@.O.#.+.#... .{ { T ..v m Y ",
"Q.XX!.+XQ.XXXXXXQ.XXXX.XXX3X,XXX2X).XX3X.X*X*X*X,XXX4X.X*X*X,X<XeXeXrXrXrXrXrXrXrXrXrXyXyXyXyXyXrXrXrXrXrXyXyXyXyXyXyXyXyXyXyXuXuXyXrXyXyXuXuXaXaXaXaXiX2X3X2XuXpXpXaXaXaXsXfXdXaXtX*X:X:X5X:X7X4XhXiXhXhXhXhXhXhXcXcXmXmXbXbXbXmXmXmXmXmXbXMXDXZXZXDXZXZXDXGXFXFXDXMXMXMXMXMXMXDXDXDXMXMXmXzXzX7X7X7XhX4X=X~.h.*.R C F , # + X X X X X X X X X X X X X X X X                               X X   # + + 1 # 2 q 2 2 # + X   (.JXJXJXJXJXJXJXJXJXJXJXJXJXJXJXJXJXJXJXJXJXJXJXJXJXJXJXJXJXJXJXJXJXJXJXJXJXHX  2 h K 2 # # : O X   (.KXJXJXJXJXJXJXJXJXJXJXJXJXJXJXJXJXJXJXJXJXJXJXJXJXJXJX^.  X O : < , : : : # # X     AXJXJXJXJXJXJXJXJXJXJXJXJXJXJXJXJXJXJXJXJXJXJXJXJXJXJXJXJXJXJXJXJXJXJXJXJXJXJ.X X f { *./.*.Y 2 1 1 5 3 e C w 7 x e w 8 7 4 4 4 4 4 y y y p f z h c c w w w w g x v v H L P T R J J J T L Y R { { { ....O.#... ...O.#.@.1.4.y.Y.W.{.{.}.{.}.}.}.}.}.}.}.oX[.R.Y.T.a.s.a.U.a.U.U.U.L.T.U.a.d.u.u.u.u.7.7.7.p.p.i.i.i.p.W.[.[.`.R.W.!./.~.h.j.j.R.R.g.s.s.6.y.p.y.5.4.5.5.@.@.@.@.R @. .O.@.@. .R +. ...} [ { L Y ] ",
"Q.!./.!.!.!.[.XXQ..XXX/.XXQ.,X,X.X,X.X3X3X*X,X.XOXXX3X*X*X*X,X1XeXeXrXrXrXrXrXrXrXrXrXyXyXyXyXyXrXrXrXrXrXyXyXyXyXyXyXyXyXyXyXuXyXrXrXyXuXuXaXaXiXuXuXiX2X3XeXuXpXpXaXaXaXsXdXdXaXiX3X>X>X7X4X4XiXiXhXhXhXhXjXjXhXcXcXcXmXbXbXbXbXbXmXmXmXnXZXDXDXDXDXZXZXDXDXFXFXDXMXMXMXMXMXMXZXGXGXMXNXNXxXzX6X6X7X7X3X=X~.d.O.T g dXKXAXAXAXAXAXSXSXSXCXCXCXCXCXCXCXCXCXSXCXAXAXAXAXAXAXAXAXAXAXAXAXAXAXAXAXKX^.# 1 # 3 2 3 = 1 # + X   I.JXJXJXJXJXJXJXJXJXJXJXJXJXJXJXJXJXJXJXJXJXJXJXJXJXJXJXJXJXJXJXJXJXJXJXJXJXKX# = h b % % # +       AXJXJXJXJXJXJXJXJXJXJXJXJXJXJXJXJXJXJXJXJXJXJXJXJXJXJXKX}     # # : < 4 6 6 : O X     HXJXJXJXJXJXJXJXJXJXJXJXJXJXJXJXJXJXJXJXJXJXJXJXJXJXJXJXJXJXJXJXJXJXJXJXJXJXI.X X c U u.d.$.T 2 4 1 3 3 7 m C r v x x h 2 4 4 4 4 4 6 y y y y z f b h h g e r v H L R  .] E P L J T Y T T Y Y ] ]  . ...#.4.O...O.#.#.@.1.5.h.W.[.}.{.}.{.[.{.}.oX}.}.}.{.W.Y.Y.U.a.s.a.U.U.T.T.U.K.L.L.s.p.u.u.u.u.7.7.7.u.u.u.i.u.p.Y.[.{.`.R.W.{.{.~.h.Y.Y.Y.Y.g.g.y.y.y.p.y.5.4.4.<.@.@.4.@.#. ...#...+...R +...Y O.{ { m O.[ ",
"!.U.!.!.+XQ.XX+X.X!.+X/.XXXX3XOX,X*XQ.3X3X3X,X3X,X.X*X=X*X*X*X,X<XeXtXrXrXrXrXeXrXrXrXrXyXyXyXyXrXrXrXrXrXyXyXyXyXyXyXyXyXyXyXuXeXeXeXyXuXuXaXaXyXuXiXeX2X2XtXuXaXaXaXaXsXsXdXdXaXiX2X4X>X>X4X4XiXiXhXhXhXhXhXhXjXcXcXcXmXvXbXmXbXbXmXmXmXnXDXDXZXDXFXZXZXDXDXDXDXDXMXMXMXMXDXDXZXGXGXnXNXBXxX7X7X6X7X7X3X=XY.u.{ x 2 AXKXJXJXJXJXJXJXJXJXJXJXJXJXJXJXJXJXJXJXJXJXJXJXJXJXJXJXJXJXJXJXJXJXJXJXJXKX(.X # 1 3 q 5 = 1 , # +   %.JXJXJXJXJXJXJXJXJXJXJXJXJXJXJXJXJXJXJXJXJXJXJXJXJXJXJXJXJXJXJXJXJXJXJXJXJXJX5 = g w o % : # X + } JXJXJXJXJXJXJXJXJXJXJXJXJXJXJXJXJXJXJXJXJXJXJXJXJXJXJXHX+     # # : : , 4 4 : O X     HXJXJXJXJXJXJXJXJXJXJXJXJXJXJXJXJXJXJXJXJXJXJXJXJXJXJXJXJXJXJXJXJXJXJXJXJXJXJ.  # q [  .a.d.{ 2 1 1 5 5 2 g m m J K K q 2 1 4 4 4 4 y y p 5 y z z c h g w r H R { ....$.+...R T T Y ] T R Y Y R ] {  . .#.4.+...+.#.#.*.<.6.j.W.{.{.{.}.'.`.{.}.}.}.}.{.`.W.R.Y.h.a.a.L.U.U.U.T.U.K.L.L.a.p.u.7.u.u.7.7.7.7.u.u.i.u.p.s.W.[.`.R.W.{. X!.Y.W.W.R.j.h.g.s.y.y.y.6.6.4.4.@.<.@.@.#.4.#.@.@.+. . .....O.] O.{ ..L v ..",
"/.E.Q.).+XQ.+XQ.!.!.+X*X/.XX,X1X*XXXXX3X3X,X2X1X2X3X*X*X*X*X*X,X2XeXtXtXrXrXrXeXrXrXrXrXyXyXyXyXyXyXyXyXyXyXyXyXyXyXyXyXyXyXiXiXeXeXeXtXuXuXuXaXuXuXiX2X3X2XuXaXaXaXaXaXsXsXdXdXsXhXiX4X4X4X4X4XiXiXhXhXhXhXhXhXhXcXmXcXcXmXbXbXbXbXnXnXnXnXZXZXZXDXDXZXZXDXDXDXDXDXMXMXMXMXDXDXDXGXDXnXNXVXzX7X7X6X7X7X3X{.T.4.] q 3 AXJXJXJXJXJXJXJXJXJXJXJXJXJXJXJXJXJXJXJXJXJXJXJXJXJXJXJXJXJXJXJXJXJXJXJXJXJX^.+   1 5 5 2 3 2 , + X   V JXJXJXJXJXJXJXJXJXJXJXJXJXJXJXJXJXJXJXJXJXJXJXJXJXJXJXJXJXJXJXJXJXJXJXJXJXJXV % g 8 # # + X +   (.KXJXJXJXJXJXJXJXJXJXJXJXJXJXJXJXJXJXJXJXJXJXJXJXJXJXJXwX    + O # : > # : : # + X     HXJXJXJXJXJXJXJXJXJXJXJXJXJXJXJXJXJXJXJXJXJXJXJXJXJXJXJXJXJXJXJXJXJXJXJXJXJXJ.  # h { ..a.O.m * 1 , 6 3 q g C J Y c C 3 2 1 1 4 4 4 y p f 5 f l V z z 8 x H R ......X.+...+.O.{ ] Y R T ] Y ] ] R {  .X.+.@.+.O.O.#.@.4.<.4.j.Y.{.{.}.}.`.`.[.{.}.}.{.{.W.W.W.U.h.a.a.L.U.U.L.K.L.L.L.L.K.u.u.u.u.u.i.7.7.7.i.u.u.u.p.p.T.[.W.W.W.{.=X{.W.W.W.W.Y.j.h.g.a.y.p.6.6.5.4.#.4.4. .@.#.@.@.@.&...O.$.+.#.O.O. ...{ Y L ",
"U.).Q.!.+XQ.T.Q.T.!.XXXX/.XXT..X/.XX).,X,X2X2X1X2X2X*X,X*X*X,X3XeXeXtXtXrXrXrXrXrXrXrXrXrXyXyXyXyXyXyXyXyXyXyXyXyXyXyXyXyXyXiXuXeX2X2XeXiXuXyXpXuXiXeX3X2XtXuXaXaXaXsXsXsXsXdXdXsXkXiX2X2X4X4X4XiXiXhXhXhXhXhXhXhXzXmXmXcXbXbXbXbXbXnXnXnXZXZXZXSXZXDXDXDXDXGXDXDXDXDXMXMXDXDXDXDXDXDXnXNXzX9X7X6X6X6X7X4X{.j.*.Y q   AXJXJXJXJXJXJXJXJXJXJXJXJXJXJXJXJXJXJXJXJXJXJXJXJXJXJXJXJXJXJXJXJXJXJXJXJXJX^.+ . # = # 3 3 2 # + X   # JXJXJXJXJXJXJXJXJXJXJXJXJXJXJXJXJXJXJXJXJXJXJXJXJXJXJXJXJXJXJXJXJXJXJXJXJXJX` % f 2 # + O     X AXJXJXJXJXJXJXJXJXJXJXJXJXJXJXJXJXJXJXJXJXJXJXJXJXJXKXJXI.X     + + : : : : # O + X     HXJXJXJXJXJXJXJXJXJXJXJXJXJXJXJXJXJXJXJXJXJXJXJXJXJXJXJXJXJXJXJXJXJXJXJXJXJXJ.  # h U O.{ [ q 3 5 4 5 2 g 8 K ] Y w z y < 1 1 4 4 4 y p f 5 f l V z h c L ..+.O. .X...X. . .#.+.{ T R Y Y Y ] R R {  ...O.@.+.+.#.#.@.4.5.y.Y.j.`.`.}.'.`.[.`.`.{.'.[.[.W.W.W.U.U.U.a.L.U.U.L.L.L.L.L.K.s.p.u.u.u.u.u.7.7.7.u.u.u.u.a.p.U.!.[.W.W.[.=X{.W.R.W.R.Y.j.j.a.a.y.p.6.6.5.4.+.@.8.X.+.8.P 8.#.#.@.#.+.#.@...O.......*.J ",
"K.!.!.Q.+X!.!.!.!.!.Q.!.p.s./.!./.,XU.*X*XiX,XeX2X2X,X,X,X3X3X2XeXeXrXrXrXrXrXrXrXrXrXrXrXyXyXyXyXyXyXyXyXyXyXyXyXyXyXyXyXyXiXiXeX2X2XeXiXiXyXaXyXyX2X1X2XiXaXaXaXaXsXsXsXsXsXsXsXsXaX2X4X4XiXiXiXhXhXhXhXhXhXhXhXzXmXcXcXmXbXbXbXbXbXnXnXnXZXZXZXZXDXDXDXDXGXGXDXDXDXDXDXDXDXDXGXDXMXnXzXzX9X9X7X6X6X7X4X{.h.@.n g # AXJXJXJXJXJXJXJXJXJXJXJXJXJXJXJXJXJXJXJXJXJXJXJXJXJXJXJXJXJXJXJXJXJXJXJXJXJX^.  . * # 2 3 3 2 , + + X   HXJXJXJXJXJXJXJXJXJXJXJXJXJXJXJXJXJXJXJXJXJXJXJXJXJXJXJXJXJXJXJXJXJXJXJXJXJX%.% 5 # # + O +   } JXJXJXJXKXJXJXKXJXJXJXJXJXJXJXJXJXJXJXJXJXJXJXJXJXJXJXJX_   +   O + + + + # # X X       HXJXJXJXJXJXJXJXJXJXJXJXJXJXJXJXJXJXJXJXJXJXJXJXJXJXJXJXJXJXJXJXJXJXJXJXJXJXJ.  # = n c C C % # # 1 5 3 c b n { K q h 6 4 1 4 4 4 4 y y p 5 5 l V c C ]  ... .R R X. . . . .@.&. .T Y Y Y R ] ] R { X.+.X.@.#.#.4.4.@.<.y.j.R.j.W.W.}.'.`.[.`.`.'.'.[.[.[.W.W.Y.U.U.a.U.U.L.U.U.U.K.K.K.i.i.u.u.u.u.u.7.7.7.u.7.7.u.p.u.p.R.!.!.W.!.=X{.W.R.R.W.W.Y.j.g.s.p.y.y.6.5.5.#.@.<.4.+.5.R 5.@.+.#...#...#.+.X... .Y [ { ",
"Q.L.).!.!.+X).!.T.!.!.).!.XXXX~.!.2X.X.X3X2X1X1X2X2X3X3X1X3X1XeXeXeXrXrXrXrXrXrXrXrXrXrXrXyXyXyXrXyXyXyXyXyXyXrXeXyXyXyXyXyXiXyXtX2X1X2XiXiXyXuXpXyX2X2XeXuXaXuXuXaXaXsXsXsXsXsXsXaXaX2X4X4XiXiXiXhXhXhXhXhXhXhXhXhXmXcXcXcXvXvXbXbXbXnXnXnXZXZXZXZXDXDXDXDXGXGXDXDXDXDXDXDXDXDXFXDXDXMXzXzX9X9X7X7X7XzX4X=Xh.#.U 2   fXJXJXJXJXJXJXJXJXJXJXJXJXJXJXJXJXJXJXJXJXJXJXJXJXJXJXJXJXJXJXJXJXJXJXJXJXJX^.+ X # # 5 2 2 2 2 # + X   AXJXJXJXJXJXJXJXJXJXJXJXJXJXJXJXJXJXJXJXJXJXJXJXJXJXJXJXJXJXJXJXJXJXJXJXJXJX-.# 2 # + X X     (.JXJXJXJXJXJXJXJXJXJXJXJXJXJXJXJXJXJXJXJXJXJXJXJXJXJXJXAX      +   X X       X   X       AXJXJXJXJXJXJXJXJXJXJXJXJXJXJXJXJXJXJXJXJXJXJXJXJXJXJXJXJXJXJXJXJXJXJXJXJXJXJ.  O 1 6 5 z 2 . # : # 1 2 h } Y [ n 8 g , y 4 4 6 4 y y y y y y l M V ' ....[ R R  .+. . ... .#.4.O.R Y Y ] R ] ] {  . .#...@.@.@.5.5.@.<.y.j.j.j.k.W.}.{.'.{.[.'.'.}.|.{.W.W.R.h.T.T.L.T.U.L.U.T.L.s.s.s.p.i.u.7.7.7.7.7.7.u.u.7.7.7.7.u.7.s.R.!.W.[.=X}.W.R.R.W.W.R.j.j.g.s.y.y.6.6.5.@.<.4.4.8.#.6.8.4.X.+. .&...+.#.....+.[ { { ",
"Q.7.!.T.T.+X!.XX..T.!.!.!.,X.X!./.XX.X.X,X3X1X2X2X2X2X3X3X1X,XeXeXeXrXrXrXrXrXeXrXrXrXrXrXyXyXyXrXrXyXyXyXyXrXrXeXyXyXyXyXyXyXyXtX2X1X2XiXtXiXuXpXaXiX4XiXuXaXuXuXaXaXaXsXsXsXsXsXaXiX2X4X4XiXhXhXhXhXhXhXhXjXjXhXhXmXcXcXcXbXbXbXmXbXnXnXnXZXDXZXZXDXDXDXDXGXDXDXDXDXDXDXDXDXDXDXDXBXMXNXzXzX9X7X6X7X7X4X=Xh.$.Z 3 X AXJXJXJXJXJXJXJXJXJXJXJXJXJXJXJXJXJXJXJXJXJXJXJXJXJXJXJXJXJXJXJXJXJXJXJXJXJXP.  X + 2 5 2 2 2 1 + X   X AXJXJXJXJXJXJXJXJXJXJXJXJXJXJXJXJXJXJXJXJXJXJXJXJXJXJXJXJXJXJXJXJXJXJXJXJXJX=.# # . X + +     AXJXJXJXJXJXJXJXJXJXJXJXJXJXJXJXJXJXJXJXJXJXJXJXJXJXJXJX(.X   X   X   X X   X             AXJXJXJXJXJXJXJXJXJXJXJXJXJXJXJXJXJXJXJXJXJXJXJXJXJXJXJXJXJXJXJXJXJXJXJXJXJX=.  X   + 2 # + + X + # # 2 3 Y O.] ] h 8 6 4 1 4 6 y y y y y p p j V V } ....R [ ] R  . . . . ...5.*...Y Y [ { ] { .. . .#...#.4.5.4.5.4.4.y.g.g.j.R.W.}.{.}.'.{.'.{.'.}.{.W.R.Y.h.T.T.U.T.U.U.U.U.L.s.s.s.u.u.7.7.7.7.7.7.7.i.7.7.7.7.7.u.7.5.U.W.!.{.:X=XW.W.R.W.W.Y.Y.Y.j.g.y.s.6.6.6.8.@.5.4.4.8.@.4.#.X.&.@.#.+.#.+.#.....O.{ ] ",
"*.i.U.a.U.XXa.Q.).Q.Q..Xs.!.XX/./.!.).3X.X,X3X2X1X1X2X2X2X1X1XeXeXeXeXrXyXyXyXrXrXrXrXrXrXyXyXyXyXyXyXyXyXyXyXrXyXyXyXyXyXyXyXiXeX2X1X1X2XtXyXyXyXuXuXuXuXiXuXuXaXaXaXsXsXkXkXkXkXsXaXuXiXtX4XhXhXhXhXhXhXhXhXhXhXhXcXcXcXvXcXmXbXbXbXnXnXnXZXZXZXZXZXDXDXDXGXDXDXDXDXDXDXDXDXDXMXDXDXMXNXzXzXzX7X7X7X7X4X=Xh.$.C 2 . CXJXJXJXJXJXJXJXJXJXJXJXJXJXJXJXJXJXJXJXJXJXJXJXJXJXJXJXJXJXJXJXJXJXJXJXJXJX^.    # 2 3 2 2 2 = + X     CXJXJXJXJXJXJXJXJXJXJXJXJXJXJXJXJXJXJXJXJXJXJXJXJXJXJXJXJXJXJXJXJXJXJXJXJXJXJ.+ +   # X X X } JXJXJXJXJXJXJXJXJXJXJXJXJXJXJXJXJXJXJXJXJXJXJXJXJXJXJXJX-.X                               AXJXJXKXJXJXJXJXJXJXJXJXJXJXJXJXJXJXJXJXJXJXJXJXJXJXJXJXJXJXJXJXJXJXJXJXJXJX-.    +     X     X X X + 1 2 8 ] ..Y c 5 6 1 1 4 6 y y y s j y y f V U O.[ Y R R R R R  . . . . .@.*.@. .R R [  . . . . ...@.4.<.5.5.5.5.d.g.h.j.j.j.`.{.'.'.{.{.'.{.}.}.}.`.W.W.U.T.Q.E.T.U.U.L.K.s.s.s.d.u.u.u.7.7.7.7.7.7.7.7.7.u.u.u.u.i.u.p.Q.{.-X-X-XW.W.W.W.R.R.W.j.j.j.g.6.6.6.6.4.<.5.<.1.4.@.5.#.@...+.@.@.X.#.@... . ...{ ",
"7.L.L.p.L.U.7.@.!.XX!.a.Q.s.!.,XXX/.XX3X.X,X1X3X2X1X2X2X2X2X2XeXeXeXrXyXyXyXyXrXrXrXrXrXrXyXyXyXyXyXyXyXrXyXyXyXyXyXyXyXyXyXyXyXiXeX1X1X2XeXyXaXuXuXuXuXuXiXuXaXaXaXaXsXsXsXsXkXsXsXsXsXaXiX4X4XhXhXhXhXhXhXhXhXhXhXcXcXcXcXbXbXbXbXbXnXnXZXZXZXZXZXZXDXDXDXGXDXDXDXDXDXDXDXDXDXMXDXMXBXzXzXzXzX7X7X7X7X4X=Xh.O.C 2 + CXJXJXJXJXJXJXJXJXJXJXJXJXJXJXJXJXJXJXJXJXJXJXJXJXJXJXJXJXJXJXJXJXJXJXJXJXJX^.  X # 2 3 2 2 2 = + X     CXJXJXJXJXJXJXJXJXJXJXJXJXJXJXJXJXJXJXJXJXJXJXJXJXJXJXJXJXJXJXJXJXJXJXJXJXJXJ.X X + + X X   J.JXJXJXJXJXJXJXJXJXJXJXJXJXJXJXJXJXJXJXJXJXJXJXJXJXJXJXJXJXJXJXJXJXJXJXJXJXJXJXJXJXJXJXJXJXJXKXJXJXJXJXJXJXJXJXJXJXJXJXJXJXJXJXJXJXJXJXJXJXJXJXJXJXJXJXJXJXJXJXJXJXJXJXJXJXJXKXJXJXJXJXJXJXJXJ.# . 3 8 w { ..C 6 , 6 1 4 6 y y y s s y p j D _ } ] T R R  .R R  .R  . . .+.5.4... .{  . . . . .X.#.8.5.4.5.y.y.y.g.h.h.j.j.j.`.}.}.'.{.{.'.'.}.}.:X{.!.[.T.T.Q.Q.R.U.L.K.K.s.d.p.i.u.u.u.7.7.7.7.7.7.7.7.7.u.i.u.u.i.p.p.U.!.{.-X}.Y.W.W.W.R.W.W.Y.g.g.y.6.6.6.6.5.@.4.5.4.5.1.5.4.@. .#.8.8.+.#.+.+...[ ..] ",
"K.5.7.!.L.U.).Q.!.+X+Xp.!.Q.Q.3XXXXX.X3X,X,X1X2X2X1X1X2X2XeXeXeXeXrXrXyXyXyXrXrXrXrXrXrXrXyXyXyXrXrXyXyXyXyXyXyXyXyXyXyXyXyXrXrXiXtX1X1X2XtXyXuXuXuXuXuXuXiXuXuXaXaXaXaXsXsXsXsXaXaXsXjXhXiXtXiXiXhXhXhXhXhXhXhXhXcXcXcXcXcXbXbXbXbXbXnXnXZXZXZXZXZXZXFXDXDXDXDXDXDXDXDXDXDXDXDXMXDXMXMXzX9X9XzX7X7X7XzX4X XU.$.C 2 . CXJXJXJXJXJXJXJXJXJXJXJXJXJXJXJXJXJXJXJXJXJXJXJXJXJXJXJXJXJXJXJXJXJXJXJXJXJX^.  X = 2 2 2 2 2 = + X     CXJXJXJXJXJXJXJXJXJXJXJXJXJXJXJXJXJXJXJXJXJXJXJXJXJXJXJXJXJXJXJXJXJXJXJXJXJXJ.X X X X X X   P.JXJXJXJXJXJXJXJXJXJXJXJXJXJXJXJXJXJXJXJXJXJXJXJXJXJXJXJXJXJXJXJXJXJXJXJXJXJXJXJXJXJXKXJXJXJXJXJXKXJXJXJXJXJXJXJXJXJXJXJXJXJXJXJXJXJXJXJXJXJXJXJXJXJXJXJXJXJXJXJXJXJXJXJXJXJXJXJXJXJXJXJXJXJXJ.  = = 5 w m [ U 1 4 4 1 6 6 6 y s j j p j k M ` } Y Y R R R R R { R  . . . .5.7.4.@. ... . ...X.+.@.@.5.4.4.5.d.s.j.Y.j.j.j.Y.`.{.'.'.}.{.}.}.}.}.:X}.{.{.W.T.E.R.R.U.K.K.K.s.p.i.u.u.u.u.7.7.7.7.7.7.7.7.7.u.i.u.i.i.d.p.a.W.{.oX{.R.W.`.W.W.W.W.R.g.s.y.y.y.6.y.6.@.5.6.5.6.4.<.4.@.X.#.@.@.#.+.+.@.&. ...[ ",
"' E...Q.5.L.).!.+XU.+XXXQ..XQ.!..X.X.X3X,X1X1X2X2X1X2XeXeXeXeXeXrXrXrXrXrXrXrXrXrXrXrXrXrXyXyXyXrXrXyXyXyXyXyXyXyXyXyXyXyXyXyXrXiXeX2X1XeXiXyXpXuXuXuXuXuXuXuXuXaXaXaXaXsXsXsXsXsXaXaXaXaXiXiXiXiXiXhXhXhXhXhXhXjXjXcXcXcXcXbXbXbXbXnXnXnXZXZXZXZXZXAXFXDXDXDXDXDXDXDXDXDXDXMXMXMXDXMXNXzX7X9X9X9X7X7X9X4X XU.#.C 2 . CXJXJXJXJXJXJXJXJXJXJXJXJXJXJXJXJXJXJXJXJXJXJXJXJXJXJXJXJXJXJXJXJXJXJXJXJXJX^.X . = 2 2 2 2 2 = + +     CXJXJXJXJXJXJXJXJXJXJXJXJXJXJXJXJXJXJXJXJXJXJXJXJXJXJXJXJXJXJXJXJXJXJXJXJXJXI.X     X X X   J.JXJXJXJXJXJXJXJXJXJXJXJXJXJXJXJXJXJXJXJXJXJXJXJXJXJXJXJXJXKXJXJXKXJXJXJXJXJXJXJXJXJXJXJXKXJXJXKXJXJXJXJXJXJXJXJXJXJXJXJXJXJXJXJXJXJXJXJXJXJXJXJXJXJXJXJXJXJXJXJXJXJXJXJXJXJXJXJXJXJXJXJXJXJX=.. # 2 8 8 w b K 5 1 6 4 6 6 6 y j k k j j f j } { J J T R R R R {  . . . . .+.*.7.4. . . . ...X.#.@.@.<.@.4.6.h.h.j.Y.R.Y.Y.W.`.`.`.}.}.}.}.}.}.}.oX}.oX{.!.~.!.R.R.U.K.K.K.s.i.i.u.u.u.u.7.7.7.7.7.7.7.7.7.u.u.u.i.i.d.p.p.W.{.:X[.W.R.`.W.W.W.W.R.g.y.y.y.y.6.6.6.5.6.6.y.4.@.8.8.@.@.@.@.#.+.+.+.#.#...]  .",
"x Q.i.7.8.T.p.Q.!.s.T.XXT.E.Q.!.,X*X.X,X2X<X<XeX2X2X2XeXeXrXrXrXrXrXrXrXrXrXrXrXrXrXrXrXrXyXyXyXrXrXyXyXyXyXyXyXyXyXyXyXyXyXyXyXrXtXeX2XeXuXuXaXaXuXuXuXuXuXuXaXaXaXaXaXaXsXaXaXkXaXaXaXaXiXiXhXiXiXhXhXhXhXhXhXhXcXcXcXmXbXbXbXbXnXnXnXZXZXZXZXZXZXZXFXLXDXDXDXDXDXDXDXDXDXMXMXMXDXMXNXzX7X9X9X7X7X7X7X:X{.U.#.C 2 + CXJXJXJXJXJXJXJXJXJXJXJXJXJXJXJXJXJXJXJXJXJXJXJXJXJXJXJXJXJXJXJXJXJXJXJXJXJX^.X . 1 2 2 3 2 2 = # +     CXJXJXJXJXJXJXJXJXJXJXJXJXJXJXJXJXJXJXJXJXJXJXJXJXJXJXJXJXJXJXJXJXJXJXJXJXJXP.    + +     X J.JXJXJXJXJXJXJXJXJXJXJXJXJXJXJXJXJXJXJXJXJXJXJXJXJXJXJXJXJXJXJXJXJXJXJXJXJXJXJXJXJXJXJXJXJXKXJXJXJXJXJXJXJXJXJXJXJXJXJXJXJXJXJXJXJXJXJXJXJXJXJXJXJXJXJXJXJXJXJXJXJXJXJXJXJXKXJXJXJXJXJXJXJXJX=.X   3 8 3 g c K 1 4 6 4 6 6 6 y j M M M j f f } ' n m L R R R R { { R  .{  . .#.4.5... .+... ...#.8.5.<.<.5.y.j.j.j.Y.W.R.j.W.[.`.`.'.}.}.-X-XoX:XoXoX}.{.{.[.[.~.R.U.L.K.s.p.p.i.u.u.u.u.u.u.7.7.7.7.7.7.7.7.u.u.u.i.u.p.s.!. X:X[.`.W.W.R.W.`.`.R.j.y.s.y.y.y.6.5.y.6.5.6.4.<.4.4.4.8.@.8.<.#.+.#... ...] Y ",
"2 &.i.E.a.).4.T.4.!.L.).!.7.[.!.*X*X.X,X<X2X<XeX2X2XeXeXeXrXrXrXrXrXrXrXrXrXrXrXrXrXrXrXrXyXyXyXrXrXyXyXyXyXyXyXrXrXyXyXyXyXyXyXyXyXeXeXeXyXpXaXaXuXuXuXuXuXaXaXaXaXaXaXaXsXsXaXaXaXjXjXhXiXiXhXiXhXhXhXhXhXhXhXjXjXcXcXmXmXbXbXbXnXnXnXZXZXZXZXDXZXZXFXLXDXDXDXMXDXDXDXDXDXMXMXMXDXMXNXxX7X9X0X9X7X7X7X>X{.U.#.C 2 + CXJXJXJXJXJXJXJXJXJXJXJXJXJXJXJXJXJXJXJXJXJXJXJXJXJXJXJXJXJXJXJXJXJXJXJXJXJX_.  . = 1 2 3 2 2 1 # + X   CXJXJXJXJXJXJXJXJXJXJXJXJXJXJXJXJXJXJXJXJXJXJXJXJXJXJXJXJXJXJXJXJXJXJXJXJXJXP.    X + X X   J.JXJXJXJXJXJXJXJXJXJXJXJXJXJXJXJXJXJXJXJXJXJXJXJXJXJXJXJXJXJXJXJXJXJXJXJXJXJXJXJXJXJXJXKXJXJXKXJXJXJXJXJXJXJXJXJXJXJXJXJXJXJXJXJXJXJXJXJXJXJXJXJXJXJXJXJXJXJXJXJXJXJXJXJXJXJXJXJXJXJXJXJXKXKX-.  . 2 5 q 8 g A < 6 4 4 6 6 6 y j M S M j j j } K n H L R R R R { [ R  .{  . .@.#.p.4. .#.#.+.+.#.4.p.y.5.4.6.g.j.j.R.W.W.W.W.`.{.{.{.}.}.-X5X:X5X}.}.{.{.{.[.[.!.Q.U.L.K.s.p.i.i.i.u.u.u.u.u.7.7.7.7.7.7.7.7.u.u.i.i.u.d.d.!.{.oX[.`.`.R.R.R.[.[.k.g.y.g.y.y.s.6.5.y.6.6.4.5.4.4.5.8.<.@.4.4.+.O.#... .#.+.L ",
". =.*.E.Q.L.T.a.R.!.U.5.!.,X!.!.XX X,X,X1XeXeXeX2XeXeXrXrXrXrXrXrXrXrXrXrXrXrXrXrXrXrXrXrXyXyXyXrXrXyXyXyXyXyXyXyXyXyXyXyXyXyXyXyXyXrXeXrXyXpXaXaXuXuXuXuXuXaXaXaXaXaXaXaXsXsXfXaXaXjXjXhXiXiXhXhXhXhXhXhXhXhXhXjXjXjXcXcXmXbXbXnXnXnXZXZXZXZXZXDXZXZXDXGXDXDXDXDXDXDXDXDXDXMXMXMXDXMXNXxX7X7X9X9X7X7X7X>X=XY.@.Z 2 + CXJXJXJXJXJXJXJXJXJXJXJXJXJXJXJXJXJXJXJXJXJXJXJXJXJXJXJXJXJXJXJXJXJXJXJXJXJX_.  O * 1 2 3 2 2 1 # + X   CXJXJXJXJXJXJXJXJXJXJXJXJXJXJXJXJXJXJXJXJXJXJXJXJXJXJXJXJXJXJXJXJXJXJXJXJXJXP.  X   + + X   J.JXJXJXJXJXJXJXJXJXJXJXJXJXJXJXJXJXJXJXJXJXJXJXJXJXJXJXJXJXKXJXJXJXJXJXJXJXJXJXJXJXJXJXJXJXJXJXJXJXJXJXJXJXJXJXJXJXJXJXJXJXJXJXJXJXJXJXJXJXJXJXJXJXJXJXJXJXJXJXJXJXJXJXJXJXKXJXJXJXKXJXJXJXJX=.    2 3 8 h 7 D y < 6 6 6 6 6 y k S ~ B s p f ] b m H H Y R R R [ [ R  . . . .#.#.6.5.o.+.<.4.@.4.5.p.h.s.y.y.s.g.R.W.R.W.[.W.`.[.{.}.}.}.-X5XoX5X}.[.{.{.}.{.!.[.Q.U.L.K.s.i.J.i.i.i.u.u.u.i.u.7.7.7.7.7.7.7.i.u.i.i.u.d.a.~.{.}.[.[.`.W.[.W.`.`.j.g.g.h.s.y.y.6.6.6.6.5.4.6.4.4.8.<.8.8.5.@.+...#.O...#.8.] ",
"o -.Q.i.K.!.Q.K.L.U.!.p.U.!.Q.+X!..X3X1X,X<XeXeX2XeXeXrXrXrXrXrXrXrXrXrXrXrXrXrXrXrXrXrXrXyXyXyXrXrXyXyXyXyXyXyXyXyXyXyXyXyXyXyXrXyXyXyXyXyXrXpXuXuXuXuXuXuXaXaXaXaXaXaXsXsXfXfXaXaXaXjXuXuXiXhXhXhXhXhXhXhXhXhXjXjXjXcXcXmXbXbXnXnXnXZXZXZXZXZXDXZXZXDXGXDXDXDXDXDXMXDXDXDXMXMXDXDXMXNXxX7X7X8X7X7X7X9X>X=XY.@.Z 2 + CXJXJXJXJXJXJXJXJXJXJXJXJXJXJXJXJXJXJXJXJXJXJXJXJXJXJXJXJXJXJXJXJXJXJXJXJXJX_.  X * = 2 3 3 2 1 + +     CXJXJXJXJXJXJXJXJXJXJXJXJXJXJXJXJXJXJXJXJXJXJXJXJXJXJXJXJXJXJXJXJXJXJXJXJXJXP.  X + # X X   J.JXJXJXJXJXJXJXJXJXJXJXJXJXJXJXJXJXJXJXJXJXJXJXJXJXJXJXJXJXJXJXJXJXJXJXJXJXJXJXJXJXJXJXJXKXJXJXJXJXJXJXJXJXJXJXJXJXJXJXJXJXJXJXJXJXJXJXJXJXJXJXJXJXJXJXJXJXJXJXJXJXJXJXJXJXJXJXJXJXJXJXJXJXJX%.+ + # 3 3 x c f 4 y 4 6 6 6 y p M ~ ` ~ k f f ' b m n L R R [ [ R R R [  .#. .+.@.1.6.4.+.@.6.4.4.y.p.a.g.j.j.g.g.Y.R.R.W.[.[.`.{.{.{.}.$X-X5X5X5X}.[.{.[.[.[.W.~.T.U.L.K.s.i.J.i.i.i.i.u.u.i.i.7.7.u.7.i.i.7.7.i.u.i.u.u.s.W.!.{.[.[.`.[.oX[.W.`.j.j.j.j.s.y.6.6.6.6.s.4.5.6.<.5.#.4.8.5.5.@.@.O.O.O...+.#...",
"# b Q.E.L.u.!.Q.7.U.!.T.!.!.T.!.XXXX,X2XeXeXeXeXeXeXeXeXeXeXyXrXrXrXrXrXrXrXrXrXrXrXrXrXrXyXyXyXrXrXyXyXyXyXyXyXyXyXyXyXyXyXyXyXyXyXyXyXyXyXyXpXuXuXuXuXuXuXaXaXaXaXaXaXaXsXsXsXaXaXsXaXuXiXiXhXhXhXhXhXhXhXhXhXhXjXcXcXcXmXmXmXbXnXnXZXZXZXZXZXDXZXnXDXDXDXDXDXnXDXDXDXMXMXDXDXDXMXMXNX9X6X6X6X6X7X7X7X6X=XT.@.Z 8 X PXJXJXJXJXJXJXJXJXJXJXJXJXJXJXJXJXJXJXJXJXJXJXJXJXJXJXJXJXJXJXJXJXJXJXJXJXJX_.  O : 2 3 2 2 2 1 # + X X CXJXJXJXJXJXJXJXJXJXJXJXJXJXJXJXJXJXJXJXJXJXJXJXJXJXJXJXJXJXJXJXJXJXJXJXJXJXP.X X X + + X   J.JXJXJXJXJXJXJXJXJXJXJXJXJXJXJXJXJXJXJXJXJXJXJXJXJXJXJXJXJXJXJXJXJXJXJXJXJXJXJXJXJXJXJXJXJXJXJXJXJXJXJXJXJXJXJXJXJXJXJXJXJXJXJXJXJXJXJXJXJXJXJXJXJXJXJXJXJXJXJXJXJXJXJXJXJXJXJXJXJXJXJXJXJXJX-.  . = 3 8 9 C 8 6 4 6 6 6 y y p B _ ` | M j f A b Y J L  . .{  .R R [ R R ..@.@.$.1.1.y.1.@.1.y.5.y.g.g.g.R.j.j.j.R.W.W.W.W.[.}.{.}.}.}.5X5XoX5X5XoX{.{.`.{.W.W.W.T.U.L.a.K.K.i.p.u.i.i.i.u.u.u.u.7.i.7.u.i.i.u.7.u.u.d.u.a.a.g.{.}.`.[.:XoX}.[.W.k.j.j.g.g.6.y.y.y.<.6.6.5.1.6.4.4.1.4.4.4.@.@.+.+.+...#.#.O.",
". 8 L.L.!.s.U.!.7.a.Q.!.Q.!.Q.!.+XXX,X2XeXeXwX<XeXeXeXrXeXrXyXrXrXrXrXrXrXrXrXrXrXrXrXrXrXyXyXyXyXyXyXyXyXyXyXyXyXyXyXyXyXyXyXyXyXyXyXyXyXyXyXaXuXyXuXuXuXuXaXaXaXaXaXaXsXsXsXsXaXaXaXaXuXiXiXhXhXhXjXjXjXjXhXhXhXhXcXcXcXcXmXmXbXnXnXZXZXZXnXZXZXnXnXDXDXDXDXDXnXnXDXMXMXMXMXDXDXMXbXNXzX6X6X6X6X6X6X7X4X=XT.@.Z 8 . PXJXJXJXJXJXJXJXJXJXJXJXJXJXJXJXJXJXJXJXJXJXJXJXJXJXJXJXJXJXJXJXJXJXJXJXJXJX_.  O # 2 3 2 1 2 1 # + X   CXJXJXJXJXJXJXJXJXJXJXJXJXJXJXJXJXJXJXJXJXJXJXJXJXJXJXJXJXJXJXJXJXJXJXJXJXJXP.  X X + + X   J.JXJXJXJXJXJXJXJXJXJXJXJXJXJXJXJXJXJXJXJXJXJXJXJXJXJXJXJXJXJXJXJXJXJXJXJXJXJXJXJXJXJXJXJXJXJXJXJXJXJXJXJXJXJXJXJXJXJXJXJXJXJXJXJXJXJXJXJXJXJXJXJXJXJXJXJXJXJXJXJXJXJXJXJXJXJXJXJXJXJXJXJXJXJX-.  . = 3 8 8 C f 3 4 4 6 6 y y j S ~ _ } ~ j f c K O.L L R  .{  .R R R R { ..@.@.<.1.6.y.d.o.<.4.y.g.g.j.j.Y.j.R.W.`.`.[.`.`.{.:X-X}.}.oX:X5X5X5X5X:X}.{.[.[.W.W.W.T.U.U.a.L.K.s.s.d.d.i.u.u.u.u.u.u.i.i.i.i.i.u.7.7.u.i.a.T.a.d.{.}.|.}.5X}.[.W.R.R.j.j.g.s.y.g.g.y.6.6.5.6.4.4.<.5.@.@.8.8.@.#.+.+.+.#.#.] { ",
"% ' L.K.7.T.p.U.Q.L.5.!.T.XX!.!.!.).*XeXeXeXeXwXeXrXeXrXrXrXyXrXrXrXrXrXrXrXrXrXrXrXrXrXrXyXyXyXyXyXyXyXyXyXyXyXyXyXyXyXyXyXyXyXyXyXyXyXyXyXyXpXyXyXuXuXuXuXuXaXaXaXaXsXsXsXsXsXaXaXaXaXuXeXiXhXhXhXhXhXhXhXhXjXhXhXcXcXcXcXcXmXbXnXnXnXnXnXnXnXnXnXnXZXDXDXDXDXDXDXDXDXnXMXMXMXDXDXMXNXzX6X6X6X&X6X5X7X4X=XT.@.Z 3 + dXJXJXJXJXJXJXJXJXJXJXJXJXJXJXJXJXJXJXJXJXJXJXJXJXJXJXJXJXJXJXJXJXJXJXJXJXJXP.X X # 2 3 2 2 2 1 # + X   CXJXJXJXJXJXJXJXJXJXJXJXJXJXJXJXJXJXJXJXJXJXJXJXJXJXJXJXJXJXJXJXJXJXJXJXJXJXP.  X O + + X   J.JXJXJXJXJXJXJXJXJXJXJXJXJXJXJXJXJXJXJXJXJXJXJXJXJXJXJXJXJXJXJXJXJXJXJXJXJXJXJXJXJXJXJXJXJXJXJXJXJXJXJXJXJXJXJXJXJXJXJXJXJXJXJXJXJXJXJXJXJXJXJXJXJXJXJXJXJXJXJXJXJXJXJXJXJXJXJXJXJXJXJXJXJXJX-.  . = 7 7 w Z f 3 3 1 6 4 y y B ( ` | | ~ M l c ] *. .T H R R R R R R T  .X.+.@.1.<.<.y.h.5.@.5.y.y.s.g.j.Y.k.W.`.[.[.{.{.{.}.-X-X}.}.oX:X5X5X5X5XoX}.{.{.W.~.W.W.T.U.T.L.L.L.K.K.d.d.d.i.u.u.u.i.i.i.i.i.i.i.u.7.7.7.i.K.U.h.g.{.-X$X5X:X{.`.R.k.R.j.Y.g.y.s.g.g.y.6.y.6.5.6.1.5.1.1.@.8.8.@.#.#.#.+.+.O. . .",
". n L.!.*.K.4.Q.U.!.4.T.!.R.!.W.)./.,XeXeXeXeXrXeXrXeXrXrXrXyXrXrXrXrXrXrXrXrXrXrXrXrXrXrXyXyXyXyXyXyXyXyXyXyXyXyXyXyXyXyXyXyXyXyXyXyXyXyXyXuXuXyXyXuXuXuXuXaXaXaXaXaXaXsXsXsXsXaXaXaXaXuXeXiXhXhXhXjXjXhXhXhXjXhXcXcXcXcXcXbXbXbXbXnXnXnXnXnXnXnXnXnXZXDXDXDXDXDXDXDXDXDXMXMXMXDXDXMXNX9X6X6X6X&X&X5X7X7X*XT.@.J 3 + pXJXJXJXJXJXJXJXJXJXJXJXJXJXJXJXJXJXJXJXJXJXJXJXJXJXJXJXJXJXJXJXJXJXJXJXJXJXP.X X # 2 3 2 2 2 1 # + X   CXJXJXJXJXJXJXJXJXJXJXJXJXJXJXJXJXJXJXJXJXJXJXJXJXJXJXJXJXJXJXJXJXJXJXJXJXJXP.  X O + + X   J.JXJXJXJXJXJXJXJXJXJXJXJXJXJXJXJXJXJXJXJXJXJXJXJXJXJXJXJXJXJXJXJXJXJXJXJXJXJXJXJXJXJXJXJXJXJXJXJXJXJXJXJXJXJXJXJXJXJXJXJXJXJXJXJXJXJXJXJXJXJXJXJXJXJXJXJXJXJXJXJXJXJXJXJXJXJXJXJXJXJXJXJXJXJX-.  . 1 8 8 h K f 5 5 2 6 6 y y B | | | | ~ M j c [ ..&.{ L L R R  .{ { R  . . .+.1.1.$.5.d.d.@.5.y.y.g.g.W.W.W.`.[.[.{.'.}.}.}.}.oXoXoX:X5X5X5X5X5X}.}.}.oX!.!.!.~.R.T.T.U.U.U.K.K.d.d.d.d.u.u.i.i.i.i.i.i.i.i.i.u.u.u.s.K.L.U.g.}.5X5X$X}.}.[.R.j.R.j.j.j.y.s.g.g.y.6.y.y.1.6.5.5.<.5.5.4.1.@.@.#.#.#.@...#.] ",
". 7 E.K.U.!.L.T.L.Q.!...Q.#.T.XX.X*X1XeXeXeXeXeXeXyXeXrXrXrXyXrXrXrXrXrXrXrXrXrXrXrXrXrXrXyXyXyXyXyXyXyXyXyXyXyXyXyXyXyXyXyXyXyXyXyXyXyXyXyXyXyXyXyXuXuXuXuXaXaXaXaXaXaXsXsXsXsXaXaXkXsXiXuXiXjXhXhXjXjXjXhXjXjXzXcXcXcXcXcXmXbXbXnXnXnXnXnXnXnXnXnXnXZXDXDXDXDXDXDXDXDXDXMXMXMXDXDXMXxX7X6X&X&X&X&X5X6X>X=XT.@.J 3 + gXJXJXJXJXJXJXJXJXJXJXJXJXJXJXJXJXJXJXJXJXJXJXJXJXJXJXJXJXJXJXJXJXJXJXJXJXJX^.X X # 1 3 2 2 2 1 # +     CXJXJXJXJXJXJXJXJXJXJXJXJXJXJXJXJXJXJXJXJXJXJXJXJXJXJXJXJXJXJXJXJXJXJXJXJXJXJ.  X X + + X   J.JXJXJXJXJXJXJXJXJXJXJXJXJXJXJXJXJXJXJXJXJXJXJXJXJXJXJXJXJXJXJXJXJXJXJXJXJXJXJXJXJXJXJXJXJXJXJXJXJXJXJXJXJXJXJXJXJXJXJXJXJXJXJXJXJXJXJXJXJXJXJXJXJXJXJXJXJXJXJXJXJXJXJXJXJXJXJXJXJXJXJXJXJXJX%.  . 1 q g c K q f 5 3 6 6 y y N ` ` | | B k f c [ ] .... .T R R R R [ {  . . .o.@.@.@.5.d.y.<.5.y.y.j.j.W.`.`.[.'.[.'.}.}.}.}.}.5X5X5X5X5X5X5X5X5XoXoXoX-X{.{.[.!.!.Q.T.U.T.U.L.a.d.d.s.p.p.p.u.u.u.i.i.i.u.i.u.u.u.i.K.L.U.T.g.-X8X5X}.}.}.[.R.j.R.h.g.h.y.s.g.g.6.6.6.g.y.6.y.1.6.6.6.4.@.@.#.#.#.#.@.+.#.[ ",
"% 8 K.K.!.T.Q.!.Q.U.T.a.a.p.5.T.*X,X2XeXrXeXeXeXrXyXrXrXrXrXyXrXrXrXrXrXrXrXrXrXrXrXrXrXrXrXyXyXrXyXyXyXyXyXyXyXyXyXyXyXyXyXyXyXyXyXyXyXyXyXyXuXyXyXaXaXaXaXaXaXaXaXaXaXaXsXsXsXaXsXkXaXaXaXhXjXjXjXjXjXhXjXjXhXhXcXcXcXcXcXmXmXbXnXnXnXnXnXnXnXnXnXnXZXDXZXDXDXDXDXDXDXDXMXDXDXDXDXMXxX8X>X&X&X&X&X6X6X>X-XT.*.U 3 # wXJXJXJXJXJXJXJXJXJXJXJXJXJXJXJXJXJXJXJXJXJXJXJXJXJXJXJXJXJXJXJXJXJXJXJXJXJX^.X X # 1 3 3 2 2 1 # +     CXJXJXJXJXJXJXJXJXJXJXJXJXJXJXJXJXJXJXJXJXJXJXJXJXJXJXJXJXJXJXJXJXJXJXJXJXJXJ.  X . + + X   J.JXJXJXJXJXJXJXJXJXJXJXJXJXJXJXJXJXJXJXJXJXJXJXJXJXJXJXJXJXJXJXJXJXJXJXJXJXJXJXJXJXJXJXJXJXJXJXJXJXJXJXJXJXJXJXJXJXJXJXJXJXJXJXJXJXJXJXJXJXJXJXJXJXJXJXJXJXJXJXJXJXJXJXJXJXJXJXJXJXJXJXJXJXJX%.  + 1 q c C K q f f 5 4 6 y y N _ | | ~ k k l l ' Y ] { ..R { R R R R R R R #.<.@.$.<.6.y.a.1.5.d.g.l.j.W.`.[.`.[.'.}.}.|.`.}.oXoX-X5X5X5X5X5X8X5X:X:XoXoX{.{.{.!.!.Q.U.U.T.U.L.a.a.a.s.s.p.p.u.i.i.i.s.i.i.u.u.u.u.i.K.a.L.T.j.-X8X5X$X}.}.[.W.R.R.j.j.g.y.g.j.g.y.y.g.y.6.g.g.5.g.6.1.1.<.@.#.@.@.@.@.#...#.",
"  2 *.T.E.!.Q.!.Q.E.4.!.T.Q.R.U.XXOX2XrXrXrXrXrXrXyXrXrXrXrXyXrXrXrXrXrXrXrXrXrXrXrXrXrXrXrXrXrXrXyXyXyXyXyXyXyXyXyXyXyXyXyXyXyXyXyXyXyXyXyXuXuXyXyXuXaXaXaXaXaXaXaXaXaXsXsXaXaXaXaXsXsXaXaXkXkXjXjXaXaXsXjXjXjXhXcXcXcXcXcXcXmXnXnXnXnXnXnXnXnXnXnXnXZXZXZXZXDXDXDXDXDXMXMXMXMXDXDXMXxX7X6X&X&X&X&X6X>X>X-XW.*.T 3 # wXJXJXJXJXJXJXJXJXJXJXJXJXJXJXJXJXJXJXJXJXJXJXJXJXJXJXJXJXJXJXJXJXJXJXJXJXJX^.  X # 1 3 3 2 2 1 # +     CXJXJXJXJXJXJXJXJXJXJXJXJXJXJXJXJXJXJXJXJXJXJXJXJXJXJXJXJXJXJXJXJXJXJXJXJXJX-.  X . + + X   J.JXJXJXJXJXJXJXJXJXJXJXJXJXJXJXJXJXJXJXJXJXJXJXJXJXJXJXJXJXJXJXJXJXJXJXJXJXJXJXJXJXJXJXJXJXJXJXJXJXJXJXJXJXJXJXJXJXJXJXJXJXJXJXJXJXJXJXJXJXJXJXJXJXJXJXJXJXJXJXJXJXJXJXJXJXJXJXJXJXJXJXJXJXJX-.  + 2 f c K K g 5 y 6 6 6 y p M ~ | | B B k k f J Y R R {  . . .R R R R R  .@.@.@.$.1.6.y.j.y.5.g.g.y.j.R.`.[.`.`.}.}.}.[.[.}.}.}.-X5X5X5X5X6X8X5X:X:X:X}.{.{.{.[.~.R.T.U.U.h.a.a.a.a.K.s.p.p.d.d.i.s.i.i.i.u.u.i.u.i.s.s.a.Y.W.}.5X5X5X}.}.`.`.R.R.j.j.g.g.j.j.g.l.y.g.6.6.s.y.s.y.y.1.1.<.<.<.<.@.@.@.@. ...",
". o K.L.u.Q.U.T.U.Q.L.&.E.p.[.!.XXOXeXrXrXrXrXyXrXyXrXrXrXrXyXrXrXrXrXrXrXrXrXrXrXrXrXrXrXrXrXrXyXyXyXyXyXyXyXyXyXyXyXyXyXyXyXyXyXyXyXyXyXyXuXuXyXyXaXaXaXaXaXuXaXaXaXaXsXaXaXaXaXaXsXsXsXsXsXdXjXjXaXaXsXjXjXjXcXjXcXcXcXcXcXmXnXnXSXSXnXnXnXnXnXnXnXZXZXZXZXDXDXDXDXDXMXMXMXMXSXDXMXxX7X>X&X&X&X&X>X%X%X%XY.4.T 8 # wXJXJXJXJXJXJXJXJXJXJXJXJXJXJXJXJXJXJXJXJXJXJXJXJXJXJXJXJXJXJXJXJXJXJXJXJXJX_.  O # 1 3 3 2 2 1 # + X   AXJXJXJXJXJXJXJXJXJXJXJXJXJXJXJXJXJXJXJXJXJXJXJXJXJXJXJXJXJXJXJXJXJXJXJXJXJX%.    . + + X   J.JXJXJXJXJXJXJXJXJXJXJXJXJXJXJXJXJXJXJXJXJXJXJXJXJXJXJXJXJXJXJXJXJXJXJXJXJXJXJXJXJXJXJXJXJXJXJXJXJXJXJXJXJXJXJXJXJXJXJXJXJXJXJXJXJXJXJXJXJXJXJXJXJXJXJXJXJXJXJXJXJXJXJXJXJXJXJXJXJXJXJXJXJXJX-.  + 2 q b ' C z 3 y 4 y y y y j M S S N S k f l K n J  .{ O.O.+. .R [ R  .......o.1.1.1.d.d.j.1.s.R.j.R.R.W.[.}.[.}.}.{.[.{.}.}.-X5X5X5X5X5X5X5X5X5X5X5X}.}.{.{.{.!.R.R.U.U.L.a.a.a.a.a.d.p.p.d.s.i.i.i.i.i.i.u.u.u.d.i.L.L.h.W.}.}.5X$X}.}.|.`.R.R.k.k.j.Y.k.Y.j.g.6.y.g.g.1.y.j.y.6.6.1.o.<.1.<.+.@.$.@.O.{ ",
"X 2 i.K.U.U.u.Q.E.E.). .p.8.Q.!.XX1XrXrXrXeXrXyXrXyXrXrXrXyXyXrXrXrXyXyXyXyXrXrXyXrXrXrXrXyXrXrXyXyXyXyXrXyXyXyXyXyXyXyXyXyXyXyXyXyXyXyXyXyXaXaXyXyXuXuXaXaXaXaXaXaXaXsXsXsXsXsXsXsXsXsXsXsXdXkXkXjXaXiXiXiXhXzXcXcXcXcXcXcXcXcXbXnXSXSXSXnXnXnXnXZXZXnXnXDXDXDXDXMXMXMXMXMXmXMXMXMXMXzX8X>X&X&X&X&X6X$X%X{.Y.5.Y 5 # (.JXJXJXJXJXJXJXJXJXJXJXJXJXJXJXJXJXJXJXJXJXJXJXJXJXJXJXJXJXJXJXJXJXJXJXJXJXP.X X 1 2 1 3 2 3 2 = + X   AXJXJXJXJXJXJXJXJXJXJXJXJXJXJXJXJXJXJXJXJXJXJXJXJXJXJXJXJXJXJXJXJXJXJXJXJXJX}   X + + X X   J.JXJXJXJXJXJXJXJXJXJXJXJXJXJXJXJXJXJXJXJXJXJXJXJXJXJXJXJXJXJXJXJXJXJXJXJXJXJXJXJXJXJXJXJXJXJXJXJXJXJXJXJXJXJXJXJXJXJXJXJXJXJXJXJXJXJXJXJXJXJXJXJXJXJXJXJXJXJXJXJXJXJXJXJXJXJXJXJXJXJXJXJXJXJX%.  + = 8 Z ` V z 5 4 y y y p j y y M M B S ~ k l K U J ]  . .#.*. . . .R R  . . .$.1.y.y.d.j.W.g.R.k.k.R.k.W.{.{.{.{.`.{.{.-X'.-X5X5X5X5X5X5X8X5X5X8X5X:X:X}.oXoX{.[.W.W.T.U.L.L.L.a.a.a.a.d.p.s.s.i.i.i.i.u.u.u.u.u.d.p.U.Y.j.{.{.}.5X5X}.}.|.`.W.R.k.k.g.R.R.k.R.6.y.6.y.y.6.6.g.6.g.g.1.1.<.X.@.#.4.1.#...R ",
"  2 7.).s.u.!.E.Q.E.Q.&.4.5.Q.XXXX<XrXrXrXrXrXrXrXrXrXrXrXyXyXrXrXrXrXrXrXrXrXrXrXrXrXrXrXyXrXrXrXyXyXyXyXrXyXyXyXyXyXyXyXyXyXyXyXyXyXyXyXyXaXaXyXyXuXuXaXaXaXaXaXaXaXsXsXsXsXsXsXsXsXsXsXsXdXkXkXjXaXaXiXiXhXzXcXcXcXcXcXcXcXmXbXnXnXSXSXnXnXnXnXZXZXnXnXDXDXDXMXMXMXMXMXmXmXmXMXMXMXzX8X6X&X&X$X>X6X$X%X'.Y.4.Y q # ^.JXJXJXJXJXJXJXJXJXJXJXJXJXJXJXJXJXJXJXJXJXJXJXJXJXJXJXJXJXJXJXJXJXJXJXJXJXP.X X 1 2 2 5 5 3 2 = .   X AXJXJXJXJXJXJXJXJXJXJXJXJXJXJXJXJXJXJXJXJXJXJXJXJXJXJXJXJXJXJXJXJXJXJXJXJXJXA   X X + X X   J.JXJXJXJXJXJXJXJXJXJXJXJXJXJXJXJXJXJXJXJXJXJXJXJXJXJXJXJXJXJXJXJXJXJXJXJXJXJXJXJXJXJXJXJXJXJXJXJXJXJXJXJXJXJXJXJXJXJXJXJXJXJXJXJXJXJXJXJXJXJXJXJXJXJXJXJXJXJXJXJXJXJXJXJXJXJXJXJXJXJXJXJXJXJX%.  + = q U ` z z p f 6 6 z 4 f j k ~ _ N ~ ` M z A ] Y Y { O... .O.+.#.+. . . . .$.5.y.j.j.W.{.W.R.k.k.k.W.`.W.k.k.W.W.}.{.{.}.6X8X6X5X5X5X5X6X5X6X8X8XoXoX}.oXoX{.!.W.T.T.U.U.U.L.a.a.a.K.s.p.s.s.i.i.i.i.i.u.i.u.d.a.L.U.Y.R.{.[.}.5X5X}.}.|.`.`.W.j.j.R.R.R.R.R.j.y.6.<.g.y.6.6.j.y.6.6.6.@.+.<.8.@.o.<.X.e ",
"  $ 7.Q.Q.K.Q.Q.Q.Q.K.7.7.5.Q.XX/.<XyXrXrXrXrXrXrXrXrXrXrXrXrXrXrXrXrXrXrXrXrXrXrXrXrXrXrXrXrXrXrXrXyXyXyXyXyXyXyXyXyXyXyXyXyXyXyXyXyXyXyXyXaXaXyXyXuXuXaXaXaXaXaXaXaXaXsXsXsXsXsXsXsXsXsXsXsXkXkXjXaXsXiXiXjXjXcXcXcXcXcXcXcXbXbXbXnXnXnXnXnXnXnXZXZXnXZXDXDXDXnXMXMXMXNXmXmXmXmXmXNXxX7X6X&X&X$X&X6X$X$X'.j.1.T w # P.JXJXJXJXJXJXJXJXJXJXJXJXJXJXJXJXJXJXJXJXJXJXJXJXJXJXJXJXJXJXJXJXJXJXJXJXJXP.  X # 2 2 8 q 3 2 # .   X AXJXJXJXJXJXJXJXJXJXJXJXJXJXJXJXJXJXJXJXJXJXJXJXJXJXJXJXJXJXJXJXJXJXJXJXJXJX1   + X + + X   J.JXJXJXJXJXJXJXJXJXJXJXJXJXJXJXJXJXJXJXJXJXJXJXJXJXJXJXJXJXJXJXJXJXJXJXJXJXJXJXJXJXJXJXJXJXJXJXJXJXJXJXJXJXJXJXJXJXJXJXJXJXJXJXJXJXJXJXJXJXJXJXJXJXJXJXJXJXJXJXJXJXJXJXJXJXJXJXJXJXJXJXJXJXJX%.  . = g K C h z f y y f 6 y z s j ~ ~ ~ ~ | B l A } { ] ] { ..X.#.$.+.@.4.+.#.X.$.6.d.W.~.{.oXW.k.k.R.W.k.k.'.;X;X;X>X7X7X;X7X9XxX0XxX7X6X8X8X6X8X8X5XoX:X}.oX-X{.!.R.T.T.T.T.U.a.a.L.K.L.K.s.K.K.i.i.i.p.i.i.u.u.p.a.U.U.Y.W.{.'.}.5X5X}.}.{.W.W.`.k.j.R.k.R.`.j.g.l.y.g.6.y.6.6.s.y.6.6.1.8.<.8.<.8.<.4.+.r ",
"o % i.U.E.Q.T.!.!./.K.8.s.P !.+X/.<XyXrXrXyXyXrXrXrXrXrXrXrXrXrXrXyXyXyXrXrXrXrXrXrXrXrXrXyXrXrXyXyXyXyXyXyXyXyXyXyXyXyXyXyXyXyXyXyXyXyXyXyXaXaXyXuXuXuXuXaXaXaXaXaXaXaXaXaXaXaXsXsXsXsXsXsXsXkXkXjXaXsXsXiXjXjXcXcXcXcXcXcXcXbXvXvXbXbXbXnXnXnXnXZXZXZXZXDXDXDXnXMXMXMXNXmXmXmXmXmXNXzX7X6X6X&X#X$X>X$X$X{.k.5.Y h # I.JXJXJXJXJXJXJXJXJXJXJXJXJXJXJXJXJXJXJXJXJXJXJXJXJXJXJXJXJXJXJXJXJXJXJXJXJX_.  + # 2 3 5 5 3 2 # . X   KXJXJXJXJXJXJXJXJXJXJXJXJXJXJXJXJXJXJXJXJXJXJXJXJXJXJXJXJXJXJXJXJXJXJXJXJXJX  X + + + + X   J.JXJXJXJXJXJXJXJXJXJXJXJXJXJXJXJXJXJXJXJXJXJXJXJXJXJXJXJXJXJXJXJXJXJXJXJXJXJXJXJXJXJXJXJXJXJXJXJXJXJXJXJXJXJXJXJXJXJXJXJXJXJXJXJXJXJXJXJXJXJXJXJXJXJXJXJXJXJXJXJXJXJXJXJXJXJXJXJXJXJXJXJXJXJX-.  . = q c q c h f 6 f 5 y j f j S S _ | ~ _ S B V ` ..O. .R ..X. .+.#.4.p.4.4.+.<.6.d.k.[.{.{.`.R.W.W.`.j.[.7X7X7X9X>X{.zXxX9X7XzXxXxXxX7XzX7X5X8X6X5X5X5XoX-X:X{.!.R.R.R.T.T.L.a.L.U.L.L.K.K.K.K.i.i.i.p.i.u.u.p.s.U.g.W.!.`.`.'.-X:X5X}.}.|.`.`.`.k.W.R.R.R.R.k.g.k.j.g.y.y.6.g.6.g.6.6.5.<.<.<.<.<.6.1.+.H ",
"  b *.E.s.U.Q.U.E.E.s.&.K.s.!.!./.<XyXrXrXyXyXrXrXrXrXrXrXrXrXrXrXrXrXyXrXrXrXeXrXrXrXrXrXyXyXyXyXyXyXyXyXyXyXyXyXyXyXyXyXyXyXyXyXyXyXyXyXyXaXuXaXaXaXaXuXaXaXaXaXaXaXaXaXaXaXaXaXsXsXsXsXsXsXkXkXjXaXsXhXhXcXjXcXcXcXcXcXcXcXbXvXvXbXbXbXnXnXZXnXnXZXZXZXDXDXDXnXMXMXMXmXmXmXmXmXNXxXzX8X6X6X&X$X$X$X&X5X}.W.5.R h # =.JXJXJXJXJXJXJXJXJXJXJXJXJXJXJXJXJXJXJXJXJXJXJXJXJXJXJXJXJXJXJXJXJXJXJXJXJX^.  + # 2 2 5 3 3 2 * . X   JXJXJXJXJXJXJXJXJXJXJXJXJXJXJXJXJXJXJXJXJXJXJXJXJXJXJXJXJXJXJXJXJXJXJXJXJXAX  X O + # # X   J.JXJXJXJXJXJXJXJXJXJXJXJXJXJXJXJXJXJXJXJXJXJXJXJXJXJXJXJXJXJXJXJXJXJXJXJXJXJXJXJXJXJXJXJXJXJXJXJXJXJXJXJXJXJXJXJXJXJXJXJXJXJXJXJXJXJXJXJXJXJXJXJXJXJXJXJXJXJXJXJXJXJXJXJXJXJXJXJXJXJXJXJXJXJX-.  . = 7 8 h 8 h f y y 6 p y z k ` _ } } ~ S M B M ' ..O.&.O... .R ..#.4.5.<.<.@.4.6.h.k.`.{.{.W.k.W.j.g.{.!.7X7X9XzX9XVXVXzXzXzXzXzXVXNXxXxX7X>X6X8X8X5X5X5X:X-X{.!.W.R.R.T.T.U.L.L.U.U.L.L.a.s.s.i.i.i.i.u.u.p.a.U.T.U.!.{.[.W.`.$X5X5X}.{.}.|.|.`.R.`.k.R.k.g.R.j.k.g.j.y.g.g.6.9.6.6.6.6.#.1.o.<.8.<.1.<.R ",
". ` J Q.7.!.!.#. .Q.7.s.Q.!.T.+XOX<XyXrXrXiXyXyXyXrXyXyXrXrXrXrXrXrXrXrXrXrXrXrXrXrXrXrXrXyXyXyXyXyXyXyXyXyXyXyXyXyXyXyXyXyXyXyXyXyXyXyXyXyXaXuXaXaXuXaXuXaXaXaXaXaXaXaXaXaXaXaXaXsXsXsXsXsXsXkXkXjXaXsXhXhXcXzXcXcXjXcXcXcXcXbXvXvXbXbXbXnXnXnXnXnXnXZXZXDXDXDXMXMXMXMXMXmXmXmXMXmXxX9X8X8X6X&X&X&X&X&X5X}.W.1.{ x 1 ;.JXJXJXJXJXJXJXJXJXJXJXJXJXJXJXJXJXJXJXJXJXJXJXJXJXJXJXJXJXJXJXJXJXJXJXJXJX^.  X # 2 2 3 3 3 1 # X X + JXJXJXJXJXJXJXJXJXJXJXJXJXJXJXJXJXJXJXJXJXJXJXJXJXJXJXJXJXJXJXJXJXJXJXJXJXpXX X + + + + X   J.JXJXJXJXJXJXJXJXJXJXJXJXJXJXJXJXJXJXJXJXJXJXJXJXJXJXJXJXJXJXJXJXJXJXJXJXJXJXJXJXJXJXJXJXJXJXJXJXJXJXJXJXJXJXJXJXJXJXJXJXJXJXJXJXJXJXJXJXJXJXJXJXJXJXJXJXJXJXJXJXJXJXJXJXJXJXJXJXJXJXJXJXJXJX-.  + 1 7 8 h q 8 8 6 6 y y y z S ~ } ` | ) S N M M _ } ..&.7.#.@... . .@.#.#.<.1.6.6.W.k.`.{.}.W.R.!.!.[.xXW.7XzXzX9XzXzXzXNXNXNXmXBXmXNXNXNXzX7X8X8X8X8X5X5X:XoX}.[.W.R.E.T.E.T.U.U.U.U.L.K.a.s.i.i.i.i.i.7.u.s.U.Y.R.[.[.W.W.`.'.$X5X}.}.}.5X}.|.`.`.k.k.g.k.l.g.g.g.k.g.g.6.9.6.X.1.g.6.1.8.6.1.<.6.6.6.6.X.",
"  h [ 7.#.@.!.5.L L.E...E.).!.).OXeXrXrXrXyXrXyXrXrXrXyXrXeXeXrXrXrXeXeXeXeXeXeXrXrXrXrXrXrXrXyXrXyXyXyXyXyXyXyXyXyXyXyXyXyXyXyXyXyXyXyXyXyXyXyXyXuXuXuXuXuXaXaXaXaXaXaXaXaXaXaXsXsXsXsXsXsXdXkXkXjXjXsXhXhXzXzXcXcXjXcXcXcXcXcXbXmXmXmXbXbXnXnXnXnXnXZXZXZXDXDXDXDXDXDXMXbXbXMXbXNXxX7X8X8X6X&X&X&X&X&X&X}.W.1.{ x - V JXJXJXJXJXJXJXJXJXJXJXJXJXJXJXJXJXJXJXJXJXJXJXJXJXJXJXJXJXJXJXJXJXJXJXJXJX(.  X # 2 1 3 2 3 = # X X z JXJXJXJXJXJXJXJXJXJXJXJXJXJXJXJXJXJXJXJXJXJXJXJXJXJXJXJXJXJXJXJXJXJXJXJXJX(.X X + + + + X X J.JXJXJXJXJXJXJXJXJXJXJXJXJXJXJXJXJXJXJXJXJXJXJXJXJXJXJXJXJXJXJXJXJXJXJXJXJXJXJXJXJXJXJXJXJXJXJXJXJXJXJXJXJXJXJXJXJXJXJXJXJXJXJXJXJXJXJXJXJXJXJXJXJXJXJXJXJXJXJXJXJXJXJXJXJXJXJXJXJXJXJXJXJXJX-.  + 1 8 8 f c 3 5 3 5 5 j p y _ M ~ ~ ) ) S N M V A } &.&.*.*.4.*.+.+.+.#.#.<.4.6.y.W.W.W.`.{.[.-X4X4X4XhX/.zX4XzXNXzXNXNXmXcXmXnXnXmXmXmXNXxXlX7X8X6X8X5X5X:XoX X[.~.R.R.E.Q.E.T.U.U.U.L.L.L.s.i.i.i.i.i.u.p.T.W.W.W.{.W.W.W.'.'.$X5X}.5X5X5X}.`.`.`.R.k.g.`.j.g.j.j.j.l.y.g.<.1.9.1.y.y.1.6.6.g.6.6.6.6.6.+.",
"o h ] #.4.u.a.T.K.5.T.&.E.Q.Q.+X1XeXyXrXyXyXrXyXtXeXeXtXeXeXeXeXeXeXeX<X<X<X<X2XrXrXrXrXrXrXrXrXrXyXyXyXyXyXyXyXyXyXyXyXyXyXyXyXyXyXyXyXyXyXyXyXaXuXuXyXuXuXaXaXaXaXaXaXaXaXaXaXfXsXsXsXsXsXdXkXkXjXaXsXhXhXzXzXcXcXjXcXcXcXcXcXvXmXmXmXbXbXnXnXnXnXnXZXZXZXDXDXDXDXDXDXMXbXnXMXbXmXzX7X8X8X6X&X&X&X&X$X&X}.W.y.{ v - 2 JXJXJXJXJXJXJXJXJXJXJXJXJXJXJXJXJXJXJXJXJXJXJXJXJXJXJXJXJXJXJXJXJXJXJXJXJX(.X X # 1 1 3 3 3 1 # X X ` JXJXJXJXJXJXJXJXJXJXJXJXJXJXJXJXJXJXJXJXJXJXJXJXJXJXJXJXJXJXJXJXJXJXJXJXJX^.  X + # # + X X J.JXJXJXJXJXJXJXJXJXJXJXJXJXJXJXJXJXJXJXJXJXJXJXJXJXJXJXJXJXJXJXJXJXJXJXJXJXJXJXJXJXJXJXJXJXJXJXJXJXJXJXJXJXJXJXJXJXJXJXJXJXJXJXJXJXJXJXJXJXJXJXJXJXJXJXJXJXJXJXJXJXJXJXJXJXJXJXJXJXJXJXJXJXJX-.X + 2 8 f z V 8 5 f 6 p y y M S S ~ ~ B ~ N N M B V ` ..*.*.7.*.4.7.4.@.@.#.@.1.6.g.j.j.W.`.[.W.-X4X4XhXzXhX7XzXzXzXmXcXmXBXmXmXMXnXMXnXmXzXxXzX7X8X8X8X5X5X:XoX X{.W.Q.Q.Q.Q.T.T.U.T.T.L.U.U.K.s.s.i.i.i.p.L.~.{.{.[.[.`.{.`.'.`.}.5X-X5X-X}.{.}.[.[.`.`.k.R.k.j.j.j.g.g.g.6.6.6.y.g.y.y.6.y.g.6.g.6.l.6.g.<.",
"@ f ' i.*.L.#.Q.7.K.U.!.W.W.[.XX<XrXyXrXrXyXyXtXeX2X1X1X3X3X3X1X2X2X2X3X,X1X1X1X<XeXrXeXeXrXrXrXrXrXrXrXrXrXrXrXyXrXrXyXyXyXyXyXyXyXyXyXyXyXaXaXaXuXuXyXuXyXaXaXaXaXaXaXaXsXsXaXaXsXsXsXsXsXdXkXkXsXsXsXjXjXjXjXcXcXcXcXcXvXvXvXcXbXbXbXbXbXnXnXnXnXZXZXZXZXDXDXDXZXnXnXMXMXMXnXMXxX7X6X6X6X&X&X&X].].&X&X#Xz.1. .v 2 + HXJXJXJXJXJXJXJXJXJXJXJXJXJXJXJXJXJXJXJXJXJXJXJXJXJXJXJXJXJXJXJXJXJXJXJXJX(.X   # = 6 3 5 3 = # O   %.JXJXJXJXJXJXJXJXJXJXJXJXJXJXJXJXJXJXJXJXJXJXJXJXJXJXJXJXJXJXJXJXJXJXJXJXJXJ.  X # # # # X X I.JXJXJXJXJXJXJXJXJXJXJXJXJXJXJXJXJXJXJXJXJXJXJXJXJXJXJXJXJXJXJXJXJXJXJXJXJXJXJXJXJXJXJXJXJXJXJXJXJXJXJXJXJXJXJXJXJXJXJXJXJXJXJXJXJXJXJXJXJXJXJXJXJXJXJXJXJXJXJXJXJXJXKXJXJXJXJXJXJXJXJXJXJXJX=.  = 2 8 3 c g 3 q 8 3 8 y y S s M S S M B M M M B V _ ..&.7.5.6.6.6.5.5.5.4.*.@.4.y.l.j.W.W.`.{.~.!.*XhXjXmXmXcXzXNXmXNXmXmXmXnXnXnXnXDXnXmXmXzX7X8X8X8X5X5X5X}.{.[.!.W.R.W.R.Q.U.T.T.U.U.U.L.L.s.i.s.p.s.a.!. X{.W.[.`.[.-X-X}.{.-XoX5X5X}.{.}.}.|.|.[.`.`.R.k.k.j.k.k.g.g.l.g.g.y.h.g.6.y.y.l.6.l.6.l.l.1. .",
"+ 1 Z 7.5.7.*.E.&.!.!.!.!.+X+X/.eXeX<XaXrXyX<X2X,X,X.X*X,X,X,X,X,X3X2X1X3X1X1X1X1XeXeXeXeXrXrXrXrXrXrXrXrXrXrXrXyXrXrXyXyXyXyXyXyXyXyXyXyXyXaXaXuXuXuXuXuXyXaXaXaXaXaXaXaXsXsXaXaXsXsXsXsXsXsXkXkXsXsXsXjXjXjXjXcXcXcXcXcXvXvXbXvXbXbXbXbXbXnXnXnXnXZXZXZXZXDXDXDXZXZXDXDXMXMXMXMXxX8X6X6X6X&X#X].N.m.].].N.f.1. .J 2 + CXJXJXJXJXJXJXJXJXJXJXJXJXJXJXJXJXJXJXJXJXJXJXJXJXJXJXJXJXJXJXJXJXJXJXJXJXwX  .   1 3 3 6 1 5 O X   J.JXJXJXJXJXJXJXJXJXJXJXJXJXJXJXJXJXJXJXJXJXJXJXJXJXJXJXJXJXJXJXJXJXJXJXJXJX} + + + # , + # X ^.JXJXJXJXJXJXJXJXJXJXJXJXJXJXJXJXJXJXJXJXJXJXJXJXJXJXJXJXJXJXJXJXJXJXJXJXJXJXJXJXJXJXJXKXJXJXJXJXJXJXJXJXJXJXJXJXJXJXJXJXJXJXJXJXJXJXJXJXJXJXJXJXJXJXJXJXJXJXJXJXJXJXJXJXKXJXJXJXJXJXJXJXJXJXJ.O # 2 q 8 h g 8 q 8 5 f f z M M B M ` ~ V B f S M A ~ } %.7.p.p.p.6.5.5.5.5.7.p.d.s.y.j.R.k.~.}.=X~.~.hXhXcXmXmXmXmXmXNXmXmXmXnXMXMXnXDXDXnXNXxX9X8X8X8X8X5X5X}.{.!.!.!.W.Q.E.E.U.T.E.U.U.L.L.U.L.a.K.L.L.[.3X5X{.k.`.[.{.:X}.}.{.-X}.}.'.}.[.`.|.|.|.`.`.R.m.R.`.k.6.k.k.k.g.g.g.g.j.g.g.9.g.g.g.6.l.l.6.s.R ",
"  = = &.i.7.K.L.!./.).s.+X.X!.OXiX<X/.eX<XeXXXOX.X.X*X,X,X3X3X3X,X,X3X3X3X3X1X,X1X<XeXeXrXeXrXrXrXrXrXrXrXrXrXrXyXrXrXyXyXyXyXyXyXyXyXyXyXyXaXaXuXuXyXyXyXpXyXaXaXaXaXaXaXsXsXaXaXsXsXsXsXsXsXkXkXsXsXsXjXcXjXjXcXcXcXcXcXcXbXbXvXbXbXbXbXbXnXnXnXnXZXZXZXZXDXDXDXZXZXDXDXnXnXMXMXxX7X5X&X&X&X#X].M.m.m.m.z.l.o. .J 2 O wXJXJXJXJXJXJXJXJXJXJXJXJXJXJXJXJXJXJXJXJXJXJXJXJXJXJXJXJXJXJXJXJXJXJXJXJXCX  X + # - 7 6 1 : # X X Q.JXJXJXJXJXJXJXJXJXJXJXJXJXJXJXJXJXJXJXJXJXJXJXJXJXJXJXJXJXJXJXJXJXJXJXJXJX1 X X # 1 3 1 X X ^.JXKXJXJXJXJXJXJXJXJXJXJXJXJXJXJXJXJXJXJXJXJXJXJXJXJXJXJXJXJXJXJXJXJXJXJXJXJXJXJXJXJXKXJXJXJXKXJXJXJXJXJXJXJXJXJXJXJXJXJXJXJXJXJXJXJXJXJXJXJXJXJXJXJXJXJXJXJXJXJXJXJXJXJXJXJXJXJXJXJXJXJXJXJXJ.1 = 3 f 8 g g q g 8 8 5 f l j | ;.| ;.V B B M V V S A ] O.5.p.s.s.p.p.p.7.@.#.@.4.y.s.g.d.j.{.;X4X=X:X7XzXzXmXnXmXcXmXNXmXmXnXMXMXDXDXZXGXDXBXxX9X8X8X8X8X8X5X}.{.!.[.!.~.Q.E.T.U.T.T.T.U.L.K.U.U.K.L.U.U.-X7X8X:X{.}.}.}.-X{.}.'.oX}.5X[.oX{.W.`.`.`.`.`.`.`.R.`.k.9.k.k.k.g.g.j.g.g.g.j.9.l.k.j.g.j.g.h.4.9 ",
"# . c O.T.&.U.u.p.XXXXXXXXOX/.,XtXOX)..XOX,X.XXX.X.X*X,X,X,X,X1X,X,X,X,X,X,X3X3X1X1X2XeXeXrXrXrXrXrXrXrXrXrXrXrXyXrXrXyXyXyXyXyXyXyXyXyXyXyXaXaXuXuXuXuXyXyXyXaXaXaXaXaXaXaXsXaXaXsXsXsXsXsXsXkXkXsXsXsXsXcXjXcXcXcXcXcXcXcXvXbXvXbXbXbXbXbXnXnXnXnXZXZXZXZXDXDXDXnXZXDXDXnXMXMXNXlX6X6X&X&X&X].#XM.N.N.v.e.q.<. .J 3 X (.KXJXJXJXJXJXJXJXJXJXJXJXJXJXJXJXJXJXJXJXJXJXJXJXJXJXJXJXJXJXJXJXJXJXJXJXAXX % 8 q w w x 8 q + X + (.JXJXJXJXJXJXJXJXJXJXJXJXJXJXJXJXJXJXJXJXJXJXJXJXJXJXJXJXJXJXJXJXJXJXJXJXCX  X + 1 2 # 1 # + A %.} } ` ` ` ' ` ` ' ' ` ` ' ` ` ' ` ` ` ` ` ` ` ` ` ' ` ` ` ` ` ` ` ` ` ` ` ` ` ' _ _ Z V AXJXJXKXJXJXJXJXJXJXJXJXJXJXJXJXJXJXJXJXJXJXJXJXJXJXJXJXJXJXJXJXJXJXJXJXJXKXI.V A ' ' ' ' ` } } } V + 2 q f q q g g z q f f f k M ` | | | l B M ~ M V V ~ ' ..*.u.s.a.d.d.s.p.p.5.4.4.4.y.y.d.!.3X4X4X>X7X9X9XzXmXnXnXmXmXmXmXmXMXMXDXDXDXZXGXDXMXVX9X8X8X8X8X8X8X:X{.!.{.!.!.Q.R.T.U.U.U.U.U.T.U.U.U.L.U.!.XX4X7X6X5X}.{.5X}.{.}.}.`.}.}.}.{.oX[.[.[.`.}.`.`.|.|.m.k.`.k.k.k.k.k.l.k.k.j.k.g.g.g.g.g.y.j.a...$ . ",
"X q v K.Q.U.a.T.T.).XXXXOXeXeXeXtX.XXX+XXX.X.X X X X*X*X,X*XOX,X3X3X,X,X,X,X3X3X1X,X1XeXrXrXrXrXrXrXrXrXrXrXrXrXyXrXrXyXyXyXyXyXyXyXyXyXyXyXuXuXyXaXaXaXuXaXyXaXaXaXaXaXaXaXaXaXaXsXsXsXsXsXkXkXkXsXsXsXjXjXjXjXcXcXcXcXcXcXvXvXbXbXbXbXbXbXnXnXnXnXZXZXZXZXDXDXDXZXZXDXDXMXMXMXxX8X6X6X6X&X&X#X#XM.N.N.v.f.r.1. .T q + J.JXJXJXJXJXJXJXJXJXJXJXJXJXJXJXJXJXJXJXJXJXJXJXJXJXJXJXJXJXJXJXJXJXJXJXJXKXf # - J [ { { T C q 1 X CXJXJXJXJXJXJXJXJXJXJXJXJXJXJXJXJXJXJXJXJXJXJXJXJXJXJXJXJXJXJXJXJXJXJXJXJXwX  X # 1 3 1 2 1 #   + X +   X X     X X X X X         X             . # # # # # % % % = = % = = = % + X   X   AXJXJXJXJXJXJXJXJXJXJXJXJXJXJXJXJXJXJXJXJXJXJXJXJXJXJXJXJXJXJXJXJXJXJXJXJXJX=.    X     + + X # : # 2 5 z g q q g h h g z f f M S _ | | S S M B V V M S A _ { &.7.p.a.a.s.h.a.s.p.s.y.u.y.d.T.*X3X4X4X7X7X6X9XzXzXmXMXnXmXmXmXnXMXDXDXDXZXLXLXLXBXVXxX0X8X8X6X6X8X5X{.W.[.!.!.~.R.T.U.U.U.U.U.T.T.R.R.T.R.W.:X7X5X5X-X8X-X-X}.{.:X}.`.[.}.}.}.{.R.[.[.`.}.}.|.|.|.`.`.`.`.m.m.m.k.k.k.k.R.k.R.l.l.6.X.y.1.R 7     ",
"h J &.E.!.Q.U.XXtX).iXOX<XeXeXyXtX.XXX.X XXX XXX X.X,X,X,X,X,X,X3X3X,X,X*X*X,X,X3X1X1X<XeXrXrXrXrXrXrXrXrXrXrXrXyXrXrXyXyXyXyXyXyXyXyXyXyXyXuXaXyXyXaXaXaXaXaXaXaXaXaXaXaXaXaXaXaXaXsXsXsXsXsXkXkXsXsXsXjXjXjXjXcXcXcXcXcXcXvXvXbXbXbXbXbXbXnXnXnXnXZXZXZXZXDXDXDXZXZXDXDXMXNXNXxX8X6X6XqX&X&X&X].M.M.m.v.v.f.0.+.] q # ` JXJXJXJXJXJXJXJXJXJXJXJXJXJXJXJXJXJXJXJXJXJXJXJXJXJXJXJXJXJXJXJXJXJXJXKXJX-.  = w m H T m w = O f JXJXJXJXJXJXJXJXJXJXJXJXJXJXJXJXJXJXJXJXJXJXJXJXJXJXJXJXJXJXJXJXJXJXJXJXJXP.    # # 1 5 a 2 1 1 # + X + + 1 # X O X + + # + X X + X X X X     . # * 8 8 q q e w w w e w w w w w 8 2 # X   AXJXJXKXJXJXJXJXJXJXJXJXJXJXJXJXJXJXJXJXJXJXJXJXJXJXJXJXJXJXJXJXJXJXJXJXJXJXJ.X     + X X @ O 1 2 2 f q l z g g h z z h z f p V A S S A ` S B B D V B S A _ | #.7.s.a.g.g.U.U.U.U.W.Q.Q.~.=X*X2X4X3X4X>X>X>X9XzXzXzXNXMXnXMXNXnXMXDXDXZXGXLXLXLXMXNXxX0X8X8X6X8X8X5X}.[.W.!.!.W.R.U.U.U.U.U.U.T.T.Q.Q.R.W.{.:X5X-X5X`.5X:X-X:X}.:X{.{.[.}.-XoX}.`.{.[.[.`.}.}.}.|.}.}.}.`.@X@X@Xm.k.k.R.k.k.k.9.9.1.o.o.X.r . . O ",
"] x s.K.!.XX!.2XeXeXiXuXyXyXrXeX2XXXXXoX XXX XXX X.X*X,X*X.X,X,X,X,X3X3X,X*X*X,X3X1X1X<XeXeXrXrXrXrXrXrXrXrXrXrXyXrXrXyXyXyXyXyXyXyXyXyXyXyXuXaXyXyXaXaXaXaXaXaXaXaXaXaXaXaXaXaXaXaXsXsXsXsXsXsXsXsXsXjXjXjXjXjXcXcXcXcXcXcXvXbXbXbXbXbXbXbXnXnXnXnXZXZXZXZXDXDXDXZXZXZXMXMXNXzX7X6X6X6X6X&X&X&X&XM.m.M.N.v.f.l.#...g # 3 HXJXJXJXJXJXJXJXJXJXJXJXJXJXJXJXJXJXJXJXJXJXJXJXJXJXJXJXJXJXJXJXJXJXJXJXJX(.. . = 7 w 3 7 = . X (.KXJXJXJXJXJXJXJXJXJXJXJXJXJXJXJXJXJXJXJXJXJXJXJXJXJXJXJXJXJXJXJXJXJXJXJXJX` X X 1 2 3 3 2 3 1 1 # 2 # 1 # 5 5 # # # # # 2 2 # # 1 + : : : # # 1 1 1 2 3 q x C T Y R T R R R R R J x 2 . X AXKXJXJXJXJXJXJXJXJXJXJXJXJXJXJXJXJXJXJXJXJXJXJXJXJXJXJXJXJXJXJXJXJXJXJXJXJXJ.  X X + # 2 y 1 : 4 5 z z b l g q g g z c l f f M S ~ } %.;.M V B V M S V ~ _ ` O.7.p.a.h.g.U.Y.j.Y.~.!.XX,X=X,X3X4X4X>X>X7X4X9X9X9XzXzXNXMXMXMXMXDXGXZXLXLXLXLXZXDXNXzX9X8X8X6X8X5X5X-X{.W.!.!.W.R.U.T.U.T.U.T.T.T.T.R.W.~.:XoX:X:X5X{.-X:X5X5X5X}.{.:X}.5X}.}.}.[.oX[.[.`.{.}.}.-X:X5X:X}.|.|.`.`.m.`.|.`.`.`.2.9.1.$. .R v %     ",
"v ] { s.!.!.K.iXeXrXyXeXyXyXeXeX.X+X{. X XXX.XXX.X*X,X,X,X.X*X*X*X,X,X3X,X*X*X*X3X3X1X1X<XeXrXrXrXrXrXrXrXrXrXrXyXrXrXyXyXyXyXyXyXyXyXyXyXyXuXuXyXyXaXaXaXaXaXaXaXaXaXaXaXaXaXaXaXaXsXsXsXsXsXsXsXsXsXjXjXjXjXsXcXcXcXcXcXcXvXbXbXbXbXbXbXbXbXnXnXnXZXZXZXZXDXDXDXDXZXZXMXMXNXzX7X6X6X&X6X&X&X&X#X].M.N.m.v.f.y.4.O.h 1 X CXJXJXJXJXJXJXJXJXJXJXJXJXJXJXJXJXJXJXJXJXJXJXJXJXJXJXJXJXJXJXJXJXJXJXJXJXJX}   + . # % # + X %.KXJXKXJXJXJXJXJXJXJXJXJXJXJXJXJXJXJXJXJXJXJXJXJXJXJXJXJXJXJXJXJXJXJXJXJXJXHX  X + + 1 4 2 3 y 4 2 1 1 1 2 # f f 1 2 2 1 1 f f 1 1 3 1 < < < 4 4 6 4 : 1 : # = w J { O.@.4.5.4.@.#.{ H q =   AXJXJXKXJXJXJXJXJXJXJXJXJXJXJXJXJXJXJXJXJXJXJXJXJXJXJXJXJXJXJXJXJXJXJXJXJXJXJ.  X + 2 1 2 6 y 6 p a z V C l q q q q h C c z l ~ } %.-.J.| l S V B M V V A _ ] O.*.p.a.U.j.h.Y.Y.Y.W.!./.*X3X3X3X3X>X>X4X4X9X9X9X9X9XzXNXBXMXMXDXDXDXLXLXFXAXFXGXDXNX9X8X7X8X8X0X6X5X:X-X[.!.!.T.R.T.T.T.U.U.T.R.T.U.T.W.{.5X}.5X0X:X:X{.}.5X:X8X}.}.8X}.5X}.}.}.[.:X}.{.}.}.}.-X8X5X6X5X}.}.}.|.|.|.}.5X].|.R.j.<.6.G  .G L - %   ",
"{ 7.#.!.+XL./.yXwXeXrXrXrXuXiX1X/.+XXX X.X.X.XXX.X,X,X.XOX.X.X.X*X,X,X,X,X,X*X*X3X3X1X1X<XeXyXeXrXrXyXyXrXrXrXrXrXrXyXyXyXyXyXyXyXyXyXyXyXyXuXuXaXuXyXuXuXuXaXaXaXuXuXaXaXaXaXaXaXsXsXsXaXaXaXsXsXkXsXkXjXcXcXcXcXcXcXcXcXcXvXbXbXbXnXnXnXbXbXbXZXnXnXnXnXZXDXDXDXZXZXDXDXNXVXzX8X8X6X6X6X6X&X#X#X|.N.M.v.v.f.6.@.&.b 5 O (.JXJXJXJXJXJXJXJXJXJXJXJXJXJXJXJXJXJXJXJXJXJXJXJXJXJXJXJXJXJXJXJXJXJXJXJXJXKXI.5   X X   A ^.KXJXKXJXJXJXJXJXJXJXJXJXJXJXJXJXJXJXJXJXJXJXJXJXJXJXJXJXJXJXJXJXJXJXJXJXJXJXwX  X # 1 3 3 3 3 3 3 4 2 1 2 3 6 1 k 3 2 3 2 5 5 D 5 3 3 5 6 y 6 y y 4 : y 4 1 6 + = = f f K ] $.@.1.4...Y z 2   FXJXJXJXJXJXJXJXJXJXJXJXJXJXJXJXJXJXJXJXJXJXJXJXJXJXJXJXJXJXJXJXJXJXJXJXJXJXJ.  O , 6 6 6 M 3 f z f b b Z x h 3 8 g f l b l l ;.;.} ;.| M B B V V V V S A _ ` ..*.p.a.U.Y.U.Y.Y.W.~.{.XX*X=X3X*X=X>X>X>X9X9XzXzXzX9X9XzXNXDXGXGXZXLXFXFXLXFXFXLXDXBXxX0X8X8X0X0X8X5X:XoXoX[.!.Q.T.T.T.U.U.T.T.R.!.T.T.Y.oX8X6X6X:X6X:X}.}.oX:X:X-X8X5X}.}.|.}.{.}.oX}.-X}.}.-X-X>X>X>X5X:X}.}.}.$X}.$X5X5X}.k.`.<.6.<. .E [ - .   ",
"&.7.7.!.L.!.hXeXwXeXrXrXrXyXeX,X[.).[.XXXX.X.XXX.X.X.X.X.X.X.X.X*X,X,X,X,X,X*X*X,X,X3X1X<XeXrXrXrXrXyXyXrXrXrXrXrXrXyXyXyXyXyXyXyXyXyXyXyXyXuXuXyXyXyXaXaXyXyXuXuXuXuXuXaXaXaXaXaXaXaXaXaXaXaXaXsXkXsXkXjXcXcXcXcXcXcXcXcXcXvXbXbXbXnXnXnXbXbXbXnXbXmXnXnXZXZXnXZXZXZXDXnXNXNX7X6X8X6X6X&X&X&X&X].].M.v.B.v.f.q.@.7.C 5 . i.JXJXJXJXJXJXJXJXJXJXJXJXJXJXJXJXJXJXJXJXJXJXJXJXJXJXJXJXJXJXJXJXJXJXJXJXJXJXJXHXAXwXwXCXJXJXJXJXJXJXJXJXJXJXJXJXJXJXJXJXJXJXJXJXJXJXJXJXJXJXJXJXJXJXJXJXJXJXJXJXJXJXJXJX=.+ X + 1 3 5 6 3 3 4 2 2 2 2 3 1 , 5 5 2 1 3 3 3 V :.5 f 3 6 6 y < 4 y y k < 1 : 6 # 6 # # = - 7 e r m v w 3 #   FXJXJXJXJXJXJXJXJXJXJXJXJXJXJXJXJXJXJXJXJXJXJXJXJXJXJXJXJXJXJXJXJXJXJXJXJXJXJ.  O : 6 y y A a f z z V C Z b h 8 8 f f l V f l } | } | B M V V V S S S A ~ _ ` ..*.p.U.T.R.Y.Y.W.W.~.{. X,X3X*X=X=X>X4X4X4X9XzXzXzX9X9X9XzXmXMXGXAXLXFXLXLXFXFXLXGXBXNXxX0X0X0X0X8X5XoXoXoX X!.W.T.R.T.U.T.T.Q.W.R.U.T.~.oX5X-X8X$X6X$X6X-X:X:X0X5X-X'.}.'.|.}.{.oX:X$X:X-XW.:X-X;X>X7X>X:X-X}.}.}.$X5X5X6X5Xy.k.<.1.W.o.<.v 7 % q ",
"i.K.!.T.Q.!.<XOXwXrXrXrXrXtX2XOX+X[.[.XX+X.XXXXX.XXXXX.X*X.X.X.X*X*X,X*X*X*X,X*X*X,X,X,X<XeXrXrXrXrXrXrXrXrXyXrXrXrXyXyXyXyXyXyXyXyXyXyXyXyXuXuXyXyXaXaXpXyXiXuXuXuXuXuXaXaXaXaXuXuXaXaXaXaXsXsXsXsXsXkXkXjXcXjXcXcXcXjXcXcXvXbXbXbXnXnXnXnXnXnXmXmXmXmXnXZXZXnXZXZXZXZXnXNXVX7X6X6X6X&X&X&X&X#X#X#XM.v.B.e.f.q.d.u.Z z # 3 JXJXJXJXJXJXJXJXJXJXJXJXJXJXJXJXJXJXJXJXJXJXJXJXJXJXJXJXJXJXJXJXJXJXJXJXJXJXJXJXJXJXJXJXJXJXJXJXJXJXJXJXJXJXJXJXJXJXJXJXJXJXJXJXJXJXJXJXJXJXJXJXJXJXJXJXJXJXJXJXJXJXJXKX# X + + 5 1 3 3 3 2 2 2 6 6 3 y 2 2 2 f 5 4 2 5 5 q A f f 2 3 S 4 y p 1 ~ y 1 : 1 S # 6 , : : + . . o # # # X     HXJXJXJXJXJXJXJXJXJXJXJXJXJXJXJXJXJXJXJXJXJXJXJXJXJXJXJXJXJXJXJXJXJXJXJXJXJXJ.  + , 6 y a l y j z f c C K C g 8 5 f f h Z h ( } } } S M S V V S S S S ~ ~ _ ] ..*.d.U.Q.!.R.R.W.W.!.{.XX,X2X=X{.%X>X9X7XzXzXzXzXzX9X9X9X7XzXnXDXLXFXFXLXGXFXFXGXGXDXBXNXxXxXxXxX0X:X-XoXoX X{.!.T.R.T.U.Q.R.Q.R.U.T.T.[.}.oXoX5X:X:X5X8X5X-X7XxX8XoX`.}.`.`.[.[.{.oX:X>X:X X:X-X{.=X7X7X:X$X$X$X5X5X5X5X5X:Xk.o.l.<.6.X. .R n 2 A ",
"*.Q.K.Q.!.tXeXeXrXrXyXyXyXeX1XXXXXXXXXXX+XXX XXX.X X X.X.X.X*X*X*X*X*X*X*X*X*X*X=X3X,X1XeXrXrXrXrXrXrXrXrXrXyXyXrXrXrXrXyXyXyXyXyXyXyXyXyXyXuXuXuXaXaXpXyXyXuXiXuXuXuXuXaXaXaXuXuXuXaXaXaXaXaXjXsXkXsXkXkXkXkXkXkXkXcXjXcXcXvXbXvXbXnXnXnXnXnXnXcXcXcXmXnXDXDXDXZXZXZXZXMXNXVX9X6X6X6X&X&X&X&X#X#X].N.m.B.f.q.2.y.L.Y g = o rXJXJXJXJXJXJXJXJXJXJXJXJXJXJXJXJXJXJXJXJXJXJXJXJXJXJXJXJXJXJXJXJXJXJXJXJXJXJXJXJXJXJXJXJXJXJXJXJXJXJXJXJXJXJXJXJXJXJXJXJXJXJXJXJXJXJXJXJXJXJXJXJXJXJXJXJXJXJXJXJXJXJX(.  X X 1 1 5 4 4 2 2 2 4 3 3 3 3 2 3 2 a 5 5 3 2 5 3 f 3 6 a 6 k 4 4 6 4 z : 4 1 : y 4 6 : < < : , < : : # O       HXJXJXJXJXJXJXJXJXJXJXJXJXJXJXJXJXJXJXJXJXJXJXJXJXJXJXJXJXJXJXJXJXJXJXJXJXJXJ.X # , 4 5 a j y j k f l C J C q 8 8 p z l A h D ( | | V ~ S V S S ~ ~ ~ ~ ( _ [ ..8.d.U.Q.!.Q.W.W.W.!.{..X3X3X*X=X;X>X7XzXcXzXmXmXzXzX0X9X9XzXmXDXLXHXFXDXFXGXGXGXGXGXDXBXBXVXVXVXxX5X-X-XoX{.{.[.W.Q.Q.R.!.Q.T.T.T.R.Q.W.[.oX:X:X8X$X5X8X8X-XlXxX:X-X}.}.`.`.`.`.[.}.-X>X>X4X:X:X X3X7X7X>X}.$X5X5X6X6X8X>X5X`.l.9.y.o.R  .Y 8 1 _ ",
"{ ).7.!./.uXeXeXyXyXyXyXyX2X,XXXXXXXXXXXXXXX X.X.X.X.X X X.X*X*X*X*X.X.X=X*X*X=X*X3X3X1XeXyXrXyXrXrXrXrXrXyXyXyXrXrXrXrXrXyXyXyXyXyXyXyXyXyXyXuXyXuXuXuXrXyXiXiXuXaXuXaXaXaXuXiXuXuXiXaXaXaXjXjXsXsXsXkXkXkXkXkXcXcXcXjXcXcXvXvXvXbXnXnXnXnXbXbXmXzXzXmXnXDXDXDXnXZXZXnXMXBXxX9X6X6XqX&X&X&X&X#XM.v.N.f.f.3.2.2.d.L.] b 5 X J.KXJXJXJXJXJXJXJXJXJXJXJXJXJXJXJXJXJXJXJXJXJXJXJXJXJXJXJXJXJXJXJXJXKXJXJXKXKXJXJXJXJXJXJXJXJXJXJXKXJXJXJXJXJXJXJXJXJXJXJXJXJXJXJXJXJXJXJXJXJXJXJXJXJXJXJXJXJXJXJXJXKX%.  # # # 6 5 4 6 6 4 4 3 3 6 3 2 6 5 3 2 6 f f 3 5 3 5 f 5 5 6 2 4 4 < 4 : < 4 : : : : : < : # : : : : < , + X     HXJXJXJXJXJXJXJXJXJXJXJXJXJXJXJXJXJXJXJXJXJXJXJXJXJXJXJXJXJXJXJXJXJXJXJXJXJXJ.X # : 4 y k S k j z k b C J b q q f f z l A S c ` | S S V S S S ~ _ _ _ ( _ ' [ O.8.d.U.Q.~.~.!.!.~.!.XX*X2X2X3X3X4X4XhXcXmXmXmXmXzXxXxXxXzXzXNXDXLXFXFXFXDXGXGXGXGXGXGXGXGXBXBXBXxX7X:X-XoX}.oX{.!.!.!.Q.!.T.U.Y.T.T.W.j.W.oX4X5X8X:X5X5X5X:XxXxX:XoX:X}.}.}.|.`.{.}.oX:X>X3X:X:X-X7XlX4X7X5X>X>X5X6X5X7X:X5Xj.R.y.j.R T H ] % + , ",
"T ..O.OXE.eX<XrXrXyXrXyXiX2X.X XXXXX XXXXXXXXX.X X.XoX X X.X*X*X*X.X X.X*X*X*X*X*X,X3X2XeXeXeXrXeXeXeXeXeXrXrXrXrXrXrXrXrXyXyXyXuXuXyXyXyXyXyXyXyXuXuXuXiXuXiXiXuXuXuXaXaXaXuXtXiXuXaXaXaXaXjXkXsXsXsXkXkXkXkXkXcXcXcXcXcXcXvXvXvXbXnXnXnXbXbXbXmXmXmXmXnXDXDXDXZXZXZXnXMXNX9X8X6X6XqX&X&X#X].m.m.e.f.f.f.! 2.1.E.T.[ U 3 = O HXJXJXJXJXJXJXJXJXJXJXJXJXJXJXJXJXJXJXJXJXJXJXJXJXJXJXJXJXJXJXJXJXJXJXJXJXJXJXKXJXJXJXJXJXJXJXJXJXJXJXJXJXJXJXJXJXJXJXJXJXJXJXJXJXJXJXJXJXJXJXJXJXJXJXJXJXJXJXJXJXdX  X   # 6 2 3 3 6 5 3 3 3 6 2 5 2 5 y 5 1 6 f y f f 5 5 f V 3 4 y 1 z p 1 4 4 # 4 4 > 4 : @ 4 1 1 1 : : 1 1 + O     AXJXJXJXJXJXJXJXJXJXJXJXJXJXJXJXJXJXJXJXJXJXJXJXJXJXJXJXJXJXJXJXJXJXJXJXJXJXJ.X # : 6 f M M k j z l b C K n f q f f z D A D z S S S ~ S S V S ~ _ ' _ _ _ ' } %.5.d.T.~.!.~.~.!.!.{.=X,X2X2X4X4X4XiXcXcXcXmXnXmXNXNXNXxXxXVXNXnXZXFXHXGXGXGXGXGXGXGXGXGXGXGXGXBXxX8X:X:X-X}.}.{.!.!.!.~.W.Y.Y.Y.h.h.U.j.Y.}.7X7X8X7X7X7X7X7XhXzX7X:X5X}.}.}.`.[.`.{.-X>X7X:X:X-X{.3XlX7X7X6X5X6X8X8X-X:X*X-Xy.o.6.6. .#.- [   : O ",
"C Y *.Q.).<X<XyXrXrXrXrXeX1XXX.XXXXXXXXXXXXXXXXX.X.X.X.X.X*X-X.X*X*X.X*X*X*X*X*X,X,X3XeXeXeXeXeXeXeX2XeXeXtXtXtXrXrXrXrXrXrXyXyXuXuXuXuXyXyXyXyXuXiXiXtXtXiXuXuXuXuXaXaXaXaXuXtXiXiXiXaXaXsXkXkXsXsXsXkXkXkXkXcXcXcXcXcXcXcXvXvXvXbXnXnXnXbXbXbXnXmXmXnXnXZXDXDXZXnXZXnXNXxX8X6X&X6X&X&X#X#XN.f.v.v.e.f.y.0 <.y.~.L.} Y q - # P.KXJXJXJXJXJXJXJXJXJXJXJXJXJXJXJXJXJXJXJXJXJXJXJXJXJXJXJXJXJXJXJXJXJXJXJXJXJXJXJXJXJXJXKXJXJXJXKXJXJXJXJXJXJXJXJXJXJXJXJXJXJXJXJXJXJXJXJXJXJXJXJXJXJXJXJXKXJXJXKX=.  + # 1 1 3 3 3 5 5 3 6 3 6 2 5 4 3 3 5 2 3 5 f f 5 f f 2 f f 4 4 4 y y 4 > : : : : 1 1 4 1 : : : : : # : : O X     HXJXJXJXJXJXJXJXJXJXJXJXJXJXJXJXJXJXJXJXJXJXJXJXJXJXJXJXJXJXJXJXJXJXJXJXJXJXJ.X # 1 y j l y j k l l b Z J n w 5 f f z V C l V S ~ A V A ~ S S ~ _ ' _ _ _ ' } %.7.K.T.Q.!.!.~.!.!.{.=X*X2X4X4XiXhXhXcXbXvXbXbXnXmXmXNXxXxXVXNXnXZXLXLXGXGXGXGXGXGXGXGXGXKXGXGXBXVX7X5X:X$X}.{.{.[.!.[.!.W.W.W.W.R.R.U.W.W.{.0X0XxXxXxXxXxXzX7XzXzX7X7X:X}.`.`.`.`.`.}.:X:X>X:X-X:X3XlX7X:X:X:X7X7X7X:X*X{.{.$.o.o.6.5.{ 7 b   X O ",
"7 L.Q.,XOX<XuXrXeXrXrXtXtX1XXX.X X XXXXXXX X XXX.X.X.X.X*X*X-X.X*X*X*X*X*X*X*X*X,X,X1XeXeXeXtXeXeX<X<XeXeXtXtXeXrXrXrXrXrXrXrXrXyXyXyXyXyXyXyXyXuXtX2X3X3XtXiXuXuXuXaXaXaXaXuXtXiXiXaXaXsXsXkXkXdXdXsXkXkXkXjXjXcXcXcXcXcXcXvXvXvXvXnXnXnXbXbXbXnXnXmXnXnXZXDXMXZXnXZXnXMXxX6X6X&XqX&X#X].].'.m.v.m.f.q.o.0 o.1.).T.O.` b 5 . # AXKXJXJXJXJXJXJXJXJXJXJXJXJXJXJXJXJXJXJXJXJXJXJXJXJXJXJXJXJXJXJXJXJXJXJXJXJXJXJXJXJXJXJXJXJXJXJXJXJXJXJXJXJXJXJXJXJXJXJXJXJXJXJXJXJXJXJXJXJXJXJXJXJXJXJXJXJXKXdX  X + + 2 2 2 3 4 3 3 2 2 3 6 2 a 5 3 2 6 5 6 3 5 z f f f 5 5 f y 1 4 : y y > 4 : , 4 4 < # : 1 4 : : , , , : >       HXJXJXJXJXJXJXJXJXJXJXJXJXJXJXJXJXJXJXJXJXJXJXJXJXJXJXJXJXJXJXJXJXJXJXJXJXJXJ.X # 4 a f f k M l M M V Z J m g 5 f f z A C D l A ~ S ~ ~ ~ A S ~ _ ` _ _ _ ` } %.7.K.T.~.!.).!./.{.=X,X,X2X4X4XiXjXjXjXvXnXnXbXbXmXmXmXmXxXNXNXMXDXGXGXDXLXGXGXGXGXGXGXKXKXHXGXBXNXxX7X:X$X}.}.oX{.!.{.{.{.!.[.W. X:XW.{.W.{.7X7XVXxXxXVXxXxXxXxXzXxX7X7X-X`.`.`.{.'.`.{.:X-X>X-X:X7X7X>X7X>X:X:X-X7X4X Xh.*XR $.Y.d.4.#.O..       ",
"n OX).).,X2X<XeXeXrXrXeXeXOX XXX X X XXXXXXX XXX.X.X.X.X.X.X*X.X*X*X*X*X=X=X*X,XOX1X2XeXeXeXeXeX2X2X<XeXeXtXyXeXrXrXyXrXrXrXrXrXrXrXyXyXiXiXyXyXeX<Xd.d.*XuXrXiXyXuXaXaXaXaXaXuXuXuXuXaXsXdXdXkXsXsXsXkXkXkXkXjXjXcXcXcXcXcXcXvXvXbXbXbXbXbXbXbXbXnXMXDXZXZXZXDXDXZXZXMXxX8X0X6X&X&XqX#X#X].].m.m.m.m.l.W ! 2.y.{.E.O.{ m g 2   -.JXJXJXJXJXJXJXJXJXJXJXJXJXJXJXJXJXJXJXJXJXJXJXJXJXJXJXJXJXJXJXJXJXJXJXJXJXJXJXJXJXJXJXJXJXJXJXJXJXJXJXJXJXJXJXJXJXJXJXJXJXJXJXJXJXJXJXJXJXJXJXKXJXKXJXJXJXJX}   X + : 1 2 1 6 6 5 5 3 4 2 2 6 3 f f 4 5 5 3 3 6 f 5 f y 6 4 f y 6 6 4 y 4 : 4 : 1 4 j : < : : : : : : < < : @ X     HXJXJXJXJXJXJXJXJXJXJXJXJXJXJXJXJXJXJXJXJXJXJXJXJXJXJXJXJXJXJXJXJXJXJXJXJXJXJ.X # 1 a j k k j M M l b K U m f 5 y f f l ~ l S ~ ~ S A ~ ~ ~ ~ ( _ ' ' ' ' ` } &.7.K.E.~.~.)././.{.=X=X2X4XiXiXsXsXcXvXvXvXbXbXnXnXmXmXmXmXMXBXBXBXMXGXGXLXFXGXGXGXGXHXHXHXHXGXGXNXzX7X:X-X}.:X-X{.-X:X-XoX{.{.}.:X7X:X{.{.:X7XzXVXxXxXBXNXNXNXBXNXzXzXlX>X5X'.'.}.6X}.'.}.-X}.5X>X>X:X:X3X:X>X-X:X3X3XhXR./.{ XXXXd.d.O.&.        ",
"J E.Q.XXXX2X/.<XeXeXeXeX2XOXXX X X.X.XXXXX X.X.X.X.X X X.X.X.X.X*X*X*X*X*X*X=XOX,X2XeXeXeXeXeXeX2X2X<XwXeXeXeXeXrXrXyXyXrXrXrXrXrXrXyXyXiXyXyXrX1XL.@.1.4XuXwXiXyXuXuXaXaXaXaXuXuXuXaXaXsXsXdXkXsXsXkXkXkXkXkXjXcXcXcXcXcXcXcXvXvXbXbXbXbXbXbXbXbXnXMXDXZXZXZXDXZXnXDXMXxX8X0X6X&X&XqX&X#XM.M.M.M.v.f.f.2.>.2.0.{.Q.O.{ ] h 2 - # (.JXJXJXJXJXJXJXJXJXJXJXJXJXJXJXJXJXJXJXJXJXJXJXJXJXJXJXJXJXJXJXJXJXJXJXJXJXJXJXJXJXJXJXJXJXJXJXJXJXJXJXJXJXJXJXJXJXJXJXJXJXJXJXJXJXJXJXJXJXJXJXKXJXKXJXJX(.    + # , 2 1 1 2 2 6 5 6 3 6 2 2 3 3 6 5 3 2 4 5 6 5 6 f f 5 6 f y 6 6 1 4 4 < : : < 4 6 : : : : : : : : : < : # X     HXJXJXJXJXJXJXJXJXJXJXJXJXJXJXJXJXJXJXJXJXJXJXJXJXJXJXJXJXJXJXJXJXJXJXJXJXJXJ.  + 1 y j M M k k M b n J U x q y y f f l A V S A A A ~ ~ ~ ~ ~ ( _ ` ` ` ` ` } &.7.K.E.!.~.)././.{.=X=X3XiXiXiXsXcXvXvXvXvXbXvXnXnXmXmXmXnXMXMXMXMXDXGXFXFXFXGXGXGXGXHXHXHXHXLXGXNXhX7X:X-X:X7X6X-X-X-X-X-X-X}.}.-X8X7X5X5X8XxXxXVXVXxXBXNXNXNXBXBXNXNXxX7X8X}.'.6X6X5X}.$X:X$X:X6X7X:X:X3X=X X:X7X{.3X3X,X!.@.4XT.@.XX*.e         ",
"..!.Q.!.!.2X/.,XiXeXeXeX2XXXXX X X X.XXXXXXX.X.XXXXXXX X X.X.X.X*X*X*X*X=X=X=X=X1XeXeXeXrXeXeX2X<X<X<X<XeXeXeXrXrXrXrXyXrXrXrXrXrXrXyXyXiXyXrXrX2Xs.@.1.xXeXyXuXuXuXuXuXaXaXaXaXaXaXaXsXsXsXsXkXkXkXkXkXkXkXkXcXjXcXcXcXcXcXvXvXvXbXbXbXbXbXbXbXnXnXnXZXZXZXZXZXnXnXDXMXzX6X8X6X&X&X&X&X].m.N.M.v.f.f.f.q.q.2.y. XQ.&.O.R Z z = . 3 CXJXJXJXJXKXJXJXJXJXJXJXJXJXJXJXJXJXJXJXJXJXJXJXJXJXJXJXJXJXJXJXJXJXJXJXJXJXJXJXJXJXJXJXJXJXJXJXJXJXJXJXJXJXJXJXJXJXJXJXJXJXJXJXJXJXJXJXJXJXKXJXJXJXJXCX# X X # : 1 4 1 1 1 1 2 6 2 6 2 1 1 5 5 f y 2 3 5 3 3 6 3 5 f 5 6 5 z 4 4 4 4 1 4 4 : < 1 1 : : 1 : : : : : : < : # X     HXJXJXJXJXJXJXJXJXJXJXJXJXJXJXJXJXJXJXJXJXJXJXJXJXJXJXJXJXJXJXJXJXJXJXJXJXJXJ.X # 2 f l S V k k B V n J U b q y y f z l A ~ ~ A A A A ~ ( ( ( _ ` ` ` ` ` ` } %.7.L.Q.~.).)././.XX=X,X2XiXiXsXsXcXvXvXvXvXvXbXnXnXBXBXBXMXDXMXMXDXGXGXFXHXGXGXGXGXGXHXHXGXGXGXGXGXMXNXzXhX:X:X:X}.}.-X5X6X5X:X:X5X0XxX0X8X9XxXVXVXNXNXBXBXNXNXBXBXMXBXVXxX8X$X:X8X5X6X$X$X$X$X$X:X-X:X3X4X3X=X*X*XXX3X,X2X*X$.Q.!.*.d.K.o       X ",
"p.XXR.!..X,X/.1XiXwXeXtX,XXX X X X.X XXXXXXX X XXXXXXX X X*X*X*X*X*X*X*X=X=X=X=XeXeXyXrXrXyXeX1X1X1X1X<XeXeXeXrXrXrXrXyXrXrXrXrXrXrXrXyXiXyXyXyXeXE.1.y.xX1XaXtXuXuXuXuXuXaXaXsXaXsXsXsXsXsXsXsXsXkXkXkXkXkXkXcXcXcXcXcXvXvXvXvXcXbXbXbXbXbXnXnXnXnXZXZXZXZXZXZXnXnXMXNX9X6X6XqX&X&X&X#X].M.N.m.f.f.f.e.r.q.3.k.=XQ.&. .{ [ c q = . A HXJXJXKXJXJXJXJXJXJXJXJXJXJXJXJXJXJXJXJXJXJXJXJXJXJXJXJXJXJXJXJXJXJXJXJXJXJXJXJXJXJXJXJXJXJXJXJXJXJXJXJXJXJXJXJXJXJXJXJXJXJXJXJXJXJXJXJXJXJXJXJXJXHX}   X + : 1 4 4 1 1 1 1 1 1 1 2 1 1 1 5 f f 5 3 6 5 2 6 6 6 6 y 5 6 3 z < 4 4 6 : 6 4 1 : 1 < : : 1 : : : : : : < : # X     HXJXJXJXJXJXJXJXJXJXJXJXJXJXJXJXJXJXJXJXJXJXJXJXJXJXJXJXJXJXJXJXJXJXJXJXJXJXJ.X # 4 f k B V k k B V C J T m g p y f z M S ' _ ~ A ~ A ~ ( ( ( _ ` ` ` ` ` ` } &.i.L.Q.~.).)././.=X=X,X2XiXiXsXsXcXvXvXvXvXvXbXnXnXMXBXMXDXDXDXMXMXDXGXFXHXGXGXGXGXGXGXGXGXGXGXGXGXGXGXBXNXzX7X:X-X;X7XzXzX7X7X7X7XxXxX0X9X8X9XxXxXNXNXBXBXBXNXBXBXBXBXBXVXzX>X0X8X6X6X5X$X$X$X}.}.{.-X:X:X4X4X3X,X3X2X3X2X!. .).Q.u.[ } 5       + ",
" .7.p.).tX1X,X1XeX<X<XtXOXXX X X X X.X.XXXXXXXXXXXXXXX X X*X*X*X*X*X*X*X=X=X=X,XeXrXrXrXyXyXeX1X1X1X1X<XeXeXrXrXrXrXrXrXrXrXrXrXrXrXrXyXiXyXyXyXtX!.4.y.7XiXuXeXuXuXuXuXuXaXaXsXaXsXsXsXsXsXsXsXsXsXsXkXkXkXkXcXcXcXcXvXvXvXvXvXvXbXbXbXbXnXnXnXnXnXZXZXZXZXZXZXZXnXMXNX9X8XqXqX&X&X&X].M.].m.v.f.f.r.e.e.r.l.W.*XK.*.O. .{ C h 5 o + } KXJXJXKXJXJXJXJXJXJXJXJXJXJXJXJXJXJXJXJXJXJXJXJXJXJXJXJXJXJXJXJXJXJXJXJXJXJXJXJXJXJXJXJXJXJXJXJXJXJXJXJXJXJXJXJXJXJXJXJXJXJXJXJXJXJXJXJXJXJXJXJX%.  # X # , 1 1 4 1 1 1 1 2 1 1 2 2 1 2 4 3 2 4 5 4 1 3 4 3 6 6 6 5 6 3 y 3 6 6 1 y a : 4 : 1 < 1 : < < : : : : < < : # X     FXJXJXJXJXJXJXJXJXJXJXJXJXJXJXJXJXJXJXJXJXJXJXJXJXJXJXJXJXJXJXJXJXJXJXJXJXJXJ.X # 6 f k M M M M M b C T J m w p y f l V S _ ( A A ~ A ( _ ( ( _ ` | | | | ` ..&.i.L.Q.)./.)././.=X=X,X2XiXuXsXkXvXvXvXvXbXbXnXnXnXMXMXDXGXDXMXMXMXMXGXGXHXGXGXGXGXGXGXGXGXGXGXFXFXGXGXDXBXBXNXxXxXzXzXNXxXNXBXNXVXxXxXxXzX7XzXxXVXVXNXBXBXBXBXBXBXBXBXBXBXxX7XxX7X0X6X5X5X$X$X'.'.`.-X-X-X4X3X3X).2X2X*XQ.5.7./.T.d.u.O.b       X ",
"&.K.).<X2XeXeXwXrXeXeXtX.XXX X X X X.X.XXXXXXXXXXXXXXX X X*X*X*X X*X*X*X=X*X3X2XeXrXrXrXyXeX2X1X1X1X<XeXeXrXrXrXrXrXrXrXrXrXrXrXrXrXyXyXuXyXyXyXtX.X1.y.7XhXaXuXuXuXuXuXaXaXaXsXaXsXsXsXsXsXsXsXsXsXsXkXkXkXkXcXjXcXvXvXvXvXvXvXvXbXbXvXvXnXnXnXnXnXZXZXZXZXZXZXZXnXMXxX7X8XqX&X#X#X#XM.N.N.m.m.f.c.r.e.e.q.l.`.=X=.u.O. .[ Y c w 2 # # } KXJXJXJXJXJXJXJXJXJXJXJXJXJXJXJXJXJXJXJXJXJXJXJXJXJXJXJXJXJXJXJXJXJXJXJXJXJXJXJXJXJXJXJXJXJXJXJXJXJXJXJXJXJXJXJXJXJXJXJXJXJXJXJXJXJXJXJXJXJXJ.  X   # , 1 1 1 4 1 1 2 1 2 1 2 3 4 1 2 1 4 1 1 6 4 1 6 1 2 6 6 6 6 5 6 3 y 1 5 : y 6 < 4 : < < 4 : : < : : : : < < : # X     HXJXJXJXJXJXJXJXJXJXJXJXJXJXJXJXJXJXJXJXJXJXJXJXJXJXJXJXJXJXJXJXJXJXJXJXJXJXJ.X : 6 z k M l M M M D C T H m w p y f M S A ( ~ A ~ A A A ( ( ( ' ` | | | | ` ..&.i.P.Q.)././././.=X*X,X2XiXsXsXcXvXvXvXbXbXbXnXnXZXMXDXZXLXGXDXMXBXBXBXGXGXGXGXGXGXGXKXGXGXGXGXHXHXHXGXGXDXGXBXBXBXBXBXBXMXMXBXBXNXNXNXxXzXzXxXVXVXVXNXBXBXBXBXBXBXMXMXBXBXVXzXxXxXxX6X}.$X$X'.`.}.}.$X{.{.4X!.d./.!.L.!.u.u.s.).5.).L.h 3         ",
"E.Q.<XuX2XtXeXaXyXeXtX2X.X X X X X XoX X XXXXXXXXX X X X X*X*X*X X*X*X*X*X2XeXtXeXrXrXrXyX2X1X1X1X2XeXeXrXrXrXrXrXrXrXyXyXyXrXrXtXrXrXyXuXyXyXeXeX2X@.l.lXeXaXyXuXuXuXuXaXaXaXsXaXsXsXsXsXsXsXdXsXsXsXkXkXkXkXcXjXkXvXvXvXvXvXvXvXbXbXbXvXnXnXnXnXnXZXZXZXSXZXZXZXZXMXxX6X6X&X&X&X#X&XM.M.M.m.m.f.f.e.e.r.q.q.{./.J.u.O.$.{ ] Z c w 2 #   ` AXKXJXJXJXJXJXJXJXJXJXJXJXJXJXJXJXJXJXJXJXJXJXJXJXJXJXJXJXJXJXJXJXJXJXJXJXJXJXJXJXJXJXJXJXJXJXJXJXJXJXJXJXJXJXJXJXJXJXJXJXJXJXJXJXJXJXJXJ.  X + # # 1 2 1 1 2 4 1 1 1 2 2 2 4 1 1 1 2 3 4 1 1 6 4 1 1 2 6 4 6 6 5 4 6 y 1 6 4 4 < 4 1 < < : 4 : : < < < < < 1 1 : : X     FXJXJXJXJXJXJXJXJXJXJXJXJXJXJXJXJXJXJXJXJXJXJXJXJXJXJXJXJXJXJXJXJXJXJXJXJXJXJ.  # 4 f k M M M M B b n T T m w p j z V A A ( ( ( ~ ( ~ A ~ ( ( ' ` | | | | [ ..*.i.P.Q.)././././.=X,X1X2XiXiXsXcXcXvXvXmXbXbXbXnXZXDXDXZXAXGXGXMXBXBXBXGXGXGXGXGXGXGXKXKXGXHXHXHXHXGXGXGXGXGXGXBXBXBXBXGXMXMXMXMXBXBXNXzXzXxXVXxXVXVXVXVXNXVXBXBXMXMXMXBXBXBXxXNXxXxX5X}.}.:X}.}.}.}.$XW.W. XW.y.=Xd.u.O.)./...L.] Q.} q $ #       ",
"s.).<X<X2XuXeXeXrXyXtX2X X X X{. XoX*XoX XXXXX X.X X X X*X*X*X*X*X,X,X*X,X2XtXeXrXyXrXyXeX1X,X,X1XeXeXyXrXrXrXrXrXrXrXyXyXyXyXyXtXrXrXrXrXrXrXeXeX2X<.l.xXiXrXaXuXuXuXaXaXaXaXsXaXsXsXsXsXsXsXkXsXsXsXkXkXkXkXjXjXkXvXvXvXvXvXvXvXbXbXbXbXnXnXnXnXSXZXZXZXSXZXZXZXZXMXzX5X6X&X&X#X].#XN.N.N.m.v.f.r.e.e.r.q.q.}.=XJ.&.$.O.{ ] U C C g 2 = # z CXJXJXJXJXJXJXJXJXJXJXJXJXJXJXJXJXJXJXJXJXJXJXJXJXJXJXJXJXJXJXJXJXJXJXJXJXJXJXJXJXJXJXJXJXJXJXJXJXJXJXJXJXJXJXJXJXJXJXJXJXJXJXJXJXKX-.  + X + # # 2 2 1 1 4 2 1 1 4 2 2 2 2 1 1 2 3 1 2 4 1 1 4 4 4 4 6 1 4 4 y 4 6 f 6 : 4 : 4 < < 1 1 : 1 1 1 1 < < 1 1 1 < : > X     FXJXJXJXJXJXJXJXJXJXJXJXJXJXJXJXJXJXJXJXJXJXJXJXJXJXJXJXJXJXJXJXJXJXJXJXJXJXJ.X # 6 z M B B M M B b n T T n g j z l V A A A ~ ~ ( ( _ _ _ ( ( ' ` | | | | | ..*.i.L.Q.)./././.XX*X,X3X2XiXiXiXcXcXvXvXmXmXbXbXnXZXDXDXLXLXLXGXMXMXBXBXGXGXGXGXGXGXGXKXGXGXKXHXHXGXGXGXGXGXGXGXGXBXBXBXBXBXDXMXGXBXNXNXxXzXxXVXzXVXVXVXVXVXxXVXBXBXBXBXBXBXBXNXVXzXxX7X5X}.$X}.5X$X}.$X'.{.}.[.{.XX*.&.i.L.OX*.Q.i.OXL.O.o 2       ",
"5.).eX<XeXyXeXyXyXtXtXOX.X X X X X X*X-XoX XXXXX.X X XoX-X.X.X,X,X*X,X2XyXeXeXyXgXrXrXyXeX1X1X1XeXtXtXtXtXyXyXrXrXrXrXrXrXtXtXtXyXrXrXrXrXiXrXeX<X<X5.0.>XhXaXuXuXkXaXaXaXpXkXaXaXaXsXsXaXaXsXsXsXsXvXsXkXaXjXkXjXjXcXvXvXvXvXvXvXvXnXnXnXnXnXnXnXZXSXZXZXZXZXSXSXDXMXxX5X$X&X&X&X].].m.m.N.v.c.e.r.r.e.r.q.y.-X/.i.*.O.X. .R T T J n 8 3 = . # ^.JXJXJXJXJXJXJXJXJXJXJXJXJXJXJXJXJXJXJXJXJXJXJXJXJXJXJXJXJXJXJXJXJXJXJXJXJXJXJXJXJXJXJXJXJXJXJXJXJXJXJXJXJXJXKXJXJXJXJXJXJXJXCX_ +   + + 1 # 6 6 * 2 2 2 1 4 1 2 2 6 3 2 1 1 1 3 4 1 4 4 1 1 4 2 1 3 1 4 6 4 1 2 6 4 1 1 1 # z 4 4 4 1 4 4 < < < 1 1 : < 4 : + #     HXKXJXJXJXJXJXJXJXJXJXJXJXJXJXJXJXJXJXJXJXJXJXJXJXJXJXJXJXJXJXJXJXJXJXJXJXJXJ.X + 4 z M M V M M M l J T E H x z f D V S A A _ ( ` _ ` ` ` ` ` ` | | | | | } ..*.i.L.Q.)./././.XX*X3X2X2XiXiXsXcXcXmXbXbXbXbXbXnXnXnXDXDXFXFXLXDXBXBXBXGXGXGXGXGXGXGXKXKXHXGXGXGXGXGXGXGXGXGXGXGXGXGXBXMXBXGXGXGXBXBXNXNXzXVXxXxXVXzX7XxX9XxXxXNXNXMXMXBXBXBXNXVXzXVX8X8X$X$X:X}.}.$X$X$X`.!.[.~.~.d.#.7.i.Q.*./.).Q.Q.L.R o       ",
"s.XX2X2XeXeXeXyXyXeXtXOX.X X X X X X*X*XoX X XXX.X X X X.X*X*X*X,X3X1XeXtXyXrXyXyXrXrXeXeX2X1X2XeXeXtXtXrXyXrXeXrXrXrXrXrXrXrXrXyXrXrXrXrXiXrXeXeX<XY.2.:XhXyXuXtXaXyXaXaXyXaXaXaXaXsXsXsXsXsXsXsXsXaXsXaXcXjXjXjXkXcXvXvXvXvXvXvXvXnXnXnXnXnXnXnXZXZXZXZXZXZXZXZXDXMXzX5X$X#X&X#X].].m.v.m.v.f.e.r.r.e.q.q.q.-X).u.*.O.O. .] T Y T T m g 8 = # + %.AXJXJXKXJXJXJXJXJXJXJXJXJXJXJXJXJXJXJXJXJXJXJXJXJXJXJXJXJXJXJXJXJXJXJXJXJXJXJXJXJXJXJXJXJXJXJXJXJXJXKXJXJXJXJXKXJXJXJXJX(.3 +   + + + 1 1 1 1 5 5 3 2 1 1 6 3 4 6 3 4 2 6 3 2 4 2 4 4 1 4 1 3 4 6 4 1 4 4 y 1 4 y 1 4 1 # A < < : : 1 1 : : < 1 1 : < 4 : @   X   AXJXKXJXJXJXJXJXJXJXJXJXJXJXJXJXJXJXJXJXJXJXJXJXJXJXJXJXJXJXJXJXJXJXJXJXJXJXI.+ + 2 f j B l k M M l J T E J x h z V S S ( _ ` _ ` ' ` ` | | | | } } } } | } O.*.i.E.Q.)./././.XX*X3X2X2XiXiXjXcXcXmXbXbXbXbXbXnXnXMXDXDXFXFXLXDXBXBXBXBXGXGXGXGXGXGXKXKXKXKXGXGXGXGXGXGXGXGXGXGXGXGXBXBXBXDXBXBXBXBXNXNXNXxXzX9XxX8X7X9X0XzXzXxXxXMXNXMXBXNXNXNXxXVX0X8X$X:X5X}.{.$X%X}.'.{.{.W.W.~.!.{ U.E.@.!.a.a.!.L.} 3 .     ",
"!.OX2X2XeXeXrXyXyXeXeX.X.X X X X X X.X.X.X X X X.X.X X X X*X*X.X1XeXtXeXeXyXyXrXyXyXyXeXeXeXtXtXeXrXrXrXrXyXrXeXrXrXrXrXrXrXrXrXrXrXrXrXrXyXeXeXeXhX Xl.0X7XiX2XiXaXyXyXaXaXyXuXaXsXsXsXsXsXsXsXsXkXsXkXaXvXjXsXjXcXcXvXvXvXvXvXvXvXbXbXbXbXnXnXnXZXSXZXZXZXZXZXZXZXnXxX5X$X&X#X#X].].N.m.m.v.c.f.e.r.e.q.q.l.-X/.i.*.O.O. .] T Y Y R Y C h 3 % .   3 (.JXJXJXJXJXJXJXJXJXJXJXJXJXJXJXJXJXJXJXJXJXJXJXJXJXJXJXJXJXJXJXJXJXJXJXJXJXJXJXJXJXJXJXKXJXJXJXJXJXJXJXJXJXJXJXJXCX%.      X # 2 3 3 3 2 1 5 5 * 2 1 2 3 6 4 2 2 2 2 6 3 1 3 4 4 4 1 4 1 1 1 6 6 6 6 a V 5 : 4 1 1 1 : y : < : : 1 1 : : < 1 1 < 1 1 , # + #   HXJXJXJXJXJXJXJXJXJXJXJXJXJXJXJXJXJXJXJXJXJXJXJXJXJXJXJXJXJXJXJXJXJXJXJXJXJXJ.  # y l k M k k M M l U T R J g z z V A A ( ` ` ` ` ` ` ` | | | | } } } } } } O.*.i.E.Q.)././.XX*X*X3X2X2XiXiXjXcXmXmXvXbXbXnXnXnXnXMXDXDXFXGXGXBXBXBXBXGXGXGXGXGXGXGXGXKXKXKXKXKXKXGXGXGXGXGXGXGXGXBXBXBXBXBXBXBXBXNXNXVXVXxX7X7X0X8X6X7X9X9XzXxXNXBXNXBXBXBXBXBXxXVXxX8X:X5X5X}.{.$X}.}.}.}.`.-X-XW. Xa.!.,X@.XXu.d.,XL.&.h =     ",
"XX.X,X2XeXeXyXyXyXeX2X.X.X X X X X X.X.X.X X X X*XoX.X X X.X,X,X2XtXiXeXyXyXyXyXyXyXyXeXeXtXtXyXyXyXrXrXtXtXeXeXrXrXrXrXrXrXrXrXeXrXrXrXrXyXeXeXwXtX:Xk.8X>XhX4XiXiXiXyXyXaXpXaXaXsXsXfXfXsXsXsXsXsXvXsXvXsXsXsXjXkXcXvXvXvXvXvXvXvXbXnXbXbXnXnXZXZXSXZXZXZXZXZXZXnXMXxX5X&X&X&X#X].].M.m.v.v.m.c.f.r.r.q.q.l.-X/.i.*.O.O. .R T Y Y ] [ J C h 3 = =     _ wXJXJXJXJXJXJXJXJXJXJXJXJXJXJXJXJXJXJXJXJXJXJXJXJXJXJXJXJXJXJXJXJXJXJXJXJXJXJXJXJXJXJXJXJXJXJXJXJXJXJXJXKXKXI.  X X X : # # 2 f 5 6 q 5 6 6 # 3 2 5 5 6 2 1 1 1 1 2 2 1 4 4 3 4 1 4 1 1 4 4 4 6 1 4 l 1 , 1 4 1 < f < 1 1 1 1 4 4 1 < < 1 1 < 1 1 , # O X   HXJXJXJXJXJXJXJXJXJXJXJXJXJXJXJXJXJXJXJXJXJXJXJXJXJXJXJXJXJXJXJXJXJXJXJXJXJXP.O : 6 l j k k j k M b T R R J w f f V A ( _ ` ` ` | } ` ' ` ` ` } } } } ......%.=.K.E.~.)./.IXIX,X,X2X2XeXiXiXhXcXcXmXmXbXbXnXnXnXnXMXDXDXLXGXGXBXBXBXBXGXGXLXGXGXGXGXGXKXKXKXKXKXKXHXGXGXGXGXBXGXBXBXBXBXBXBXBXBXNXVXVXVXVXVX7X7X8X8X8X8X8X9XzXxXxXNXNXBXBXGXBXNXxXVX9X7X5X:X5X-X}.}.}.}.}.$X}.$X}.}.:X3X~.4X1.p.=Xd.2XK.J.q #     ",
"XXXXXX2XeXeXrXyXrXeX2XXX.X X X X.X.X X X.X X X X.X.X-X-X.X.X,X2XeXyXyXyXyXyXrXrXrXyXyXrXrXrXyXrXyXyXrXeXeXeXeXeXyXyXyXrXrXyXyXyXrXrXrXrXrXrXeXeXrX2X7X{.}.8X>X4XtX2XuXaXyXyXaXfXaXsXsXfXfXsXsXkXkXsXsXaXvXsXcXcXkXkXvXvXvXvXvXvXvXvXbXbXbXnXnXnXZXZXZXZXZXZXZXZXZXnXMXNX6X&X&X&X&X#XM.M.m.v.v.v.f.e.r.e.q.q.k.$X/.i.*.$.X. .] T Y Y R { Y T C w 5 3 o # .   } wXKXJXJXJXJXJXJXJXKXJXJXJXJXJXJXJXJXJXJXJXJXJXJXJXJXJXJXJXJXJXJXJXJXJXJXJXJXJXJXJXJXJXKXJXJXJXJXJXAXJ.# X   X # X + 1 2 1 3 q 3 z q 2 3 f 5 6 5 5 5 4 2 2 1 1 2 1 2 4 2 6 6 1 4 2 2 6 4 2 4 1 1 y 1 6 1 : 4 4 f 4 1 1 1 1 4 1 < < < 1 1 1 1 1 , : # O + HXJXJXJXJXJXJXJXJXJXJXJXJXJXJXJXJXJXJXJXJXJXJXJXJXJXJXJXJXJXJXJXJXJXJXJXJXKX^.+ 1 1 a a k k j k l b Y R R J w f f V A ( _ _ ` ` ` } | ` ` } } } ....%.%.%.%.-.i.L.Q.Q.)./.IXIX,X,X2X2XiXiXiXcXcXcXmXmXbXbXbXbXnXnXnXnXZXLXGXGXBXBXBXGXGXGXGXGXGXGXGXKXKXGXKXKXKXKXGXGXGXGXBXBXBXBXBXVXVXBXBXBXBXNXVXxXxXxXVX8X8X5X6X8X8X8X9XxXxXzXNXNXMXMXBXBXNXxXVXzX8X8X6X5X5X:X$X$X:X}.{.:X:X}.:X:X-X:X:X{. .4X)./.E.b %       ",
"+X/.XX,XeXeXrXyXrXeX2XXX X X X X.X.X X X XoX X X.X X.X-X*X.X1XiXrXyXyXyXyXyXrXyXyXyXyXyXyXyXrXrXyXeXeXeX2X2XeXeXtXtXtXtXtXeXyXyXtXrXrXrXrXyXyXeXeX2X4X-XW.6X6X>XzXhXiXuXaXaXpXaXaXaXfXfXfXsXkXkXkXkXuXkXjXcXkXsXkXkXvXvXvXvXvXvXvXvXvXnXnXnXnXnXZXZXZXZXZXZXZXnXDXbXNXxX6X&X&X&X&X#XM.N.v.v.v.c.e.e.r.e.r.q.z. X!.u.*.$.X. .] T T R R { R Y T n m q 2 3 o = +   z ^.CXKXJXJXJXKXJXJXJXJXJXJXJXJXJXJXJXJXJXJXJXJXJXJXJXJXJXJXJXJXJXJXJXJXJXJXJXJXKXJXJXJXJXKXwX%.  X   X + X X 2 , 6 5 1 3 f 5 f 5 3 q S 3 2 2 5 3 2 2 2 1 1 1 1 2 2 1 6 3 2 2 2 2 6 4 2 4 4 6 y 6 1 1 1 1 4 1 < 1 1 1 1 1 < : < 1 1 1 1 1 1 < : + X   KXJXJXJXJXJXJXJXJXJXJXJXJXJXJXJXJXJXJXJXJXJXJXJXJXJXJXJXJXJXJXJXJXJXJXJXJXJX^.+ 1 6 f j j j j z z c R R R J 8 f z V ~ _ _ _ ` ` ` } } } } ......%.%.-.-.%.-.=.J.P.Q.)././.IXIX,X1X2XeXiXiXiXcXcXcXmXmXmXmXmXbXnXnXnXnXDXLXDXGXGXBXDXGXGXGXGXGXGXGXGXKXKXGXKXKXKXKXGXGXGXGXBXBXBXBXBXVXBXBXBXBXBXNXxXxXxXxXxX8X8X5X5X5X8X8X9XxXxXzXNXNXMXMXMXNXNXNXVXxX7XxX8X>X7X7X;X:X5X$X$X$X:X}.-X>X:X7X7X=X{.3X*X!.{ . .   X   ",
"!./.XX.X2XeXrXrXyXeX2XXX X X.X.X.X.X X XoXoX.X X X XoX-X.X.X2XiXrXyXyXyXyXyXyXyXyXeXeXeXeXeXeXtXeX2X<X<X1X1X2XeXtXtXeXeXtXeXeXyXyXyXrXeXrXeXiXeXeXiX2X3XW.z.z.y.6XVXhX2XaXaXuXaXaXaXfXfXpXyXrXeX2XiXaXkXjXcXkXsXkXkXvXvXvXvXvXvXvXvXvXvXnXnXnXnXSXSXZXZXZXZXZXnXMXzX7X7X&X&X#X#X#X#XM.N.v.v.v.e.e.e.e.r.r.l.W.{.Q.5.*.$. . .] R T R R R R Y Y T C c c q 3 = + + X X X ' ^.fXKXJXJXJXJXJXJXJXJXJXJXJXJXJXJXJXJXJXJXJXJXJXJXJXJXJXJXJXJXJXJXJXJXJXJXKXHXwX=.3 +     # # # + 1 2 , 3 6 2 2 3 5 5 3 2 5 q c 2 2 1 2 4 1 2 2 1 1 2 2 2 2 2 6 3 2 2 1 4 3 2 4 1 < 4 4 1 < y y : 1 < 4 < 4 1 1 1 1 < 1 4 4 4 1 4 4 < : + + # (.(.(.^.^.^.^.^.^.^.^.^.^.^.^.^.^.^.^.^.^.^.^.^.^.^.^.^.^.^.^.^.^.^.(.(.(.wX=.1 1 6 f k a f j z z x R R R n 8 f j B ( ` _ ` ` ` | } } } } ....%.*.=.=.*.-.*.7.K.E.Q.)./.(.IX,X1X1X2XiXiXiXiXcXcXcXcXmXmXmXmXmXnXnXnXnXZXZXGXDXDXDXDXDXGXGXGXGXGXGXKXKXKXGXKXKXKXGXGXGXGXGXGXGXBXBXBXBXBXBXBXBXVXVXxXxXxXxXxX8X5X5X5X5X8X8X9XxXxXzXMXMXGXGXMXNXBXNXNXxXzX9X0X7X8X7X>X:X5X:X:X5X>X}.;X-X>X:X:X-X7X4X~./.2 . .       ",
"!.+XXXXX1XeXeXyXyXeX2XXX X X X.X.X.X X X.X-X X X X X-X X.X,X2XrXrXyXyXyXyXyXyXyXeX2X1X1X1X1X2XeX2X<X1X1X1X1X2X2XtXtXeXeXeXeXeXyXyXyXrXeXeXeXyXtXaX2XhX<XXX0.l.2.j.xXxX2XiXuXuXkXsXsXpXpXwX(./.).!.,XjXjXkXaXvXsXkXkXvXvXvXvXvXvXvXvXvXvXSXSXSXSXZXZXZXZXZXZXZXnXzX7X>X5X&X&X#X#X#X].M.M.v.v.v.v.e.e.e.r.r.r.[.!.T.4.*.$. . .] R R R R R { R R R U J C h g 5 5 1 = . #   .   2 %.^.wXAXJXJXJXJXJXJXJXJXJXJXJXJXJXJXJXJXJXJXJXJXJXJXJXJXJXJXKXCXwXJ.`   X X X X X + # X 1 + 1 6 4 1 6 2 3 3 5 f 2 2 3 5 1 2 2 3 1 2 1 2 2 1 1 4 6 2 4 1 2 3 4 4 1 4 3 3 5 4 < 6 6 4 f 4 : 1 4 : < < 1 < < 1 < < 1 4 4 4 4 4 4 < : 1 + X #     X                                                   X X X X X X X + # # 1 6 f y k j s j k z x R  .R n 8 f z B ~ ' _ ` ` } } } } ..} ..%.7.J.i.7.=.*.*.7.K.P.Q.)./.(.1X1X1X1XeXuXiXiXcXcXcXcXcXmXmXmXmXmXnXnXnXnXnXZXGXGXGXGXDXDXGXGXGXGXGXKXKXKXKXGXKXKXKXGXGXGXGXGXGXGXGXGXBXBXBXBXBXBXBXVXxXxXxXxXxX8X-X}.8X5X8X8X9X9XxXxXGXBXGXGXNXNXNXNXxXVXxX7X9X7X7X6X5X6X6X$X{.:X:X>X>X-X>X>X:X X-X4X!.O.. . O       ",
"!.+X/.XX,XeXeXeXeXiX2XXXXX.X.XXX.X X*X.X*X.X*X*X-X.X.X,X1X2XeXeXyXyXyXyXyXeX2X1X1X1X1X1X,X1X1X1X<X<X1X1X1X1X<X<XeXeXeXtXeXeXtXtXiXeXrXrXaXrXeXyXyXeXtX2XT.4.g.6.s.-X7X7X7XzXhX4X4XiX3XOX/.Q.T.U.Q.hXjXcXkXcXaXkXdXvXvXvXvXvXvXvXvXvXvXvXvXnXSXSXZXnXnXZXZXZXMXMXxX>X:X$X&X#X&X#X].].].M.N.v.v.B.B.e.r.r.q.l.[.{.T.*.$.X.X.{ R R T R R R R R { Y Y T Z n c c q F 2 2 = * .   X X       3 } =.P.(.wXpXPXAXHXKXKXKXJXJXJXKXHXAXdXpXwX(.P.=.' #   X   .       % # 1 # # 1 1 1 2 2 4 6 2 4 3 3 F q 3 3 3 2 6 6 6 2 1 3 # y 1 1 2 3 4 1 2 2 4 6 6 6 2 6 2 4 6 4 1 4 4 1 4 4 1 4 4 1 4 4 1 1 < < < < < 4 4 4 4 4 4 4 < : # : O + O X X X X     X O X   X X X X X X X X X + O X + + + X + . . . + 1 X # 1 1 3 5 f z z f j y j z w {  .R m q 5 l S _ ` ` ` } | } } } } %.*.7.7.7.7.7.7.*.=.7.K.E.Q.)././.IX1X1X1XeXiXiXiXjXcXcXcXmXmXmXmXmXmXnXnXnXnXnXnXDXMXGXGXGXBXBXGXGXGXGXKXGXKXGXGXGXGXGXGXGXGXGXGXGXGXGXGXGXGXBXBXBXBXVXVXVXxXVXxXxX8X:X$X8X5X8X8X7X9XzXxXMXGXGXGXMXNXNXNXVXxXxXzXxX7X0X6X6X6X:X5X[.}.:X:X>X-X4X4X>X:X-X XhXs..           ",
"/./.XXXX1XeXeXeXeXeX2XOXXX.X.X.X.X.X*X.X*X*X.X.X X.X,X3XeXtXyXyXyXyXyXyXyXeX1X3X1X1X1X1X1X1X1X<X<X1X1X1X1X1X1X1X2X2XeXeXeXeXtXeXeXiXtXtXiXtXiX1X2XeX,XiXs.5.@.1.$.y.y.j.Y.!.{.:X4X3X3X!.U.d.p.p.d.).kXuXkXjXkXkXdXvXvXvXvXvXvXvXvXvXvXvXvXnXSXZXZXSXSXZXZXZXMXNXzX7X:X&X&X#X&X&X#X].M.M.M.v.v.v.B.e.r.r.r.l.[.{.T.5.$.$.X.R R R R R R R R R R R R T T U Z Z h g z q 3 2 1 = # + . +     X X   X     X X X X               X     X     X X   X + X + X . . = # 1 1 1 4 3 2 2 2 6 6 4 6 2 2 q z 5 2 2 2 2 6 3 6 2 l 1 5 4 3 2 2 3 2 2 2 2 2 4 4 2 2 1 4 6 4 4 6 4 4 4 : 4 1 4 1 4 4 4 1 < < < 1 1 4 4 6 4 4 4 4 4 1 1 2 # # + + + + + O X X X + + + X X + + + + # # # # # 1 1 1 1 # 1 1 2 2 5 1 2 4 6 y f j z z a p y j z w  . .R v q f M S K ` ` ' | } } } %.&.=.J.J.J.J.7.7.=.7.=.7.K.E.Q.)./././.,X1X1XeXiXiXsXcXcXcXcXmXmXmXmXmXmXmXnXnXnXnXnXMXMXBXBXGXBXGXGXGXGXGXGXGXKXGXGXGXGXGXGXGXGXGXGXGXGXGXGXGXGXBXBXBXVXVXVXxXxXVXxX0X8X5X5X8X8X0X8X7XzXzXNXMXGXGXGXMXNXNXxXVXVXxXzX7X9X9X6X8X6X:X6X}.-X-X:X:X-X:X>X>X>X:X X4X).%           ",
"!./.XXOX2XeXeXeXtXeXeX,XXXXX.XoX.X.X.XXX.X,X.X.X3X2XeXiXiXyXrXeXyXyXyXyXeX2X3X1X3X3X3X3X1X1X1X2X1X1X1X1X1X1X<X<X<X<XeXeXeXeXeX2XtX2X2X3X3X*X.X.X X.X!.Y.d.<.o.@.<.X.6.4.y.d.y.W.[.[.*X!.L.a.p.d.a.L.nXuXcXaXvXsXdXkXvXvXvXvXvXvXvXvXvXvXvXSXSXZXSXZXSXSXZXDXMXmXzX7X5X6X&X&X&X&X#X].M.M.N.N.v.v.B.e.r.e.r.q.`.[.L.u.$.$. .R R R R R R R R R T Y T Y Y T U U n m b h q q q q 3 = # # * 1 . + O X + X X           X X X   X X O + + + X X X + + X % = # % = 2 1 2 2 3 6 6 3 4 2 4 2 6 3 1 1 q z 5 6 2 1 2 3 5 3 2 l 2 3 2 3 2 4 3 2 2 2 2 2 4 2 1 2 4 6 4 1 4 4 < 4 6 4 j 4 4 4 4 4 4 1 < < < 1 4 4 4 6 4 1 4 1 4 4 4 6 : : : : > # # # # # # 1 4 : # # : : : 1 4 2 4 4 3 6 6 6 6 3 5 3 5 z V f 5 f f z z j z j f y s s l w  . .R x q f M S K ` | ' } } } } =.7.i.J.7.7.7.=.=.=.7.7.7.J.P.Q.^.).)./.*X,X,X2X2XiXjXjXcXcXcXmXmXmXmXmXmXmXnXnXnXnXBXNXNXBXBXBXBXGXGXGXGXGXGXGXGXGXGXGXGXGXBXBXBXGXGXGXGXGXGXGXGXBXBXBXVXVXVX9X8XxX0X0X0X8X8X0X0XxX8XzXxXxXxXBXGXGXGXMXMXBXxXVXxXxXzX7X7X8X7X7X6X5X5X5X:X-X:X-X:X:X>X7X:X7X:X3XQ.q X         ",
"!.XX.X,X2XeXeXrXyXyXeX<X.XXX.X.X.X.XXX.X.X3X3X2XeXeXeXrXrXyXyXyXeXyXyXyXeX1X,X,X1X1X3X3X1X1X1X2X1X1X1X1X1X1X1X<X2X<X2X2XeXeX2X3X3X,X{.{.W.W.{.j.R.l.6.y.6.1.$.<.<.<.5.a.5.6.4.6.y.g.h.g.s.4.5.u.a.i.vXuXcXuXkXsXdXvXvXvXvXvXvXvXnXvXvXvXvXSXSXSXSXZXZXSXZXDXnXmXxX7X>X6X&X&X&X&X#X].M.N.m.v.v.v.B.r.r.e.e.q.W.[.a.u.$.$. .R R R R R R {  .{ R Y T Y T T Z Z C Z b b h l b z F 2 3 2 % 1 = = # # # # + + # # + + + + + O . . . . + + # # # # , 2 2 2 2 2 3 3 2 3 3 6 6 3 3 6 2 2 2 2 2 1 1 5 F 6 3 2 2 2 6 3 3 3 5 2 5 1 2 4 3 4 2 2 4 4 6 6 2 1 1 1 4 4 1 4 6 6 6 j 6 f 6 4 4 4 1 4 4 1 : : 1 4 4 1 6 1 1 4 1 6 1 4 6 < < 1 1 < 1 : : 1 < < 4 y 4 1 1 4 4 4 6 f y y y f f f j j f f f f b A V f z l l k z z j a p j s l w .. .R x q f V A U ' ' ` } } } O.-.=.-.-.*.-.%.%.-.-.*.=.7.J.P.Q.Q.!.!.!./.,X,X3X2XiXiXiXzXzXzXzXzXzXmXmXmXmXmXBXBXBXBXNXNXBXBXBXGXGXGXGXGXGXGXGXGXGXGXGXBXBXBXBXBXBXBXGXGXGXGXGXBXBXNXBXxX7X8X5X6X0XxXxXxX0X0X0XxXxXxXxXxXxXNXMXDXGXGXMXMXBXxXxXxXxXzX9X7X7X7X6X6X8X5X5X:X-X:X:X:X:X>X3X7X:X4X,X/.7 X X       ",
"!.XX,X3X2XeXyXyXeXyXrX<XOX.X.X.X.X.X.X3X2XtXeXeXeXeXeXeXrXyXyXeXeXeXeXeX1X1X,X,X,X,X,X1X1X1X1X1X1X1X1X1X1X1X1X1X2X<X<X2X2X2X.X+XQ.h.y.6.l.y.1.9.q.1.9.l.y.k.l.<.<.o.<.5.@.5.&.5.5.5.6.5.U.4.u.i.u.T.jXaXcXsXkXdXdXdXvXvXvXvXvXvXvXvXvXvXnXSXSXnXZXZXZXSXZXDXnXmXNX7X>X6X&X&X&X6X#X].M.N.v.v.v.v.v.r.e.r.r.l.W.{.d.4.@.$. . .R R R { R  .{ R R R T Y Y H C C Z :.m m b b b l f 5 q 5 3 5 z 5 2 1 2 1 1 1 = # # * 1 1 = = = = = 1 2 1 1 1 1 , 1 2 5 3 2 2 3 2 2 6 6 3 4 4 3 3 6 2 2 2 2 1 2 6 6 1 3 6 2 2 2 6 3 3 2 3 y 1 1 2 3 2 2 4 6 6 6 3 6 2 3 2 3 4 4 4 6 j y l 4 1 6 4 4 4 4 4 4 4 1 < 1 1 1 1 4 4 4 4 4 6 1 4 6 < < 1 4 1 4 1 < 1 < : 1 6 4 4 4 4 6 6 a k z f j k z z l l l l z z b Z A M l l l z z z j f f j j l w +. .E w 8 f S A ( _ _ ' } } } -...O...%.%.%.....%.%.-.=.=.J.I.E.Q.Q.Q.~./.*X*X*X4XiXiXhXzXzXzXzXzXzXzXmXNXNXNXNXNXNXNXNXNXBXBXGXGXGXGXGXGXGXGXGXGXBXBXBXBXBXBXBXBXBXBXBXBXBXBXBXBXBXBXVXxX:X:X:X5X8XxXxX0X0X0X9XxXxXVXVXVXxXmXMXGXGXGXMXMXBXxXxXxXxXzXzX9X7X:X6X8X6X6X:X$X-X-X:X:X:X4X>X:X3X:X+X,X8 # X       ",
"!..X3X2X2XeXyXyXrXrXyXeX<X2X3XoX.X.X3XtXiXiXeXyXyXyXrXrXyXeX2X1X1X2X2X2X3X,X,X,X,X1X1X1X1X1X1X1X1X1X<X<X1X<X1X1X2X<X2X2X1X.X!.T.s.6.o.1.6.o.o.6.9.9.l.9.g.k.j.6.4.#.+.&.5.#.7.*.4.8.4.s.T.U.5.d.*./.cXcXkXjXkXsXdXdXvXvXvXvXvXvXvXvXvXnXSXSXSXSXSXZXZXZXZXDXZXnXMXzX7X6X6X6X&X&X#XM.M.M.v.e.B.v.v.e.e.r.r.l.W.!.d.*.$.o. . .R R R { R ..R T R R Y Y T Z U J U :.n C C C b l z z q q q q l f 5 q 3 3 2 3 3 2 3 3 3 3 2 2 2 = 1 2 2 2 2 1 2 3 3 3 5 5 2 2 2 2 6 6 6 4 2 2 6 3 6 2 4 1 1 4 3 2 2 4 6 6 4 4 2 6 3 3 6 3 6 2 2 2 6 6 3 3 4 2 4 3 3 6 5 3 6 4 4 1 1 a 6 k y 1 4 4 4 6 4 4 4 4 4 1 1 1 4 4 4 4 4 4 4 6 4 4 6 1 1 4 4 4 1 1 1 1 1 1 1 4 4 4 4 4 6 y f k k f z k z k M M l l l h z z S V M M l z z k k j f f j l x +. .E e 8 f V A ~ ' | ` ` ` ] %.] } [ } } } } } ;.%.-.-.-.=.J.L.L.T.T.T.~. X=X=X:X4X4X7XzXzXzX9XzXzXzXzXxXxXNXVXVXNXVXNXNXMXBXGXGXGXGXGXGXGXGXBXBXBXBXBXBXBXVXVXVXVXVXVXBXBXBXBXBXVXVXVXxX-X}.:X5X5XxXxX0X0X0X9XxXxXNXNXNXNXNXDXGXGXGXMXMXNXVXxXxXxXxXxX9X7X;X%X5X6X5X:X$X:X$X:X:X:X:X:X7X>X:X.X).b , X       ",
"!..X2X2XeXeXeXrXyXrXyXrXeXtX2XoXoX,X2XtXiXeXeXrXrXrXrXrXyXeX2X,X3X3X3X,X,X,X,X,X1X1X1X1X<X<X1X1X<X1X<X<X1X<X1X<X1X2X2X1X.X!.T.d.6.o.5.<. .#.4.@.4.5.<.<.6.5.<.s.8.#.+.&.&.5.&.*.7.5.4.a.a.~.p.d.*.2XjXaXkXsXvXkXdXdXvXvXvXvXvXvXvXvXvXnXnXSXSXZXSXZXnXZXZXAXZXZXDXMXxX8X6X&X&X&X&X].M.N.v.B.f.v.e.e.r.e.r.l.W.W.p.4.$.$. . .R R R R R O.R R R T R Y U J T U U C Z Z C b b h z z z g f q 8 8 f f f F 5 5 5 5 5 5 5 3 3 3 3 3 3 5 3 5 5 2 2 2 3 3 3 5 5 2 5 2 6 6 6 6 4 4 4 4 2 2 2 2 2 6 3 2 6 5 3 3 6 6 6 3 3 3 6 6 1 2 3 6 3 5 3 3 6 4 6 3 5 3 3 1 4 4 4 6 1 y 4 y y y 4 6 4 6 4 4 4 4 4 1 1 1 4 6 1 4 4 1 6 4 4 4 6 1 4 4 4 4 1 4 4 4 4 4 4 6 4 4 4 6 y f z k z f z z f k M M l l D l z f V S S B M k k l k f f a j l x O. .E w 8 f V S ( ` | | ` ` _ ` ` | ` | | } } } } ;.%.%.%.-.i.K.d.a.a.U.T.~.{.[.{.:X>X7X7X7X7X9X9XzXzXzXzXxXxXxXVXVXVXNXBXMXDXGXGXKXHXGXGXGXGXBXBXBXBXBXVXVXVXVXVXVXVXxXxXVXBXVXVXVXVXVXxX}.-X5X5X:X0XxX0X0X0X9XxXxXNXNXNXNXMXDXGXGXGXMXMXmXVXzXxXxXxXxX7X7X>X}.>X6X$X:X-X:X-X-X:X=X=X-X:X:X-X3X1Xb # X       ",
"XX,X2X4XiXtXeXyXuXrXyXyXeXeX,XXX.X3XiX2XiXeXtXyXrXrXrXrXeXeX2X3X3X,X,X,X,X,X1X1X,X1X1X<X<X<X<X<X<X1X<X<X1X<X1X<X1X2X<XOX/.Q.h.y.@.o.@.....*.4.@.O.&.@.#.X.#.&.8.&.*.@.@.@.*.*.*.*.4.5.y.a.W.W.p.K.cXjXaXvXuXkXkXdXdXvXvXvXvXvXvXSXSXnXvXvXnXnXSXSXSXnXZXZXAXZXZXSXnXNX7X6X>X6X6X&X#X].N.v.v.v.e.e.v.r.e.r.l.{.W.p.y.$.$.X. .R { { R R  .R R R R T T U U Y C C x U J Z b b h z g f f z g 3 f z q q 5 3 5 f 5 3 3 3 3 3 5 5 3 3 3 3 2 2 3 3 2 2 2 2 5 8 2 5 2 6 6 4 4 4 6 4 1 1 1 2 6 6 4 4 2 3 f y 5 3 3 3 3 3 6 4 3 4 3 3 3 5 a 4 3 3 3 3 5 3 6 3 2 6 4 6 y 1 6 y 4 4 y 1 a 6 1 4 4 4 1 < 1 1 < 6 y : 4 4 : 6 4 4 4 6 1 4 4 4 4 4 6 6 4 4 4 4 6 4 6 6 6 a k l k z f j j a l V M V z l b b z A S A S M l l M k y f j k l x .. .E w 8 f V ~ ( _ _ ` ( } ` _ | | ' ` | } ` ` } ..} %.%.-.7.i.i.d.d.h.h.Y.~.W.~.{.;X:X:X>X6X7X9X9X9X9X9XzXxXxXxXVXVXBXBXBXDXGXGXKXHXKXGXGXGXBXBXBXBXBXVXVXVXxXVXVXxXxXxXxXxXxXxXxXVXVX7X}.:X:X5X5X0XxX0X0X0X9XVXVXNXNXBXBXBXGXGXGXGXDXMXzXVX9XxXzXxXxXxX7X7X>X7X5X>X-X-X-X-X=X-X{.!.-X-X}.-X!.Q.7.  X       ",
"XX3X3X2X2XtXeXyXyXyXrXtXtX3XXXXX X,XeXtXyXrXyXrXuXrX2X1X2X3X3X3X3X1X1X1X1X,X,X1X1X1X1X1X1X1X1X1X<X<X<X2X1X<X<X<X1X1X,XXX!.R.p.6.*.O.O...#.4.#.....&.&.*.&.&.&.8.4.5.O.#.@.@.4.5.&.7.5.7.u.p.j.j.2XiXdXfXPXkXaXkXkXkXkXvXvXvXvXvXvXvXvXvXvXnXbXnXnXnXnXnXZXZXZXZXMXmXNXxX>X6X&X&X#X#X#XN.v.v.B.e.e.e.r.e.e.f.[.W.d.1.$.$.X. .R R  . .R { R R R T T T T T U Z U m T U C b n c h h g q h g q f z 5 5 q q 5 5 5 5 3 3 3 5 2 3 5 2 5 3 2 2 6 6 2 2 6 3 8 g 2 5 3 5 5 6 3 3 3 6 3 3 4 3 2 2 2 2 4 6 f y 3 3 6 3 5 1 3 5 3 6 6 3 6 5 f 2 3 1 1 1 6 6 6 y f 4 6 6 6 3 y 6 6 4 6 6 6 6 6 4 4 4 1 < : < 1 4 1 4 4 1 4 6 6 4 4 4 y 6 4 4 4 4 6 6 4 4 4 6 y 6 6 6 y f z z l f a f z f l l S A A V V V l M V B M M j k k j s f s j V b  .{ H w f l h K ( ( _ | | ` ' ' | } ` ' ` | ` | | } } } %.O.7.K.7.p.p.d.a.E.Q.W.W.W.{.$X:X>X6X6X8X9X9X9X9X9X0XxXxXxXVXVXBXDXGXFXFXKXKXGXGXGXGXBXBXBXBXBXVXVXxXxXxXxXVXxXxX0X7X-X X7XxXVX8X$X}.:X:X6X8XxX0X0XxXxXxXxXNXVXBXBXMXMXGXGXMXnXmXzXzXzX9X9XxXxX9X6X6X;X6X6X:X$X}.-X-X-X-X[.[. X3X-X~.K.*.J.5         ",
".X3X3X2XeXtXeXyXyXyXyXyXtX,XXXXXXX1XeXeXrXrXyXrXeXeX2X1X2X3X3X3X3X1X1X1X1X,X,X1X1X1X1X,X1X1X1X1X<X<X<X<X1X1X1X1X1X1X*XXXW.U.6.8.4.O...O.#.&.O.....+.+.#.#.#.#.8.5.&.&.+.+.@.*.7.5.*.7.7.7.p.d.g.4XmXdXPXPXkXsXjXkXkXkXvXvXvXvXvXvXvXvXvXnXnXnXnXnXnXnXnXZXZXZXZXZXMXNXxX8X6X&X&X&X#X#XM.v.v.v.e.e.e.e.e.e.l.[.W.p.1.$.$.o. .R {  . . .R R R R T T R U Z T U J n T U Z C m c h q q q g g z q q 5 q q q 5 5 5 3 3 2 2 3 2 3 5 2 5 5 3 4 6 6 1 1 6 3 f h q 5 2 2 3 5 3 3 6 6 3 3 6 3 2 3 3 4 6 3 f 3 3 3 5 5 f 2 2 6 5 5 5 6 3 6 3 5 f l 6 3 f 5 4 6 y 4 6 y y 5 f 4 4 1 4 6 6 y y 4 4 4 1 1 1 1 1 4 1 1 1 4 6 y y f y 6 6 4 4 6 6 6 y y 6 6 6 6 6 y z 6 z k z k k f a f z z l V A A S V V l z l B M l M j k k j j f a j V b  .{ H q 5 z h K ( ( _ | | ` ` _ ` ` ` ` ` | ` | | } } } O...7.i.7.7.7.u.u.a.h.Y.W.Y.W.}.$X:X6X6X6X6X7X9X9X9X9X9XzXzXxXVXNXBXGXGXGXGXGXGXGXGXGXBXBXVXVXVXxXVXxXxX0XxXxXxXxX7X:X X!.[.:X7XVX0X:X6X:X:X8X0X0X0X0X0XxXxXNXVXBXBXMXDXGXGXDXBXBXzXzXzX7X7XzXxXxX7X7X>X:X:X:X$X$X-X-X-X-X-X-X[.[.[.!.L.Q.] g         ",
",X3X3X2XeXeXrXrXyXrXiXeX<XOXXXXXOX2XeXrXrXrXeXeX<X1X1X2X3X1X3X1X3X1X,X3X1X,X,X1X1X1X1X,X,X,X1X1X2X2X<X,X,X1X,X,X2X,XXX[.W.h.6.#.4... .+.#.#.......#.+.+.+.#.+.@.+.+.O...#.*.4.5.5.*.7.4.u.a.a.Y.*XmXaXkXdXkXkXaXkXkXvXvXvXvXvXvXvXvXvXnXnXnXnXnXnXnXnXnXnXZXZXZXZXFXMXxX0X6X&X&X#X#X#XM.v.v.v.B.e.e.r.e.e.l.`.W.p.1.$.o.o. .R {  . . .{ R R R R T R T T T Z J J U C Z C b b x q q g g f l f 5 q q q 5 3 3 3 3 2 2 3 3 3 3 5 2 3 5 6 3 3 3 2 2 6 8 q 8 8 2 2 2 2 3 2 2 3 6 2 4 3 3 2 2 4 4 4 4 5 3 5 3 3 3 f 5 5 6 5 5 f 5 5 1 1 a a _ 4 f 5 f 5 3 y 6 4 f 5 5 y 4 4 4 4 6 y y y 1 4 4 1 4 4 4 1 1 4 4 4 6 y y y l f y y 6 y y y 6 y y y y y 6 6 z M f M k f f z a f z l z l S ~ A V V l l l l l l k k a k k k k j j k V b { ] n q 5 z c Z A ( _ ` ` ` ` ` ` ' _ ` ` ` ` | | | | } } O.7.K.7.&.4.5.5.u.s.U.W.W.W.}.$X$X:X6X6X6X8X9X9X0X9X7X9X9XzXxXVXBXGXGXGXGXGXGXGXBXBXBXBXVXVXVXVXVXxXxX0X9X8XxXxX7X-X X!.R.W.}.xXxX0X0X8X:X6XxX0X0X0X0X9XxXNXBXNXMXMXDXMXGXGXBXBXzXzX9X7X7X9XxXxX7X7X6X>X:X$X}.$X}.:X-X-X{.{.{.{.h.W.a.E.... X       ",
"3X3X3X3X2XeXrXrXyXyXyXeXOXOXXXXX<XeXrXyXrXeXeXeX,X1X3X3X3X3X3X1X3X1X,X3X1X,X,X1X3X1X,X,X,X,X1X1X2X2X<X,X,X1X,XOXXX!.T.U.g.y.y.<.@... .#.#.......O.#.#.+.+.@.#.#.@...+.&.&.@.7.@.5.s.s.5.p.d.s.Y.~.hXjXkXkXdXkXaXkXkXvXvXvXvXvXvXvXvXvXvXnXnXbXbXnXnXnXnXnXZXSXZXZXnXNXxX6X&X#X].D.#X#XM.v.v.v.v.f.e.r.r.e.f.`.Y.y.@.@.$.o. .R R  . . .{ R R R R R T T T T m Y T Z m n n b b b q q h q 8 f q 5 q 8 5 3 3 3 3 3 2 3 3 5 5 3 5 5 5 6 3 3 3 6 6 6 6 8 5 2 8 = 3 3 3 2 1 2 4 2 1 2 4 6 1 2 2 4 4 2 3 3 5 3 1 2 f f z 5 6 6 k a F 6 5 5 6 k 6 6 y 4 y 3 y 6 4 y 4 4 4 4 3 6 6 6 y y 6 1 4 4 1 4 4 4 1 < 6 y 6 y a y y z a y a y y a a y y y y y y y y M M M M f f 5 z f z z l l l S A A V l z l V l z M M M j k k k k j j k V b { ] m q y l b C A ( _ ` ` ' ' _ _ ' _ ` ` ` ` | | | | | } O.=.L.7.&.@.*.*.5.u.p.U.Y.R.[.}.{.}.5X5X5X6X8X9X9X7X6X>X7X8XzXNXBXBXGXGXGXGXBXBXBXBXVXVXVXVXxXVXxXxXxX9X7X7X7X8X8X:X X!.~.W.W.$X5XxXxXxX7X7XVX0X0X0XxXzXxXVXBXNXBXNXMXnXDXDXGXBXmXzX9X7X7X7XxXxX7X8X8X5X:X$X$X}.}.$X-X}.W.W.:X{.Y.Y.).Q.&.h =       ",
"3X,X,X,X,X<XrXrXyXyXaXeXOXOXOX<XeXrXyXyXyXeX2X1X,X3X3X3X1X1X1X3X3X1X1X1X1X1X1X3X1X1X,X,X,X,X,X1X1X1X1X,X1X,XOXXX~.U.d.6.1.<.y.s.+... .#.O. .....+.#.+.+.#.@.<.5.8.8.@.#.8.&.&.u.p.s.a.p.y.y.d.j.Y.4XmXjXkXdXdXjXkXkXkXvXvXvXvXvXvXvXvXvXvXvXbXbXnXnXnXnXnXnXSXZXZXmXzX8X$X&X].M.M.D.#XM.N.v.v.v.v.e.r.r.r.l.W.Y.y.@.$.o.o. . .{  .{ { R { R R R R T T T T J Y T m C n b b x x h h g q g f 8 q q 8 5 3 3 3 5 3 3 3 3 5 5 3 5 q f 3 3 6 4 2 2 2 6 3 3 2 f 2 3 3 3 3 4 4 3 3 4 2 2 3 2 6 6 3 3 2 3 2 3 6 6 6 y 5 k f 6 1 z F a 5 a a 6 1 6 3 y 4 4 6 5 5 6 6 1 4 6 2 6 5 6 4 4 4 4 4 4 4 4 4 4 4 < 1 y a y y f a f f f j z f a f a y 6 y y y 6 y k B k M z f f f z z k f l l l S S A V D l z D b z M M M j k k k j j j k V b { R m q f M l V A ( ~ _ ` _ ` _ _ _ ' ' ` ` ` ` ` ` | | } } -.E.*.*.@.*.&.4.5.5.y.a.j.W.{.{.{.$X5X5X5X6X6X8X6X:X$X$X:X7XlXNXNXBXBXBXBXNXBXBXVXVXVXVXxX0XxXxXxXzX7X7X:X6X7X0X7X:XXX!.W.W.W.{.8X0X0XxX0XxX0X0X0X0XzXVXVXNXNXBXNXmXmXBXGXGXBXNXzXzX7X7X7X7XxX0X7X6X:X$X$X$X'.-X{.:X}.!.!.{.{.Y.W.~.u.%.3 3       ",
"3X,X.X.XOX1XyXyXrXyXyXeX<XOX<XeXtXrXyXyXtXeX2X3X,X3X3X3X1X1X3X3X3X1X1X3X3X1X3X3X1X1X,X,X,X,X,X,X1X1X1X1X1X,XOX.XQ.U.p.4.$.o.@.4. ... ..... .....+.+...@.<.<.8.p.8.5.5...&.*.#.s.d.1.5.5.6.g.j.U.W.-XNXhXkXdXsXcXkXkXkXvXvXvXvXvXvXvXvXvXvXvXvXbXnXnXnXnXnXnXnXZXnXMXzX>X%X#XM.M.M.M.M.M.N.N.v.v.v.B.e.r.r.l.W.W.y.1.$.o.o.X. . .X. .R { { R R R T ] R Y ] Y J J n U Z m m c x x c g q C c q q q q q 5 5 5 5 5 3 3 5 5 5 2 2 q q 5 3 3 3 3 6 6 6 5 5 2 8 8 3 5 6 6 5 6 6 6 6 3 4 6 2 3 3 3 3 6 3 2 3 6 y 6 5 5 z f 5 6 f 3 F F 5 5 5 5 2 a 2 y 4 4 4 6 y 6 4 a f 6 6 5 6 4 4 4 4 4 4 4 1 4 4 4 1 4 y y y 6 y f j z z k l j f f f a 6 y y y y j B M M M z l f l z k z f k l l V V V V b Z h z l l M M M j k M k j j k k B b [ R v 5 j M l C ( ~ ~ ( ` _ %.` ` ( ' ` ` | ` ` ` ` ` | | } O.E.7.4.*.*.&.*.5.5.5.d.h.R.{.}.}.-X5X5X5X6X6X6X6X-X[.[.{.}.:XhXxXNXBXBXBXBXNXxXxXxXxXxX0X8X8X8X8X7X4X:X-X4X0XxX7X4X:X{.!.W.W.W.}.:X5X8XxXxXxX0X0X0XxXVXVXxXxXNXNXzXmXMXBXMXMXmXzXzX7X7X7X7XxX0X8X5X:X$X{.{.'.}.}.-X$X[.{.j.{.W.Y.U.L.*.q #       ",
"2X.X.XXXOX<XuXyXrXyXyXeXeXeXeXiXrXrXyXyXeX2X3X3X3X3X3X3X3X3X3X3X3X1X1X1X3X3X3X3X,X,X1X,X,X,X,X,X1X,X,X,X,X,X.X.X.X!.E.a.5.@.+... ... . ... ...+.O.#.#.8.8.8.8.a.8.5.p.8. .#.4.@.1.$.<.1.6.j.R.W.~.-XxXhXsXdXfXjXkXkXkXvXvXvXvXvXvXvXvXvXvXvXvXbXnXnXnXnXnXnXnXZXbXMXzX>X$X].#XM.M.N.N.m.v.v.v.B.v.f.e.r.r.l.W.Y.p.1.$.o.o.o. .X... .R  .{ R { R R { Y Y Y Y H Y Z U T C b m b c g g q C l 8 q 8 q q q 5 5 5 5 3 5 5 3 5 3 2 5 5 5 5 3 3 3 5 3 6 3 5 2 5 f 5 f 5 6 5 5 3 6 6 6 6 6 2 3 3 3 3 3 5 3 6 6 5 3 5 3 f F 5 5 a 3 5 F 5 1 5 6 5 1 1 4 6 3 1 6 z 6 6 f f 6 6 3 6 4 4 6 6 4 4 4 4 1 1 1 4 4 4 6 6 6 y y a j j z k j f j a y y y y y f k M M M V M k z M k k f z z k M M V V V b ' V z l M M M B j k M k j k k k V c [ Y x 5 j k l A ( S ~ _ ` ( ` _ _ ' ` ` ` ` ` ` ' ' ` | ` } ..L.d.*.5.@.&.&.4.7.5.p.g.R.{.}.$X-X:X:X5X6X6X6X5X}.`.W.W.W.{.:X7XzXzXzXzXxXxXxX7X8X6X6X5X:X-X:X5X:X5X-X-X:X7XxX7X>X7X:X-X!.!.W.W.{.}.5X8X0XxX0XxX0XxXxXVXxXxXxXBXzXNXNXBXMXMXNXzX7X7X5X7X7X8X7X5X5X:X$X'.[.{.{.-X}.{.[.{.!.~.!.!.p.7...8         ",
"2X.XXXXX.XOXiXyXyXuXyXrXiXiXiXiXiXyXyXyXeX2X3X,X3X3X3X3X3X3X1X1X3X1X1X1X3X3X3X3X,X,X1X1X1X,X,X,X,X,X,X,X,X*X.X,XOXXX!.T.p.7.$... ... .........+...@.@.#.#.4.6.g.8.6.@.8.#...*.@.1.Y.g.y.1.1.6.y.{.:XzXhXaXdXsXcXkXkXkXvXvXvXvXvXvXvXvXnXnXnXbXbXnXnXnXnXnXnXnXZXDXnXmX7X5X'.6X#XM.M.N.v.v.v.v.v.v.f.e.r.r.l.W.j.y.1.$.$.o.o. . .....R  .{ R { R  .R U R Y T H T Z J T Z b m C c q b g c g q f q 5 8 q 5 5 5 5 3 3 3 3 5 5 5 f 5 5 6 2 4 3 5 3 6 2 q f q h 2 5 5 3 f y 3 2 3 5 3 3 6 5 6 5 5 3 5 3 6 3 5 3 5 4 5 5 6 F f 5 2 5 5 F 5 6 6 6 6 6 6 5 1 5 l 6 6 f a 6 4 4 6 6 6 4 4 4 4 4 4 1 < 1 4 4 4 4 y 6 6 y 6 y y y j f f a y y y y y y z l l z M _ V f k f l k f l z z M l M V b l } U l l l M M M j k M k j k k k B h ] Y h q k k l K ( V ~ ( _ _ S ( ( } ' ` ` ` ` ` ' ' ` ` ' } ..K.L.&.7.@.*.*.4.7.5.y.s.R.`.}.}.}.{.}.}.5X5X5X:X{.W.R.R.j.Y.!. X*X:X:X:X7XhXxX7X>X$X}.{.-X}.}.-XoXoX{.{.-X-X7X:X{.7X7X7X{.!.W.[.{.}.:X-X>X7X7X0X0XxX0XxXxXxXzXBXxXNXxXBXMXMXNXhX7X7X>X5X7X7X8X5X>X$X:X}.}.}.{.{.:X~.=X{.[.!.!.!.7.Y . .         ",
"3X,XXXXX.X<XeXyXaXyXrXyXuXuXuXrXyXyXeX2X2X3X3X3X3X3X2X3X1X1X3X3X1X3X3X1X1X3X3X3X1X,X,X,X,X,X,X*X*X*XOXOX*X*X,X*XOXOX/.Q.d.4.O.} } } ............X.X.+.@.X.o.y.g.@.6.<.+.&.#.#.u.Y.Y.W.W.{.o.1.y.y.W.:XhXhXsXfXvXkXvXvXvXvXvXvXvXvXvXvXvXvXvXbXnXnXnXnXnXZXZXZXZXZXnXbXNXzX4XxX6X$X].M.v.v.v.v.B.f.v.r.e.e.l.W.j.p.1.@.$.o.X. . . . . .{ { R R  .{ R T T J Y T n T n n C m n n b q b g f b q q q q 5 8 8 5 3 5 3 3 5 3 5 5 2 z 5 6 6 6 6 6 3 5 6 3 3 q g g 3 3 2 3 3 5 f f f 5 3 5 3 3 5 f 5 6 5 3 2 5 5 6 2 5 5 5 5 F a f 6 F 5 f f 6 6 6 y y 4 y 6 6 y 1 F 6 5 4 6 y 6 6 6 6 6 6 4 4 4 4 4 6 6 1 4 4 4 6 6 6 6 y 6 4 6 y y 6 6 6 y y y y k j M M k V S M M k z l f z l z z l z b b h U ` V l l M M M k k M k j j k k V V ' T v s a z V A A S _ _ A _ A _ A ` ` | ` ' ` ` _ ' ` ` | } &.L.E.p.$.7.O.4.4.8.7.p.y.Y.R.[.}.{.}.}.}.$X5X$X}.{.W.W.Y.U.U.g.W.W.!.[.[.[.{.-X7X7X:X:X-X:X}.{.:X7X-X}.-X X{.5X:X}.7XVXxX:X{.W.!.{.oXoX:X:X5X8X8X8X8X8XxXzXxXhXxXVXzXzXNXGXMXxXzX7X5X>X7X7X5X7X5X:X}.$X}.}.{.{.{.{.[.j.{.[.{.[.T.&.$ # .   X   , ",
"3XOXXXXXOX2XeXiXuXuXuXyXyXyXuXuXyXeX2X2X3X3X,X,X3X3X2X3X1X1X3X1X,X1X3X1X,X1X1X1X,X,X,X,X,X,X,X*X*X*XOX*X*X,X*X*X,XOX).Q.d.*.#...} { } .... . . .X...+.<.1.<.4.o.@.1.1.<.@.8.O.4.p.5.y.W.`.k.W.g.[.$X7XxXiXsXfXkXkXcXcXvXvXvXvXvXvXvXvXvXvXvXbXnXnXnXnXnXnXZXZXZXFXSXbXMXmXhXVXhX5X#XM.N.N.v.v.v.f.v.e.e.e.l.W.W.p.1.@.$.o.X. . .{  . . .R { R R R R T T T Y T J J n C C b b b h h b g h b q q q f q 5 8 5 3 5 3 8 5 5 5 5 8 8 3 5 3 5 3 2 3 5 3 3 5 8 q q 3 3 3 3 5 F 5 f f f 3 3 3 3 5 5 6 4 6 5 3 3 2 5 f 1 F a f 5 3 F 5 5 6 6 a 6 y 4 z y 1 5 5 6 5 1 F f , 6 5 y y 6 6 6 6 4 4 4 4 4 4 y 6 4 4 6 y y 6 y y y y 6 y y y y y y y f y y j a z z z M l z k z k k j k l l l M l l D h A ' Z V l M M M k k M k j j k j V V _ U v f k l M V A S A _ A A _ _ A _ ' ` ` ` ` ` ' ' ' ` | } *.7.L.T.p.*.7.4.&.7.5.p.y.j.Y.W.}.-X}.'.}.}.5X$X-X{.W.Y.Y.Y.U.h.h.j.Y.Y.Y.R.Y.Y.W.!.-X7XlX5X7XoX{.-X}.}.}.:X{.-X-X;X7XxXxXxX7X3X{.{.}.-X:X5X5X8X5X6X8X8X0X7XlXhXhXxXzXzXzXGXBXNXzX7X7X5XxX8X:X:X6X$X}.}.{.[.[.{.{.W.!.!.Y.[.h.Y.!.v 2 . . + 2   2 ",
",X.XXXXX.X3XtXtXeXiXuXuXyXyXyXuXtXeX2X3X,X,X,X,X3X3X3X3X3X3X3X1X,X1X3X1X,X,X*X*X*X*X*X*X*X*X*X*X,X*XOXOX,X,X,X,X,X.X!.E.d.4.#.O.} } } } .... . .+.#.8.4.8.o.<.+.<.y.<.<.#.7.4.#.@.@.4.j.W.{.[.W.W.{.:XxXhXcXdXdXkXkXcXcXvXvXvXvXvXvXvXvXvXvXnXnXnXnXnXnXnXZXZXZXFXZXbXnXbXmXMXmX7X&XM.#XM.v.B.B.B.B.e.e.q.k.W.!.d.1.@.$.o.X. . . . .{ { { { R R R R R T T T J H n n C C b b b w h g h h c g g q g 8 5 8 8 3 5 5 q 5 8 8 8 h 2 2 6 6 3 3 2 3 5 3 5 5 5 3 8 3 5 3 5 5 5 5 5 5 3 2 5 5 6 5 6 4 4 5 5 3 3 6 F z 6 5 F f F 3 5 f 6 6 6 5 6 f 6 f 5 6 1 6 : 6 5 6 f 1 6 5 y 6 6 6 6 6 4 4 4 6 4 4 6 4 6 4 4 y y 6 6 a y y y 6 6 6 y a y y a y a a a j a a j a a j j k k k k l l M D l l l l V _ A A l M M M k M M k j j j j V V _ U c f f l l V A A A ~ A S ' A A _ } ` ` ` ` ` ' ' ' ` } O.O.O...#.p.p.u.5.5.4.4.6.y.g.j.W.{.5X}.[.}.}.5X$X5X{.W.j.U.Y.g.h.p.d.d.a.a.U.U.U.U.T.W.!.[.{.7XxX3X:X:X}.>X:X-X:X}.}.-XxXBXxX7XlX7X>X7X-X-X8X6X7X5X6X8X0X8X8X7XlX7XzX7XhXhXNXBXxX7X7X7X>X8X7X$X}.:X}.$X}.'.`.}.[.~.!.d.{.y.!.d.u.5.; _ 5 X   2   + ",
"XXXXXXXXXXXX,X2X<XeXtXyXyXyXyXyXtX2X3X,X*X,X,X,X,X3X3X3X3X2X2X1X1X1X3X3X,X*X*X*X*X*X*X*X*X*X*X*X,X.X.X.XOX,X,X,X*XXX~.T.a.5.#...} } } } } ..........X.@.8.1.1.o.<.6.<.8.&.#.&.@.#.@.<.6.j.j.j.j.j.z.}.xXhXjXsXdXdXsXcXcXvXvXvXvXvXvXvXvXvXvXnXnXnXnXnXnXnXnXZXSXZXSXbXbXbXnXbXbX7X$X&X&X#Xf.B.B.v.B.e.r.f.k.!.!.h.5.@.$.X.X. . . . .{ R { R R { R R R T T J Z U C C C C b C b h g g b h q q h q q 8 5 8 8 8 8 8 8 3 5 5 f h 2 2 2 2 5 5 5 3 3 2 q 5 5 5 8 5 3 5 5 3 3 5 f 5 5 f 5 5 6 5 6 3 3 f 5 3 3 5 5 5 f 3 5 F F 5 5 f 3 a a 6 f y y 4 6 5 5 l 1 5 k 6 6 6 6 6 6 6 4 6 6 6 6 4 4 6 4 4 4 4 6 4 4 6 6 6 6 6 6 y y 6 6 6 y y 6 6 y y j a a a y f s a s j f j j j k k l l l l l l l z A A A M M M M k l M k j j j j B V _ U b z f z M V A S A S A A _ S A _ O.' ' ` ` ' ' ' ' | } 7.7.*.{ ]  .@.5.u.5.5.5.6.y.g.j.W.{.:X}.|.}.}.$X-X-X{.W.Y.h.U.s.a.p.a.a.d.d.s.a.L.K.a.U.T.T.T.!.3X-X>XxX7XxXlXxXxX7X7X7XxXxX8X:X7X7XzX0X7X7X8X:X-X8X6X6X6X8X0X7XxX7XzX7X7XhXzXxXzX7X7X7X:X:X:X{.{.{.-X}.{.`.W.W.W.W.1.j.5.~.W.~.h.T o 6 3 O   #     ",
"XXXXXX+X!.!.XX.XOX,X<X<XeXtXtXtX3X3X,X*X*X*X*X*X*X,X3X3X3X2X2X3X2X3X2X3X,X*X*X X*X*X*X*X*X*X*X*X*X*X.X*X*X*X*X*X*XXX~.T.a.5.#.....................+. .+.<.6.5.#.<.<.@.4.#.&.@.#.4.&.@.5.y.6.g.1.j.k.}.9XzXiXkXkXdXcXcXcXvXvXvXnXvXvXvXvXnXnXnXnXnXnXnXbXbXnXnXnXSXSXnXnXbXnXcXnXhX>X8X8X8Xf.v.B.B.B.e.e.f.k.[.!.h.5.@.o.X.X. .X. . .{ R R R ] { T R R T T J J T J Z Z C b C C h h h Z h q g h q q 8 8 q 8 8 8 q 3 2 3 3 z f 5 2 5 5 8 8 5 5 2 2 f 5 8 q 8 5 3 5 5 3 6 5 5 3 5 f a y 3 5 3 5 3 f 5 3 6 5 3 2 z 3 5 5 5 5 5 a 6 f a 6 f 6 6 6 6 6 5 V a y a 5 2 6 6 6 6 4 4 6 6 6 6 4 4 6 6 4 4 1 6 6 6 6 6 6 6 6 6 6 6 6 6 y y y 6 6 y y j a a y a j s a j j j j j j j k l k k l l z l k S V A V M l k k M M k j j j j B V _ ' V h g z V V S V S A ~ _ ' ~ _ _ } ` ` ` ` ` ' ` ` } %.).L.p...[ [ { +.5.U.d.5.d.y.g.j.R.W.{.}.}.|.}.}.$XoX[.W.Y.U.U.h.s.a.a.a.a.d.d.d.d.d.a.L.Y.T.R.T.U.W.!.[.{.[. X-X:X7X4XlXxX7X7X-X}.7XxX7XxXzX7X-X}.7X6X5X5X8X8X6X7X7X7X7X7X7X9X7X7X7X7X7X5X$X{.{.{.[.}.{.[.W.W.W.W.W.d.h.@.j.W.W.p.@.$ #   X X , +   ",
"+X+X[.!.!.!.+XXXXXXXXXXX.X3X2X3X,X,X*X.X*X*X3X,X,X,X,X,X3X2X2X3X2X3X3X3X,X*X.X.X*X*X*X*X*X*X*X*X*X.X.X*X*X*X.X.X.XXX!.!.T.y.@... . . . .....O.O...#.#.4.@.<.4.a.@.<.5.p.+.5.7.4.4.7.4.4.5.6.d.y.g.k.'.8XxXhXkXkXkXvXcXcXvXvXvXvXvXvXvXvXnXnXbXnXnXnXnXbXbXnXnXnXnXnXnXnXbXnXbXnXmX4XxX9X0Xm.m.v.B.B.e.e.f.k.!.!.U.u.@.o.X.X. .X.{  . .{ R { ] R T T T T T J J J U J Z C c b c g b g b h g g g q q q q q 8 8 8 8 3 3 5 8 g 8 8 3 5 5 5 5 8 5 5 5 q 3 5 q 8 q 2 3 q q q 5 6 3 3 3 f f 3 5 3 5 3 f 5 5 3 3 3 f 5 F f 5 6 3 3 5 6 a 5 y y 6 6 l a 6 5 y 6 f 4 5 6 5 3 6 6 6 6 6 y y 6 6 4 y 6 4 6 4 6 6 6 4 6 y y 6 y 6 6 6 y a y y 6 5 6 a j a y y f j a a a f j j f j j k k f f l z f z j M l V V l l k k k M k j j j j l D _ ' C g g l M V A S V A _ ' _ A _ U ` ` ` ` ` ` ' ` ` | %.1X).U.5.#... ...$.g.W.p.1.d.g.h.j.R.W.:X5X}.|.}.}.}.W.W.U.U.h.U.s.a.s.d.s.d.a.d.d.a.d.d.a.a.Q.T.T.R.T.Y.~.~.Y.Y.!.~.{.[.oXoXoX-X{.7X7X7XxXzX7X-X-X:X5X:X6X8X8X5X7X7X7X7X7X7X7X7X7X7X6X5X6X:X}.}.{.{.[.{.{.W.{.W.W.W.W.W.j.j.W.y.o...o = + + O 1     ",
"+X+X[.+X+X+X+X+X+X+X+X+XXX.X.X.XXX.X.X.X*X,X,X,X,X,X,X,X3X2X3X3X3X3X,X,X*X*X*X-X*X*X*X*X*X*X*X*X.X.X.X*X*X*X.XXX.X.XXX!.W.d.4.+.X. . . ......... . .O.4.4.@.<.h.<.5.6.h.@.X.5.a.<.p.5.@.4.5.5.s.a.k.`.5XxXzXcXkXvXvXcXcXcXvXvXvXvXvXvXvXbXbXbXbXnXnXnXvXvXnXnXnXnXnXbXnXbXnXnXbXbXhXzXlXlX'.m.m.B.B.e.e.f.k.~.!.Y.u.@.o.X... .X. . . ...] { R T R T T U U U J n J C Z C b c c g h g h g h h g q q q q q 8 8 8 5 5 8 8 q q 8 q 5 5 5 3 5 q 8 5 q 5 3 8 8 8 z 3 5 5 q q f f f f f a f 3 f 3 5 3 f 5 5 3 6 3 f q q f 5 6 5 5 6 f y 5 5 5 y 6 D f 5 z 6 6 k 3 1 6 6 6 6 y 6 6 y y 6 6 6 6 y 6 4 6 4 6 6 4 4 4 6 y y y y 6 6 y y y y 6 y 4 y a a a a a a y a a a j s s M M j j j z l k f z j z k l z l z k k k k j j j j j z l U ` C g g l D V S A V A A ~ A S _ K ] [ ' ` ` ` ' ` ' } *.Q.W.W.Y.5.u... .X.@.y.U.y.6.d.h.h.j.W.}.5X}.].'.{.{.Y.Y.a.a.h.h.a.s.p.s.s.a.a.d.d.a.d.d.a.a.R.a.U.U.U.R.W.W.Y.Y.W.W.oX[.`.{.{.-X{.-X$X4X7X7X>X-X-X}.$X}.5X8X6X7X7X7X7X7X7X7X7X7X7X8X7X5X:X:X:X:X{.{.[.{.{.W.W.W.[.!.W.Y.W.a.d.h.5.*.2 % X + X #     ",
"!.+X+X+X+X!.!.!.+XXXXX+XXXXX+X{.XXXX.XoX.X*X*X,X,X,X,X,X,X3X3X,X3X,X*X*X*X.X.X*X*X.X.X*X*X,X,X,X.X.X*X*X*X*X XXXXX.X.XXX!.a.5.@.6.@.+.+.&.#.X. .+... ...@.<.1.6.<.<.<.<.5.#.X.5.6.6.6.4.4.5.5.p.6.j.k.}.7XzXcXkXPXvXcXcXcXvXvXvXvXvXvXvXbXbXbXbXnXnXnXbXbXnXnXnXSXZXnXnXnXnXMXmXZXcXhXhXhX$Xm.m.v.B.B.f.z.`.!./.Y.y.@.+.X.X. ...+.R {  .{ R R T R T U T n U U Z C n C Z b b b h q c b q g g g q q q 8 3 3 8 8 3 8 8 8 g 8 q 8 8 3 5 5 5 q 5 2 3 5 3 q q q b q 5 3 5 F f f 5 5 a 5 a 3 f 3 5 3 f 5 5 5 f 5 3 b F 5 3 F f 5 6 k y y 6 y y 6 f 5 f y 6 1 6 5 2 3 1 6 5 y 6 6 6 6 6 6 6 6 y 6 4 6 4 6 6 6 6 6 6 y s a y 6 6 y 6 6 y y a 4 a y y y a a y y j j a j a s B B j j k k k k f z z z l l z M l l k k k a a f j j z l U ] C c g z V V V V V _ S S _ _ } _ ' ] _ _ ` ` ` ` ' { &.L.W.y.Y.a.p.@.$.X.$.<.a.h.5.y.d.U.h.R.`.}.}.$X`.W.W.j.h.s.s.j.d.a.s.a.a.d.d.a.d.d.d.d.d.a.a.h.a.L.T.T.U.T.W.W.!.[.[.}.{.k.[.{.{.-X`.}.{.-X:X:X-X{.}.{.}.5X8X>X7X7X7X7X7X7X7X7X7X5X7X8X5X:X:X5X5X'.`.}.[.{.W.Y.W.W.W.W.W.W.s.y.j.a.d.K . O           ",
"!.!.+X+X+X+X+X+X+X+X+XXXXXXX+XXXXXXXXX.X.X.X*X3X3X,X,X3X3X*X*X,X.X.X.X*X*X*X*X*X*X*X=X*X*X*X*X*X=X=X.X.X*X*X.XXXXX.X.XXX!.T.p.@.6.s.Q.#.O.4.4.@.5.U.6.X. .o.<.s.6.6.@.8.7.+.#.&.y.6.p.5.4.5.5.5.6.h.g.[.}.7XhXcXcXvXvXkXkXkXcXcXvXvXvXvXbXbXbXbXnXnXbXvXvXbXnXnXnXnXvXvXnXnXnXbXmXbXcXsXiX7X'.z.m.v.f.f.W.XXXX).Q.u.@.$.X.X...{ +. .{ R R R ] R R Y n Y T Y J J C K C b b b h c g g Z g g g q 3 8 q 8 8 8 3 8 3 3 q 8 g 8 8 8 8 q 5 5 5 5 5 q 3 3 8 2 g q 3 A 3 5 5 5 5 f f 5 3 5 5 5 5 5 5 5 f p 5 y f 3 5 l f 5 5 5 F 5 y f 6 3 y 3 6 6 a 5 6 6 6 6 3 6 2 2 6 y 6 6 6 y y j z 6 y y y y 6 6 y 6 y 6 6 6 y y a y a 6 6 6 a 6 y y 6 6 a s a y s a a a f j j j j j k k j j k k k j j s f j j k k k k k M j k j a j f z k b K ] K b h z l V S A A A A A _ _ ` ` %.} _ ' ` _ ' ` ' } 7.s.j.g.y.j.s.y.5.o.+.@.<.U.p.6.p.s.p.a.h.W.W.{.W.j.Y.h.d.y.u.U.U.p.a.s.a.s.a.K.d.i.i.d.a.a.a.a.a.U.T.h.Y.U.T.W.[.[.!.[.[.{.{.[.{.3X[.{.{.[.[.[.[.[.{.[.{.:X:X6X7X7X7X8X5X7X6X5X5X5X6X8X6X>X$X>X6X{.{.[.!.[.W.W.W.W.!.W.W.!.j.d.y.p.R 3 #   +         ",
"!.!.).!.+X+X+X+X+X+X+XXXXXXXXXXXXXXXXXXX X.X.X3X3X3X,X,X,X*X*X*X.X.X.X*X*X*X*X*X*X*X*X=X=X*X*X*X XXX X*X*X*XXXXX X XXXXX!.R.a.4.o.1.d.4. .5.6.Y.g.g.Y.6.<.o.@.6.g.6.5.<.@.@.+.#.6.5.5.p.5.5.5.s.6.y.j.k.'.7XhXjXsXsXsXkXkXkXcXcXvXvXvXbXbXbXbXnXnXbXbXvXvXbXnXnXnXnXvXvXvXnXnXbXmXbXcXeXOXhX-X'.m.f.f.z.[.XXXX/.Q.a.@.X.X. . ..... .R { R ] ] ] Y U Y U Y J Z K Z Z C C C b f g h h C g q q q q 8 q 8 8 8 5 8 3 8 8 5 q 8 g f 8 5 5 5 5 5 q 5 3 8 8 3 8 f q l 2 F F q q q f f 5 5 5 3 5 f 5 f z f f a f 5 5 z f 5 3 5 F 5 6 5 6 y 5 6 6 6 5 6 6 4 4 4 6 6 6 6 3 6 y y 6 y j z j y y y y y 6 y y y y 6 6 y y 6 6 4 a y 6 6 a y 6 6 6 6 y a a a k a a a a f j k l k j a j k k j j j j j j k k k l l k k M j j j a j s z z b K ] K b c c V V V S S _ ' _ ~ _ ` _ ] ` ' _ ` ' _ ' ` } 7.h.g.y.j.W.j.y.y.4.5.1.4.p.U.5.5.4.5.5.p.5.h.R.R.Y.W.a.p.6.d.T.T.a.a.s.s.s.u.d.s.i.p.i.d.a.a.a.a.U.U.Y.Y.Y.Y.W.!.!.W.W.W.~.{.!.{.-X!.!.W.W.W.W.W.!.{.{.[.}.-X5X5X-X>X7X6X6X5X5X5X5X6X6X6X5X:X$X5X}.{.{.!.W.W.W.W.W.W.W.W.R.g.d.1.1. .=               ",
"!.!.!.!.+X+X+X+X+X+X+X+XXXXXXXXXXXXX+X+XXXXX.X3X*X*X*X*X*X*X.X*X*X*X*X*X*X*X*X*X*X*X*X=X=X=X=XXX XXX=X*X=X=XXX X X XXXXX+XR.a.6.9.2.<.<. .<.6.g.j.9.l.6.y.6.<.X.1.8.6.6.@.@.+.#.4.4.4.a.p.5.6.s.6.4.Y.k.k.:X4XmXsXjXjXjXjXkXcXkXvXcXvXbXbXbXbXbXbXbXvXvXvXbXbXvXnXnXnXvXnXnXbXvXmXmXcX2X/.hX4X$X|.z.k.[.XXXX/./.T.d.@.X.X.X. . . . .R R R ] ] Y Y J ] J J C C C Z Z C C Z b z h g g h g g g g g q q 8 q q 8 8 3 8 5 8 8 3 f f 8 5 5 5 5 q q 5 5 8 8 q 8 z l g f F F q F q z z 5 5 5 5 5 a a f f f f 5 y F 5 f F 3 5 5 5 5 4 6 5 f y 5 y 6 6 4 3 4 4 4 2 6 6 6 4 4 y y y y j z a a f f a y y y a y y 6 6 y y 6 6 4 y a 6 y y y 6 4 6 6 y a a j k f a a s j j k B k f a j k k j f j j j j j k k l M k k B k k j a j a z k b Z ' J n b c b V V S A S A A ~ _ _ ' ] { [ K _ _ _ ' ' } 7.T.j.d.W.W.W.j.g.y.y.y.6.<.U.s.*.*.&.&.&.*.5.U.U.g.U.g.T.g.d.W.U.U.s.p.u.p.a.s.s.d.i.d.d.a.a.U.L.T.T.~.W.W.Y.R.R.W.W.W.W.W.{.W.W.!.W.W.W.W.W.R.R.~. X{.[.[.[.-X:X{.}.:X8X5X5X5X5X5X6X5X5X5X$X$X:X$X{.{.W.W.W.W.W.W.W.W.W.Y.h.y.6.$.u.2   # X         ",
").!.!.!.+X+XXXXX+X+X+X+X+XXX{.XX{.XXXXXXXXXX XoX.X.X X X.X.X*X*X*X*X*X*X*X*X*X*X*X*X*X=X=X=X=XXXXXXX X=X=X=X=X=X.X.XXX.X+XR.h.y.1.<.1.#. .X.<.1.9.X.6.6.6.6.6.o.X.<.<.p.5.#.#.#.4.5.4.p.s.p.y.5.h.6.g.k.l.[.3XmXjXcXcXjXjXcXkXkXcXcXvXvXbXbXbXbXbXbXvXvXvXbXbXbXnXnXnXnXbXnXnXbXmXcXmXuX<XhXhX>XoX{.{.XX.XOX/.).Q.d.*.$. .$... .{ R { R R R ] Y Y T Y T C J C C C C Z C C h l b h b g h g g q 8 q q q q q 8 8 3 8 q q g 3 3 q 8 f f q 5 q q 8 f 3 3 g 5 g l f l f F f f f f f 5 5 q 5 5 5 5 f f p f 5 y f f 5 5 3 5 5 6 5 6 2 a a y y y 6 6 6 3 6 6 6 2 6 6 4 1 6 y y y y f a y f j j a y a a a y y y y y 6 6 u 6 6 y 6 a y y a 6 6 6 y a s s a a a a j j j k M j j k j j k j j s s j j j k l M k j k S D D k k f a j k V Z Y J J b c l V V V S V V A A ' _ ` ] { [ ' U ( ' ` ` } =.U.R.j.W.W.`.W.g.l.y.g.6.@.5.a.u.@.&.#.&.*.&.*.7.5.p.a.W.W.Y.T.h.a.u.p.p.s.a.d.d.d.d.d.d.a.a.K.a.U.Y.W.W.Y.Y.Y.j.Y.R.W.Y.W.!.Y.W.W.T.W.Y.W.W.W.R.W.!.[.[.W.W.`.oX{.[.}.8X5X-X5X5X5X6X5X&X$X}.:X$X$X}.[.W.W.W.W.W.W.Y.Y.T.Y.T.a.d.d.a.w   # O         ",
"!.!.!.!.+X+X+X+X[.[.+X+XXXXXXXXX+X+XXX XXX X X X X.X X X.X.X-X:X*X*X*X*X*X*X*X*X*X*X=X=X=X=X=XXX XXXXX X=X*X=X=X XXXXXXX/.!.T.s.1.1.5.+... .4.<.#.X.8.<.X.<.6.g.6.1.o.@.5.@.@.#.4.5.&.5.p.p.p.y.a.s.6.y.y.g..XhXjXcXcXcXcXcXcXkXcXcXvXvXvXbXbXbXbXbXbXmXvXbXbXvXnXnXnXbXbXbXbXvXmXcXmXbXjXhXhX4X:X X X.XOXOXOX).Q.d.4.$.W X. .X.{ R R ] { ] ] [ Y Y J U C K Z b C C Z b b g l b z Z b l q q q q q q 5 8 q 8 8 3 5 f q h q 2 f f q g q 5 5 5 5 f q 5 f f f f f f z q f f f f f 5 5 5 f f 5 y f f p f 5 5 f f 5 a 3 5 5 2 6 y 4 y 4 y y y 6 6 y 6 y 6 6 4 2 6 4 1 y y y y y y y y f j f y y a a a y j j a y u 6 6 u 6 y 6 a y a a y 6 y y a j s y a a a j j f j k j k k k k k k k a j j j j k M D k j M S S B M k j f j z V Z Y J J b c D S S M M V V C S ' | ` K [ _ ] ' A _ _ ` } =.K.T.U.W.[.{.`.k.j.y.s.6.@.$.u.U.5.+.#.#.&.&.&.*.7.u.s.a.a.h.a.T.W.5.u.p.p.p.u.p.d.d.d.d.d.d.d.d.a.T.Y.Y.j.W.U.h.h.h.j.j.j.Y.W.W.Y.T.T.T.T.W.Y.Y.W.R.R.W.R.R.W.{.}.`.}.5X5X5X5X5X5X6X5X5X&X}.5X'.}.-XW.W.W.Y.W.Y.Y.R.Y.Y.T.h.h.y.d.7.% # O . #       ",
"+X!.!.!.+X+X+X+X[.[.+X+XXXXXXXXXXX+X{.{.+X X X X X X X X X.X.X.X*X*X*X*X=X*X*X*X*X=X=X X{.=X=X{. X{. X=X=X=X=X=XXX.X.X.XXX/.R.p.8.#.@...+. .*.@.&.+.&.X.X.6.1.l.s.y.5.#.4.#.+.#.5.5.*.5.5.5.a.h.p.s.y.l.j.g.*XcXsXjXcXcXcXcXcXcXcXcXcXcXmXmXmXcXbXbXbXbXbXbXbXvXbXbXbXbXbXbXvXmXcXcXcXvXvXaXjX2X3X*X.XOXOXOX(.).Q.a.&.+.X.X.R  .R { R ] ] [ ] ] U U Z Z C C Z C Z C C b b l b l l C h z q f g q q q 5 5 q 8 q 8 5 q 3 g z 3 g z q f q q q 5 q f f 5 q z h f z 5 8 5 3 f z f q f q F f f f 5 f f p 5 5 3 f f y f y a y 4 y f 6 5 4 6 a 6 6 6 y 6 y 6 6 4 4 6 6 6 a y 5 y y y y f f f f a a f a a a a a a s y u 6 6 y a y a j a 6 a y 6 y a s f a a a a s s j j k B k k l M k j k s j s f j k M l j j M S S S M k j s j k V C U J H n c c S S V V V V V V _ | } ..%.K ' ' ( ' ) ` } 7.K.R.Q.Y.[.{.'.`.j.g.y.y.5.$.4.a.a.@.#.O.&.&.&.&.*.7.p.p.d.d.a.~.!.p.p.7.p.s.u.p.d.d.d.d.s.s.d.a.a.U.h.h.j.Y.h.a.h.a.a.h.h.h.T.Y.T.U.T.T.U.T.h.Y.W.Y.W.W.Y.j.Y.W.{.`.oX:X5X:X:X}.}.$X$X$X$X}.$X`.{.:XW.W.W.Y.!.Y.Y.Y.j.Y.Y.a.h.5.d.5.x 2 f O # O     ",
"+X+X+X+X+X+X+X+X[.+X+X+XXXXX{.XX{.+X{.{.{.XX XXXXX XXXXX X X X X*X*X*X*X*X*X*X*X*X=X X{.{.{.{. X X X X=X*X X.X*XXX.X*X1XOX+XT.7.8.@.X..... .#.&.&.#.&.+.#.y.<.9.1.5.s.@.@.#.X.@.7.7.*.7.7.5.d.h.s.p.y.k.{.-XhXcXjXkXcXjXkXcXcXcXcXcXcXcXcXcXcXcXcXbXbXbXbXbXbXvXbXbXbXbXvXvXvXmXcXcXcXjXcXjXhX2X3X*X*X,XOX(./.).Q.K.*.$.$.$. .X.R { ] Y ] [ ] T Y U J C C V C Z Z C b V b b b b V b g f q f q 3 q q 5 q q q f q q q 5 q z q q z f q q f q 8 q q q 5 3 q z q f 5 3 3 3 5 f q F z z q f f q 3 5 5 5 3 5 3 5 y 5 f a 5 a 6 y f 6 5 6 y a 6 y 6 y y y 6 6 6 6 6 6 y y 5 5 5 y y f f f a a f f f a a a a a a j a y y 6 s s a a k a 6 a y y a a a s a a a a a j k k k S M k M M k j k s j s j j k l k k k D S S S B k j j j k V b J J n C b c V V V ~ S V V S ~ _ ] &.*.] K ( _ ' ) ` } 7.Q.Q.W.h.Y.[.{.{.j.g.y.u.5.$.@.7.p.U.+.#.&.&.&.*.*.*.@.4.6.6.U.U.U.d.s.u.p.p.p.p.s.a.d.d.s.a.a.d.a.a.a.h.h.U.a.d.U.U.a.h.a.h.T.U.U.h.U.U.h.Y.Y.Y.Y.j.R.W.Y.j.Y.W.[.[.{.}.}.oX}.{.{.}.}.}.}.'.{.`.{.-XW.W.W.Y.W.W.j.h.h.h.U.a.h.h.y.U.J f z =         ",
"+X+X+X+X+X+X+X+X[.[.+X+XXXXX+X+X{.{.+X{.+X+XXXXX+X X X X X XXX X.X X.X X X X X X*X X{.{.{.{.{.XX X X X=X X X,X2XXX.X*XOXXX!.T.s.6.8.+...X. .+.#.#.+.X.+.@.8.o.<.@.+.5.#.@.@.#.#.p.5.8.7.5.p.p.5.5.y.a.j.`.lXhXaXjXkXcXcXkXcXcXcXcXcXcXcXcXcXcXcXcXcXmXmXbXbXbXvXvXbXbXbXbXvXvXmXvXjXcXcXjXjXiXtX*X*X*XOXOXOXOX).Q.s.4.$. .@.$.X.R T Y ] { ] ] [ Y Z U U K K V C V b l V z g z b b z g z f f f q q q 5 q q 5 8 5 f q q 3 g q 5 h z q q q 5 5 8 5 f f 5 5 f 3 3 3 5 q 5 3 F F 5 f z 5 5 f q 6 5 5 3 6 5 5 5 5 3 y 5 4 5 3 5 y 4 y y 6 y 6 y 4 y y y 6 6 3 6 4 6 y 6 5 5 6 5 f j f f a a f j f a f a j j j a u 6 y a k s s a s y y a y a j a a s a a a s j k D B M S S M k k k k j k k j s j k l z k l B A S A S M k j j z V b C J H J C D B M M A M V V S ~ ' _ ....{ ' K _ _ ) _ { K.XXT.Y.j.j.W.{.}.W.g.y.<.@.$.O.4.5.T.5.#.&.&.&.&.&.4.*.4.5.5.y.d.U.U.p.5.p.5.p.s.s.s.d.d.s.a.a.s.L.a.U.T.T.U.h.a.W.W.U.a.s.h.U.a.U.a.U.T.h.Y.h.Y.Y.Y.T.Y.h.U.Y.W.[.W.W.[.[.{.{.{.{.}.}.}.{.[.[.{.}.{.W.j.j.j.a.Y.j.j.g.d.a.s.d.y.y.p.m 7 # f         ",
"+X+X+X+XXXXX+X+X+X+X+XXXXX+X+XXX[.+XXX+XXX+X X+X XXX{.{.oX X{. X X{. X X X X XXX X X X X{.{. X{.=X{.*X*XXX*X.X.X.X,XOX.XXX!.R.g.6.8.+...+.X. .#.#.X.#.#.X.<.@.#.<.#.@.#.#.#.+.@.p.4.7.5.7.L.4.7.5.7.s.R.`.:XhXvXjXjXjXcXcXcXcXvXcXcXcXcXmXcXcXbXmXmXcXbXvXbXbXmXcXvXbXbXbXmXmXmXmXcXkXvXjXjXiX2X XXX.XOXOX/./.).E.K.7.$.$.@. . .R T { [ { U { U U { U Z C b Z K l b b z b l b b g h c q l f f 3 q f q q 8 q 3 5 f 5 q q q b 5 8 q f 3 q 5 q 8 3 f q f 5 8 3 5 3 3 5 5 5 3 3 5 3 5 5 5 3 3 3 3 5 3 5 3 3 5 5 5 5 a 6 6 5 4 2 6 6 y 6 6 6 6 6 5 5 y y y 5 5 6 5 f 5 5 5 6 y f f f z a y f z z j j a a j k j y 6 y a s s s k y y y y a a a a j j a j a s k k M M j l B M f a M M k k s k k j S V z f k S ) ~ ) S M l j j k V b C J n J Z V D D l l S D A S ( _ K [ } ] [ ` K ' _ ` } i.Q.!.U.h.j.W.`.`.}.Y.5.4.7.O.O.&.6.Y.Y.*.O.%.&.&.&.*.*.*.4.4.5.u.p.E.p.5.7.7.u.u.p.u.p.p.a.s.s.d.a.a.a.T.W.h.h.U.Y.!.h.U.h.U.a.h.h.U.a.U.h.U.U.Y.Y.Y.Y.h.j.h.h.j.W.W.Y.W.W.[.{.oX}.oX{.{.{.{.W.{.{.W.Y.j.j.j.h.h.a.U.y.s.a.p.y.6.a.6.R w l _   #     ",
"!.XX+X+X+X+XXX[.+X+X+XXXXX+X{.XXXX+X[.XXXX+X X XXX X XXX{. X X{.{.{. X X X X X X X X X X X X{.{. X=X XXX*X.XXX.XOX,X,XOX.X!.Q.U.6.5.#.+.#.X.X.@.+.X.&.@.+.+.+.+.+.@.+.#.#.4.4.5.5.8.8.5.5.p.5.p.5.5.a.Y.[.{.mXkXjXjXjXjXcXcXcXvXvXvXcXcXmXcXcXvXmXcXcXvXvXbXbXmXvXbXbXbXbXvXmXmXcXjXkXkXjXhXiX2X XXX.XOXOXOX/.).Q.K.4.+.$.$. . .R T R { ] Y ] Y U [ Z U C Z C Z V b b l c h b b z z z q z g z f 5 f q q q q 5 5 5 5 3 q q h q q q f q f q 5 5 5 5 5 q 3 5 5 5 2 3 5 5 5 3 5 q 5 5 5 3 3 5 5 5 5 5 5 5 5 5 5 5 5 5 y a y 6 y f 5 y 6 6 6 6 y y y y y 6 y 5 3 3 5 3 5 5 y f j f j z j f j z j j a y y s j a y y y a s y a k y y a 6 y a a a j j j a j j M k B M M l l k l S S B k N s k j j M A A k l S ) ~ ~ S M k j z k V b C n n J Z C S V D V B V S D ` ' K ] [ ' ` ` _ ' ` | } E.!.T.T.!.h.g.W.W.`.R.y.4.&.O.O.O.1.g.U.5.#.O.&.&.&.*.&.*.4.4.5.5.5.L.s.p.s.p.u.u.u.s.u.p.a.a.p.p.s.a.s.a.U.a.h.Y.W.W.h.U.U.h.h.h.a.a.a.U.h.U.U.U.Y.Y.h.h.g.h.U.g.W.R.W.W.W.W.[.[.}.{.`.[.{.-XW.[.W.Y.U.j.h.h.h.U.a.s.s.s.p.s.y.h.y.5...x h 5 .   +   ",
"Q.+X!.+X+XXX!.!.[.+X+X+X[.[.XX{.[.XXXX+XXX[.[.{.[. X[.XX{.oX X.X{.{. X X X X X X X X=X=X=X=X{.{.{.=X X*X,X.X3X2X,X,XOX,X.X+X!.U.p.5.@.+.+.....+.+.X.8.8.+.+.+.#.X.#.+.+.#.8.5.p.6.4.4.7.8.5.p.5.7.5.6.j.R.W.mXkXkXkXkXcXcXcXcXcXvXvXvXvXvXcXcXvXcXcXcXbXvXbXbXbXbXvXvXvXvXvXmXcXjXjXjXkXjXjXiX3X X X.X.XXXOX/.).Q.K.4.+.$.$. .{ R R R [ R ] ] U U Y C U Z K b C V b l c c h V c l h f q f f f g q q 5 f z z 8 5 5 3 3 q q w q 3 z f q f q 5 5 q 5 8 q 5 5 q q 3 3 5 5 5 3 3 5 3 5 3 3 3 5 5 5 5 5 f q 5 5 5 5 5 6 5 a y 5 y y 3 j y y y 6 y y 6 y y 6 6 5 6 6 6 3 5 y a j z j j z j j j j f a a y y s a a a a y a j y a j a y a a a a a s j s y s k s a s M l k M k l B S S M k N j k k k f S S M M B ) A S S M k j z z V V Z n H K Z C V c l D b C ( S ( A _ _ ` ` | ` ' ' ' | } ).hX!.p.a.W.j.g.j.R.`.Y.4.O.O...#.5.6.W.s.#.&.&.&.&.&.&.*.*.4.*.*.7.p.s.p.a.p.p.p.u.p.u.u.d.s.p.p.a.a.s.p.s.a.h.h.W.Y.h.Y.T.T.Y.h.h.a.h.h.U.h.U.U.h.h.h.h.h.h.U.g.R.U.W.R.R.Y.W.Y.W.W.!.[.W.!.R.R.g.h.h.g.g.a.s.a.a.a.s.6.6.s.s.s.y.h...% % 1 =   O + ",
"!.!.!.XXXX+X!.+X[.[.[.+X[.[.XXXX[.XX[.[.{.{.{.XX X{.{.{.{.{.XX XXX{. X X X X X X X X=X=X=X{.=X{.{.{. X*XXX.X2X,XOX,XOX,XOX+X!.T.d.5.@.#.X.X.X.X.+.X.<.@.#.+.@.8.#.@.@.+.@.#.5.6.4.4.4.p.7.5.p.7.p.7.4.s.g.R.mXaXkXkXkXkXkXcXcXcXcXvXvXvXvXbXcXvXcXcXvXbXvXvXbXbXbXvXmXcXmXmXcXcXjXjXjXaXaXjXiX1X X X.X.XXX/./.).E.L.5.$.o.o. .R R R R R [ [ ] Z Z Z Z C Z Z c V Z V c b c h b h z h f f q f q q q f q g z z f q q 3 q 3 q h 3 3 b f 3 3 5 3 3 5 5 5 5 5 5 3 5 q 3 5 5 5 5 5 5 3 5 5 5 5 5 a a a f f f f f 5 6 y f y f f f 5 y 5 y 6 6 y 6 y y y y y y y y 5 6 5 5 y y y j j j z j j j j f f a a a a a a a s s a j j y j a a a j y y y y a s s a s j k k ) ~ A B B M M M M k k k k k s k M j V M M k D ) ~ S B M M j j k b C C n m J Z b D S A K b V V A ( _ | ' | | | | ` _ ' ` } ).hX4XXX@.o.Y.W.j.`.}.{.y.*.O.O.O.4.6.Y.U.@.#.&.&.&.&.&.*.*.*.*.*.7.u.u.p.a.p.s.p.p.u.u.u.p.u.p.p.a.L.s.p.d.a.h.j.Y.j.h.j.g.j.h.Y.W.Y.h.a.h.U.h.h.h.h.h.h.h.U.h.h.T.g.U.h.h.h.Y.j.R.R.W.j.h.s.a.h.s.a.s.a.a.a.a.6.a.p.7.7.p.p.1.g.[.XX .9 2 z q l   X ",
"!.).Q.XX+X!.+X+X!.[.[.[.[.[.XXXX+XXX[.[.{.{.{.[.{.{.oXoX[.{.oXoX X{. X X X=X X X X X=X=X=X=X=X=X=X{.*X*XXXOX2XOXOX,XOXOXOXXX!.T.g.5.<.@.+.#.@.#.+.X.@.@.@.+.@.@.@.<.@.#.<.+.5.6.<.<.4.5.u.7.7.7.p.5.7.y.s.R.hXyXkXkXkXjXjXcXcXcXcXcXcXvXvXbXcXcXcXcXcXbXcXcXbXbXbXmXcXcXcXmXcXcXcXjXjXaXaXhXiX1X.XXX.X.XOX/./.).Q.L.5.O.X.X. .R R R R [ [ Y Y Y n C U Z Z V l b b l h b l b V l g h f f q g q q q f f z f f f f q 3 q 2 q h f q z 5 2 3 5 5 3 3 5 5 5 5 5 5 5 5 3 5 5 5 5 q f 5 3 5 q 5 5 a f f a f f f f 5 3 f f a f y f 5 y y f y y y y y y y y y a y y y y y y y y y f j f j j j j j j j j a j a y a a a a a j a a k y y k k y j k j a a s j k k M M _ ) A S B M M l k k B S k B s k k B A S j k M ) ~ S B B M j j z l Z Z n m C Z b D A ( ( ( | ( _ _ ` ' } | | | | ` _ ` } %.^.3XhX3XXXp.o.1.h.W.[.oXp.O.O.O.$.#.y.y.Y.@.#.&.&.&.&.&.*.*.7.*.*.*.7.7.p.a.p.s.a.p.p.u.p.p.p.u.7.p.p.s.s.p.d.a.j.Y.h.j.j.h.W.W.Y.W.W.R.j.h.Y.U.U.h.h.h.h.L.L.h.h.U.h.a.a.a.h.Y.Y.R.Y.h.y.a.s.p.s.s.s.p.a.p.s.p.6.a.7.7.s.a.5.g.W.{.W. .m . 1 5 ' 1 + ",
"!.T.!.!.!.XX!.!.!.[.[.[.+X[.+X+X+X[.[. X{.[.XXXX{. X{.{.{.{.{. X X{. X X X=X=X X X=X=X=X=X=X=X=X X*X3X.XOX1XOXOXOX<XOXOXOXXX!.R.U.6.4.<.#.#.@.#.#.+.+.#.@.#.#.+.4.4.@.<.@.@.<.6.5.4.4.*.7.7.7.u.u.7.p.y.y.W.hXuXkXkXsXkXjXcXcXcXjXcXcXcXcXcXcXcXcXjXcXmXmXcXcXbXbXbXcXcXcXcXcXcXcXjXjXaXuXiXeX,X.X.XOXOXOX/.).).Q.L.4.+.X...R { R ] Y [ Y Y Y ] C J U U Z Z l b c l h c l C Z V l b f f q z q q f q q f f z f q q f 3 2 5 q l q 8 5 q q f q 5 5 3 5 3 5 5 f F 3 5 5 5 5 5 5 q 3 3 5 q 5 5 5 5 f 5 f f f f 5 5 f f f f 3 f f f 5 z f y f y y y y y j j f y y y y y y y f z j f j f j j z z k j s j a a a a y a a a y a k 6 y k j s k M k s a j k M B M S S B k k M M M l M M B B k B k M l S ~ A s k B _ ~ S S B D k j f z A J J C C Z C c c V V c ` _ | _ ` [ -.} } ` ` ` _ ` } %.E.1XhX2XiXXXa.@.o.$.6.j.h.4.O.O.$.o.1.j.h.#.#.O.O.%.&.&.&.*.*.*.7.*.7.4.u.u.u.p.U.a.U.p.p.u.p.u.u.p.p.a.L.a.s.h.h.Y.j.!.j.W.{.!.Y.j.R.W.Y.h.U.Y.U.U.h.h.L.h.h.h.a.s.h.h.a.s.h.R.h.h.d.p.a.p.p.p.p.p.p.p.a.7.7.5.p.p.p.p.p.p.a.[.W.j.d.] x 3 3 F z 5 # ",
"!.T.+X!.!.!.!.).!.[.+X+X+X+X+XXXXX{.{.{.[.XX.XXXXXXXXXXX X X X X X X X X X X=X X=X=X=X=X=X=X=X XXX*X*XXXOX,XOX<XOX<XOXOXOXOXXX!.U.s.8.<.@.@.#.+.#.#.+.@.@.@.#.+.4.<.#.<.<.1.1.6.4.&.*.*.5.5.u.p.7.u.p.y.l.W.hXjXkXkXsXsXjXcXcXcXcXcXcXcXcXcXcXcXcXjXcXmXmXcXmXcXbXbXbXbXbXcXcXcXcXjXjXaXiXuXeX1X,XOXOXOX(./.).!.^.L.4.$...+.R { Y { ] [ Y ] ] R J J J K Z Z b b Z C V c h C l c b b g f f f q q z q 5 f f z f 5 q f 5 3 5 3 z q 3 q h q q q 8 5 2 3 2 3 5 f 5 3 5 5 5 5 5 5 5 3 3 5 q 5 5 F f 5 5 f f f f 5 5 f f l l f l z z f y 3 3 y 5 y p f a z z j f y y f y y y f z z j z f z z z j j j s s a a a y a a a a a a a y a k s y a a a a j j j j M S ) S S M k M M M M M k k k k k k M S ~ S S a k V _ ~ B S B D k k j k K K U C Z K C D D V V D A V ' A _ ] %.%.} ` | ` ' ' | %.P.,XiXcXiXtXXX!.y.<.W  .@.#.+...$.o.<.!.a.#.+.O.O.O.&.&.&.*.*.*.7.7.7.*.7.7.7.p.a.a.Y.h.s.u.p.p.p.a.p.a.U.a.g.j.h.j.W.W.j.W.!.W.Y.Y.W.W.Y.h.Y.R.T.h.h.h.h.h.a.h.d.s.a.U.s.d.a.h.d.h.s.6.p.u.p.p.p.7.5.p.p.7.7.p.p.5.6.6.6.a.W.Y.h.Y.a.L - = = f 2 3 + ",
"!.!.!.!.T.5.!.).!.[.+X+X+X+X+X+X[.{.[.[.[.XX!.4.i.K.K.XX<.XX.XXX X X X X X X=X=X=X*X=X X X=X=X X,X*X*X,XOXOX<X<XOX<XOXOXOX.XXX!.Y.g.6.1.<.<.@.#.#.#.+.+.+.<.@.#.#.+.#.@.1.5.1.6.4.8.4.5.*.&.7.7.7.7.s.y.W.W.zXjXkXkXsXjXjXcXcXcXcXcXcXvXvXvXcXcXcXjXcXmXmXmXmXvXbXbXbXbXbXcXcXcXcXjXjXjXhXiXeX2X<XOXOXOX(./.).Q.Q.L.5.#...&.R { ] R [ { } [ { T J C C c C V C b Z C C h z C h D b z q g z f q q q q f z q f f f q 5 z q f 5 q f 8 q z 3 3 5 5 5 3 3 3 F 3 5 5 f 5 5 5 5 5 5 q 5 5 5 q 5 q f f q a a a f f f f f f z l z S l l z b z f f y y y f a j z z j f a j j j a a j j j k a z k z j j a a y a a y y a a a y j a 6 a a a a a a a a a s j j k M S S k M M k M M M D M k M S B k k M ~ _ ) S s D S ` ~ B S S D k k k z _ K U C K K V l V A V V ' A A U A U &.&.` | } ` ` ' } %.Q.OX4XhXcXhXiX[.W.!.y.1.@.+.@.@.5.d.W.W.y.@.#.O.O.O.&.&.&.*.4.*.*.*.7.*.7.*.7.7.u.a.U.~.d.p.y.p.p.a.p.a.h.d.h.a.j.h.W.d.W.{.W.R.j.j.W.W.W.T.Y.W.T.h.g.h.h.h.a.h.d.a.a.Y.p.s.a.U.h.s.U.p.p.p.p.p.p.5.p.p.5.u.u.5.6.5.p.6.h.R.U.d.p.d.h.{ h . . . = z 6 ",
"K.!.!.!.!.Q.!.XX!.+X+XXXXX[.[.[.[.[.+X[.[.{.E.7.XXK.h.oXXX}. X.X.X{.=X{.-X.X{.=X=X*X,X X=X{.*XOX1XOX2XOX<XOX<XwXOXOX<XOXOX,X.XXXT.s.6.1.<.<.<.$.#.#.+.@.#.@.+.+.+.+.@.<.6.6.6.8.4.4.*.*.7.*.4.7.7.p.6.j.:X}.zXhXfXkXjXkXjXcXcXcXcXcXcXcXvXcXcXbXbXcXcXcXmXmXcXcXcXmXmXcXcXcXcXcXcXjXaXhXjXiXeX1X<XOXOXOX/./.).Q.Q.L.4.#.X.*.{ { { [ [ [ ] Y *.] C C Z U V C C b C Z h b b V b h z z F z g z f q f q f l f 8 f 8 q f 8 f f z l C l f 5 5 3 3 3 3 3 5 3 3 f 5 F 5 5 5 q 2 3 5 5 3 f 5 q 5 q 5 f a a f 5 5 f 5 f z f z l l l 5 l f l q V f f z y y j y p f M k a k z f f j f f f z j z z z j f a j a a y y a a a y 6 s a y a a y y y a s s a s j j M j k k k M M k k B S S S B M M l M M B _ | ) S B S A ` S S B S B M k l z U ' U C K K Z V V V V A S V _ A _ ' O.=.` | } ' ` ` } %.E.1XiXiXsXjXjXlX!.j.Y.R.W.[.W.W.-X-X{.y.5.@.#.#.O.O.%.&.&.*.*.*.*.7.*.7.*.*.7.7.u.p.L.T.U.h.R.p.p.p.p.a.U.a.p.a.h.h.W.g.{.[.W.j.g.j.Y.W.Y.Y.h.T.Y.U.a.h.a.a.s.a.s.d.T.R.p.y.a.h.T.s.a.a.d.7.p.p.d.5.y.1.6.y.6.6.6.6.4.T.!.T.5.y.p.W.Q. .h 2 X + 6 2 # ",
"E.R.Q.[.L.=.XX&.K.7.*.E.7.5.L.).Q.8.7.K.-.+X=.%.p.K.L..X&. XK.i.i.u.K..X X.X=XXXi.7.7.!./.Q.=.UX7./.1Xi.L.K.7.Q.K.7.E.<X<X.XXXXX~.h.6.1.<.<.<.@.#.#.+.#.+.#.@.*.O.+.$.@.<.6.6.6.4.4.4.&.*.4.7.4.5.5.y.k.}.:XhXsXsXkXjXjXjXcXcXcXcXcXcXcXcXcXcXbXmXcXcXcXmXmXcXcXcXmXmXcXcXjXjXjXcXjXjXjXhXiXeX2X,XOXOXOX/./.!.Q.Q.L.7.#.$.$.{  .] { { ] [ { { { U U Z A b V C c c V b b b A b z h h q z g g f q f q q z f q f 5 q f 5 5 3 3 8 g f 5 3 5 5 5 5 3 3 3 6 3 q 3 3 3 5 5 q 5 q 5 q 3 q 5 q 5 q 5 f f f f f f f 5 f f f l b z k y l f V D V f z ~ S k l f f k V M k k l k l j k z k f z z z z j j j k s a a y y a a a 6 j s y a a a a y y a a s j k j k k k k k k k M S S S B B B S S ) S M S ` ` ~ A S S ~ ` A A S S B M k k k A ' U Z K J Z l V V V V C _ U ) _ A &.J.' ' ` ' ' ' } %.E.,X2XuXsXjXcXiXlXj.y.j.[.{.}.:X[.Y.h.<.5.@.@.#.O.O.%.&.&.*.*.*.*.7.*.*.*.*.7.7.7.s.K.s.a.a.a.a.p.p.a.p.U.U.d.d.h.W.!.Y.[.W.j.j.g.j.Y.Y.Y.Y.W.h.g.h.h.h.a.a.p.s.a.U.T.U.s.y.U.j.g.s.u.d.u.d.7.y.6.h.Y.j.y.6.y.a.h.T.XX!.a.4.p.5.T.T...T $ = . X 2 1 O ",
"Q.R.!.W.E.7.!.*.I.XXK.=.XXQ.-.XX-.R./.s.%.{.E.J.XXK.L.XX%..XK.i.XX.X7.!. X*X=XL.a././.i./.#./.,XQ.J.OX7.E.OXE.=.<XOX*.OX2X.X,X.X!.T.g.y.1.<.$.o.#.+.X.+.+.O.#.&. .O.@.1.5.6.5.5.5.4.4.4.7.*.*.7.4.5.j.W.{.7XhXjXsXkXjXjXjXcXcXcXcXcXcXcXcXcXcXcXmXcXcXcXcXcXcXcXmXmXmXcXcXjXjXjXcXjXjXhXaXuXeX2X,XOXOXOX/.).!.Q.Q.L.7.+.@.X. ...] { ] [ [ O.] O.Z U C C b V C c c l c h c Z c z z z q f f q q q z f f z z q 8 5 5 q f 8 8 3 5 q g 8 3 5 5 5 5 2 3 2 3 3 5 3 3 F 5 5 5 f f 5 f 3 F 3 f 5 f f f f f f f f l f f f f f V z l 5 l l l z z l z V V A ~ V f z k M V M k l k f f j j j k k z z z j j k s a a a y y a a a k j a a a y a a a y a j k k j k M M k B B M ~ ) S B S S S S M S B B _ | _ ) ` ~ ~ ) ` S ~ S B B M k k z A ' U Z K C Z l V V V V ] ' U ` A A ` I.A _ _ ` ` ' } %.P.OXeXuXaXvXnXhXhX Xy.y.R.`.-X}.l.y.y.1.y.@.+.#.O.O.&.&.&.*.*.*.*.*.*.*.*.*.7.7.7.s.K.p.p.a.a.a.T.p.p.p.a.p.g.y.Y.R.j.Y.W.k.k.Y.g.Y.j.W.W.Y.W.Y.Y.R.U.s.s.a.a.p.U.U.U.d.y.p.U.Y.s.u.d.d.u.u.y.d.{.4XoX:X:X}.}.oX:XXX!.s.s.p.y.p.T.a.T Y .   .   2 2 # ",
"Q.R.Q.W.E.=.!.7.E.{.T.J.[.XX%.[.%.{.+XQ.=.{.!.7. XK.L. X&. XU.K.=X=Xu.E.;XXX2X=.!.*X*X*X!.7.2X2X/.=.<Xi.).<X_.I.OX<X&.OX.X,X.X3XXX!.R.g.9.<.<.o.@.o.+.#.#.#.#.#.#.$.@.1.1.y.6.5.4.4.4.@.4.7.7.U.5.6.j.W.:XlXhXcXsXkXjXjXjXcXcXcXkXkXcXcXcXcXcXcXmXcXcXcXcXcXcXmXmXmXmXcXcXjXjXcXjXjXaXhXaXiXeX<X<XOXOXXX).!.Q.Q.Q.L.*.$.@.X. .{ { { Y [ [ O.] ] J U Z C S :.C Z V h z l b b h h z z q f q q q q z f q z z f f q 3 5 5 5 q 5 q q z q 3 5 3 5 5 3 3 2 5 3 5 5 5 f F 5 5 f 5 3 f 3 5 3 f q f f f f f f f k V f f f z 3 V z V 5 l V z A b f f A A V l V V V f f M V k M k l f z f l k k k z f f j j a s s a a y y y s s a y a a y y a a a a j k k k M M k j k M M S B B S ~ B M B M l B ~ | | _ ) _ ~ ~ _ ` S ~ S B B M k l f V ` U Z Z C K l V V b C ] { _ ` ' _ K %.~ ' ` ` ` ` | %.E.OXeXaXaXkXbXmXhX7X6.y.j.`.6X'.l.6.6.@.6.5.$.#.O.O.&.%.&.&.*.*.*.*.*.*.*.*.*.7.u.i.i.i.u.u.T.T.W.a.a.y.s.h.h.d.W.R.g.W.j.W.W.W.Y.W.j.W.Y.Y.Y.R.j.Y.Y.R.y.p.U.U.W.a.U.s.s.U.U.a.Y.s.s.u.u.5.s. X:XW.W.-X4X:X:X:X!.h.s.p.5.p.p.U.u.s.J m .   X X 1 # # ",
"T.R.T.!.L.=.).=.Q.[.U.K.[.).%.+X%.{.XX!.-.{.T.7.{.U.L.[.&. XK.L.{.=Xp.T.=X,XXXJ.!.,X*X*X!.7.2X3X(.=.<X7.).<XQ.J.<X<X&.<XOX.X3XOX*X X!.j.y.1.<.<.$.o.o.o.+.+.#.+.+.@.$.1.1.6.9.1.5.5.5.7.7.5.7.U.g.y.g.{.lXhXsXkXsXkXjXjXjXjXkXcXcXcXcXcXcXcXcXcXmXcXcXcXcXcXcXcXcXcXcXcXcXcXcXjXjXiXaXaXaXuXeX1X,XOXOX/.!.W.Q.Q.E.T.*.O.@.X. .{ ] [ { [ { { O.{ U Z Z Z Z A l C b c h V Z b l z z f f f z z q q l z q g z q 5 5 q 5 5 2 5 5 q q f q 3 3 3 5 f f 3 3 5 3 3 q 5 f 5 q 5 f 5 5 f 3 5 3 z q f f f f 5 f f f V f f f z 5 l z l 5 z V D U b c f b A ' V V l S V A A M l l l l l z z z k k k k j j a a a s s s a a y y y y y y a a a y a a a a k k M M M k k j k S S S M M S S M M S S S S ) ` | _ _ ) ) ) ` | ~ ~ S B M k k M f b ` U K Z Z U V V V V C [ [ ] ' A ` K ' ' ` | ` ` ` | %.Q.OXiXiXaXsXvXcXhX4Xy.<.k.`.5X`.j.y.6.1.p.s.+.#.O.O.&.&.&.&.*.*.*.*.*.*.*.*.*.*.7.7.7.u.7.7.a.U.W.U.a.d.a.h.a.a.h.[.W.W.Y.W.W.W.W.W.Y.j.j.Y.Y.Y.j.Y.h.R.Y.W.U.T.~.d.h.a.U.T.U.d.a.d.a.u.u.p.W. XY.y.j.!.{.}.{.Y.U.T.L.L.s.a.u.p.s.5.*.Z   +       X , ",
"*.R.Q.R.U.7.).7.Q.[.E.7..X/.%.!.-.W./.K.-.[.Q.i..XJ.L.,X%.*XK.i.3X.X*.!.XXXX=XP.L.*X/.i./.*.*X*XQ.i.<Xi.).<X^.K.<XOX%.wXOX.X.X,X3X,XXXR.d.6.1.<.<.<.<.o.o.o.@.o.o.<.1.9.9.6.6.6.y.5.5.s.5.4.p.a.j.g.[.7XhXhXcXdXsXkXjXjXjXjXkXcXcXcXcXcXcXcXcXcXmXcXcXcXcXcXcXcXjXjXjXjXcXjXjXhXsXaXaXiXiXiXeX2X<XOXXX).W.W.R.W.T.T.4.$.$.X.{ { [ { [ ] [ O...{ U C Z Z Z Z z b c b l D C b b z h f z f z z f q l h q f f 5 3 3 q f f 5 f q q q q 3 3 5 5 8 f f 3 5 F 5 3 q q 5 5 q 5 f 5 5 f 5 5 5 z f f f f f 5 f z f A f f z z l l l f f z l b Z f q h A S V A A V V D S _ ' A D D f l z M j k k k k j j j s s s a a a a a a y y a a y y a a a a a j k k k M k j k M M S ~ S S B M B B S S B B S ~ | ` ) _ _ _ ` | | ) S V M k j k M f l [ U K C Z K S S A K { ] ..[ ' ` _ } ~ ` ) | ` ` ` } %.Q.*XiXiXuXsXvXmXiX4Xj.o.j.z.$X[.k.6.5.6.a.L.@.#.O.O.%.&.&.&.*.*.*.*.*.*.*.*.*.*.*.i.i.7.7.u.7.u.U.U.a.h.h.d.h.a.d.{.Y.j.W.g.~.Y.~.j.W.h.j.Y.Y.W.Y.W.j.g.Y.XXT.h.g.d.d.s.U.a.U.h.5.s.a.p.5.Y. XW.y.y.6.d.d.d.j.U.a.U.T.a.d.d.s.7.E.*.*.&.  O   O     # ",
"&.h.T.W.L.*.!.7.E.).T.s.).).*.XX_.7.7.K.=.).Q.7.XXL.L. X%. XK.i.7.4.K.,X~.4.=X*XJ.UX=.Q./.Q.=.UX7.OX<X7.).<XE.L.<XwX%.OXOX,X,X,X3X3X*X/.~.Y.s.6.9.<.<.<.<.o.o.o.<.<.1.9.6.l.g.k. X[.a.7.@.4.6.5.s.T.lXlXhXiXdXdXsXjXjXjXcXjXcXcXcXcXcXcXcXcXcXcXmXcXcXcXcXcXcXcXjXjXjXjXjXhXhXhXjXiXaXuXeXeX2XeX,XOXXX[.W.Y.T.T.U.L.7.$.$. .{ { { { [ [ Y } ] { U U Z U A Z b C b b c l b b b h h f h f z z f q q q q f z f f z 3 f f f f q 3 3 5 3 5 5 5 5 p 5 5 F 5 f 5 q f F q q 5 f 5 q f z 5 5 z f f f z f f z l f A f f z k V D D f f l V l A c z b U V V A V V l V V S A _ V V V B l V M l l l k z k j j j j a a a a a a y a s j a y a a j a a j k k k k k j k k B B k B S S S B B B B S B S ) | ` ) ` _ ` ` ` _ ~ S M k k j k k f z | Y Z C Z A A S A U ] { [ ..] ' _ ` _ ' _ | ` ` ` } %.).*X4X4XiXsXmXcXiX4Xd.<.g.k.5XR.j.g.y.s.p.7.O.O.O.O.O.%.&.&.&.*.*.*.*.*.*.*.*.*.*.u.i.7.u.u.7.7.u.T.T.a.h.Y.W.h.h.W.d.g.[.d.{.W.W.j.W.j.Y.Y.g.Y.Y.Y.W.j.y.j.j.s.y.h.s.h.T.a.h.s.6.U.p.5.s.!.W.g.p.d.a.!.W.a.h.U.L.a.K.d.L.L.L.K.p.i.J {     O X     X ",
"*.@.T.W.Q.).Q.).[.XX!.[.XX[.[.XXQ.!.OXR.5.{.+X X}..X X}..X}.h.U..X=X=X X*X,X=X*X=X*X,X*X=X X,X<X<X<X<X1X<X<X<X<X<XOX<X<XOX.X.X,X1X3X,X*X*X{.!.!.k.l.9.1.1.<.<.1.9.y.j.k.`.}.oX5X:X:Xh.5.p.5.6.6.u.U.BX2XcXaXpXPXaXjXjXjXjXjXcXcXcXcXcXcXcXjXjXcXcXcXcXcXcXcXcXcXjXjXjXjXjXhXhXiXiXjXaXiX2X1X2XeX,XOXXX!.W.j.j.h.U.K.7.$.$. .{ [ { R } [ [ ] O.{ U Y V A Z b Z V V h V b Z b h h l z l f z f f z f z q g z f f h q z f f 5 5 3 5 3 3 5 5 5 5 f p q 5 6 f 5 F z f f F 5 f 5 q f V 5 q z f z z l z f l l f A f f z f l V l z 5 V V A U b h Z U V Z V V A l V V V ) A D V | S l z M l l l z z k j j j j s s a a a y a y a j s a a a a a a j k k k k k k k k B k k S B S B M B S S S S ~ ) ` | ` } ` | | _ ~ ~ S k k k j k k a z | ' K K K K _ S Z K L &...&.[ ' _ ' ' _ ` | ` ` | } %.).*X4X4XiXsXmXcXzX4XY.<.l.`.k.y.y.y.5.4.O.O.O.O.O.O.O.%.#.&.&.*.*.*.*.*.*.*.7.*.*.*.*.i.7.7.u.5.u.U.Y.a.j.h. XT.h.a.d.s.{.g.W.{.k.j.Y.Y.Y.Y.h.j.W.d.j.R.g.s.g.d.a.h.h.T.T.U.h.d.d.U.p.5.a.Y.g.p.U.p.U.T.!.Q.a.U.L.K.L.K.K.K.K.K.7.7.*.3               ",
"{ 7.s.L.Q.!.!.!.!.!.[.+X+X+XXXXXQ.*.7.4.!.XXXX X X{.oX X XXXU.L. X X X X-X X.X*X=X=X=X*X,X,X<X1X<X,X<X<X<X<X<X<X<X<X,X,X,X,X,X,X3X3X3X,X*X,X,X,X.XXX[.W.W.k.k.k.`.}.$X}.5X5X5X5X}.|.`.6.j.5.6.k.g.{.hXtXhXiXiXkXsXsXjXcXcXcXcXcXcXkXjXcXcXjXjXcXcXcXcXcXzXhXhXhXhXhXhXhXhXjXhXiXhXhXtXeX2X2X2X2X*XXX/.!.k.g.l.g.a.a.7.#.$. .{ R { { R R R R  .{ Y Z C V V A Z C A b b V A c h h z c V c h z q z z z z h b z 5 f f f z 3 3 5 5 3 3 5 3 3 5 q 5 5 f z 2 5 3 f z f q f F f q z z S q f f z l f b z f z b f A z q l l V b l 5 f b z A ' f z V :.D A :.A V l S S S } A V V _ | S l M M M j l l j k j j s N s s s u s y a a y s a j s s a a a k B M k M M M S k M M S B S S S S S S S S ~ ~ } ` | ` ` | | ) ~ ~ B k k k k j k z F } ' U Z K _ ( S ~ V K ..{ ` ' U ' ' _ _ _ ` | ` ` | %.Q.2X4X4XiXzXjXcXhX7XW.<.g.~.*.&.&.O.O.O.O.O.O.O.O.O.O.&.&.&.&.&.&.*.*.*.*.5.7.7.7.7.7.7.7.7.7.7.7.5.a.d.W.W.:XW.a.s.p.s..Xd.g.Y.!.W.Y.h.h.R.h.g.W.W.Y.a.a.h.U.h.U.h.h.g.U.h.a.a.s.p.6.u.~.p.h.d.E.a.h.a.E.T.U.U.T.T.K.K.L.K.K.K.i.s.O.[       + O     ",
"&.i.L.u.a.Q.Q.!.[.[.[.+X+XXXXX+XXX!.XX+XXXXX X-X X+X X{. X:XXX.X X X X X X X X*X=X=X*X*X,X,X<X1X<X,X,X<X<X,X,X<X<X<X,X,X,X,X,X,X3X3X3X,X,X3X3X2XtX2X2X4X4X7X7X8X5X4X5X:X:X:XoX[.|.`.|.l.j.1.y.`.`.3X7XiXiXiXuXkXsXsXjXjXcXcXcXcXcXkXkXcXcXjXjXcXcXcXcXcXzXhXhXhXhXhXhXhXhXhXhXiXhXhXtXeXeX2X2X2X,XXXXX!.k.l.l.l.s.s.5.#.O. .{ { { R { T ] O.O.{ Y Z :.A A A b b b V V A :.c c c h l c h z z f c f c C b A b f f p 8 f 5 5 5 5 5 5 5 5 5 F q F 5 q f 3 F 5 q z q z f 5 z z z f V f f f b z l b l f l V z Z f q l f l V b f l V b A :.V k _ V A ' A A l V _ A ) ' D D _ ) :.' ' S V M M B l k k k N j N s s s y s y a a y s a s a s s a j k M k k k M M B j B B S M B B B S ~ S S S ) ) | ` | | | ;.| ) ~ S B k k k k j z f D -.%.U U K ' V V S S %.%.] U U ' | } ' _ ' ` ` ` ` | %.Q.1X4X4XhXhXcXmXhX4Xj.1.j.h.@.O.O.O.O.O.O.O.O.O.O.O.%.%.%.&.&.&.&.&.*.*.*.*.5.*.7.7.7.7.7.7.7.7.7.7.y.y.h.h.W.W.h.d.a.U. Xj.g.g.W.W.W.Y.a.j.h.j.Y.Y.R.W.U.h.h.j.U.h.a.y.y.p.p.y.6.6.p.a.Y.d.h.h.Y.a.T.U.T.L.U.L.L.L.L.L.L.K.i.u.u.u...w   #   O X     ",
"*.*.#.u.T.Q.!.!.[.[.[.[.+X+X+X[.[.XXXX XXX{. X{. X X X{. X XXX.X X X X X X X X*X=X*X*X,X,X,X<X1X<X,X,X<X<XOXOXOX<X<X,X,X,X,X,X,X,X3X3X,X,X3XtXiXtXiXiXiXiXhXiX4XtXiX4X3X2X3X3X X`.k.`.l.W.1.y.z.'.lX2XhXtXiXhXaXsXsXjXjXcXcXcXjXcXkXkXcXcXjXjXcXcXcXcXcXhXhXhXhXhXhXhXhXhXhXiXiXiXiX2XeXeX2X2X2X,XOX/.!.j.l.y.y.6.p.4.#.O. .{ { { T { T { O. .] ] U :.Z Z Z V C h C b A Z c D l l z z z h g f c c V V q h q f f p 3 5 5 p 5 6 5 q f 5 5 5 q q q q z 5 F q q z f c z 5 h l z f V l q q V z b l b z z V z V f f z V V Z l 5 l b V ` A z z _ V S S S _ l A ` A _ S z k ' _ A } } | ~ M B V l M k k k k k j s s u s a s a a j a s a a j j k k k k k k k k M j S S ~ B B S S ~ ) S S ~ ) ) ` ` | } } %.| ) ~ B k k k k z f k z _ i.=.` U ' ' V V V A } { ] } U _ ' ' ' ' ' ` ` ` ` | %.P.1X4X4XhXhXcXmXhX4Xd.y.Y.u.#.O.O.O.O.O.O.O.O.O.O.O.%.%.&.&.&.&.&.&.*.*.*.*.*.*.*.*.7.*.7.7.7.7.7.u.5.u.u.p.p.a.a.p.d.g.W.[.W.j.h.g.Y.Y.g.a.h.Y.g.W.j.y.U.XXY.a.y.p.d.y.a.h.h.y.y.6.U.U.L.a.h.U.h.a.T.T.Q.U.U.L.K.K.L.L.K.d.i.i.i.#.=.. =   O         ",
"..&.&.{  .p.!.!.[.[.[.[.+X+X+X[.[. X{. XXXXX XXXXX X X XoX{.{. X X X X X X X X*X=X*X,X3X,X,X<X<X<X,X,X<X,XOXOXOX<X<X,X,X,X,X,X,X1X3X3X,X,X2XtXiXyXiXuXiXuXuXiXeXrXeXeX2X2X2XhX-X}.k.k.l.W.y.y.m.{.7X3XhXtXiXhXaXsXsXjXjXcXcXjXjXcXkXkXcXcXjXjXcXhXcXcXcXhXhXhXhXhXhXhXhXiXiXiXiXiXtX2X2X2X2X1X1X,XOX/.W.j.l.q.6.6.p.5.#... .R ] { R R T { ] { R { U Z C V Z V Z c C h b D V c z z z z z h h z h f h z 2 5 5 f f f 3 5 5 f 5 3 5 f f 5 5 5 q q q f h q 5 q F h h z c q z l b z b V 3 f V z D l V l f V z V f f l z l A b q b D V ` U f S A A S A S ' S ) ` S :.V l D _ A _ ' ` } ` M M M z S M j k M k s s s y u s s s s k a s a a j k k k k k k k k j k B _ ) S ~ S ) ~ S ~ S S ) ) _ ` ` } ;.;.%.` ) ) B M k k l f z l b } u.*.} U [ K A V V S ' ' ` %._ _ _ ' _ _ ' ` ` ` ` | %.P.,X4X4XhXhXcXzXhX4Xd.y.h.4.#.O.O.O.O.O.O.O.O.O.O.O.%.%.%.&.&.&.&.&.&.*.*.*.*.*.*.*.*.*.*.7.7.=.i.u.7.u.u.d.u.d.h.U.U.h.Y.7X:XW.g.s.Y.W.T.g.Y.j.W.Y.s.h.a.U.[.[.Y.d.d.p.d.a.y.a.a.d.U.L.a.U.a.a.a.U.T.U.!.Q.T.T.a.a.K.K.K.i.K.s.*.&.=.w . #         X "
};
