/* XPM */
static char *fbef0c3cc9c340208426f1d1b2505569fCJrUOxnsunAMErZ[] = {
/* columns rows colors chars-per-pixel */
"500 500 256 2 ",
"   c #020202",
".  c #0A0906",
"X  c #0C0B09",
"o  c #080706",
"O  c #120E09",
"+  c #1C140C",
"@  c #16120C",
"#  c #151513",
"$  c #1C1A15",
"%  c #17181A",
"&  c #1B1C1B",
"*  c #181715",
"=  c #0F100C",
"-  c #24180D",
";  c #231D14",
":  c #211E19",
">  c #2A1D13",
",  c #311E11",
"<  c #252116",
"1  c #2B2216",
"2  c #25221B",
"3  c #2B251B",
"4  c #2D281E",
"5  c #28291D",
"6  c #332415",
"7  c #32261A",
"8  c #33291C",
"9  c #3B2C1C",
"0  c #392717",
"q  c #3C2D1A",
"w  c #1C1E21",
"e  c #1E2123",
"r  c #242423",
"t  c #2A2622",
"y  c #2C2A24",
"u  c #2C2C2B",
"i  c #25282A",
"p  c #332C24",
"a  c #322E2A",
"s  c #3A2E23",
"d  c #3B3224",
"f  c #34322C",
"g  c #3B342C",
"h  c #383429",
"j  c #2B2E31",
"k  c #262D33",
"l  c #2E3134",
"z  c #2D353A",
"x  c #333433",
"c  c #3A3632",
"v  c #3D3A34",
"b  c #333639",
"n  c #353A3C",
"m  c #3D3D3A",
"M  c #373836",
"N  c #2F302E",
"B  c #1E201F",
"V  c #422E1C",
"C  c #452D17",
"Z  c #44321D",
"A  c #4B341D",
"S  c #53381D",
"D  c #443323",
"F  c #4D3923",
"G  c #433A2D",
"H  c #4B3C2B",
"J  c #473626",
"K  c #543C24",
"L  c #573D26",
"P  c #433C34",
"I  c #413E39",
"U  c #493E34",
"Y  c #4B372A",
"T  c #613E21",
"R  c #3E403C",
"E  c #5A422A",
"W  c #4B4135",
"Q  c #44413C",
"!  c #4B443B",
"~  c #494439",
"^  c #52463C",
"/  c #53493D",
"(  c #594737",
")  c #534835",
"_  c #67482A",
"`  c #654C36",
"'  c #69533A",
"]  c #775638",
"[  c #73502E",
"{  c #795E3A",
"}  c #3B3E42",
"|  c #353D43",
" . c #2C3A42",
".. c #3D4244",
"X. c #3A4349",
"o. c #3C4B52",
"O. c #434443",
"+. c #4A4642",
"@. c #4C4944",
"#. c #43454A",
"$. c #454A4D",
"%. c #4B4C4B",
"&. c #464846",
"*. c #544C43",
"=. c #5A4E43",
"-. c #534D48",
";. c #5C5145",
":. c #5C544B",
">. c #55524B",
",. c #484D52",
"<. c #4B5254",
"1. c #4C555A",
"2. c #575958",
"3. c #4E514E",
"4. c #635444",
"5. c #62554B",
"6. c #64594D",
"7. c #6B5C4C",
"8. c #6B5745",
"9. c #755C45",
"0. c #645C53",
"q. c #6B5D52",
"w. c #635D58",
"e. c #6C584C",
"r. c #5D615D",
"t. c #79634A",
"y. c #6C6155",
"u. c #6C645B",
"i. c #65625C",
"p. c #736354",
"a. c #73665B",
"s. c #75695C",
"d. c #7B6B5C",
"f. c #7A6855",
"g. c #756956",
"h. c #565D63",
"j. c #4D5A62",
"k. c #5C6264",
"l. c #5B656B",
"z. c #58646A",
"x. c #5C6B74",
"c. c #5D7078",
"v. c #636A6C",
"b. c #676866",
"n. c #766D64",
"m. c #797369",
"M. c #646D73",
"N. c #686E74",
"B. c #697478",
"V. c #777977",
"C. c #6C726D",
"Z. c #615F62",
"A. c #413F41",
"S. c #845C37",
"D. c #8C643B",
"F. c #876748",
"G. c #846C57",
"H. c #88735A",
"J. c #967958",
"K. c #957049",
"L. c #847364",
"P. c #8C7B6B",
"I. c #887868",
"U. c #947D69",
"Y. c #867D73",
"T. c #8D7A6D",
"R. c #98704F",
"E. c #7C827D",
"W. c #A9855B",
"Q. c #99836B",
"!. c #898379",
"~. c #948373",
"^. c #9B8B7B",
"/. c #998776",
"(. c #938673",
"). c #A68968",
"_. c #A38B75",
"`. c #A58D7A",
"'. c #A58B76",
"]. c #A8937B",
"[. c #B69978",
"{. c #B4926A",
"}. c #AF9570",
"|. c #C8A67A",
" X c #C39B70",
".X c #6A7B84",
"XX c #737D84",
"oX c #5F7580",
"OX c #788488",
"+X c #778A94",
"@X c #748992",
"#X c #7E94A2",
"$X c #878A87",
"%X c #978D83",
"&X c #8B928C",
"*X c #98938A",
"=X c #889598",
"-X c #969A97",
";X c #858D93",
":X c #A89886",
">X c #B49C86",
",X c #A79D93",
"<X c #AA9386",
"1X c #9BA29C",
"2X c #B7A38A",
"3X c #A8A39A",
"4X c #B8A896",
"5X c #B7AA95",
"6X c #889BA4",
"7X c #959EA3",
"8X c #98A6A8",
"9X c #98ACB2",
"0X c #93A9AF",
"qX c #A6AAA6",
"wX c #AAB2AD",
"eX c #BAB3A9",
"rX c #A8B7B7",
"tX c #B5BBB7",
"yX c #B3ADA5",
"uX c #A19FA0",
"iX c #C6AA88",
"pX c #C7B49A",
"aX c #D7BB96",
"sX c #CDB18E",
"dX c #C8B8A6",
"fX c #CCBCAC",
"gX c #DEB697",
"hX c #BAC2BD",
"jX c #ADC0BF",
"kX c #E5C69A",
"lX c #D7C4A8",
"zX c #C9C3B8",
"xX c #D7C8B7",
"cX c #D5C9B2",
"vX c #EBD1AF",
"bX c #E4CDA4",
"nX c #ABBDC2",
"mX c #B9C6C6",
"MX c #B3C6C9",
"NX c #C5CBC7",
"BX c #C9D6D6",
"VX c #D5DBD9",
"CX c #D1D0C9",
"ZX c #E6D7C8",
"AX c #EFD8CC",
"SX c #DAE1DE",
"DX c #F6E9D2",
"FX c #DBE4E4",
"GX c #CCE0E1",
"HX c #E5EAEA",
"JX c #ECF2F3",
"KX c #FDFEFD",
"LX c #F8F9F6",
"PX c #F6F2E9",
"IX c #D2DEE1",
"UX c #827E81",
/* pixels */
"&X!.V.V.V.V.OX=XqXqX-X$X$X$X-X1X8XqXqXwXwXwXwXrXtXtXtXtXtXtXrXrXrXtXtXjXjXrXrXrXrXrXrXrXrX9X9X9X9X9X9X0X0X0X6X6X6X6X6X6X#X#X#X#X@X+X+X@X@X@X@X@X@X@X.X.X.X.X.X.X.X.X.X.Xc.x.z.x.c..X@X@X@X@X@X@X@X@X@X@X@X@X@X@X@X@X+X+X+X+X+X+X@X+X+X@X@X.X.X.XB.B.B.M.c.c.c.c.c.x.x.x.x.x.z.z.z.j.j.h.j.j.j.j.j.j.j.j.1.1.1.1.1.1.,.,.,.,.,.,.$.$.$.#.#.#.#.#.O.O.O.O.} n x u u u x M m m } ..} Q } m m } m I I m m m m m m } } O.m m m m m m I Q Q Q Q Q Q Q +.-.-.>.-.-.-.>.;.-.*.*.;.5.:.*.! ! ^ ;.:.:.:.:.6.6.:.*.P h I -.-.+.g 2 $ + + $ + $ : 3 : $ * & 2 2 t t 2 2 r y u u y y y y y y r y y u u u y y u u u u u y y y y y u u u u u u u u u u u u u u u u u u u u u i i i i u u u i t t r & & & & & # # & & & r r t t u u u u t r r r B & & # # # # # # # # # # # # # # # # # # # # # # # = = = # # = # # # # = = = = # = = = = = = = # # # = = = # # # # # = = = @ * $ : 2 : & $ * # # # # # % w r i i r r & & & & & & w w B r r r r i i i r i i i i e e w % & w w w i i i i i i i i i i i i i k k k k k k j j j j j k k k l z l l z z z z z ",
"&XE.V.V.V.V.OX=XqXqX-X$X$X&X-X1X8XqXqXqXqXwXwXrXtXtXtXtXtXtXtXtXtXtXjXtXjXrXrXrXrXrXrXrXrXrX9X9X9X9X9X0X0X0X0X6X6X6X6X6X#X#X#X#X#X+X+X@X@X@X@X@X@X@XOX.X.X.X.X.X.X.X.X.Xc.x.j.j.c..X@X@X@X@X@X@X@X@X@X@X@X@X@X@X@X@X+X+X+X+X+X+X@X+X+X@X@X@X.X.X.X.X.XB.B.c.c.x.x.x.x.x.x.x.z.z.z.h.h.h.j.j.j.j.j.j.j.j.1.1.1.1.1.1.1.,.,.,.,.,.$.$.$.$.#.#.#.#.#.#.O.O.O.m x u u u u N x x m } } Q Q Q } } O.Q I m Q m m m m } A.A.m m m m m m m Q Q Q Q Q Q Q @.-.-.-.-.-.-.>.:.-.-.-.:.5.5.:.*.*.-.:.:.:.:.:.6.6.6.:.@.Q +.:.>.@.g 2 $ + $ : : 2 3 3 : & : r y y a a y t y u u u y y y u u y y y y u u u y y u u u u u u y y y y u u u u u u u u u u u u u u u u u u u u u i u i i t i i t t r & & & & # # # # # % & & & r t t t t r r B w & & & & # # # # # # # # # # # # # # # # # # # # # # # # = # # # = = # # # = = # # # = = = = = = # # # # = # # # # # # # # = = * $ 2 t y t r B & * * * # * & w r i i i r B w w w & w w B r r r r i i i i i i i i i i e w % % & w w i i i i i i i k i i i i k j j j k k k k j j k j l l l z z z z z z z z z ",
"$XV.V.V.V.V.$X-XqXqX-X$X$X&X-X8X8XqXwXwXqXwXwXwXtXtXtXtXtXtXtXhXhXjXtXtXtXrXrXrXrXrXrXrXrXrXrXrX9X9X9X9X9X0X0X0X8X6X6X6X6X#X#X#X#X#X#X+X+X+X@X@X@X@X@X@X@X@X.X.X.X.X.X.X.Xx.j.j.z.c..X@X@X@X@X@X@X@X@X@X@X@X+X+X+X+X+X+X+X+X+X+X@X@X@X@X@X@X@X@X.X.X.X.XM.c.c.c.x.x.x.x.z.z.z.z.z.z.z.z.h.j.j.j.h.j.1.1.j.1.1.1.1.1.1.1.,.,.,.,.,.,.$.$.#.#.#.#.O.O.O.O.O...n x u t r t y N x m m } Q Q Q } } m ..} I m m m m m A.A.A.} O.O.m m m I Q Q Q Q Q Q +.@.-.-.-.-.-.-.-.;.-.*.-.:.:.:.:.;.:.:.:.:.:.:.6.:.6.6.:.;.:.:.:.-.v 3 + + ; 3 p p y t 2 2 t a f f f f u u u f u u u u u u u u y t y y y y y u u u u u u u u u u u u u u u u u u u u u u u u u u u u u u u u u u i t t t r r r & & & % # # # # # # # # # & & & w & & & & & & & & & # # # # # # # # # # # # # # # # # # # # # # # # # # # # # = # # # # = = = = # # # = # # # # # # # # # # # # # # # = = @ $ 2 u f x f N y t 2 B B & & w r i i u i t r e w w w w r r r r i i i i i i i i i i i i e w % % & w e i i i i k k k j j j k k j l j j j j j j j j l l l z l z z z z z z z z z ",
"$X!.V.V.V.V.;X8XqXqX-X$X$X&X-X8X8X8XqXqXqXqXwXwXrXtXtXtXtXtXmXmXhXhXtXtXjXjXjXrXrXrXrXrXrXrXrXrXrX9X9X9X9X9X0X0X8X6X6X6X=X6X#X#X#X#X#X#X+X+X+X+X@X@X@X@X@X@X@X.X.X.X.X.X.Xc.z.j.z.c..X@X@X@X@X@X+X+X@X@X+X+X+X+X+X+X+X+X+X+X+X+X+X+X@X@X@X.X.X.X.X.XB.M.c.x.c.B.c.c.x.x.x.z.z.z.z.x.x.x.z.h.j.j.1.o.o.<.1.1.1.1.1.1.1.1.,.,.,.,.,.,.$.$.$.#.#.#.O.O.O.O.O.O.n n u t r r i u N x n } O.+.Q Q } } O.O.O.O.} } I Q O.O.O.O.O.O.O.Q m I Q Q Q Q Q Q +.+.@.-.-.-.-.-.-.-.-.-.*.-.:.:.:.;.;.:.:.:.:.:.6.:.6.0.0.0.5.:.:.:.P 3 + @ : p c f a t r y a x f a a a u a f f f u u u a u y y 2 2 2 2 r r y u u u u u u u u u u u u u u u u u u u u u u u u u u u u u u u u u u t t r r r & & & # # # # # # # # # # # # # % & & & % # # % % % # # # # # # # # # # # # # # # # # # # # # # # # # # # # # # # = # # # # # # # # # # # # # # # # # # # # # # # # * # # @ * $ r u f x v M x f N y i t r t t i i u u i i r r e e e r r r i i i i i i i i i i i i i i e w w w w e i i i i k k k j k j j j j k l l j j j j j l l l l l z z z z z z z z z z n ",
"!.!.!.!.V.V.$X-XqX8X-X$X$X&X=X-X8X8X8X8X8XwXwXwXrXrXtXtXtXtXmXmXmXhXtXtXjXMXMXMXnXrXrXrXrXrXrXrXrXrX9X9X9X9X0X0X0X8X6X6X6X6X=X=X#X#X#X#X#X+X+X+X+X+X@X@X@X@X@X.X.X.X.X@X@X.XoXc.c..XOX@X@X@X+X+X+X+X+X+X+X+X+X+X#X#X+X+X+X+X+X+X+X+X+X@X@X.X.X.X.X.Xx.z.j.j.z.x.c.x.c.x.x.l.z.z.z.x.x.z.z.z.h.j.o.| | ,.1.j.j.j.1.1.1.1.<.,.,.,.,.,.,.$.$.$.#.#.#.#.#.#.#.&.O.m b u i r r r y u x v } O.O.O.A.A.O.O.m } } } O.Q } } } } O.O.O.Q Q Q O.Q Q Q Q Q Q +.@.-.-.-.-.@.+.@.@.@.*.*.-.-.-.-.-.;.;.:.:.:.6.:.6.0.0.0.0.5.0.:.Q 3 + + 3 f c f y t y a f f u t r t u f f f f a u a f u r : & $ $ & & 2 y u u u u u u u u u u u u u u u u u u u u u u u u u u u u u u u u u u t r r & & & % # # # # % % # # # # # # # # # # # # # # # # # # # # # # # # # # # # # # # # # # # # # # # # # # # # = # # # # = # # # # # # = = # # # # # # # # # # # # # # # # # # @ # $ 2 u x h M M M x f f N u u u u u i i i i i r r r B r r r r i i i i u u i i i i u u k k i i i r i i i i i k j k j j l l k k k l l l l k j j j l l l l l z z z z z z z z z z z n ",
"!.!.$X$XV.V.OX=X1X-X&X$XOXOX=X=X-X-X8X8X8X9XwXwXwXrXrXtXtXtXNXNXmXhXtXtXjXMXMXMXnXnXnXrXrXrXrXrXrXrX9X9X9X9X9X0X0X0X6X6X6X6X6X6X6X6X6X6X#X#X#X#X+X+X+X+X@X@X@X@X.X.X.X@X@X@X@X@X.X@X@X@X+X+X+X#X+X+X+X+X+X+X#X#X#X#X+X+X+X+X+X+X+X+X@X@X@X.X.X.X.Xc.j.o.X.X.o.1.j.z.x.c.x.x.z.z.z.z.z.z.z.z.z.z.<.o.o.1.j.j.j.j.1.1.1.1.1.,.<.,.,.,.,.$.$.$.$.#.#.$.$.$.#.#.&.O.m b u t r r r i u x v m m } } A.O.O.I m } } O.O.} } } } O.O.O.Q Q Q Q O.Q Q Q Q Q Q +.-.-.-.-.@.+.! +.*.-.-.-.-.*.*.*.*.*.-.:.:.6.:.6.0.0.0.0.0.0.:.! a 2 2 y g a t 2 t y a a y 2 & $ : y f f a f f a a a y : + * * * * * & r y u u u u u u u u u u u u u u u u u u u u u u u u u u u u u u u t t r w & & % # # # * # # % % # # # # # # # # # # # # # # # # # # # # # # # # # # # # # # # # # # # # # # # # # # # # = # # # # = = = # # # # = # # # # # # # # # # # # # # # # # # # @ * 2 y f c c M h h f f f f f a u u u u i i i i r r e r r i r i i i i u u u k i i k j j j j k i i i i u j j j j j j j k l l l k l l l l l k j j l l l l l l z z z z z z z z z z z z ",
"Y.!.&X*X$XV.V.$X&X&X$XOXOXOX;X=X=X-X-X8X8X8X9XwXrXrXrXtXtXtXhXNXNXmXtXtXjXMXMXMXnXnXnXnXrXrXrXrXrXrXrX9X9X9X9X9X0X0X0X8X6X6X6X6X6X6X6X6X6X=X#X#X#X+X+X+X+X+X@X@X.X@X@X@X@X@X@X@X@X@X@X@X+X+X+X#X+X#X+X+X#X+X#X#X#X#X+X+X+X+X+X+X+X@X@X@X@X.X.X.X.Xx.1.X.z  . .X.o.o.j.z.x.x.x.l.z.z.z.z.z.z.z.z.z.j.j.j.j.j.j.j.1.1.1.1.1.1.1.<.,.,.,.,.$.$.$.$.$.$.$.$.#.#.#.#...n x x u u u u N x n n m A.O.A.O.O.O.O.O.O.O.O.O.O.O.O.O.O.O.Q Q Q Q Q Q Q Q Q Q Q +.@.-.-.@.@.! ! ! +.@.-.-.-.*.*.*./ / *.;.:.:.6.0.0.0.0.0.0.0.0.-.Q I g a y 2 : : 2 y y t 2 $ + + : r u f f f f f a u r $ * @ @ @ * * * 2 r u u a a u u u u u u u u u u u u u u u u u x u u u u u u u u t r r & & & # # # # # # # # % % # # # # # # # # # # # # # # # # # # # # # # # # # # # # # # # # # # # # # # # # # # # # # # # # # # = = # # # # # # # # # # # # # # # # # # # # # # * # * * 5 u h v c c h f f f f f f f a u u i i i r r r r r r r i i i i i u u u u j j j j j j j j j j j j j j j j j j j j j j l l l l l l l l l l l l l l l l z l z z z z z z z z z z z z ",
"!.$X*X-X*X!.V.$X$X$XOXOXOXOX;X;X=X=X=X-X8X8X9X9XrXrXrXtXtXtXhXNXNXmXtXtXtXmXmXMXMXMXnXnXnXrXrXrXrXrXrX9X9X9X9X9X9X0X0X0X0X8X8X6X6X6X6X6X6X6X#X#X#X+X+X+X+X+X@X@X.X@X@X.X@X@X@X@X@X@X@X@X+X+X+X#X+X#X#X#X#X#X#X#X#X#X+X+X+X+X+X+X+X@X@X@X.X.X.X.X.Xz.o. .z  . . .z X.o.j.z.x.x.x.x.z.z.z.z.x.z.x.z.z.h.h.j.j.j.j.1.1.1.1.1.1.1.1.<.,.,.,.$.$.$.$.$.$.$.#.O.O.#.#.&.O.O...m m n n n n n m m O.O.O.O.O.O.O.O.O.O.O.O.O.O.O.O.O.O.Q Q Q Q Q Q Q Q Q Q Q Q +.@.@.@.+.+.! ! ! ! ! +.*.*.*./ ! ! *.-.:.:.0.0.0.0.0.0.0.0.0.0.:.:.! a : $ + $ 2 y t 2 : $ + * : y f f f u a f u y 2 * * @ @ @ * * + & r u u u a u u u u u u u u u u u u u u u u u x u u u u u u u t r & & & & # # # # # # # # % & % # # # # # # # # % % % % # # # # # # # # # # # # # # # # # # # # # # # # # # # # # # # # # # # # # # = = # # # # # # # # # # # # # # # # # # # # # # * @ * & r u f c M h f f h f f f f a u u u i r i r r r r r r i i i i u u u u u j j j j j j l j j j j j j j j j j j j j j j j j l l l l l l l l l l l l l z z z z z z z z z n n n z z z z ",
"%X*X,X3X-X$X$X$X$X$XOXOXOXOX+X;X=X=X=X=X6X8X9X9X9XrXrXtXtXtXzXzXmXhXtXtXmXmXMXMXMXnXnXnXnXnXnXnXrXrXrXrX9X9X9X9X9X9X9X0X0X0X0X0X0X8X6X6X6X6X6X#X#X#X+X+X+X+X+X+X@X@X@X@X@X@X@X@X@X@X@X@X+X+X+X#X#X#X#X+X+X#X+X+X+X+X+X+X+X+X+X+X@X@X@X@X.X.X.X.XB.z.1.X. . . . .z  .o.1.z.x.c.x.x.x.z.z.z.z.z.z.x.z.z.h.j.h.j.j.j.1.1.1.1.1.1.<.<.,.,.,.$.$.$.$.#.#.#.#.#.#.#.#.$.#.#.#.&.&.O.O.Q Q O.O.O.O.O.O.O.O.O.O.O.O.O.O.O.O.O.O.O.O.O.O.Q Q Q Q O.O.O.O.Q Q Q +.+.+.+.@.+.! Q ! Q Q ! +./ / ^ ! ! / *.;.:.0.0.6.0.q.0.0.0.0.w.i.0.+.p $ $ $ $ 2 a a t : $ $ $ 2 y f x f a u u f y & * * * @ @ @ # * & 2 y u a u u u u u u u u u u u u u u u u u u u u u u u u u r & & & # # # # # # # # # # # # # # # # # # # # % # # # & & # # # # # # # # # # # # # # # # # # # # # # # # # * * # # # # # # # # # # # = = = # # # # # = = = # % % % * * # # # # # # # # * * 2 y a f f M c h h f f f f u u u y t r r r r r t r r r i i u u u u u u j j j j j j j j k u i j j j j j j k j j j j j k k l l l l l l l l l l l l l l l l z z z z z z z n n z z z z ",
"*X,XyXyX3X&X$X$X$X$XOXOXOXOX+X;X=X=X=X=X6X0X0X9X9XrXrXrXtXtXfXzXNXmXtXmXmXmXMXMXmXMXnXnXnXnXnXnXrXrXrXrXrX9X9X9X9X9X9X9X9X0X0X0X0X0X0X0X6X6X6X6X6X#X#X+X+X+X+X+X+X@X@X@X@X@X@X@X@X@X@X@X+X+X#X#X#X#X#X+X+X+X+X+X+X+X+X+X+X+X+X+X@X@X@X@X@X.X.X.X.Xc.z.1.o.o.o.o.o.o.1.j.x.c.x.c.x.x.x.x.x.x.z.z.x.z.z.z.h.j.j.j.j.1.1.1.1.1.1.<.<.<.,.,.$.$.$.$.$.$.$.$.#.&.$.$.$.#.#.&.#.&.O.O.O.O.O.O.O.O.O.O.O.O.O.O.O.O.O.O.O.O.O.O.O.O.O.O.O.O.O.O.O.O.O.O.Q Q Q +.+.+.+.+.+.+.Q Q Q Q ! +.^ ^ ^ ! ! ^ / / ;.5.0.0.q.q.q.q.0.0.w.w.:.I t $ $ + $ 2 a x a r * * $ 2 u f x f u y y a r & * @ * * * @ @ @ * & y u a u u u u u u u u u a u u u u u u u u u u u u u t r & % # # % % # # # # % # # # # # # # # # # # # % & & & & & & & & # # % % # # # % # # # # # # # # # # # # # % & & & % # # # # # # # * * # # # # # # # # # # # # * & B B B & & % # # # # # * & r y a f x x x x h f f u u u u u y t t r r r t t i t r i i u u u u u u j j j j j j j j k i k k j j u j j j k j j j j k k k k l l l l l l l l l l l l z z z z z z z z z z n n n n n n ",
",X3XeXeXyX*X$X$X$XOXOXOXOXOXOX+X;X;X=X=X6X6X8X9X9XrXrXrXtXtXzXNXNXNXhXmXmXmXmXmXmXmXMXnXMXnXnXnXnXrXrXrXrXrX9X9X9X9X9X9X9X9X9X9X9X9X0X0X0X6X6X6X6X6X#X#X+X+X+X+X+X@X@X@X@X@X@X@X@X@X@X+X+X#X#X#X#X#X+X+X+X+X+X+X+X+X+X+X+X+X+X+X@X@X@X@X@X.X.X.X.X.Xc.x.z.z.z.z.z.z.x.c.x.x.x.x.x.x.x.x.x.x.x.z.z.z.z.z.h.h.h.j.j.j.1.1.1.1.1.1.<.<.,.,.,.$.$.$.$.$.$.$.$.$.$.$.$.#.#.#.#.&.&.O.O.O.O.&.O.O.O.O.O.O.O.O.O.O.O.O.O.O.O.O.O.O.O.O.O.O.O.O.O.O.O.O.Q Q Q Q +.+.+.+.+.+.Q Q Q Q ! +.! ^ / / / / / / ;.:.6.0.q.q.q.q.0.w.0.:.>.v 3 ; $ $ $ r a f y : + + & r u f f f t 2 2 r 2 # @ @ * * * @ @ @ * 2 u u a u u u u u u u u u a a a a u u u u f u u u u u t w & # # # & & % # # # # # # # # # # # # # # # # # & & % & # # # # % % % % & % # % # # # # # # # # # # # & & B r r r & % # # # # # # * * # # # # # # # # # # # # & r t i i r B & & & & & & & r y a f x x x h f f N u u y y y t t t t i r t i i i i i i i u u u u u u j j j j j j j j j j j j j j j j j j j j j j j j j j j l l l l l l l l l l z z z z z z z z z z z z n n n n n n ",
"*X,XyXeXyX-X$X$XE.V.E.OXOXOXOXOX+X+X;X=X=X6X0X0X9X9XrXrXtXtXNXNXNXNXNXmXmXmXmXmXmXmXmXmXmXMXnXnXnXnXrXrXrXrXrXrXrXrX9X9X9X9X9X9X9X0X0X0X0X0X6X6X6X6X6X#X#X#X+X+X+X@X@X@X@X@X@X@X@X@X@X+X+X#X#X#X#X#X+X+X+X+X+X+X+X+X+X+X+X+X+X+X@X@X@X@X@X.X.X.X.X.X.XB.c.c.B.B.c.c.c.c.c.x.c.x.x.x.x.x.x.x.x.z.z.z.z.z.z.h.j.h.j.j.j.1.1.1.1.1.<.<.<.,.,.$.$.$.$.$.$.$.#.#.$.$.$.#.#.#.#.&.&.O.O.O.O.O.O.O.O.O.O.O.O.O.O.O.O.O.O.O.O.O.O.O.O.O.O.O.O.O.O.O.O.O.O.Q Q Q +.+.+.+.+.+.Q Q Q Q ! +.@.*.*.*.*.*.*.=.;.:.5.6.0.5.=.=.:.0.0.:.-.P 3 ; : : 2 y a a 2 * @ + : t a f f u r & & 2 & * @ @ * * * @ @ * 2 y u u u u u a a u u u u a a a a u u u u u x x u u u t r & & # * & & & & % & # # # % % % % # # # # % % # # # # # # # # # # # # # # % # # # # # # # # # # # # # & & r i u u t B & * # # # # # # # # * * # # # # # # # % & r t i i t t t r r B B & B t u u f x f f f f N u u y y y y t t t t i i i i i i i i i i u u u u u u u j j j k j j l l l l l l l j j j l l j j j j j j j j j l l l l l l l l z z b b b b b b z z z z z n n n n n n n ",
"%X,X4XeXeX,X*X$XE.V.V.OXOXOXOXOXOX+X+X;X=X6X6X0X9X9XrXrXtXtXmXNXNXNXmXmXmXmXmXmXmXmXMXMXMXmXmXnXMXnXnXnXnXnXrXrXrXrXrXrXrX9X9X9X9X9X0X0X0X0X0X0X6X6X6X6X#X#X#X+X+X+X@X@X@X@X@X@X@X@X+X+X+X+X#X#X#X+X+X+X+X+X+X+X+X+X+X+X+X+X+X+X@X@X@X@X@X.X.X.X.X.X.XB.c.c.c.M.c.c.c.c.c.c.x.x.x.x.c.x.x.x.z.x.z.z.z.z.z.j.h.h.h.j.j.1.1.1.1.1.<.<.<.,.,.,.$.$.$.$.$.$.$.$.$.$.%.#.#.#.#.#.&.&.O.O.O.O.O.O.O.O.O.O.O.O.O.O.O.O.O.O.O.O.O.O.O.O.O.O.O.O.O.O.O.O.O.O.O.Q +.+.O.O.+.+.Q Q Q I ! +.@.-.-.-.;.:.:.5.5.5.5.6.6.*.U U ! :.0.:.>.I 3 $ + : y g c a 2 + @ $ r a f f a y t 2 2 r 2 * * * * * @ @ * * r u u a a a u u u u u a u u a a a a u u a f x x u u t r & & & & & & & & & % & # # # & & & & % % % & % % # % # # # # % & % % # # # # # # # # # # # # # # # # % & & r i u l N u r & % # # * * # # # # % % * # # # # # & B r i u i r B r r r t r r r r u u u u u u u u u y y y y t t t i i i i i i u u i i i i i u u u u u u u u u j j j j l l l l l l j j j j l l l l j j j j j j l l l l l l l z l l z b b b b b b n z z z z n z n n n n n n ",
"!.*X3XeXeXyX*X$X$XV.V.V.OXOXOXOXOX+X+X+X=X=X6X6X0X9XrXrXtXmXmXNXNXNXNXNXNXmXmXmXmXmXmXmXmXmXmXmXMXMXnXnXnXnXnXrXrXrXrXrXrX9X9X9X9X9X9X0X9X0X0X0X0X6X6X6X6X6X#X+X+X+X@X@X@X@X@X@X@X@X@X+X+X+X#X#X#X+X+X@X@X@X+X+X+X+X+X+X+X+X+X+X@X@X@X@X.X.X.X.X.X.XB.M.c.c.c.c.c.c.c.c.c.c.c.c.c.x.x.x.x.x.x.x.x.x.l.z.z.z.j.h.h.h.j.j.1.1.1.1.<.<.<.,.,.,.,.$.$.$.$.$.$.$.$.$.$.$.#.#.#.#.#.&.O.O.O.&.&.O.O.O.O.O.O.O.O.O.O.O.O.O.O.O.O.O.O.O.O.O.O.O.O.O.O.O.O.O.O.O.O.+.+.+.+.Q Q Q Q Q Q +.+.@.-.:.:.6.6.0.0.0.6.q.6./ G s G *.:.:.-.I 3 $ + 2 a v v a 2 $ + : y f f f y y t r y y r & + @ @ @ @ * $ 2 y f a f f f u f a u a a a f f f f f a f a f f u u t r B & & & & # # % # # # # # # # # # # # # # # # # % & & & & & & & & & & & # # # # # # # % # # # # # # % & & r u u u l N u r & & * % % & % # # # # # # # # % & & B r u u u r & & & B t i i t t i u u u u u t r r r r r r r t t t i i i i u u u u i i i i u u u u u u u u u j j j l l l j l l j j k i i i k j j j j j j j j l l l l l l l z z z z b b n n n n n n n n n z n n n n n n n n ",
"!.%X,XyXeXeX3X-X&XOXV.V.OXOXOXOXOXOX+X+X+X=X=X6X0X0X9XrXrXhXmXmXmXNXNXNXNXmXmXmXmXmXmXmXmXmXmXmXmXMXMXnXnXnXnXnXrXrXrXrXrX9X9X9XrX9X9X9X9X0X9X0X0X0X6X6X6X6X#X#X+X+X@X@X@X@X@X@X@X@X@X+X+X+X+X+X+X+X@X@X@X@X+X@X+X+X+X+X+X+X+X@X@X@X@X@X.X.X.X.X.X.X.X.XB.B.B.B.B.B.B.c.c.c.c.c.c.x.x.c.c.x.x.x.x.x.x.z.z.z.h.h.h.h.j.j.1.1.1.1.<.<.<.<.,.,.,.,.,.,.$.$.$.$.$.$.$.%.#.#.#.#.#.#.#.&.&.&.O.O.+.+.O.O.O.O.O.O.O.O.O.O.O.O.O.O.O.O.O.O.O.O.O.O.O.O.O.O.O.O.Q Q Q Q Q Q Q Q Q Q Q O.! @.-.:.:.6.0.q.y.y.y.y.q.=.G 8 p G *.:.-.I t : : y c v v a r & & r a f f y r 2 r y a f y 2 $ @ @ @ * 2 t u a f f f f f f x x f a f x f x x x x x f x f u u t r w & & & & & % % & & % # & & & & & & & & & & & & & & & r r r r r r r r r & & & & w & & & & & & & & & & & r t u u u u u u u i r r & & & & & # # * % % % % & & B r i u u u i r & & B r i i u i u u u u u u t t r & B r r i i i i i u u u k u u i i i i i i u u u j u j u j j j j j l l j j j j j i i e B e i i i j j j j j l l l l l l l l z z b b b b n n n n | | | | n n | | | | | | | | ",
"!.%X,XyXfXfXeX3X-X$XV.V.OXOXOXOXOXOX+X+X+X#X=X=X6X8X9XrXrXtXhXmXmXmXNXNXNXmXmXmXmXmXmXmXmXmXmXmXmXMXMXMXMXnXrXrXrXrXrXrXrXrXrXrXrXrX9X9X9X9X9X9X0X0X6X6X6X6X6X#X+X+X+X@X@X@X@X@X@X@X@X@X@X@X+X+X+X@X@X@X@X@X@X@X+X+X+X+X+X+X@X@X@X@X@X@X.X.X.X.X.X.X.X.X.X.XB.B.c.c.c.c.c.c.B.B.x.x.x.c.x.x.x.x.x.x.x.z.z.z.z.z.h.h.h.j.1.1.1.1.<.<.<.<.,.,.,.,.,.,.$.$.,.,.,.$.$.$.$.#.#.#.#.#.#.#.O.&.O.O.O.O.O.O.O.O.O.O.O.O.O.O.O.O.O.O.O.O.O.O.O.O.O.O.O.O.O.O.O.Q O.Q Q I Q Q Q Q Q Q Q O.! @.-.:.:.0.0.q.y.y.y.p.y.5.G 7 3 p P -.-.I a p y a c I v x y r 2 t a f u r : & r u f x u y 2 * & & r u f f u y f f f f x x x f f x x x x x x x x x x f u u r w & & & & & & & & & & & & & & r r t t t t r r r r r t t u u u u t u u u u u u u u u u u u i i t r t t t i u u u x l N u u u u u i r r r r & & % & & & & B B r i u N l N u i r r r r i u u u u u u k u u u u t r B B r r y u u u u k j j j k u i i i i i i u u j j j j u j j j l l l l j j j l j i e w % % w e i i j j j j l l l l l l z l z b b b b b n n n | } | | | | | n | | | | | n | ",
"!.^.*X5XdXfXdXyX-X$XOXOXOXV.OXOXOXOX+X+X+X+X=X=X6X8X9XwXrXtXhXhXmXmXmXNXBXBXmXmXNXNXNXNXmXmXmXmXmXmXmXMXMXMXrXrXrXrXrXrXrXrXrXrXrXrXrX9X9X9X9X9X0X0X6X6X6X6X#X#X+X+X+X@X@X@X@X@X@X@X@X@X@X@X@X@X@X@X@X@X@X@X@X@X@X@X@X+X+X+X@X@X@XOX.X.X.X.X.X.XOX.X.X.X.X.XB.B.c.c.c.c.c.c.c.c.c.c.x.c.c.c.x.x.x.x.x.x.z.z.z.h.j.j.h.j.j.1.1.1.1.1.<.,.,.,.,.$.,.,.,.,.,.$.$.$.$.$.$.$.$.$.#.#.#.&.&.O.O.O.O.O.&.O.O.O.O.O.O.O.&.O.&.O.O.O.O.O.O.O.O.O.O.O.O.O.O.O.O.Q Q I Q Q I I Q Q Q Q Q Q ! @.-.:.0.0.y.y.y.q.q.y.y.6.! s 3 p P -.*.! I c P c c v I v f a u a f u t : $ & t a x x f u y 2 r y u f f f a u x x x x x x x x x x x x x x x x x x f f f u y r r B & & & & & & B r r t t u u u u u u u u u u u u u u u l l l l u u u u u u u u u u u u u u u u u u u u u u x x u u u N l l u u u i r r r r t t i i i i i i u u x l u u u u u u u u u u u u u u k j j j u u u i i i u u u u u u u k j k u u i i i t i i u u u u u j j j j j x l l j j j l l j i e w % % w i i u j j l l l l l l l l l l l z z z n n n n } } } } | | | | | | n n n n | | ",
"I.(.%X3XeXdXdXyX3X&XOXOXE.V.OXOXOXOX+X+X+X+X#X=X6X6X0X9XrXtXhXmXmXmXmXNXBXBXmXmXNXNXNXNXmXmXmXmXmXmXmXmXMXMXjXjXnXnXnXnXrXrXrXrXrXrXrXrX9X9X9X9X0X0X6X6X6X6X6X#X#X+X@X@X@X@X@X@X@X@X@X@X@X@X@X@X@X@X@X@X@X@X@X@X@X@X+X@X@X@X@X@X@XOX.X.X.X.X.X.X.X.X.X.X.X.X.XB.B.B.B.c.c.c.c.c.c.c.c.x.x.x.x.x.x.x.x.z.z.z.z.z.z.j.h.j.j.j.1.1.1.1.<.<.3.,.,.,.,.,.$.$.$.$.$.$.$.$.$.$.$.#.#.#.#.&.O.O.O.O.O.O.O.O.O.O.O.O.O.O.&.O.O.O.O.O.O.O.O.O.O.O.O.O.O.O.O.O.O.Q Q I Q Q I Q Q Q Q Q Q Q Q +.-.:.6.0.y.y.y.y.q.y.y.q.=.U h h Q ;.-.-.*.! I I I I I I c c x x f p r & * & y a f f f f f u u u a a f f f f x x x x x x x x x x x x x x x x x x x x x f u u t r r B w B r r t t u u u u u j u u u u u u u u N N l l x x x l N l l N l N N N u u u u x x x x x x j j u u u u N u N N l l u u u i t t i u u u u u u u u u l l l u u u u u u u u u N l N u u u k j j j j j u u u u u u u u u u u k k k k k i i r r r i u u u j j j j j j j l l j j u j j j j k i e e e i i j j l l l l l l l l l l z z z z z z n n n | | } } } | | | | | | n | n n | | ",
"m.!.^.,X4XdXdXyX,X$XV.V.V.V.OXOXOXOX+X+X+X+X#X=X=X6X0X9XrXrXjXmXmXmXNXBXBXBXmXmXBXBXNXNXNXNXmXmXmXmXmXmXmXMXMXMXMXMXrXrXnXrXrXrXrXrXrXrXrXrX9X9X0X0X0X6X6X6X6X#X#X+X@X@X@X@X@X@X@X@X@X@X@X@X@X@X@X@X@X@X@X@X@X@X@X@X+X@X@X@X@X@XOXOX@X.XOX.X.X.X.X.X.X.X.X.X.X.X.XB.B.B.c.c.c.c.c.c.c.c.c.c.x.x.x.x.x.z.z.z.z.z.z.j.j.h.h.j.1.1.1.1.1.<.<.<.,.,.,.$.$.$.$.$.$.$.$.$.#.#.#.#.#.#.#.&.O.O.&.O.O.O.O.O.O.O.O.O.O.O.&.O.O.O.O.O.O.O.O.O.O.&.O.O.O.O.O.O.O.Q Q I I Q Q Q Q Q Q Q Q Q ! +.-.:.6.y.y.y.y.y.y.y.a.y.6.;.*.*.=.:.:.:.-.@.! I I Q I I v c m c a t 2 $ & : y y u a f x c x x f f f f f x x x x x x x x x x x x x x x x x x x x x x x x x x u u u u u u u u u u u x x x x x x x x x x x x x x x x x x x x x x x x x x x x x l l x x x x b x b x x l l j u u u N l l x x l j u u u u u l b b x x x x x x x x l u u u N l l l N N l l l l u u j j j x x x N l l N u u u u u u u u u u j u i r w w w r i u u j j j j j j j j x j j j j j l l j i i i i i j l l l l l l l l l l l z b b z z z n | | | | | | | | | | | | | | | | | | | | ",
"L.^.:X5XeXdXdXyX,X$XV.V.V.V.XXXXOXOX+X+X+X+X;X=X=X6X8X0X9XrXtXmXmXmXmXBXBXBXBXmXBXBXNXNXNXNXmXmXmXmXmXmXmXmXmXmXMXMXMXtXnXrXjXrXrXrXrXrXrXrXrXrX0X0X0X6X6X6X6X#X+X+X@X@X@X@X@X@X@X@X@X@X@X@X@X@X@X@X@X@X@X@X@X@X@X@X@X@X@X@XOX@X.X.X@X.XOXOX.X.X.X.X.X.X.X.X.XB.c.c.c.c.c.c.c.c.c.c.c.c.M.c.x.x.x.x.x.z.z.z.z.z.z.h.j.j.h.j.j.j.1.1.1.<.<.<.,.,.$.$.$.$.3.3.$.$.$.#.#.#.#.#.#.#.&.O.O.O.&.O.O.+.+.+.+.+.+.+.+.+.&.O.O.I Q +.&.&.O.O.O.+.O.O.O.O.O.Q O.Q Q Q Q Q O.Q +.Q Q Q Q O.@.@.-.:.:.6.y.y.y.y.y.y.y.y.y.q.y.0.0.5.:.;.-.! ! Q I I I m c M I c y : $ + * : 2 2 r y f c c x x x f x x x x f x x x x x x x x x M M M M x x x x x x x x x x x x x x x x x x x x x x x x x x x z z b b b b b b b b b b b b b b b b b b b b b b b b b b b b b b l l l l l l u j l l l x x x l l l l l l x x b b b b x x x x x x x l j j l l l l l l l l l l j j j j x x x x N l l l l j u j j j j j j u u u r & % % % & r i u l j j j j j j j j l j j j j l l l j j j j j j l l l l l l l l l l z z b b b n n | | | | | | | | | | | | | | | | | | | | | ",
"Y.*X3XeXdXfXfXeX3X&XV.V.V.V.XXXXOXOX+X+X+X+X+X=X=X6X6X0X9XrXrXtXMXmXmXBXBXBXBXmXBXBXBXBXNXNXNXmXmXmXmXmXmXmXmXmXmXmXMXjXMXMXMXjXjXjXrXrXrXrXrX9X9X0X0X8X6X6X#X#X#X+X@X@X@X@X@X@X@X@X.X.X@X@X.X.X.X.X.X.X.X@X@X@X@X@X@X@X@X@XOXOX@X@X@XOXOXOX.X.X.X.X.X.X.X.X.Xc.c.c.c.c.c.c.c.c.c.c.c.M.M.c.x.x.x.x.x.l.z.z.z.z.z.z.h.h.h.h.j.j.1.1.<.<.,.,.,.,.$.$.3.3.3.$.$.&.#.#.#.#.#.#.#.&.O.O.O.O.&.O.O.+.O.O.O.+.O.O.O.O.O.+.I m m +.&.+.O.O.O.O.+.+.+.O.O.O.O.Q Q Q O.O.O.+.+.Q Q Q O.O.@.@.-.>.:.:.6.6.6.0.0.0.0.q.q.q.y.y.0.:.;.;.*.! ! I I m v M c c I g t ; $ + * & & & & r a x x x x x x M v v M x M M M M M M M M M M M M M M x x x x x x x x x x x x x x x x x x x x x x x x x x b b b b b b b b b b b b b b b b b b b b b b b b b b b b b l l l l l l l l l l l l x x x l l l l x x x x x x x x x x x x b x x x x x x l x j j j j j j j l l l l j j j x j j j j l j j j u j j j j j j u u u r & # # # % & r u l j j j j j j j j j j u u j j j j l l l j j j l x l l l l l l l l z b b b n n | | | | | | | | | | | | | | | | | | | | | | ",
"Y.*X3XeXdXfXfXdX3X*X!.V.V.V.XXXXOXOX+X+X+X+X+X=X=X6X6X8X0X9XrXrXMXMXmXBXBXBXBXBXBXBXBXBXBXNXNXNXmXmXmXmXmXmXmXmXmXMXmXMXMXMXMXMXjXMXjXrXrXrXrX9X9X0X0X6X6X6X#X#X#X+X@X@X@X@X@X@X.X.X.X.X@X@X.X.X.X.X.X.X.X.X@X@X@X@X@X@X@XOXOXOXOXOX@X@X@X.X.X.X.X.X.X.X.X.X.XB.c.c.c.c.c.M.c.c.c.c.c.M.M.c.x.x.x.x.x.z.z.z.z.z.z.z.h.h.h.j.j.j.1.1.<.3.,.3.3.3.%.%.3.3.%.%.$.#.#.#.#.#.#.#.#.&.$.$.#.&.&.O.O.+.O.O.O.O.O.O.O.O.+.Q m v v m +.O.+.+.+.O.O.O.Q Q O.O.Q Q Q Q O.O.O.O.O.O.Q Q O.O.+.@.-.-.>.:.:.6.6.6.0.q.q.q.q.y.0.0.0.6.:.:.*.^ ! ! I I m M c M I g r ; $ * * % * # * 2 u x x x x x x v v v n n v v M M v v v v M M M M M M M x x x x x x b b b x x x x x x x x x x x x x b x x b b b b n n n n b b b b b b b b b b b b b n n n b b b b b b b b l l l l l l l l x x x x x x x x x x x x x x x x x x x x x x x x x x l l x x l l l j j j l l l l j j j l x l x l l j j j j j j j j j u j j u t w % # # # & B i j j j l x x l j j j j j j j j j u j j j j j l x x x l l l l l l z b b b n n n | | | | | X.X.| | | |  .z n | | | | | | | | ",
"m.!.,X4XdXdXfXdXyX-X$XV.V.V.XXOXOXOX+X+X+X+X=X=X=X6X6X8X0X9XwXrXrXMXMXmXBXBXBXBXBXBXBXBXBXBXNXNXNXBXBXBXBXNXmXmXmXmXmXMXMXMXMXMXMXMXMXMXrXrXrXrX9X9X0X6X6X6X#X#X@X@X@X@X@X@XOXOX.X.X.X.X.X.X.X.X.X.X.X.X.X.X.X.X.X.X.XOX@X@X@XOX@X@X.X.X.X.X.X.X.X.X.X.X.X.X.XB.B.B.c.c.c.M.c.c.c.c.c.c.c.c.x.x.x.x.x.z.z.z.z.z.z.h.h.h.j.j.j.1.1.1.<.<.,.%.%.%.$.$.$.$.$.$.$.$.%.#.&.#.#.&.O.O.#.$.#.&.O.I m m m I I I m m m I Q I m x x n Q O.Q Q Q O.O.O.O.O.O.O.Q Q I Q Q Q Q Q O.O.Q Q Q Q O.O.&.@.-.-.:.:.6.6.6.0.0.0.0.q.0.0.0.6.5.:.*./ ! ! Q I I n v v c g 3 : : & & & & * & r u f f f x x M v v n m m v v v v v v v v v v v v v v v M c x x x x x x n n n x x x x n n x b b x x x n n n n n n n n n n n n b n n n n n n n n n n n n n n b b b b b b b b b b b l l l l x x x x x x x x x x x x x x x x x x x x x x x x x x j x l l x l x x j j l l x x j j j l x x x l x l j j j j j j j j j j j j u r w & % % % w i u j j x x x x j j j j u u u u u u u u u u j l x x x x l l l l z z b b n n n n | | | | X.X.X.X.| | | z k z | | | | | | | | ",
"n.!.%X3XyXdXzXfXtX3X&XE.V.B.XXOXOXOX+X+X+X+X=X=X=X6X6X0X0X0X9XrXrXrXMXmXmXBXBXBXBXBXBXBXBXBXBXBXBXBXBXBXBXNXNXNXmXmXmXmXmXmXMXMXMXMXMXMXMXnXrXrX9X9X0X6X6X#X#X#X@X@X@X@X@XOX.XOX.X.X.X.X.X.X.X.X.X.X.X.X.X.X.X.X.X.X.X.X.X@X.X.X.X.X.X.X.X.X.X.X.X.X.X.X.X.X.XB.c.c.c.c.c.c.c.x.x.c.c.c.c.c.c.c.x.x.x.z.z.z.z.z.z.h.h.h.j.j.1.1.1.1.<.,.$.%.#.&.O.O.O.O.O.#.#.$.$.%.#.#.#.&.O.O.....O.} n x x x x x M x x x x M m m v x x v Q O.Q Q Q O.O.O.O.O.+.O.Q m I I Q Q Q m Q Q Q Q Q Q m Q Q ! +.@.*.-.-.-.-.;.:.:.:.5.0.0.0.0.6.;.*./ ! ! ! +.I m v v c a 2 : : : & & & & & t u a u y a x v m m v v m m m n n n n m m m m m m v m n n v v v n n n n b n n n n n n n n n n n b x x x n n n n n n n n n n n n n n n n n n n n n n n n n n n n b b b b b b b b b z l l l x x b x x x x x x x b b x x x x n b x x b b x x x x x x x x x j x x l l l l x x l l l l l x j j j j j j x j j j j j j j l l u i t r & & % w r u u u j l l j u u u u u i u i i t i i i u j x x x x x x l l l z z b b n n n n | | | | } X.X.X.X.| | k k k  .| | | | } | | ",
"u.m.^.,XeXfXfXzXfXyX*X!.V.V.V.XXOXOX+X+X+X+X+X+X=X6X6X0X0X9X9XwXrXrXrXMXmXmXBXBXBXBXBXBXBXBXBXNXBXBXBXBXBXBXBXBXNXmXmXmXmXmXmXmXMXMXMXMXMXMXrXrX9X9X8X6X6X#X#X@X@X@X@XOX.X.X.X.X.X.X.X.X.X.X.X.X.X.X.X.X.X.X.X.X.X.X.X.X.X.X.X.X.X.X.XoX.X.X.X.X.X.X.X.X.X.XB.c.c.c.x.c.c.c.c.M.x.M.M.c.c.M.c.x.x.x.x.x.z.z.z.z.z.h.h.h.h.j.j.1.1.,.$.%.$...n n b x x n n n ..#.#.#.%.%.#.O.} n n n x x u t t t t y y y y u u u x x x f x m Q O.Q Q Q Q Q Q Q Q Q Q Q m m m I m m m Q O.O.Q m m m m v v v v P P P Q P P ! ! ! *.-.:.6.6.5.;.*.^ ! ! ! Q I I m v x y 2 2 2 2 2 & : & r u x u r r u x n m n m m v m m m m m m m m m m m m m m m n n n v n n n n n n n n n n n n n n n n n M n n n n n n n n n n n n n n n n n n n n n n n n n n n n n n n n n b b b b b b b b b b b b x x x x x x n x x b b b x x x x x x x x x x x l l j l l x x x x x x x x x x j j x x x l l l j x j j j j j u j j j j u u u j u u i B & w t u j u u u u i r r r r r w w w w B w B r i u j j x x x x l l z z z b b b n n | | | | | X.X.X.X.| | | z k k | } } | | | | | ",
"u.m.!.3XeXfXdXfXfXyX-X!.V.V.V.XXOXOX+X+X+X+X+X=X=X=X6X0X0X9X9XwXrXrXrXMXmXmXBXBXBXBXBXBXBXBXBXBXBXBXBXBXBXBXBXBXBXBXBXBXmXmXmXmXmXMXMXMXMXMXrXrX9X0X6X6X#X#X+X@X@X@X@X.X.X.X.X.X.X.X.X.X.X.X.X.X.X.X.X.X.X.X.X.X.X.X.X.X.X.X.X.X.X.X.X.X.X.X.X.X.X.X.X.X.XB.c.c.M.M.M.M.M.M.x.x.x.M.M.c.c.c.c.c.x.x.x.x.z.z.z.z.h.h.h.h.h.j.h.2.1.$.....m x u u u u u u j x b n n } &.#.O.n n x u u u u t r r r r r t t r r t t u u u y y a x x v v v v n n n n n m m v M v n n n n m n n M b x u u u y y y y y y p p p a a a g P ! -.;.:.:.*.^ ! ! Q I I I I m a 2 $ : : 2 & & & 2 y x x a y t u x n n n m m m m m m m m m m m m m m m m m m m m m m n n n n n n n n n n n n n n n n n n n n n n n n n n n n n n n n n n n n n n n n n n n n n n n n n n n b b b b b b b b b b b b x b x x x x x x b b b b x x x x b b x x x x x x l l l j x x x x l l l l x x x x x j j j l l x x j j j j j j l l j j u j l x x x j u i i i u i i i r r w w & & & & % % % & & & & w r i u j x x x l l l z z b b b n n n | | | | | X.X.X.X.X.| | | n  .| | | | | | } } ",
"i.m.!.3XeXdXdXdXtXyX*XE.V.V.V.V.OXOX+X+X;X;X;X=X=X=X6X8X0X0X9X9XrXrXtXMXmXmXmXBXBXBXBXBXBXBXBXBXBXBXBXBXBXBXBXBXBXBXBXBXBXmXmXmXmXmXMXMXMXMXrXrX9X0X6X6X#X#X@X@X@X@X.X.X.X.X.X.X.X.X.X.X.X.X.X.X.X.X.X.X.X.X.X.X.X.X.X.X.X.X.X.X.X.X.X.X.X.X.X.XB.B..XB.B.c.c.x.M.M.M.M.M.M.x.x.M.M.M.M.c.M.c.c.x.x.x.l.z.z.h.h.h.j.j.h.h.j.h.h.$...n n M u y i i i t t i i u u u x n m n x u u t r r r r r r r r r t t t r r r r t r r r r y t u u u a a a a a a a a a a a a a a f f N u u u i t r r 2 2 2 2 2 2 r 2 3 t r 3 t p v ! *.-.*./ ! U Q Q I Q Q I M u : * : : & & & & r a v v f u u x v m m n m m m m m m m m m m m m m m m I m m m m m m m n n n n n n n n n n n n n n n n n n n n n n n n n n n n n n n n n n n n n n n n n n n n n n n n n n n n n b b b b b b b n n n n n n n n x x x x b b b x x x b b x x x x x x x l x j j j j j l j l l l l x l j j j j j l x x j j j j x x l l j j j j x x l l j u i t r r r r w & & & & & % # # # % % % % % % & w r i u l x x x l l b b n b n n n | | | | | | X.X.X.X.X.| } } } | | | | | | | } X.",
"w.n.!.*X4XeXeXdXeXqX&XV.V.V.V.V.OXOX+X+X;X+X;X=X=X=X6X8X0X0X9X9XrXrXnXMXMXmXBXBXBXBXVXVXVXVXBXBXBXBXBXBXBXBXBXBXBXBXBXBXBXmXmXmXmXmXmXmXMXMXrXrX9X0X6X6X#X#X@X@XOXOX.X.X.X.X.X.X.X.X.X.X.X.X.X.X.X.X.X.X.X.X.X.X.X.X.X.X.X.X.X.X.X.X.X.X.X.X.X.XB.B.c.c.c.x.x.z.x.x.M.B.M.M.M.x.M.x.x.M.M.M.c.x.x.x.x.x.x.z.z.z.z.h.j.j.h.h.1.1.O.n l M M f y u u u u i t t r r t u u a u i t r r r r r r r r r t t t t t r r r r t t r r r r r r r r r t t t t t t t t r t t r t t t i t t r r r r r r 2 2 2 2 2 2 2 2 2 2 3 t t f P ! *.*.*.*.! ! Q I I Q I M u : $ : 2 & & & : y x m m x x x v m m m n m m I m m m m m m m I I I I I I I m m m m m n n n n n m n n n n n n n n n n n n n n n n n n n n m n n } } m m m m n n n n n n n n n n n n n n n n n n n n b b b b b b n n n n n n n n n x x x x n x x x x n b x x x x l l x x l j j j j j j j l l l l j j j j j u j j x x j j j j j j u j j j j u u u i i r B w & & & & & % % % % % & % % % % % % % % % % % & B i u j x x x z b b b b b n n | | | | | | X.X.X.X.X.X.| | } X.X.| | | } | | } X.",
"2.b.m.%X3XyXeXdXeX3X&XE.V.V.B.V.E.OXOX+X+X+X=X=X=X=X6X6X6X0X0X9XrXrXrXMXMXmXBXBXBXBXVXVXVXVXVXBXBXBXBXBXVXVXVXVXBXBXBXBXBXBXmXmXmXmXMXMXMXMXrXrX9X0X6X=X#X+X@X@X@X.X.X.X.X.XB.B..X.X.X.X.X.X.X.X.X.X.X.X.X.X.X.X.X.X.X.X.X.X.X.X.X.X.X.X.X.XB.B.B.c.c.c.c.x.z.j.j.j.x.M.M.M.M.M.x.x.x.M.x.x.x.x.x.z.z.z.z.z.z.z.z.h.j.j.h.h.1.<...b l x x N y y u u u u i t r r t t t t t t r r r r r r r r r r t t t t t r r r r r r r r r r r 2 2 2 2 r r 2 2 r r r r 2 2 2 2 : : r r t r r r r r r r r 2 2 : r r r t r t y a p f P ! / ! ! ! *.! Q Q ! +.+.m a 2 & & & * * & r u v m m n v v m m m m m m m m m m m m m I I I I I I m m m m m m m m m n n m m m m n n n n m m n n n m m m m m n n n n n n n n ........n n n n n n n n n n n n n n n n n n n n n n n b b b b b n n n n n n n n x x x x n x x x n n b b x x x x x x l l l j j j j j j j j l j j j u u u i i i u j j l l j j u u u i i i i r r w w w & & % % % % % % # # % % % % % % % % % % % % % % % & & r i u j l x z b b b b b n n | | | | } X.X.X.X.X.X.| | | | } } | | } X.| } X.X.",
"-.0.n.!.,X4XeXfXeXqX*X!.V.V.B.V.V.E.OXOX+X+X;X=X=X=X6X6X6X8X0X0X9XrXrXMXMXmXmXBXBXVXVXBXVXVXVXVXBXBXBXBXVXVXVXVXVXBXBXBXBXBXBXmXmXmXmXMXMXjXrXrX9X0X6X#X#X+X@XOX.X.X.X.X.X.XB.B..X.X.X.X.X.X.X.X.X.X.X.X.X.X.X.X.X.X.X.X.X.X.X.XB.B.B.B..X.XB.B.c.c.c.c.c.x.j.o.| | ,.h.x.M.B.M.x.x.x.x.x.x.x.x.x.x.z.z.z.z.h.h.h.h.j.j.h.h.1.$.m b u f f N y y u u u y i t r r r r r r t t r r r r r r r r r r t t r r r r r t r r r r t t r r 2 2 5 5 r r 2 2 r r r r 2 2 2 t t 2 : r t r r r 2 2 2 r r r 2 2 t 2 t t y a c v I P Q W P P *.q.q.:.! I I I m M x t : & * # & 2 u x n m m m m m m m m m m m m m m m m m I I I I Q Q Q I m m m m m m m m m n m m m m m m n n m m m m m m m m m m n n n n n n n n ............n n n n n n n n n n n n n n n n n n n n n n b x b b n x n n n n n n n n n n n n x x x x b b x x x x x x l l x j j l x j j j l l j j u i r w w & w t u u u j u u i t r r w & & & & & & & & & % % % % % % % % % % % % % % % % % % % % % % % % & w r t u j l l x b b b b n n n n | | } | X.X.X.X.X.| | } } } | } | X.X.X.X.X.X.",
"Q -.0.n.!.,XyXeXyXyX-X&XE.C.C.B.V.V.OXOXOX+X+X=X=X=X=X6X6X8X0X9X9X9XrXnXMXmXmXmXBXBXGXVXBXBXVXVXVXVXBXBXVXVXVXVXIXVXBXBXBXBXBXBXmXmXmXMXMXrXrX9X9X0X6X#X#X@X@X.X.X.X.X.X.X.XB.B..X.X.X.X.X.X.X.X.X.X.X.X.X.X.X.X.X.X.X.XB.B.B.B.B.B.B.c.c.B.B.B.c.c.c.c.B.M.z.1.| k z ,.j.x.M.M.x.x.x.x.x.x.x.x.x.x.x.x.x.z.z.z.h.h.j.j.h.1.<.$.n x u u N f u u u u u u u t t t t t r t t t t r r r r r r r t t t t t t t t t t t r r t t t r r 2 5 5 5 r r 2 2 2 2 2 2 : 2 y a a y 2 2 r r r r : : 2 2 r t 3 3 2 : 2 r r a c I +.Q P p 8 P u.~.%Xm.:.! I I I +.n x u y r 2 t u f M m m m m m m m m m m m m m m m I I I I Q Q Q O.O.Q Q m m m m m m m m m m m } m m m m n n m m m m n } } } } } n n ..n m m n n ..................n m n n n n m n n n n n n n n n n n n x x b b n n n n n n n n n n n n n n x x x x x b x x x x x x l l x x x x x x j j j j u u i r & & % % & w r r t t r r w w & & % % % % % % % % % % % % % % & & & & & % % % & & & & & & % % % % % % & & w w i i u j l l b n n n b n n n | | | | | X.X.X.X.| } X.X.X.X.} } X.X.X.X.X.",
"c Q @.0.m.!.,X4X3X3X3X*XE.C.v.B.V.V.OXOXOXOX+X+X+X#X=X6X6X6X0X0X9X9XrXrXMXMXmXmXBXVXGXIXBXBXBXBXVXBXBXBXVXVXVXVXGXVXVXBXBXBXBXBXBXmXmXMXMXrXrX9X0X6X=X#X+X@X@X.X.X.X.XB.B.B.B.M..X.XB.B.B.B..X.X.X.X.X.XB.B.B.B..X.X.X.XB.c.B.B.B.B.c.c.B.c.B.c.B.c.x.x.B.B.x.j.<.z k X.j.x.B.M.M.x.x.x.z.z.z.z.z.z.z.z.h.j.j.h.h.h.h.h.h.1.1.$.n x u u N f N u u u u u y t t t r t t t r r r r r r r r r r r r t t t t t t t t t r r r r r r r 2 2 5 3 r r 2 2 r 2 2 : : r a c c a r r t r r r 2 2 2 2 2 5 2 2 3 : 2 3 2 y c I c c p 3 3 U 0.n.s.5.! I I I I I m v v v x f f x M m I m n n m m m m m m m m m m I I I Q Q O.O.O.O.O.Q Q m m m m I I m m m m } } m m m m } } } } m m } } } } } A.} } } ....} ........................} } } } } } n n n n n n n n n n n n x x b b n n n n n n n n n n n n n n n x x x x x b b x x x x l l x x x x x j u u u u i t r & & & % % % & w w w & & & & & % % % % % & % % % % % % % % % % % % % % % % % % % % % % % % % % % % % % % & & & w r i i i j l b n n b b b n | | | | | | X.X.| | | | X.X.} | } } X.} | | ",
"x M m +.:.n.!.%X*X3XyX-X$XC.C.M.B.B.V.OXOXOXOX+X+X=X=X=X6X6X6X0X0X9XrXrXnXMXMXmXmXBXGXFXFXVXBXBXBXBXBXVXVXIXIXVXVXVXVXBXBXBXBXBXBXmXmXMXjXrXrX9X8X6X=X+X+X@X@X.X.X.XB.B.B.B.B..XB.B.B.B.B.B..X.XB.B.B.B..X.X.XB.B.B.B..X.X.XB.B.B.B.B.B.B.M.M.c.B.M.x.x.M.M.M.x.j.,.X.$.h.M.M.l.l.M.M.l.j.,.$.$.$.,.1.1.,.,.,.<.1.1.h.1.2.2.1.<.O.M j u u u f f u u u u y t t r t t t t t r r r r r r r r r r r r r r r r r r r t t t t t t r r 3 3 2 3 r r 3 3 t 3 3 2 : r a c I p t 3 3 3 : : 2 5 t t 2 : 2 t y 3 2 $ : a c I v u 2 3 7 G ^ / U U P P P v v I A.m m I m m n n m I I m m m m m m m m I I I I I m I Q Q Q +.+.+.O.O.O.O.Q I I A.} } m m m m } } n n n m m m m m m } } } ......} } } ............................} } n n n n n n n n n n n n n n n n n n n n n n M M n n n x n n n n n n n n n x x x n x b n x x x x x l j j u u u u i i r B w & & & & % % % & & & & & & & % & % % % % % % % % % % % % % % % % & % % % % % % % % % % % % % % % % % % % % % % & & & w w e e i k k z z z b n | | | | | | | | X.X.X.....} } | } } } | | | | ",
"M M M v +.:.u.m.!.*X3X1X$XV.C.v.B.B.B.V.V.OXOXOX+X+X+X=X=X6X6X6X8X0X9XrXrXmXmXmXmXMXMXBXBXBXBXVXBXBXBXVXVXVXVXVXVXVXVXBXBXBXBXBXBXmXmXMXtXrX9X9X6X6X+X@X@X@X.X.X.XB.B.B.B.B.M.B.B.M.B.B.B.B.B..XB.B.c.c.c.B.B.B.B.B.B.c.B.B.B.B.c.c.c.B.B.c.c.c.B.M.c.x.x.x.x.x.x.h.j.h.l.l.l.z.l.v.l.h.,.|  . .| | | | | | | | X.X.,.1.1.2.1.1.#.} n N u u a f u u u u y y t r t t t t t t r r r r r r r r r r r r r r r r r r r r r r r r r r 3 3 3 3 r r 3 3 3 r t 3 2 2 y a f t 3 2 2 2 2 2 2 2 3 3 2 2 3 y y 3 2 ; : p c I c t 2 3 p d G G D d d g g g c I m m m m I I m Q Q O.Q I m m m m I m m m I m I I I Q O.O.O.O.O.+.+.O.O.O.O.Q Q Q Q Q m I m } } } } } } } } } } } } } } O...O...........................................n } } n } } } n ..} } n n n n n n n n n n n n n n n n M M n n n n n n n x x x n x b n x x x x j j u u i r r r B w & & & & & & & & & & & & & & & & % % % % % % % % % % % % % % % % % % % % % % % % % % % % % % % % % % % % % % & & & & & & % & & w w w e i k k l z n | | | | | | | | X.X.X.| | | | | | | | | | | | ",
"v c x x c P @.:.u.m.!.&X$XV.B.M.v.M.B.B.B.V.OXOX@X+X+X+X#X6X6X=X+X@X+X6X9XnXMXrX6XOXOX-X8XrXmXBXBXBXBXBXVXVXVXVXVXVXVXBXBXBXBXBXBXmXmXMXrXrX9X0X6X=X+X@X@X.X.X.X.Xc.c.M.c.c.c.M.M.M.c.c.c.c.c.B.B.B.c.c.c.c.B.B.c.B.B.c.B.c.c.c.c.c.c.c.c.c.c.c.B.B.M.c.x.x.x.x.x.x.M.M.M.l.z.z.l.z.1.$.| z k k k k k k k k k k z | X.,.1.1.1.2.3.#.} n u u u a u u u u y y t r t t t t t t r r r r r r r r r r r r r r r r r r r r r r r r r r 3 3 r r r r 3 3 2 3 t r 2 : : 3 2 : 2 : : 3 3 3 3 3 3 3 3 y a h a 3 < $ : y a g a 2 : y p s G W ^ U P h t 3 y x m m I A.O.O.Q Q Q O.O.I m m m m I Q Q Q Q Q Q I Q Q O.O.O.O.+.O.+.O.O.O.O.Q Q Q Q Q I O.A.} O.O.} } } } } } } } ....O.O.O.O.O.O.......O.O.O.O.O.O.O.O.O.......................................} n n n n n n n n n n n n n M M M M n n n n n n x x x n x x n x x x j j u i r w & & & & & % % % % % % % & & & & & % % % % % % % % % % % % % % % % % % % # % % % % % % % % % % % % % % % % % % % % % % & & & & % % % % % % % % w w w i i k z n | | | | | | X.X.X.X.| | | | | | | | | | | X.",
"x x x x h c v P ~ *.2.i.C.V.B.B.v.v.M.M.B.B.V.OXOXOX+X+X+X=X+X.Xj.1.j.B.=XrXnXrX;Xl.,.1.k.V.8XmXBXBXBXBXBXVXVXVXVXVXVXBXBXBXBXBXBXmXMXMXrXrX9X0X=X#X@XOXOX.X.XB.B.c.c.c.x.x.x.c.c.c.c.c.c.c.c.c.B.B.c.c.c.c.M.M.c.c.c.c.c.c.c.c.c.c.c.c.c.c.c.c.M.M.M.x.x.x.x.x.z.x.M.M.l.z.z.M.z.1.X.|  .k k k k k k k k i i i k z ..,.<.3.3.<.<.,.#.n x u u u u u u u y t t r r t t t t t r r r r r r r r t t r r r r r r r r r r r r r r 2 r 2 2 r r r r 3 3 2 2 r t 3 : : : : : 2 3 t 3 : 3 3 3 8 4 4 p h P g p < + $ 3 3 y 5 2 3 3 3 8 W 7.5.=.U p : $ r x A.m m A.O.Q Q Q I Q I I Q O.O.Q I O.O.Q Q O.O.m Q Q Q Q O.O.O.O.+.+.O.O.Q Q Q Q Q Q Q A.O.O.O.....} O.O.O.O...........O.O.O.O.O.....O.O.O.O.O.O.O.O.O.O.O.....................................} } n n n n n n n n n n n M M M M M n n n n n x x x x n x x b x x j u u r r w & & % % % % % % % % % % % % % % % % % % % % % % % % % % % % % % % % % % % % % % % % % % % % % % % % % % % % % % % % % % & & & % % % % & & % % % % w w w w e i k z  .| | | | | | | | | | | } } | | | | | | | ",
"f f f f x c h f h g P ! >.r.b.v.l.l.l.l.l.l.v.v.M.B.OXOXOX+XXXj.X.z z 1.B.;X9XrX-XB.,.X...1.;XtXBXBXBXBXBXBXVXVXVXVXVXBXBXBXBXBXNXmXmXjXrXrX0X6X=X+X@XOX.X.X.XB.B.B.M.M.x.x.x.x.c.c.c.c.c.c.c.c.c.c.c.c.M.M.M.M.c.c.c.c.c.c.c.c.c.c.c.c.c.c.c.c.x.x.x.x.x.x.x.x.z.x.x.z.j.1.j.h.1.o.| z z k k z z z k k k k k i j z } $.$.O.O.#.$.$.#.} x u u u u u u y y t t r r t t t t t r r r r r r r r r r r r r r 5 5 5 5 r r r r r r r 2 2 r r r 3 3 3 3 r 3 r r 3 2 3 r 3 2 3 p a 7 3 7 g ! -./ W P P W v p < : y f y t r y p 3 ; > G 5.5.^ G 3 ; ; t c m n n m A.O.Q Q Q I I Q Q Q Q Q I Q Q Q Q O.Q Q Q Q Q Q +.+.+.O.+.O.O.O.O.Q Q Q O.Q O.O.A.} } } ..O.O.O.} } } } ..O.O.O.O.O.O.O.O.X.X.#.#.#.#.#.#.#.#.#.X.....................................} } } } n n n n n n n n n n n n n M M n n n n x x x n n b x x x x u u t w & % & & & & & % % % % % % % % % % % % % % % % % % % % % % % % % % % % % % % % % % % % % % % % % % % % % % % % % % % % % % % % % % % % % & & & w w & w w % % w w w i k z z | | } X.| | | | | | | | | | | } | | | ",
"f f f f f x x f h g c v m ..%.1.2.2.2.1.1.<.<.<.1.k.l.x.M.B.M.1.X.z z X.,.x.=XwX9X;XB.1.X.1.+XtXBXBXBXBXBXBXVXVXVXVXVXBXBXBXBXBXNXmXmXrXrX9X0X6X=X+X@XOX.X.XB.B.M.M.c.x.x.x.x.x.c.c.c.c.c.c.x.x.c.c.c.c.M.M.M.M.c.c.c.c.c.c.c.c.c.c.c.c.c.c.c.x.x.x.x.x.M.M.x.x.x.x.z.j.,.X.X.,.X.| l k k k k k j k k j k j j u u l n O...| n n #.&.&.O.n u u u u u u u y t t t t t t t t t t t r r r r r r r r r r r r 5 5 r 5 r r r r r r r r 2 r r r r r 3 3 r 2 : 2 2 3 t t t 3 t a g d 8 d *.n.~.!.a.*.P g h 3 : p >.:.P y t a y : ; ; p P U P a 3 ; : y g M x x n n m Q I O.I I I I Q Q Q Q I I Q Q Q Q Q Q Q Q Q Q Q O.+.O.+.O.+.O.O.O.Q O.O.O.O.O.O.O.O.O.O.O.O.O.A.A.A...O.O.O.O.O.O.O.#.X.X.#.#.#.#.#.#.#.#.#.#.X.X.O.O.O...........................} } } } } n n n n n n n n n n n n n M n n n n x x x x b x x b x j u u r & % % & & & & % % % % % % % % % % % % % % % % % % % % % % % % % % % % % % % % % # % % % % % % % % % % % % % % % % % % % % % % % # # % % % & & & & & w w w w % % % w w i k z n | } } } } } } } } } | | } } } | n z ",
"f f f x x x x x x v v M x x n } &.$.$.X...n n | X.X.$.$.1.1.1.,.X.| n n ..<.B.=X8X8X;XB.x.B.=XtXBXBXBXBXBXBXBXVXBXVXVXBXBXBXBXBXBXmXtX8X=X+X+X+X+X@XOXOX.X.XB.c.c.c.x.x.M.x.M.x.x.c.x.c.c.c.c.x.c.c.c.x.x.x.M.M.c.c.c.c.c.c.c.c.c.c.c.c.c.c.x.x.x.x.x.x.x.x.x.M.M.x.z.1.| z z n b l j j j j j j j j j j j u j j i u b n n n m } %.%.%.&.M u u u u u u u u y t t t t t t t t t t r r r r r 5 r r t t r r r r r r r r r r r r r r t t r t t t r r 3 2 : : 2 3 t t t t a g P G s G 7.~.4X3XY.0.! I g y 3 P i.b.+.f a f a 3 2 : > 3 3 t 3 3 : 3 p f f u u j n m Q I +.Q I I I I Q ! Q I I Q Q I I Q W Q Q Q I Q +.+.O.O.O.&.&.O.O.O.O.O.O.O.O.O.O.O.O.O.+.+.O.O.O.O.O.O.O.&.#.#.#.O.#.#.#.#.$.$.$.$.$.#.#.#.#.#.#.#.#.O.O.O.........O.O.O.O.X.........} } } } n n n n n n n n n n n n n n b b b b b n n b x x b x j u i B & % % % % % % % % % % % % & & & % % % % % % % % % % % % % % % % % % % % % % % % % % % % % % % % % % % % % % % % % % % % % % % % % % % % % % % & & % % % % & & % % % w e e i j z b n n | | | | | | | | | | | n k k ",
"N x x x x x x x x x x x x x x x M M n n n n n n n n n n | } } ......| z z ..1.B.+X=X8X8X9XrXMXmXNXBXBXBXBXBXBXBXBXVXVXBXBXVXBXBXBXMX8XOXz.j.z.x.M.B..XOX.X.XB.c.c.x.x.M.x.x.x.M.c.c.c.c.c.x.x.x.x.x.x.x.x.x.x.x.x.c.c.c.c.c.c.c.c.c.c.c.c.x.x.x.M.c.c.x.x.x.x.x.x.x.h.,. .k k k l b b j u u u j j j j j j u u u u u j x n m #.%.3.<.>.%.m u i u y y y y u u u y y t t t t t t t t t r r r r 3 5 t t t t r r r r r r r r r r r 2 t t t t t t r t t 3 2 2 r t r t t a c P W G 9 d / n.%X!.y.! Q ! Q P v I >.>.Q I m v f y t : $ $ : 3 3 2 ; : 3 t y r r i x A.O.+.+.+.Q Q Q ! ! *.+.I I Q Q I I Q W Q ! Q I Q +.&.#.#.#.#.&.&.&.&.&.O.O.&.&.O.&.&.&.&.&.&.O.O.O.O.O.O.&.#.#.#.#.#.$.$.$.$.$.$.$.$.$.$.#.#.#.#.#.#.#.#.#.O.O.O.O.O.#.O.O.#.#.#...........} } } } } n n n n n n n n n n n n b b b b n n b x x b x j i r w & & & & % % % % % % % % % % % % % % % % % % % & & % % % % % % % % % % % % % % % % % % % & % % % % % % % % % % % % % % % % % % % % % % % % % & % % % % % % & w w w & % w w e i i j j l b b n n b z z z z z n l k i ",
"x x x x x x x x x x x x x x x x x b x M M n n n n n n n n n } } ....| n n n X.$.k.x.OX=X8XrXjXmXmXmXBXBXBXNXmXBXBXBXBXBXBXVXGXBXBXtX+Xj.X.X.o.o.1.j.z.B..X.XB.M.B.M.M.x.x.x.x.M.x.x.c.x.x.c.x.x.l.l.x.l.z.j.j.z.x.x.x.x.c.c.c.c.c.c.c.c.x.c.x.M.M.M.M.x.x.x.x.x.x.x.z.,. .k k b b l u u u u u u u u y f f u u u u u u u u x O.%.%.%.%.O.x u u u u u y y y y y u u y t t t t t t t t r r t 5 5 5 3 t t t t t t t r r r 3 3 3 3 r r t t t t t r 3 3 2 r t 2 2 t t y g P ! ~ v h d J U ^ ! Q Q Q -.! *.*.@.P I m O.O.I h a t : $ $ 2 & : 3 3 3 3 3 t t r u m O.I Q +.! Q ! Q *.q.n.0.=.! I I Q +.+.~ W P G P v Q +.&.#.O.O.#.$.%.%.&.&.&.&.&.+.+.+.&.&.&.&.&.&.&.&.O.O.&.$.%.%.%.%.$.$.$.$.$.$.$.$.$.$.$.#.#.#.$.$.#.#.#.#.O.O.O.O.#.#.#.#.#.#.O.........} } } } } n n n n n n n n n n n n n b n n n b b b x b x u i w & & & & & & % % % % % % % % % % % % % % % % % % % % % % % & % % % % % % % % % % % % % % % % % % % % % % % % % % % % % % % % % % % % % % % % % % % % % & & & % & & & & & & & & w B r i i i i i k k i i i k k k l z z ",
"f f x x x x x x x x x x x x x N x x x b b b b M n n n n n n n } } ....n n n ..X...o.1.l.B.OXOXOX;X=X8XrXmXmXNXBXBXBXBXBXBXBXBXBXBXrXOX1.X.X.X.X.o.o.1.z.B.B.B.M.M.x.x.x.x.M.M.x.x.x.x.c.c.x.x.x.l.z.z.h.1.,.,.1.h.x.c.x.c.c.c.c.x.x.x.x.x.x.x.x.M.M.x.x.x.x.x.x.x.x.z.1.| z | ..n l N f a y u u u u u a u u x u u u u u x x x n m m m n x u u u u u y y y y u u u y t t t t t t t t r r 5 5 5 5 t t t t t t r r r r r r r 3 3 3 t t t t t t 3 3 3 2 3 t 2 : t p a P Q ! ! Q W G d d s p G ! ! +.P ! ! Q P Q Q Q Q v a t 2 : $ $ & & : 2 3 3 3 3 p p a x I O.I I I Q U Q ! *.u.m.y.:.-.+.! Q Q Q W W P U ! Q O.&.$.#.#.#.&.$.%.%.$.$.%.%.%.&.+.+.&.&.&.&.&.&.&.&.&.&.%.%.%.%.%.%.$.$.$.$.$.$.$.$.$.$.$.$.$.$.$.$.$.$.$.#.#.#.#.#.#.#.#.$.$.#.#...........} } } } n n n n n n n n n n n n n n n n n b b b b x x u r w & & & & % % % % % % % % % & % % % % % % % % % % % % % % % % % % % % % % % % % % % % % % % % % % % % % % % % % % % % % % % % % % % % % % % % % % % % % & & & & & & & & & & & & & & w w B B B w w e w w w e i i i j l ",
"f f f f f f x x x x x x x x x u N N N x l x b b M n n n n n n } n } ....| | ....| ..X.$.1.1.1.1.2.l.V.=X9XrXmXNXBXBXBXBXVXBXBXBXBXtXOX1.o.X.o.o.X.o.1.j.x.M.M.M.x.z.h.h.z.M.M.x.x.x.x.x.x.x.x.x.z.z.z.1.X.| | X.1.h.x.x.c.c.c.c.x.c.x.x.x.x.x.x.x.M.M.x.x.x.x.x.x.x.x.h.1.,.<.<...b l f u y y f x x u f a u u u u u u f x x x x x f f a u y u u u u y y u u u u y t t t t t t t t r r r 5 5 r 5 t t t t t r r r t t t t t t 3 t 3 t t t t t 3 3 t 3 3 t 3 3 p g P ! -.@.! Q @.P d p p h P ^ ! @.=.=.^ W G ~ ~ Q P f 2 : : $ $ $ & $ $ : 3 3 p d P g v I Q Q I Q -.:.*.! ! ! -.:.-.*.-.:.-.Q I Q Q ! ! *.-.%.%.%.$.$.$.$.$.$.%.%.&.$.%.%.%.%.%.&.%.%.%.%.%.%.%.%.%.%.%.%.%.%.%.%.$.$.$.$.$.$.$.$.$.$.$.$.$.$.$.$.$.$.$.$.#.#.#.#.$.$.$.$.$.$.#.#.O.........} } } } n n n n n n n n n n n n n n n n b n b b x x u r w % & & & & & % % % % % % & & % % % % % % % % & % % % % % % % % % % % % % % % % % % % % % % % % % % % % % % % % % % % % % % % % % % % % % % % & % % % % & & & & & & & & & & & & & & & & & & & w w w w w w w w e i i i ",
"N N f f x f x x x x x x x x x x N N N l N l x b b n n n n n n n n n n } ..................X.X...X.X.<.l.OX=X8XtXmXmXBXVXGXBXBXBXmXrX;Xz.o.X.X.o.X.X.o.j.x.M.M.c.x.j.1.,.1.z.x.M.x.x.x.x.x.x.x.z.z.z.j.o. .z z | o.j.x.x.c.c.c.c.c.c.x.x.x.x.x.x.x.M.M.x.x.x.x.x.M.l.l.l.M.M.k.1.#.n x x f u a a a a y a f y u u a a u f x n m m x f u u u u u u y y y y y u u u y y t t t t t t t r r r 5 5 t 5 t t t t t t r r t t t t t t t t t t t t t 3 3 3 t 3 : 3 t p h P ! :.n.i.:.O.-.I a p a g U ! *.5.s.7.( ) W W W G v y : $ : 2 & & : $ : 3 y p h P ! U Q Q Q P U :.u.m.u.=.^ U P P h P *.>.@.I ! -.:.:.:.-.-.%.%.%.$.&.#.#.&.%.%.%.&.$.%.%.%.%.%.%.%.%.%.%.%.%.%.%.%.%.%.%.3.<.<.%.%.%.$.,.,.,.,.,.,.,.$.$.$.$.$.$.$.$.$.$.$.$.$.$.$.$.$.$.$.$.$.#.#.O.......} } } } } } n n n n n n n n n n n n n b b n n x x x u r w & & & & & & & & % % % % & & % % % % & & & & & % % % % % % % % % % % % % % % % % % % % % % % % % % % % % % % % % % % % % % % % % % % % % % % & % % % % & & & & & & & & & & & & & & & w & & & w w w w w w w w w w w w ",
"f f f f f x x x x x x x x x x x x x N N N l x b x x n n M n n n } } n n } } } ..X.X.X.X.X.X.X.X.X.....o.1.z.V.=X9XtXmXBXVXBXBXmXMXrX=Xl.o. .| | X.X.o.j.x.B.M.c.x.j.X. .| ,.h.x.x.x.x.x.x.l.z.z.z.z.j.X.z z k z | <.z.x.x.x.x.x.x.x.x.x.x.x.x.x.x.M.M.x.x.x.M.M.M.z.k.v.B.V.v.,.} b x M m v f y p g f p y y a x x f a f x m &.%.m x u u u u u t y y u u y y y y y y t t y t t r t r r r 5 t t t t t t t t t t t t t t t t t 3 3 t t t t 3 t t t 3 3 3 3 3 p s P ! :.n.m.b.-.-.P s s a p d U =.q.d.p.7.' ( ) W W v 4 : : 2 2 : & & : t g G h g W / ! W Q ! P ! u.%X:XL.=.U G g d h g Q +.Q I @.:.i.i.2.+.! +.O.O.#.A.n n } #.%.%.%.%.%.%.%.%.%.%.%.%.%.%.$.%.%.%.%.%.%.3.<.<.<.<.,.,.,.,.,.,.,.,.,.,.,.,.$.$.$.$.$.$.$.$.$.$.$.$.$.$.$.%.%.$.$.#.#.#.O.......} } } } } } n n n n n n n n n n n n b b n n b x x j i r & & & & & & % % % % % % & & % % % % % % % % & & % % % % % % % % % % % % % % % % % % % % % % % % % % % % % % % % % % % % % % % % % % % % % % & % % % % & & & & & & & & & & & & & & & & & & & w w w w w w w w w w w w ",
"f N N f f f x x x x x x x x x x x x l l l l x b x x n n M n n n n n n n } } n n n n n ..........X.X.X.X.X.$.1.k.B.+X8XtXmXBXBXmXmXMX8XXXz.,.,.,.o.o.1.z.M.B.M.M.x.j.X.z z X.j.x.M.M.M.x.z.l.l.x.x.z.j.X.z  .z z z ,.h.x.x.x.x.x.x.x.x.x.x.z.z.j.z.l.l.l.l.M.M.M.v.h.1.h.v.N.2...b l l x n m c f U :.-.I p y f x f a a u a c Q -.I c u y u u t t t t u u y y y y u u t t y t t r t r r r 3 t t t t t t t t t t t t t t t 3 3 3 3 t t t 3 3 3 t t 3 3 3 3 7 7 7 d U ^ :.5.:.@.-.U U =.=.U J U / =.' 7.U.]./.f.( W G p > : 2 2 & $ : 3 g *./ P P / 5.=.! ! / ! *.n.!.Y.:.d d P ! ! Q I Q +.Q Q +.+.:.:.-.I m +.O.#.O.n l j n O.%.%.>.3.%.%.%.$.%.%.%.%.%.%.%.%.%.%.%.%.%.<.<.<.<.<.,.,.,.,.,.,.,.,.,.,.,.,.,.,.,.,.,.,.,.,.$.$.$.$.$.,.,.,.,.,.$.$.#.#.#.......} } } } } } } n n n n n n n n n n b b b b n b b b l u r w w & & & & & % % % & & & & % & % % & % % % & & % % % % % % % % % % % % % % % % % % % % % % % % % % % % % % % % % % % % % % % % % % % % % % & % % % % & & & & & & & & & & & & & & & & & & & w w w w w & & & & w w w ",
"u u u u N f f f j j j l x x x x x x x x l l x b x b b n n n n n n n n n n } } n n n n ....n n n n ..X.X.$.X.X.o.,.k.B.OX=X8XrXrXtXtX9X=XOXB.B.M.z.z.x.x.B.B.M.M.M.z.1.o.X.o.j.z.M.M.l.z.z.z.z.z.x.x.j.| z  . .z  .,.z.x.x.x.x.x.x.x.x.x.x.z.j.j.z.z.z.l.x.v.v.v.k.<.#.#.3.3.#.b b l j j u f c Q 0.n.u.-.I f a a a a a u y a c I m f u y u y t t t t u u u y y y u u y u y y t r t r r r 3 3 t t t t t t t t t t t t t t 3 3 3 3 t t 3 3 3 3 t t 3 3 3 d U G p s U U U U W ! *.=.6.d.n.5.^ ) U H L ( f.U.U.t.' ) G 8 > : 2 : $ $ 3 a U *./ ^ 5.s.m.6.^ ! ! ^ =.q.i.:.s 3 d P Q ! +.! +.+.&.O.Q m Q Q I c I &.&.$.#.} n n n O.%.%.3.%.%.%.%.%.%.%.%.%.%.%.%.%.%.%.%.%.%.<.<.<.<.<.<.<.<.<.<.<.<.<.<.,.,.,.,.,.,.,.,.,.,.,.,.$.$.,.,.,.,.,.,.,.$.$.$.#.#.X.....} } } } } } } } n n n n n n n n n b l b b n x n n x j i r B w & & & & & & % % & & & & & & & & & & & & & % % % % % % % % % % % % % % % % % % % % % % % % % % % % % % % % % % % % % % % % % % % % % % & % % % % & & & & & & & & & & & & & & & & & & & % % & & w w w w & w w w ",
"N u u u u N N f u u u u f x x x b x x x x x b b x b b x n n n n n n n n n n n n ..| n n | n | ........X.X.X.X.X.X.o.1.1.z.B.OX=X8X9X9X8X-X;X+XOX.X.X.XB.B.B.B.B.M.M.x.z.j.j.h.z.l.z.z.j.j.j.j.j.z.z.1. .k z  . .| 1.z.x.M.x.x.l.x.x.x.z.z.z.z.z.z.l.x.x.v.l.l.z.2.$.n x x n b l l l l x u y c *.u.n.0.:.-.I a a a f f f a u a x c f u y y t t y t t u u u y y y u u y y u y t r t r r r 3 3 3 t t t t t t t t 3 t t t t 3 3 3 3 t t 3 3 3 3 3 t 3 3 p ^ q.=.G s ^ =./ ! ! / 6.p.p.p.p.4.( ( ) ) H L ` 9.G.t.8.( U s 1 : 2 : 2 2 a g ! W W ( d.^.%Xy./ U G ! =.*.P d 3 s U Q ! +.! Q +.O.O.O.O.Q P v c v +.%.&.$.$.#.O.O.#.$.%.%.%.%.%.%.%.%.$.$.$.$.$.$.$.$.%.%.$.$.%.,.<.<.<.<.<.<.<.<.<.<.<.<.<.<.<.,.,.,.<.<.,.,.,.,.,.,.,.,.,.,.,.,.,.,.,.$.$.$.#.#.......} } } } } } } n n n n n n n n n b l l b b x n n n x u i r B w & & & & & & & & & & & & & & & & & & & & % % % % % % % % % % % % % % % % % % % % % % % % % % % % % % % % % % % % % % % % % % % % % % & % % % & & & & % & & & & & & & & & & & & & & % % % % % w w w w % w w w ",
"u u u u u u f x j j u x x x x x b x x x x x x x x x b x x n n n n n n n n n n n } } n n n n } } | | n ......X.X.o.X.X...X.,.k.x.V.OX;X=X=X=X;XOX@XOX.XB.x.x.M.B.x.B.B.M.B.x.j.j.1.j.1.$.,.o.o.1.j.h.1.| k k  .| #.j.v.v.M.M.l.h.k.z.l.l.l.l.z.x.M.M.B.M.z.l.k.1.3.+.n N u u j x b b n x f a c Q ;.0.5.:.0.@.f c c Q I f a a u a a a a y y y y y y u u y y t u u u u y y t y t t r r r t t t t y p t t t t t 3 3 3 3 p s d p 1 3 3 3 t y y t 3 3 3 3 p *.q.=.G s W ;.5.=.( ( 6.d.p.8.( ^ ) ( =.( L E E ` 9.7.4.) G s 3 3 2 5 3 a G U H U H ;.m.^.!.6.U d s U ^ P a a g Q +.+.+.Q I I +.O.O.O.O.O.I v I Q O.%.$.$.$.,.3.%.%.%.%.%.%.%.$.,.,.,.%.%.$.$.$.%.%.%.%.$.$.%.%.%.<.<.<.<.1.1.1.1.<.<.<.<.<.<.<.<.<.<.<.<.<.<.<.<.,.,.,.,.,.,.,.,.<.,.,.,.$.$.#.#.........} } } } } n n n n n n n n n b l u j b n n n M n x j u u i r w & & & & & & & & & & & & & & & % % % % % % % % % % % % % % % % % % % % % % % % % % % % % % % % % % % % % % % % % % % % % % % % % % & & % % % % % % % % % & & & & & & & & & % & % % % % % % & w w w w w w w ",
"u u u u u u f x u u u x x x x x x x x x b b x b x x b x x n b b n n n n n n n b n n n n n n n n | n n | ....X.X.X.X.X.X.X.X.X.X.o.1.l.B.B.B..XB.B.B.B.x.z.z.x.x.z.M.B.B..XM.j.X.| | X.| |  . .X.1.h.z.<. .z  .| 1.h.M.v.v.v.z.1.1.1.l.l.h.1.j.l.z.z.l.z.l.z.1.$.&.O.m v x x l l j j j b x f a a U -.:.0.b.2.+.I 3.>.@.v f a y y a u y y y y y y y y u u y y y y u u y y t y y u y y y y y y y p p t t y y t 3 3 3 3 G ! 5.P 7 3 t 3 2 r t t p p 7 7 7 p J d p 8 s U 5.7.4.) ( 6.8.( U ^ =.=.=./ U ) ( ( ( H d 9 d s y p u f a P ) ) H L W / =.*.^ d 8 7 7 d P G U Q ! +.@.+.Q Q +.+.O.&.O.O.O.O.@.+.+.&.%.%.,.%.$.$.%.%.%.%.%.<.3.%.3.,.3.3.%.%.$.&.&.$.$.$.%.%.%.%.,.<.<.<.<.<.1.1.1.1.1.<.1.<.<.<.<.<.<.<.<.<.<.<.<.<.<.<.,.,.<.<.<.<.<.<.<.<.,.$.$.#.X.......} } } } } n n n } n n n n n b j i j b n n n n n n x x x j u i r w & & & w w w & & & & & & & % % % & & & % % % % & % % % & & & % & & & & % % & & & & % % % % % % & & & & & & % % % % & & % % & & & & % % % % % % % % % & & & & & & & & & & & & & w w & & & % w & w w w & ",
"u u u u u u f f u j j x N x x x x x x b b b b b b b b b b b n n n n n n n n b b b n n n n n n b n n n n | ....X.| ..X.X.X.X.X.X.X.X.,.1.1.,.,.,.1.j.x.x.x.B.B.x.x.M.B..XXXB.z.o.| z | X.X.| X.o.j.x.M.h.,.} } } $.1.h.l.l.v.v.j.1.j.v.l.1.$.$.1.,.,.j.l.B.l.1...n n m m m x x l x b x x x f a p p G ! :.w.:.+.I Q +.m f a u u a y y y y y y y y y u u u y y y u u t t t y y y u y y u a a p p p p p y y y t 3 3 t 3 *.m.3X!.*.p a p y y a c v P g a 7 3 7 s 8 > s ) a.I.I.y.7.4.( L U / -.=.=.-.:.^ J 9 0 6 1 1 3 d P *.-.@.Q ! ( 4.4.4.( U G p 8 3 7 3 7 G Q +.:.:.>.-.@.O.Q +.O.&.&.&.&.&.&.&.+.&.&.+.+.&.$.%.$.$.%.%.%.%.%.<.>.<.3.<.3.3.%.%.$.%.%.&.$.$.$.%.%.%.,.<.<.<.<.<.1.<.1.1.<.1.1.<.1.<.1.<.<.<.1.1.<.1.1.<.<.<.<.<.<.<.<.<.<.<.<.<.,.,.$.#.#.......} } } } } } n n n n n } } n b l j l b n n m n n n n n n n x u i r w & & & w & & & & & & & & & & % % % & & & & & & & & & & & % % & & & & % % % % & & & % & & & & % % % % & % % % & & & & % % % % & & % % % % % % % % & & & & & & & & & & & & & & w w w & w w % % w w w w ",
"u u u u u u u u u u u j u x N x l x x x b b x l b l z z b b b n b b b n n n n n n n n n n b b l z z n n | ......n | ..X.X.X.X.X.z z X.X.o.X.X.X. .X.j.x.B..X.XM.x.x.x.x.M.B.M.j.} k | ,.1.1.1.j.x.M.M.x.h.j.,.#.X.X.,.1.1.k.k.1.1.<.z.l.1.<.<.1.X.X.1.l.B.l.<...x x x v M x x l u x x u u a a y 3 p h I ! I c a a a f a a y y a y y y y y y y y u u u u y y y y t t t t y u u u u u a f f a p y p y t t r t t y p > s 6.,X*Xi.P h v I I +.+.-.-.I P Q P p 7 s G W / 5.q.s.n.I.d.( W ^ / *.*.-.@.+.P s s 8 3 3 7 d U ! -.-.*.U U ` G.U.U.8.W G d p 7 3 3 a P ! -.:.:.3.+.+.O.O.&.&.&.&.O.O.&.&.&.&.+.&.%.&.&.$.,.,.,.%.%.%.%.%.%.>.<.3.<.3.3.,.%.$.&.%.#.#.$.%.$.%.%.<.<.<.<.<.<.1.1.1.2.1.1.1.1.1.1.1.1.1.1.1.1.1.1.1.1.<.1.1.1.1.1.1.1.1.1.1.1.<.,.$.#.#.X.....} } } } } } } n n n } } } } n n n n n n m n n n n n n n n n j u r r w & w w & & & & & & & & & & & & % % % & & & & & & & & & % % % & & & % % % % & & & % & & & & % % % % & & % & & & & & % % % % & & % % % % % % % % & & & & & & & & & & & & & & w w w w w w w w w w w w ",
"f f u u u u u u u u u u u u u N N x x x x x l l l l l l z b n n b b b b b n n n n n n b b l l l l z n n | ......n ..X.X.......X.o.$.,.1.z.j.1.o.X.| o.z.B..X.XB.x.j.1.1.1.z.B.z.,.z | 1.z.z.x.c.B.B.x.x.M.l.h.,.X.} } X.$.<.1.$.$.$.h.l.h.1.1.1.X.X.,.z.M.z.,.| l x x x x x f x x M x u u a a a y t y y a u y r t y a f a y y u u u y y y y y y u u u u y t y y u y t t y u u u a f f x f f a p y t t r r t t y p 3 3 P a.m.:.P a v %.>.2.:.2.2.:.-.! P d a P / 6.:.=./ ;.y.d.4.) ) / *.-.>.-.+.! I d s s s P *.4.5.=.*.*.*.) ) 9.).>X<XG.( G p y 3 > 3 g ! +.+.@.-.+.Q O.&.O.$.O.O.O.&.&.&.&.&.+.&.%.%.#.#.$.$.$.$.$.$.&.&.%.%.3.3.<.3.3.,.,.%.$.$.$.#.#.#.$.#.$.<.<.<.<.<.<.,.,.1.1.k.k.2.1.1.2.1.1.1.1.1.1.1.1.1.1.1.1.1.1.1.1.1.1.1.1.1.1.1.<.,.,.$.#.X.X...} } } } } } } } n } } } n n } } } } n n n n n n n n n n n x u i t r w w w w w & & & w & & & & & & & & & & & & & & & & & % % % % % % % % % % & % % % % % & % % % % % % % % % & & & & % % % % % % & & % % % % % % % & & & & & & & & & & & & & & & & & & & & & w w & & & & ",
"x f N u u u u u u u u u u u u u N x x x l l l N N u u u l z b b b b b b b b n n n n n b l l j j l b n n | ....| n ..X.X...X.X.,.1.1.l.B.XX.Xz.<.o.o.1.z.B.B.x.x.z.1.o.| | 1.x.M.1.| X.h.M.B.B..Xc.B.c.M.B.N.h.1.} n b b } #.#...O.$.2.k.1.<.,.<.....,.z.v.k.,.n b b x n v x x x M Q +.I c a y y y y y t t y u u y y u x u u u u u u u u u u u u u u u y y t t y u t t t y u u u u f x x x f f a y y y y y y p y a a 3 3 g *.P a r x &.2.2.2.w.i.w.2.-.U G P *.6.n.q.;.^ ^ / ( H H ^ =.:.-.>.:.-.! P d D H ( q.L.I.d.5.*./ / ) ` G.[.sX>XG.( G p y t 3 p P @.@.-.@.@.O.O.%.$.O.#.#.#.&.&.&.&.O.O.O.&.#.#.$.$.$.,.$.$.$.&.&.&.&.%.3.3.<.3.,.3.3.3.3.,.$.#.$.$.$.$.$.,.<.<.<.<.<.$.X.X.$.1.2.2.2.1.2.1.1.1.1.1.1.1.1.1.1.1.1.1.1.1.1.1.1.1.1.1.1.1.1.1.,.$.#.X.X.X.....} ..} ..} } } } } n n n } } ..} n n n n n n n n n n x x u t r r r r r w w & w w w w & & & & & & & & & & & & & & & & & & & & & & & & & & & & & & & & & & & & & & & & & & & & & & & & & & & & & & % % % % % % & & & & & & & & & & & & & & & & & & & & & & & & & & & & ",
"f N u u u u u u u u u j N x N x x x x x l l N N u u u u j l l l z b b b b n n n n n n b b l l l l n | | | ....n ....X.X.....o.1.k.l.M.XXOX.Xh.,.X.o.1.z.M.z.1.1.j.j.1.X. .X.1.h.1.X.$.z.B..XB..Xc..X.X.XB.M.h.j.X.| b l b b n n n ..<.<.,.#...X...$.j.v.l.h.$.n b n n } m n x x M %.b.b.2.Q f u u u u y u u u f x u x x u u u u u u u u u u u u u u u u y u u y u u t t t y u u u a f x x x x f a a u u u u a y p y p p d P h 3 r u &.2.2.2.i.b.n.w.-.-.0.q.5.;.5.=.=.:.;.^ ! G G ! -.:.-.-.>.-.-.^ W ) 4.f.P.^./.L.4.*.! ^ ( 8.J.iXaXiXG.' W P c f f c Q -.-.-.+.+.+.%.%.%.#.&.#.&.&.+.+.+.+.+.O.O.O.O.$.,.<.<.,.%.&.&.&.&.&.%.3.3.<.<.3.3.3.3.3.$.#.#.#.$.%.$.$.,.<.<.<.1.<.$.n n X.,.1.2.2.1.2.1.1.1.1.1.1.1.1.2.1.1.1.1.1.1.1.1.1.1.1.1.1.1.1.1.,.,.$.X.X.X.............} } } } } n n n } } ..} } } m } m m n n n n x x u u u u u u i r w & w w w w w & & & & & & & & & & & & & & & & & & & & & & & & & & & & & & & & & & & & & & & & & & & & & & & & & & & & & & & & & & & & & & & & & & & & & & & & & & & & & & & & & & & & & & & ",
"f N u u u y y t u u u j x x x x x x x x l l N u u u i i u j l l l l b b n n n n n n n n b b b l b | ..} ......n z n | ..| ..X.$.$.$.,.h.x.h.X. . .X.o.j.x.z.1.1.z.x.x.z.,.X.,.<.,.X.<.l.V..XB..X.X.X.X.XM.z.j.,.X.} n b b b b n n ..#.#...} b n ,.2.M.M.h.,...n n n n } } n n x x Q >.w.2.+.x f u f u u u u u u u u u u u u l u u u u u u u u u u u u u u u u u u u t t t y u u u f x x x M M x a a u t i u y t p y c v P P v p t f +.2.2.2.b.b.b.b.w.i.n.u.:.=.6.:.=.:.:.;.:.*.*.*.:.:.:.:.:.:.=.=.4.G.].<X~.d.4.( G U ! ) ( 8.J.sXkXsXU.7.=.! +.Q ! ! @.-.@.Q I I O.%.%.%.%.$.$.&.+.@.@.+.+.+.n n n n } #.,.,.,.%.%.&.&.%.%.3.<.<.<.<.<.<.3.3.$.#.} } O.$.$.$.,.<.<.<.1.1.<.,.X.X.o.1.2.h.2.1.1.1.1.1.1.1.1.1.2.2.j.1.1.1.1.1.1.1.1.h.h.h.h.1.1.1.,.,.$.#.X.X.................} } } } } } } ....} } } ....} m m m n n n n x x b n n b j i B & w w w w w w & & & & & & & & & & & & & & & & & & & & & & & & & & & & & & & & & & & & & & & & & & & & & & & & & & & & & & & & & & & & & & w & & & & & & & & & & & & & & & & & & & & & & & ",
"x x x x u u u u u u j j x x x x x x x b x x N N u u k i i i j j l z b b b n n n n n n n n n n n n ....n X.X.$...n z n n n n | ..n n n X.1.1.X.z  .X.o.j.x.c.x.x.M..XB.B.z.,.,.o.#.X.o.h.M..X.X.X.X.X.Xx.j.1.<.#.} } | n n n m O.#...} } } n z z X.1.z.k.<...| | n z b n n n x f x f c I I c f u j u u j j u u u u u u u x x x u a u u u j u u u u u u y t u u t y y t t t u u y u u N x x n m m M b l j N N u a a c Q @.-.+.P f x x %.>.2.2.i.b.w.w.0.w.w.:.:.q.I.L.u.5.0.:.=.:.5.6.5.:.:.:.:.6.6.p.U.].sX].G.` F 0 d P U H E t.).sXaXiXH.8.^ @.%.&.Q Q +.Q v g a f v +.%.%.%.&.&.@.+.+.+.+.+.+.I M x x n } $.,.%.%.%.%.%.%.%.<.<.<.<.<.<.<.<.,.#.n j j n #.$.,.,.<.<.<.<.1.1.<.1.1.<.1.h.h.h.2.1.1.2.2.2.2.2.2.h.h.h.2.1.1.2.2.j.h.h.h.h.h.h.h.1.1.<.,.$.$.#.X.............................} ..} ......O.} O.O.} } } m m n n n n n n n x j i r e e w w w w w & w w & & & & & & & & & & & & & & & & & & & & & & & & & & & & & & & & & & & & & & & & & & & & & & & & & & & & & & & & & & w w & & w w w w & & & & & & & & & & & & & & & & ",
"x x x x f u u u N N x x x x x x x x x x b x x l j u u i i k j j l z n n n n n b n n n n n n n n n ......,.1.2.,.X.n z n n n n z z z z  .X.o.o.X.X. .X.1.x..X.XOX.XB.x.x.j.,.X.X.X.X.X.1.x..X@X.X.XoXz.1.o.X.X.| | } n n m O.%.>.2.3.O.} } | b z | X.<.1.1.$.X.$...n z b n x x x f a a f x f u u j j l x x u u u u u u a x x f u u u u u u u u u y u u u u u y t y u y u y u u u u u u j x M } O.A.A.} n } } M a y v -.:.:.:.>.-.@.-.2.2.i.i.2.2.2.w.w.0.2.:.0.n.%XY.a.4.5.5.5.0.e.6.5.5.5.5.4.7.H./.iXpXiXJ.` Z 0 0 D G d D E t.).iXiX[.t.( ^ -.3.&.O.Q ! v a p y y f I &.%.%.&.%.&.@.@.@.+.+.+.O.A.n n n A.$.3.%.%.%.%.%.%.%.%.%.3.3.3.3.<.<.,.O.b i i x } $.,.,.,.<.1.1.1.1.1.1.1.1.2.h.h.h.h.2.2.2.2.2.2.2.2.h.h.k.j.h.h.j.1.h.h.h.h.h.h.h.h.1.1.<.,.$.$.#.#.#.#.............................} } ....} } } } } } } } } } m m n n n n n x u u r r w w w w w w w w & & & & w w & & & & & & & & & & & & & & & & & & & & & & & & & & & & & & & & & & & & & & & & & & & & & & & & & & & & w w w w & w w w & & & & & & & & & & & & & & & & ",
"x x x x x x x f x x x x l u u u u N x x b b x x l l j u j j l l b b b n n b b b n n n n n n n n ......X.1.l.B.x.,.X.z z z z ..z z z  .X.o.1.j.j.X. .X.o.j.B.@X#X.Xx.j.j.j.o.X.X.X.o.1.j.x..X@X.Xc.z.1.,.X.| | } n | n n m O.%.2.2.2.&.n n n b z z n X.$.,.<.1.1.$...z l l n n x n x x x x x x x j l x x x u u a u u a N f f a a f u u u u u u u u u u u u u t t t y u u u u u u u u j u j M O.%.,.<.3.3.<.3.O.x x O.2.w.2.:.:.u.m.m.y.6.y.i.w.b.w.b.w.w.2.0.u.L./.L.p.7.p.p.7.5.4.5.e.e.e.4.t.U.2XiXpXiX'.t.F 0 , 9 H G s D ` G.).[.[.).9.( ^ -.-.-.@.@.~ g 3 3 t t a v +.-.%.%.%.+.+.&.&.O.Q O.%.&.#.A.} #.,.3.3.%.%.>.2.2.>.%.%.%.%.,.3.<.<.$.n k w r x O.,.<.<.<.<.1.1.1.1.1.1.1.1.h.h.h.h.h.h.h.k.h.h.h.h.z.k.z.z.z.z.h.h.h.h.h.h.h.h.h.h.h.1.1.1.,.,.,.$.#.#.#.#.#.O.O.....................} } ..} } } } } } } } O.O.} } } } } } n n n x x i i r B w w w w B w w & & & w w w & & & & & & & & & & & & & & & & & & & & & & & & & & & & & w w & & & & & & & & & & & & & & & & & & w w w w w w & & w w w w & & & & & & & & & & & & & & ",
"c c c M v v c f x x x x j j j j u j x x x b b b b x b b b b b b b b b b b l l l b b n n n b b n | ..o.1.x.OX7X=XM.k.o.X.z z z z z z X.,.z.B.XXM.1.X. . .X.j.B.+X.Xj.X.| X.o.X.o.1.x..X.X.X@X@Xc.1.o.X.X.X.| } } } } } m m m O.3.2.2.%.I n n n n z z z n ..$.<.1.1.$.| l l x b b b x x x x x x x l x x x x a u u a u u f a f f a u y y u u u u u a u a a a y t u y t t t u u u u j j x j j M #.3.2.2.2.1.1.1.$.} %.%.>.:.:.-.:.Y.3X3XI.g.y.i.w.b.b.Z.w.2.2.0.w.u.q.7.p.H.U.U.G.8.e.e.4.4.8.f.'.sXbX2XQ.t.9.8.E D D E W D 8 D ` F.W.{.{.).' L ! @.@.@.@.*.Q h 3 y p t y c +.3.3.%.%.&.&.&.&.Q Q +.&.%.%.$.$.%.>.>.>.>.>.2.2.2.3.O.m O.#.#.$.<.<.$.n u w r b #.3.<.<.<.1.1.1.1.1.<.$.,.1.1.h.h.h.h.z.z.z.z.j.z.z.z.z.z.l.z.z.z.z.z.h.h.h.h.h.h.h.j.1.1.1.,.,.,.$.#.#.#.#.#.#.O.............................} } } } } } } } } } } } } } } | } } n n j u i r r w w r r r w w w w w w w & & & & & & & & & & & & & & & & & & & & & & & w w & w w w w w w w w & & & w w & & & & & & & & & & & & & & & & & & & B & & B & w w w w w w w w w w w w ",
"c c v v m v x f l x x x x x x x l b b b b n b b b b n n n n n n b b b b b b l l l z b b z l z n | X.1.B.+X8X9X0X=XOXM.1.X. .z z z X.1.l..X+X+XOXc.1.o.X.X.j.B.+X#X.Xj.o.X.o.j.c..X+X+X+X+X+X@Xc.o.X.| X.X...} } ....} } } m n O.I +.m n b n n n n n z z z n X.,.1.1.$.} b l l z b b x b n x b x x x x x x x f a a u u u a a a p t p g c a u u x a a f f a u u a u i r t u u u u j n n n n A.%.2.2.2.<.3.<.<.1.2.b.2.+.@.>.;.0.m./.`.I.d.g.u.w.i.b.Z.Z.2.2.2.5.:.5.p.P.<XiXiX].G.e.4.L ( t.].sXbXsXJ.K C ` I.Q.U.U.Q.f.H V L t.U.).{.{.J.' H G U @.-.-.@.W a 3 y p t y c +.3.3.3.%.&.&.%.%.&.O.&.&.%.%.%.,.>.2.>.3.>.2.2.2.3.O.m x n n n } #.$.&.n l u j n #.,.,.<.<.<.1.1.1.1.1.$.$.,.1.h.h.h.h.z.z.j.j.z.z.z.z.l.l.z.z.z.z.z.k.z.h.h.z.k.k.z.h.h.1.1.,.,.,.$.#.#.#.#.#.#.#...........X.X.X.O.O.........} } } } X.} } } } } } } } } } } } } | n n x u u i r w r B B B w w w w & w w & & & & w w & & & & & & & & & & & & & & & & & w w B w w B B w w w w w w w w & & & & & & & & & & & B & & B B & & & & B B B B w w B w w w w w w w w w ",
"m m Q O.Q m x f l l l l l l b b n b b b b b b l x l b n n n n n n n n n } ..n l j l b n b z z n | X.1.B.+X8X6X+X=X=X=XOXx.j.1.o.o.1.B.@X@X@XOXB.c.c.c.c.z.z.B.+X=X+X.Xj.X.o.x.+X#X6X#X+X+X+X+Xc.1.X.X.X.X.X...| } } } } ..n x n n n n n } ....| n | ..n z z n ..,.<.,.$.} b z b n b b x x x n n x x x f x x f f f a u u N u p p g *.:.-.P f a f f x v M x a x M x u t r u j x x n } #.%.&.%.2.2.2.2.1.1.1.2.2.k.b.2.+.+.:.0.5.=.) 4.4.7.y.u.i.w.b.b.b.b.w.w.0.0.5.a.~.>XiXiX].H.8.' L E G.>XaXkXsXJ.S , ( /.2XiXsXaX'.' A L F.J.{.{.{.W.9.H D G -.-.-.@.P p 3 t y t y a I +.%.3.%.%.&.%.%.%.&.&.&.&.O.O.&.%.%.%.@.%.3.3.3.%.O.I n n x N j n n n n b l n } #.,.3.,.,.<.1.1.h.h.1.1.1.1.j.h.h.h.h.h.h.z.z.z.z.l.l.z.z.z.z.z.z.z.l.l.l.k.k.l.l.z.h.j.1.1.<.,.,.$.$.#.#.#.#.#.#.................O.#...........} ....X.X.} } } ..X.X.} } } | n n n n n n x x u i i r w w w w w w w w w w & & & w w w w & & & & & & & & & & & w w w w & & & & B B B B & & & & & & & & & & & & & & & & & B & B & B B B & & & & B B B B & B B B & & & & & & & & ",
"%.%.%.%.&.O.m x b b b b b b b b n n b b n n b b b b n n } n } ..$.X.} n #.,.#.n l b } ..n b b n | | X.l.OX+XOXB.OX=X0X8X=X+XOXOXB.OX=X=X@Xc.j.j.j.B.#X=X@Xc.z.x..X@X@Xx.1.j..X=X6X6X#X#X#X#X+X.Xz.1.o.o.o.X.X.X.X.X.X.#.X.} n } n } n n } ....n ........n n n } | X.,.,.,...| | n n b b x x b n x x x f f f f a f f x x N f f f -.n.n.q.-.P f f x m +.A.m n A.#.} x u i u x n } O.$.<.<.<.2.2.2.2.h.h.h.k.k.2.2.2.:.:.:.q.y.5.W H H =.6.u.n.n.b.i.w.b.b.2.0.0.0.0.a.L.U.Q.Q.U.G.G.H.t.9.G.].aXbXlX_.' q F H.`.>XiXkXsXJ.] [ S.K.W. X[.{.J.` D d *.-.>.@.I f y y y t t u x I $.3.%.%.%.%.%.%.+.} m n x x b M v I A.+.@.@.@.%.%.%.%.+.m u i u u j l N j x n } $.3.<.<.<.1.1.1.1.1.1.j.h.h.h.1.1.h.j.h.z.z.k.l.l.l.l.z.z.z.z.z.l.M.M.l.z.k.z.z.z.h.j.1.1.<.,.,.$.$.#.#.#.#.#.X.X.X.....#.X.......O.#.#...........X.............O.O.....} n x j j z n n n n x l u i r r r r B B w w B w w w w w w w w w & & & & w w w w w w w w w w & & & & B & B & & & & & & & & & B & & & & & & & & & & B B B B B B B & & & & & & & & B B B & & & & & & & ",
"2.2.2.2.<.$.} n n n n n n n n n n n b n n n n n n n ..X.X...#.$.1.$.} n $.1.,.n b n X.$...n b n | | X.j.c.c.z.j.B.+X9XrX9X0X0X8X6X6X6X+XB.1.X.X.j..X6X0X=Xc.o.o.j..XOX.Xc.c.@X6X6X6X#X6X=X#X=X#X.Xc.z.j.j.1.1.,.,.,.<.1.,.#.X.$.X.#.X.....| | | | ......| | } } n | $.1.1.$...} n n n n x x x n x x x a u N N N u f x l N f h c 2.m.m.y.5./ g g M O.%.%.O.O.$.<.#.n j u u n O.$.3.2.2.2.2.2.2.2.h.h.h.2.k.k.2.2.:.:.5.0.u.a.a.7.;.^ 5.q.n.V.V.b.i.2.w.i.2.0.0.6.q.q.7.9.8.8.9.t.U.].2X].).].sXvXvXpXI.H 0 ' G.U.).aXkX|.).F.D.D.W.{. X[.).8.J J +.-.:.-.! v c f u y y t u n #.3.3.%.%.%.%.$.I v x u u u i i u x I A.+.+.+.%.>.2.2.3.+.b u t u u u u u u k x } #.,.<.1.<.1.1.1.h.j.h.h.h.1.1.1.h.z.z.k.z.l.l.l.l.l.l.l.l.l.l.M.B.B.l.k.z.z.k.z.h.h.1.1.<.,.,.$.$.#.#.#.#.#.#.X.X.#.#.#.#.#.#.#.#.#.#.#.#.X.X.#.X.....#.#.#.....} #...| b k i i j n } } n n n x u u u i r r B w w r r B r r r B w w w w & & w w w w w w w w w w w w & w & & w B B B & & & & & & & B B & & & & & & & & & B B B B B B B B B B B B B & & B B B w w w w w w w ",
"b.b.r.r.2.3.&.R n n n n n n n } } } n } ..$.$.,.,.,.<.1.1.,.<.h.k.1.} b X.<.<...n ..$.$.#.....} X...o.j.z.1.X.X.z.OX8X9XrXrXnXrXrX8X+XB.j.o.X.o.j.c.#X0X=Xc.j.o.o.c.+X6X6X6X6X0X6X6X6X6X6X6X6X6X=X+XOX.XB.M.x.x.x.x.x.x.x.z.z.h.h.j.1.,.$.X.X.| ......| n n n n z | o.1.h.1.$.X...} } n n x M x c x x f f f u u u u l b z x M m ;.0.6.4.7.0.! g m &.<.<.,.$.%.3.O.n N u u n &.3.2.2.2.2.2.2.h.2.h.h.h.h.2.h.Z.2.0.0.q.a.p.I.T.T.I.y.q.a.m.$X%XY.n.b.b.i.i.2.:.:.6.u.5.( E E ' U.5XvXDXvXlXaXvXDXDXvX].8.0 L ` 9.J.iXaXsX|.{.W.K.R.W.{.[._.t.W G ! -.:.>.>.%.+.v f u y y u x O.%.%.%.%.%.%.O.v u t t t t t r t u m O.m x m &.3.2.1.%.O.n M M x u u u t r r i j n $.<.1.<.1.1.1.1.<.<.,.,.$.$.$.,.1.k.z.z.l.l.l.l.v.v.v.v.l.M.B.B.B.M.l.z.z.k.k.z.h.j.1.<.,.,.,.,.#.#.$.#.#.#.#.#.O.O.#.#.X.X.#.X.#.#.....X.#.#.#.#.#.#.#.#...} } ..| b i e i k b } } } } } n n n x j u i r B w w e e w w w r w w w w w w w w w B w w w w w w w w B w B B B B B B B & & B & & B B B B & & & B & & & & B r r B B B & B B B & & & B B B B B & B B B B B B B ",
"v.b.k.k.k.r.2.<.$.#.#.$.$.$.$.$.,.$.$.$.,.1.2.k.k.k.k.v.k.h.h.v.v.h.$...$.1.1...n ..X.$.,.<.1.1.h.k.x.B.x.o.z z j.OX0X9X9XrXrXrX8XOXl.1.1.1.o.o.o.x.+X9X9X6X+X@XOX#X8X9XrX9X9X0X0X0X8X6X6X6X6X6X6X6X=X;X+X+XOXXXXXXXXXXX.X.X.X.XB.B.M.x.l.z.j.1.,.,.$.$.X.X...| | | X.1.z.h.j.1.1.,.O.n x x x M f f x x c P m v x x b n n m } Q P Q / ;.y.u.-.! O.%.2.2.<.3.3.%.A.M N u j n #.>.2.2.2.2.2.2.2.2.h.h.h.h.h.2.b.b.w.u.m.T.I.I.U.Q.Y.L.n.q.u.m.m.m.b.b.b.b.i.:.*.! ;.u.q.p.9.t./.dXZXDXDXDXvXvXAXDXDXDXlX[.t.' ' ] F.J.F.F.K.J.J.J.J.J.W.)._.f.) G *.:.:.>.>.>.%.Q f y t y u M #.3.3.%.%.%.%.&.v u t r t u t r r t x m N r u m O.%.<.%...n n m M x u u i r r r j n #.,.1.1.1.1.,.$...| n n z l z n n X.,.k.l.v.l.l.v.v.M.M.B.B.B.B.B.M.l.z.z.z.h.h.h.1.1.<.,.,.,.,.#.#.$.$.#.#.#.#...#.#.#.#.X.X.#.#.#.X.X.#.#.#.#.#.#.#.#.#...} } ..n l i i k b } } } } ..O...} } n n x u i r r r e B w e B B e B w w w w w w B r w w w B B B B B & & B B B B B B B B & & & B B B B B B B B B B & & B B r B B B B B w B B B B B B B B B B B B B B B B B B ",
"v.v.v.v.v.v.k.k.2.2.2.2.h.h.h.h.k.h.2.2.2.k.v.v.v.v.v.v.v.l.k.v.v.l.1.1.2.k.2.$.| n n ..,.h.v.M.B.XX+X+XOXz.o.1.c.=XrXrXrXrXrX8X+Xl.o.X.o.1.1.j.j.B.#X9XrX9X9X9X9X9X9XrXrXrX9X0X9X9X9X8X6X6X6X6X6X6X6X=X=X+X+X+X@X@X@X@X@X.X@X.X.X.X.XB.B.M.x.z.l.l.z.h.1.1.,.$.X.X.$.j.l.x.M.M.h.,.} n n n O.+.I m Q +.-.:.>.&.+.O.....X.$.%.%.v g P / 6.0.-.*.%.<.2.2.1.<.<.%.} n N j x n %.<.2.2.2.2.2.2.2.2.k.h.h.h.<.3.2.b.n.u.n.I.T.H.G.G.P.I.m.a.q.w.w.b.i.b.i.b.w.>.I P P 0.a.d.f.I.2XZXDXDXDXAXAXAXAXAXDXDXDXlX'.F.] t.R.F.] [ ] ] S.F.R.J.K.K.H.' H G ^ >.:.>.>.>.@.v f y r u N n #.3.%.%.%.%.%.&.n u i r t t t r r t n n j r u n &.<.>.&.n x x x u t r r r r r r u x ..$.<.1.1.,.X.n k j j k i i i i k z | ,.k.l.l.l.v.M.M.M.M.B.B.B.B.B.M.l.z.k.k.z.h.1.1.<.,.,.,.,.#.#.#.#.#.#.#.#.X.X.#.#.#.#.#.#.#.#.#.#.#.#.#.#.#.#.#.#.#.#...} ..| b l j b } #...} } } ..O.O.O.O...} n x u i i i e e e B B e e B B B w w w r r e e e e r r r r & & & & & & & & & & & & & & & B & & B B B w w w B B B B B B B B w w B B B B B r B B B B B B B & w w w & ",
"v.v.v.v.v.v.v.l.v.v.v.v.v.v.v.v.v.v.v.k.k.v.v.v.v.v.v.v.v.v.v.v.v.v.l.l.v.v.l.1.o...n ..,.l.B.OXOXOX;X=X+XB.x.M.#X9XrXrXrXrX9X-XB.j.o.X.o.1.z.c..X+X8X9X9XnXMXMXMXnXrXrXrXrXrXrX9XrX9X0X8X8X6X6X6X6X6X#X+X+X+X+X@X@X@X@X@X.X.X.X.X.X.X.X.XB.B.B.B.B.B.B.v.k.h.h.j.j.j.z.M.M.M.M.h.,.} } #.%.>.>.@.O.+.-.0.a.u.2.>.>.<.<.,.<.1.>.I f c I P ! ! *.3.<.2.2.2.1.<.>.#.} x j x } %.2.2.2.2.2.2.2.2.2.2.2.1.<.#.&.2.b.w.0.y.f.L.G.f.f.q.y.s.m.n.b.w.b.b.b.b.w.2.-.I c P :.u.d.G.U.2XZXDXDXAXvXvXvXvXvXvXvXDXvX[.F.] F.U.H.9.9.9.[ [ F.J.R.9.' ' ( D d +.:.2.2.2.2.>.Q x u u x n O.$.3.%.%.%.%.%.&.m x u r r r t r u x } O.n x n O.3.2.2.$.n u i u t r B r r i u i i j } $.1.1.1.,...z k i i j j i i i i i l | <.k.z.l.l.v.B.B.B.B.B.B.B.B.M.l.l.z.k.k.h.1.1.1.,.,.,.,.$.#.#.#.#.$.#.#.#.#.#.#.#.#.#.#.#.#.#.#.#.$.$.$.$.$.$.$.#.#.#.X...} } } | } X.....} } } ..O.O.O.$.#.#...} n l j j i e e B r r r r r r B w B r r e e e e r r r r & & 2 2 2 2 2 2 & & & & & & & & & & B B w w w w B B B B r B w w w w w w w w B r r r & & & w w r r r r r ",
"C.v.v.v.v.v.v.v.v.v.v.v.v.v.v.v.v.v.k.h.h.k.v.v.v.v.v.v.M.M.M.M.v.M.v.M.B.B.M.l.1.$.X.X.1.l.B.OXOXOX+X+X+X+X@X#X8X9XrXrXrXtXrX8X+Xx.1.o.o.j.c.OX+X6X9X9X9XrXrXrXMXMXnXrXrXnXMXnXrXrXrX9X9X9X0X6X6X6X6X6X#X#X#X+X+X+X+X@X@X@X@X@X.X.X.X.X.X.X.X.XB..X.XV.M.z.l.M.x.x.M.M.B.M.M.M.1.#.} ..,.2.r.2.2.%.O.%.:.0.0.:.2.2.h.2.2.2.h.2.} x u u a c @.:.2.2.2.2.1.2.2.2.3.#.n N x m %.2.2.2.2.2.2.2.2.k.h.2.,.} n O.2.w.0.5.4.4.f.f.p.8./ W 6.m.L.m.n.b.b.b.b.b.w.:.I g P :.s.I.U.Q.iXvXDXDXAXvXvXvXvXvXvXvXvXaXQ.] 9.G.J.G.G.G.G.9.[ ] H.G.' K K J 9 a -.:.2.2.2.2.2.&.m M m O.%.%.3.,.%.%.%.%.-.%.O.m x u u j l x n O.%.3.%.#.#.3.2.2.2.$.n i r i i i t r i x n j i i n $.1.2.1.1.$...b j i i j j k k i i i z $.<.1.1.1.z.M.B.B.V.B.B.B.M.v.l.l.l.k.k.h.j.1.1.<.,.,.,.$.$.#.#.#.$.$.$.#.#.#.#.#.#.#.#.#.#.#.#.#.$.$.$.$.$.$.$.$.$.#.#.#.#.#.#.......} n b b n ..O.#.O.$.#.#.$.$.#...n b j e e r r r r r r r e B B r r e e e e e e e B r r 2 r 2 2 2 2 B 2 2 2 2 & & & & B B B w w w w w w w B B B w w e e e e w r r r r r & & & w r r r w r w ",
"C.C.C.M.M.M.B.M.M.M.M.M.M.M.M.v.v.l.1.,.,.1.l.M.v.v.v.l.v.v.v.v.v.M.M.M.M.M.B.M.l.h.1.1.k.M.B.XXOXOX+X+X#X=X=X0X9XrXrXrXnXtXnXtX9X+Xc.1.X.o.j.B.6X9XnXnXnXnXnXnXnXnXnXnXMXMXMXnXnXrXrX9X9X9X0X8X6X6X6X#X#X#X#X#X#X+X+X+X@X@X@X@X@X.X.X.X.X.X.X.X.X.XXX.XM.h.h.l.M.B.B.B.M.M.M.M.1.,.#.,.<.2.b.b.2.&.n v c d g I >.2.k.k.h.h.h.h.$.} n x x O.2.2.2.2.2.2.<.2.2.2.<.%.O.n x A.3.2.2.2.2.2.2.2.h.k.2.,.| l b &.2.w.0.5./ W 4.f.f.8.W d ^ u.n.n.n.b.b.b.w.w.w.0.*.Q W 7.P.].[.[.pXvXDXDXAXvXvXvXvXvXvXvXkX[.t._ ' t.G.t.9.9.9.8.] F.J.G.' A C Z D G ! *.:.w.w.w.w.2.3.-.3.>.3.%.&.O.&.&.%.@.%.%.%.&...} } O.#.%.<.1.2.2.h.2.2.2.h.h.2.,.n j i r r r r r i x } n j k ..$.1.h.2.1.1.1.$.} l k i i i i j j i i n $.<.<.1.l.B.B.B.B.B.B.B.M.M.v.l.l.z.k.h.j.1.1.<.,.,.,.$.$.$.#.#.$.$.$.#.#.#.#.#.#.#.#.#.#.#.#.#.$.$.$.$.$.$.$.$.$.#.#.#.#.#.......} n j i i l n ..#.$.$.#.#.$.,.,.3.%...b i e r t i i r r r r B B r r r r r r r r r r r r r r r r r r r r r r r r B B B B B B w w w e e B B r r r B w r r r r r r r r r r w w w B r r r r r r ",
"C.C.B.B.B.B.B.B.B.B.B.M.M.M.M.M.M.z.<.X.X.1.z.v.M.M.M.v.M.M.M.M.M.M.v.M.M.v.B.B.B.M.v.v.B.V.OXOXOXOXOX+X+X#X=X8X9XrXrXnXnXtXnXMXMX9X#Xc.1.o.z.B.#X0XrXrXrXnXnXMXnXnXMXMXMXMXMXMXMXrXrXrX9X9X0X0X6X6X6X6X6X#X#X#X#X#X#X+X+X+X+X@X@X@X.X.X.X.X.X.X.X.XXXXXB.z.h.z.M.M.B.B.M.M.M.M.h.1.<.,.X...$.,.>.O.m m I G I ! %.<.h.k.h.h.h.h.2.<.,.$.,.2.2.2.2.2.2.>.2.2.2.2.2.<.%.&.O.%.2.2.h.h.h.h.h.h.h.2.,...n n A.2.b.b.u.u.6./ D J H D d s ! 5.w.b.b.b.b.b.2.:.0.u.q.5.p.~.5XlXaXiXaXvXDXDXDXDXvXvXbXaXsXsX[.J.' E E L K K ` t.t.t.t.F.F.] _ A C F E ) ^ ( =.6.w.0.w.2.w.w.2.>.+.m M N x x n Q &.%.>.%.,.,.3.<.1.2.h.h.2.2.h.h.2.2.2.2.h.<.} x u r e e w w r b #.X.| | $.<.2.h.h.1.j.h.2.<.#.} n l k i k k i i z ,.k.k.v.B.B.B.B.V.V.B.B.M.l.l.v.v.l.k.h.h.1.1.1.,.,.,.,.,.$.$.$.#.#.#.#.#.#.#.#.#.#.#.#.#.#.#.$.$.$.$.$.$.$.$.$.$.#.#.#.#.#...} ..} n j i e i b } #.$.$.$.$.$.,.<.1.1.,...l i i i i i i i i r r r r r r r r r r r r r r r r r r r r r r r r r r r r r r r r r B r r r r r r r r r r r r r r r r r r r r i r r r r i i r r r r ",
"B.B.B.B.B.B.B.B.B.B.B.B.M.B.B.B.M.z.,...X.1.z.v.M.M.M.v.M.v.M.B.M.B.M.B.B.M.B.B.B.B.B.V.V.XXXXV.OXOXOXOX+X=X=X8X9XrXrXnXMXnXMXnXMXrX9X=XOXOX@X6X0XnXMXnXMXMXMXMXMXMXMXMXMXMXMXMXMXMXrXrXrX9X9X0X0X6X6X6X6X6X6X6X#X#X#X#X+X+X+X@X@X@X.X.X.X.X.X.X.X.XXXOXXXM.x.M.M.B.B.B.B.B.M.M.M.v.k.2.$.} #.<.,...} +.+.U ! I +.%.2.h.h.h.h.h.h.h.h.h.h.h.h.h.2.2.2.2.2.2.2.2.2.2.2.>.3.2.2.h.h.h.h.b.b.b.h.2.3.#.&.$.3.2.b.m.n.m.m.y.H 9 8 8 7 d ! :.w.b.b.b.b.Z.:.:.0.s.d.s.I.:XlXbXaX|.sXbXvXAXvXvXbXkXaXiX}.).H.' K E L A C C E t.t.F.t.] ] [ [ [ ` 9.H./.(.I.d.d.a.0.0.0.i.w.2.+.M a u r t u u x Q %.>.>.<.<.<.<.1.2.2.2.2.2.h.h.h.h.h.2.2.3.} b j u u u i r i | ,.<.,.<.1.h.k.k.h.1.j.h.2.1.1.1.<.X.n z z z k i n 1.v.M.v.M.B.B.B.B.B.M.M.l.l.l.l.l.l.k.h.h.1.1.<.<.,.,.,.,.,.,.$.#.#.X.#.#.#.#.#.#.#.#.#.#.#.#.$.$.$.$.$.$.$.$.$.$.$.#.#.#.#.#...#...| b i e i l } #.,.$.,.<.,.,.<.1.1.1.%.} l i i r i i i i r r r r r r r r r r r r r e e e e e e e e e e B e e e r r r r r r r r i i i r B w r r r r r r r r r r r r i i i i i i i i i i i i ",
"B.B.B.B.B.B.B.B.B.B.B.B.B.B.B.B.B.x.2.,.,.k.x.M.B.B.C.M.M.B.B.B.B.B.B.B.B.B.B.B.B.B.B.B.V.V.V.V.OXOXOXOX+X=X=X8X9XrXrXMXMXMXMXnXMXMXrXrX9X0X9XrXMXMXMXMXnXnXMXMXMXMXMXMXMXMXMXMXMXMXMXrXrXrX9X9X0X8X6X6X6X6X6X6X6X6X#X#X#X+X+X+X+X@X@X@X.X.X.X.X.X.X.X.XXX.X.X.XB.B.B.XXOXXXB.N.M.N.N.l.2.1.1.2.1.#.} } &.%.@.+.A.#.1.h.v.l.h.l.k.h.h.h.h.h.h.h.2.2.2.:.2.2.2.2.:.:.2.2.2.2.2.2.2.2.2.h.h.b.h.2.2.2.2.2.w.i.b.V.m.m.Y.m.:.P s 7 p P >.b.b.b.b.n.b.b.q.q.y.p.H.Q.].iXlXaXsX{. XsXbXvXvXaXsXaXaX|.J.K.] _ Z ( L Z , C ' f.G.t.] { K.J.W.J.S.F.].aXlXiX2X`./.L.n.y.i.0.*.c y y y r r r r u n %.<.<.<.<.<.1.1.1.2.h.2.h.h.k.h.2.h.h.2.<.#.} } A.n b x b n $.1.1.h.z.k.z.z.h.h.j.j.j.2.1.2.k.k.1.,.$.X.......,.k.l.l.h.z.B.B.B.B.B.M.l.z.1.h.l.l.l.k.h.j.1.1.1.<.,.,.$.$.$.$.$.#.#.#.#.#.#.#.#.#.#.#.#.#.#.#.$.$.$.$.$.$.$.$.$.$.$.$.#.#.#.#.#.#.....| b j j b | #.$.$.,.,.,.,.<.1.2.1.1.,...b u t t i i i i i i t t i i r i i r r i i i i i i i i i i i i i i i i i i e e e i i i i i i e e e e i i i i r i i i u k k j j l k k i i i k k k ",
"V.V.V.B.B.B.B.B.B.B.B.B.B.B.B.B.B.M.l.k.z.l.B.B.B.B.B.M.M.B.B.B.B.B.B.B.B.B.B.B.B.B.B.B.B.B.V.V.XXOXOXOX+X;X=X8X9XrXrXMXMXmXMXmXmXMXMXrXrXrXMXMXMXMXMXMXnXMXMXMXMXMXMXMXMXMXMXMXMXMXMXrXrXrX9X9X0X0X0X6X6X6X6X6X6X6X6X#X#X#X#X+X+X@X@X@X@X.X.X.X@X.X.X.XXXXXXXXXB.B.B.XX;XOXXXB.N.N.M.M.v.l.v.M.k.,.| n } %.%.+.A.#.1.h.v.l.h.l.l.h.h.h.h.h.h.h.2.w.w.w.0.:.:.2.:.2.2.2.2.2.2.2.2.2.2.2.2.2.h.k.b.b.Z.i.w.i.b.V.m.n.n.n.i.-.P P P @.w.b.C.b.b.b.n.n.n.s.g.d.Q.].iXaXbXaX|.{.{.|.aXkXkXiX|.aXkX|.F.] ` L Z L L C C L 9.G.f.9.] F.{.|.|.{.R.W.2XlXvXlXlXaX4X:X~.m.n.:.I y 3 r t y r r r u n %.<.<.<.<.<.1.1.2.h.h.h.k.k.h.2.2.h.k.h.1.<.3.<.<.$.#.$.$.$.1.k.k.z.l.l.l.z.h.j.j.h.j.h.h.h.h.k.h.h.h.1.1.<.1.k.M.l.2.1.z.B.B.B.B.B.M.l.l.1.1.k.l.l.k.h.h.1.1.1.<.,.,.$.$.#.#.#.$.$.$.$.#.#.#.#.#.#.#.#.#.#.$.$.$.$.$.$.$.$.$.,.$.$.$.$.#.#.#.#.#.#.#...} n n n } X.$.$.,.,.,.<.<.<.2.2.2.<.$.n x u t i i i i i i i i i i t i t r e e i i i i i i i i i i i i i i i i i e e i i i i i i i i i r r i r r i u j b n n n | } } } | n z z z n n | ",
"V.V.V.V.V.V.V.V.V.V.B.B.B.B.B.B.B.B.B.B.B.B.B.B.B.B.B.B.B.B.B.B.B.B.B.B.B.B.B.B.B.B.B.B.B.B.V.OXXXOXOXOX+X+X=X8X9XrXrXMXMXmXmXMXMXtXrXrXrXrXMXMXMXMXMXMXMXMXMXnXnXnXMXMXMXmXMXMXMXMXMXjXrXrXrX9X9X0X0X0X0X0X6X6X6X6X6X#X6X#X#X#X+X+X+X@X@X.X.X@X@X@X@X@X.XXXXXXXB.l.h.M.XXOXXXXXN.M.M.N.B.N.B.B.M.j.X.z n O.$.#.#.,.h.l.M.v.v.v.v.l.l.l.z.z.h.h.w.b.m.m.u.5.:.5.:.2.2.2.2.2.2.2.2.2.h.h.h.2.2.b.i.b.i.w.w.2.2.w.i.w.w.i.b.w.2.>.:.w.b.b.b.b.b.b.n.n.n.P./.^.>X2XaXkXbXkX|.{.{.{.|.aXkX|.sXkXkX[.] ` L L F ` ` ( _ ` G.G.8.` _ F.|.aXaX|.[.[.2XsXiX|.|.sXlXfXyX*Xn.:.d 3 3 t y u t r r u m %.<.3.1.<.1.1.2.2.h.k.k.k.k.h.2.h.k.l.v.k.h.h.Z.b.h.2.h.h.h.h.l.l.l.x.l.z.z.h.h.h.h.h.z.z.z.h.z.l.l.l.x.x.x.M.B.B.B.l.z.x.B.B.B.B.B.B.M.l.1.1.l.l.l.z.h.j.1.1.1.1.<.,.,.#.} n | ..#.$.$.#.#.#.#.#.#.#.$.$.#.$.$.,.,.,.,.,.,.,.,.$.$.$.$.$.$.$.$.$.#.#.#.#.#.X.....#.$.,.<.<.1.1.1.1.2.1.1.2.1.$.} x j u u i i u i i t i t i i i i t i i i i i i i i i i i i i i i i i i i i i i i t r i i u i i r r r r i x } #.$.$.$.,.,.<.1.1.,.,.$.$.$.$.$.",
"XXXXXXXXXXV.V.V.V.V.V.V.B.B.B.B.B.B.B.B.B.B.B.B.B.B.B.B.B.B.B.B.B.B.B.B.B.B.B.B.B.B.B.B.B.B.B.V.V.OXOXOX+X+X=X7X9XrXrXMXMXmXmXMXMXtXrXrXrXrXnXnXMXMXMXMXMXMXMXnXnXnXMXMXmXmXmXmXMXMXMXMXrXrXrXrX9X9X9X0X0X0X0X0X0X0X6X6X6X6X6X6X#X+X+X+X@X.X.X@X+X+X+X@XXX.X.X.XB.h.$.,.1.h.v.v.B.B.B.B.B.B.B.B.B.l.1.| z n #.3.1.h.v.M.N.N.v.v.v.v.v.v.z.l.l.h.b.Y.%X!.m.a.q.5.:.:.2.2.2.2.2.2.h.h.h.b.b.Z.2.w.w.i.i.i.i.2.>.@.2.w.b.b.b.C.b.b.b.C.C.b.b.b.n.u.0.7.d.^.pXlXlXlXaXaXbXbXgX X{.{.|.kXkXaXaXsX|.{.F.] ` L F ` 9.t.9.9.H.G.' K C ] {.sXsX|.|.[.'.).).].|.iX2X2X:X~.p./ s 7 y y y y r t i x O.3.<.<.2.2.1.2.2.2.h.h.h.k.k.k.h.k.z.l.v.2.1.<.2.Z.h.v.l.l.z.z.l.M.x.x.x.l.z.z.z.z.h.h.z.z.z.j.j.z.l.l.l.M.B.B.M.x.M.B.B.B.x.l.M.B.B.M.M.l.1.1.l.l.l.h.j.1.1.1.1.<.,.,.$...b j j b } #.#.#.#.X.#.#.#.$.$.$.$.$.,.,.,.,.,.,.,.,.,.,.$.$.$.$.$.$.$.$.$.$.$.$.,.$.$.$.,.,.<.<.<.1.h.h.2.2.1.2.h.h.2.3.&.A.n n n n x j i r i i u j l x x b z b z n n n z n z z z z z l l k i i i i i i r r r i i i i r r r i u n O.3.1.1.<.1.1.1.j.j.j.j.1.1.1.1.1.",
"OXOXOXOXOXOXXXXXXXXXV.V.B.B.V.V.V.V.B.B.V.V.B.B.B.B.B.B.B.B.B.B.B.B.B.B.B.B.B.B.B.B.B.B.B.B.B.B.V.OXOXOX@X+X=X7X9XrXrXjXMXmXmXMXMXrXrXrXrXnXnXnXnXMXMXMXMXMXnXnXnXnXMXmXmXmXmXmXmXMXMXMXjXrXrXrXrX9X9X9X9X9X0X0X0X0X0X6X6X6X6X6X6X6X+X+X+X@X@X@X+X+X+X+X@X.XXXXXXXl.1.$.#.#.,.1.M.B.XXB.B.B.B.B.B.M.z.1.X.| ,.h.M.M.B.B.M.N.v.v.l.v.v.v.l.l.v.l.b.Y.%X!.L.L.n.5.5.:.0.2.2.2.2.h.h.h.h.v.b.Z.Z.b.b.b.i.i.i.i.2.:.w.b.b.b.b.C.v.v.C.C.b.b.b.b.0.:.) ) 7.].cXAXvXvXaXaXbXvXkX X{.{.|.kXkXgXsX XW.W.Q.G.` L F ` t.G.F.t.H.f.' K C [ {.aXaXiX).F._ E ` H.}.Q.G.9.7.4.^ G 8 3 3 t r : r t x A.3.2.2.1.1.2.2.2.2.h.h.h.h.h.k.h.k.z.l.l.h.,.#.O.$.<.2.h.z.l.l.l.M.M.M.x.x.x.x.x.z.z.z.h.z.h.1.$.$.1.z.z.z.x.x.z.1.,.1.j.l.x.z.z.l.M.M.v.l.z.,.,.1.h.h.1.1.1.1.<.,.,.,.,.$...b j j b } ..#.#.#.#.#.#.#.$.$.$.$.,.,.,.,.,.<.<.,.,.,.,.$.$.$.$.$.$.$.$.$.$.$.$.,.,.,.,.<.<.<.,.$.$.1.2.h.h.2.h.k.v.v.b.2.<.1.1.<.3.$.O.n x x n n } O.$.%.3.<.1.1.1.1.1.1.1.1.1.1.1.1.,.$.X.| | z l k j u i u u j k i i i i i j n $.1.2.1.<.j.j.j.j.j.j.1.1.<.1.1.1.",
"OXOXOXOXOXOXOXOXOXOXOXXXV.V.V.V.V.V.B.B.V.V.B.B.B.B.B.B.B.B.B.B.B.B.B.B.B.V.B.B.B.B.B.B.M.v.B.B.B.XXOXOXOX+X=X6X9XrXrXMXMXMXMXMXrXrXrXrXrXrXnXnXnXMXMXMXMXMXMXMXnXnXMXMXmXmXmXmXmXMXMXMXjXrXrXrXrXrX9X9X9X9X9X0X0X0X0X0X0X6X6X6X6X6X=X#X+X+X+X+X@X@X@X@XXX.X@X@XXXB.M.h.1.,.$.,.z.M..XB.B..X.X.XB.B.B.x.h.j.z.B..X.XB.B.M.M.M.v.l.v.M.v.l.l.l.h.w.n.V.m.n.Y.m.w.:.:.2.2.2.2.2.2.2.h.b.b.Z.h.b.b.b.b.i.2.2.2.2.i.b.b.b.b.b.b.v.N.C.C.b.b.b.i.;.W D J ' Q.lXvXvXvXaXaXlXbXkX|.{. X|.kXkXkXaX{.J.W.'.G.` K K ' t.F.F.t.F.t.' L C ` ).sXaXiXQ.` C 0 J t.G.9.E J J D J s p 3 3 3 r r r u m $.<.2.2.2.2.2.2.2.2.k.z.z.k.k.k.h.z.l.v.v.2.#.| | } #.,.1.h.l.l.x.M.B.M.M.M.x.x.x.x.z.z.h.h.1.X.n z X.j.z.x.x.z.1.X. .n | X.,.1.z.l.M.M.M.l.2.X.X.,.1.1.1.1.<.<.<.,.,.,.,.$.#...} } ..#.#.$.$.#.#.#.#.$.$.#.$.$.,.,.,.,.,.3.<.,.,.,.,.$.$.$.$.$.$.,.,.$.$.$.,.,.,.,.<.<.1.<.$.| | $.1.h.h.k.k.l.v.v.v.v.k.v.v.v.b.h.2.3.$.,.<.1.2.2.h.k.v.l.l.l.l.l.l.l.l.l.x.M.M.M.M.M.l.z.h.1.,.X.| | b n n n b z k k k k b ..<.2.h.2.1.j.j.1.j.j.1.<.,.X.$.<.1.",
"OXOXOXOXOXOXOXOXOXOXOXOXOXOXV.XXOXOXV.V.OXV.V.B.B.B.B.B.B.B.B.B.B.B.B.B.B.V.B.B.M.x.l.z.k.k.l.B.B.XXOXOXOX@X#X6X9XrXrXMXMXMXMXnXrXrXrXrXrXnXMXMXMXMXMXMXMXMXMXMXMXMXMXMXmXmXmXmXMXMXMXMXMXnXnXnXrXrXrXrX9X9X9X9X9X0X0X0X0X0X6X6X6X6X6X=X=X+X+X+X+X@X@X.X.X.XXX@XOXXX.XB.M.h.j.j.x.B.B.B.B..X.X.X.XB.B..XB.M.B.B.XX.XB.B.B.B.N.M.M.v.M.v.x.v.l.h.2.>.:.0.u.m.V.b.2.2.0.2.w.2.2.2.2.h.b.b.b.h.2.2.2.2.2.2.2.2.2.b.b.b.b.b.b.C.C.C.C.b.b.w.5.=.W D D D ( H.].pXaXaXsXaXvXbXgX X{.{.|.aXkXkXkX|.W.W.).9.E K L ' 9.t.9.t.t.' ( A C _ Q.iXaXiXU.( 0 0 E f.8.F 6 8 s d s h a p t t y a x } ,.<.2.2.2.2.2.2.2.h.k.k.k.k.l.l.z.z.l.v.v.l.1...n n | X.o.<.h.l.M.M.B.B.M.M.M.M.x.x.x.x.z.z.h.1...k i z $.1.z.z.z.1.X.z k i k z X.<.k.M.B.M.k.1.| n ....X.$.$.$.,.<.,.,.,.,.,.$.$.$.$.$.$.#.$.$.#.#.#.#.#.$.,.$.,.,.,.,.,.,.,.,.,.,.,.,.$.$.,.,.,.,.,.,.,.,.,.<.<.<.<.<.1.1.1.$.} } #.1.h.k.v.v.v.v.v.v.v.v.v.v.v.v.v.k.h.h.h.k.v.v.v.v.v.v.M.M.M.M.M.M.B.B.B.B..XXXXXXXXXXX.XB.B.l.h.1.1.,.,.$.#.X.X.X.} | } #.,.1.h.h.h.h.j.j.j.j.1.,.X.| | X.,.1.",
"OXOXOXOXOXOXOXOXOXOXOXOXOXOXOXOXOXOXOXV.OXV.V.V.V.V.B.B.B.V.V.V.V.V.V.B.V.V.V.B.l.z.2.1.$.,.1.k.B.V.OXOXOX@X#X6X0X9XrXrXMXMXMXrXrXrXrXnXnXMXMXMXMXMXMXMXMXMXnXnXMXMXMXmXmXmXmXmXMXMXMXMXMXnXrXnXnXrXrXrXrXrX9X9X9X9X9X0X0X0X0X0X6X6X6X6X6X6X#X+X+X+X@X@X@X@XXX@X@XOX.XXXXX.X.X.X.X.X.X.X.X.X.X.X.XB..X.X.X.X.XB..X.XB.B..X.XB.M.M.M.M.M.M.M.l.h.O.x M @.2.b.b.b.2.2.0.w.w.2.2.2.2.2.h.b.b.Z.3.} x m %.2.2.2.2.2.b.b.C.b.b.b.C.C.b.b.b.0.*.U s 8 q H ` 8.t.G.U.).[.aXvXvXaX{.W.{.|.aXbXvXvXkXaXiXQ.] L L E ' ] ] ] ] ] ` H C C E H.[.2X].t.H 9 Z 9.H.' q 8 s p 4 3 y y y y y a x O.,.h.h.h.2.2.k.2.2.2.h.h.k.k.z.l.l.z.z.l.M.M.z.<...| | #.1.j.h.z.M.B.B.B.M.M.B.B.x.x.x.x.x.x.l.k.1.X.l i i z X.1.z.l.z.,...l i i i k n ,.l.C.v.<.X.l k k i j l n ..X.$.,.,.,.,.<.3.$.,.,.$.#.O.#.#.#.#.X.#.#.$.,.$.,.,.,.,.,.,.,.,.,.,.,.,.$.$.,.,.,.,.,.,.,.,.<.<.1.<.<.<.1.1.1.<.$.#.,.1.h.l.v.v.v.v.l.v.v.v.v.v.v.v.v.v.v.v.v.v.v.v.l.l.v.v.x.M.M.M.M.M.B.B..X.XXXOXOXOXOXXXOXOXOXXXXXB.B.M.x.z.z.h.h.h.j.j.j.j.h.h.h.j.j.j.j.j.1.1.,.} z k z | ,.1.",
"OXOXOXOXOXOXOXOXOXOXOXOXOXOXOXOXOXOXOXOXOXOXE.V.V.V.V.V.V.V.V.V.B.B.B.B.V.B.M.z.2.1.1.,.o.o.1.z.B.B.OXOXOX+X=X=X0X9XrXnXrXrXrXrXrXrXMXMXMXMXmXmXMXMXmXmXmXmXMXMXMXmXMXMXmXmXmXmXmXMXMXMXMXnXMXnXnXnXnXrXrXrX9X9X9X9X9X9X9X9X9X0X0X0X6X6X6X6X6X#X+X+X+X@X@X@X@X@X@X@X@X@X@XXX.X.X.X.XXX.X.X.X.X.X.X.X.X.X.X.X.X.X.X.X.X.X.XB.B.B.B.B.M.M.M.M.v.l.,.} l l m +.3.2.2.2.w.0.>.%.%.%.>.2.2.2.b.Z.2.$.x u u m >.2.2.2.2.2.w.i.2.2.i.b.b.b.b.n.L.7.J 0 V J H J K ( ` ' F.|.kXkX|.W.W.{.sXkXvXbXkXaXsX|.J._ C Z E 8.9.9.] 9.' ( ( ( ' ' t.t.8.( H V C E G._.J.` q 7 4 y t 2 t y u x Q &.<.2.h.Z.h.h.h.h.k.k.k.k.k.k.z.z.z.z.z.l.l.M.M.M.h.1.1.h.l.x.M.B.B.B..X.X.X.X.XB.M.z.j.j.z.z.M.M.v.2.#.b j k z k | X.1.1.<.$.} x u u u l } $.<.,...b u i i i i i l l n | ..$.$.,.$.$.$.3.$.#.} | X.#.$.#.X.X.X.#.,.,.,.,.1.1.<.3.<.<.,.,.,.,.,.,.,.<.<.1.1.1.1.1.<.1.1.1.1.1.1.1.h.1.1.1.2.k.l.v.v.v.l.l.k.h.h.l.M.B.N.M.M.h.<.,.1.l.M.M.M.M.v.v.M.M.M.M.M.B.B..XXXXXXXOXOX+X+XOXOXOXXX.X.XB.B.M.x.x.z.h.h.z.z.z.h.j.j.h.h.h.j.j.j.j.1.$.| z k k | o.1.j.",
"OXOXOXOXOXOXOXOXOXOXOXOXOXOXOXOXOXOXOXOXOXOXOXOXOXV.V.V.V.XXXXV.V.V.V.V.B.B.l.k.1.1.,.$.o.o.1.z.B.B.OXOXOX+X+X=X7X0X9XrX9XrXrXrXMXMXMXMXMXmXmXmXmXmXMXmXmXmXmXMXMXmXMXmXmXmXmXmXMXMXMXMXMXMXMXMXnXrX9X6X6X0XrXrXrXrX9X9XrXrX9X9X9X9X0X0X0X6X6X6X6X#X+X+X+X+X+X+X@X@X@X+X+X@X@XXXXXXXXXXX.X.X.X.X.X.X.X.X.X.X.X.X.X.X.X.X.X.XB.B.B.B.B.B.N.M.M.v.h.3.} b m O.%.2.2.2.2.:.@.Q I O.%.2.2.2.2.h.2.<.O.n x m %.>.>.%.O.+.%.-.-.@.>.:.2.0.y.L.%X<XL.7.( H F A A K K K _ ).aXsX[.W.{.|.kXvXvXkX|.|.|.|.J._ C C L 9.F.9.9.9.8.( ( 4.4.( E H J V V V C K t.].].H.' d p f v c m Q +.&.@.&.#.$.<.2.h.h.h.h.k.k.k.k.k.l.l.l.x.x.x.l.x.M.B.B.M.l.M.B.B.B.B.B..X.X.X.X.X.X.X.XM.z.j.j.z.l.M.M.v.1.#.| | |  .k k z | | } | n x u u i u l n n n b l i i i i i i i i k l n } ..#.#.$.,.3.$.O.| n ..#.$.#.X.X.#.$.,.,.,.,.1.1.1.<.1.<.<.<.<.<.<.,.<.1.1.1.1.1.1.1.1.1.1.1.1.2.h.h.k.k.k.k.l.v.v.v.v.v.v.z.1.,.,.1.l.M.M.M.l.1.X.} ,.h.v.M.M.M.M.M.M.B.B.B.B.B.B..XXXOX+X;X;X;X;X+XOXOXXXXX.XB.B.M.x.z.z.z.z.z.z.z.h.h.h.h.h.h.j.j.1.,.X.| z k k z X.<.j.j.",
"&X$X$X$X+X+X+X+X;X+X;X;X+X+X+X+XOXOXOXOXOXOXOXOXOXOXOXXXXXXXXXXXXXXXV.V.V.B.x.z.k.h.h.2.1.1.z.M.B.OXOXOXOXOX+X=X=X7X0X0X0X9XrXrXmXmXMXMXMXmXmXmXmXmXmXMXMXMXMXMXmXMXmXmXmXmXmXmXmXmXMXMXMXMXMXMXMX9X=X.X.X6XrXnXnXnXrXrXnXnXnXnXrXrX9X9X0X0X6X6X6X6X6X+X+X+X+X+X+X+X+X+X+X+X@X@XXXXXXXXXXX.X.X.X.X.X.X.X.X.X.XXX.X.X.X.X.X.X.X.X.X.XB.B.B.B.B.B.N.h.<.$.$.%.2.2.w.2.2.>.@.+.+.&.1.2.k.2.2.2.2.2.>.%.O.O.%.&.I v c c I I m v I Q Q W ^ p.:X4XpX:Xf.( A F F F A C T J.iX|.).W.[.aXbXvXvXkX|.|.|.iX).' A A L 8.F.9.] ' ' ( =.5.4.) Z 9 9 V Z C 0 C ` _.iX2XI.) d Q >.2.2.i.b.2.@.m x M A.3.h.b.b.b.b.b.l.v.v.v.v.v.M.M.M.M.M.M.B.B.B.B.B..XXXXX.XB..X.X.X.X.X.X.X.XB.x.j.j.x.M.M.M.z.1.X.X.$.,.X.z k k i k j j j u u u u u i i k u u i i i i i i i i i i i k l n | ..#.,.,.$.O.n n } #.$.$.#.#.$.,.,.,.,.,.1.1.2.1.1.1.1.1.1.1.1.1.1.1.1.1.1.2.2.2.1.2.2.2.h.k.k.k.k.k.v.v.v.v.v.v.v.M.v.k.,.| | $.1.l.M.M.l.1.} z #.j.v.M.M.M.M.N.B.B.B.B.B.B..XXXXX+X;X;X;X;X;X+XOXOXXXXX.XB.B.M.x.x.x.l.x.z.h.h.z.z.h.z.z.z.h.h.1.$.| z k z  .| 1.j.h.h.",
"=X&X&X;X;X;X;X;X;X;X;X;X;X;X+X+X+X+XOXOXOXOXOXOXOXOXOXOXOXOXOXOXXXOXXXV.V.V.V.B.M.M.M.v.l.l.M.B.OXOXOXOXOXOX+X;X=X7X0X0X0X9XrXMXmXmXMXMXMXmXmXmXNXmXmXmXmXMXMXMXMXmXmXmXmXmXmXmXmXmXmXMXMXMXMXMXMX9X@Xz.x.+X9XMXMXnXnXnXMXnXnXnXrXrXrX9X9X0X0X6X6X6X6X6X=X+X+X+X+X+X+X+X+X+X@X@XXXXXXXXXXXXX.X.X.X.X.X.XOXXXXXXXXXXX.XXX.X.X.X.X.X.X.XB.B.B.B.B.N.v.h.h.h.h.Z.Z.2.2.2.>.3.3.3.>.2.h.k.2.2.2.i.w.2.2.%.+.Q m c f c c c c c g c c P G G ( I.5XvXvX].9.F A K L K S _ W.|.[.W.W.|.bXvXvXbXkXsXsXaXsX'.t.K C L 8.t.9.' ` ` 4.e.q.5.^ J V V D Y C , 0 _ _.sXpX`.4.U :.b.C.V.V.V.r.Q N t u x #.2.b.b.h.b.v.v.v.v.v.M.M.M.M.B.B.B.B.B.B.B.B.B.XXXXXX.X.XB..X.X.X.X.X.X.X.Xc.x.x.B.B.B.M.h.,.| X.1.h.1.} z k u j j u u u N x u u i i i k k u u i i i i i i i r r i i l l n } O.$.#.O.} } } #.$.$.#.#.#.$.,.,.1.1.1.1.2.2.1.1.1.1.1.1.1.1.1.1.h.h.h.h.h.h.h.h.h.h.k.k.l.l.k.l.v.v.v.v.v.v.v.v.v.l.1.X.X.,.h.l.M.M.M.j.$.} ,.h.v.M.M.M.M.B.B.B.B.B.B..XXXXXOX+X;X=X=X6X=X+XOXXX.XXX.XB.B.B.M.x.x.x.x.x.z.x.M.x.l.z.x.x.l.h.1.$.| | | } ,.1.h.h.h.h.",
"=X=X=X=X=X=X=X=X=X=X=X=X;X;X;X;X;X;X;X+X+X+XOXOXOXOXOXOXOXOXOXOXOXOXOXXXXXOXOXOXOXOXOXOXV.V.V.OXOXOXOXOXOXOX+X+X;X=X8X8X8X8XrXnXmXmXmXmXmXmXBXBXBXBXmXmXmXmXMXmXmXmXBXBXBXBXmXmXmXmXmXmXMXMXMXMXMXrX#Xx.j..X0XMXMXMXMXMXMXMXMXMXnXnXrXrX9X9X9X0X0X0X6X6X6X6X=X#X+X+X+X+X+X+X@X@X.XXXXXXXXXXX.X.X.X.X.X.XOXOXOXXXXXXX.X.X.XXXXXXX.X.XXX.X.X.XB.B.N.N.M.v.b.Z.h.2.2.2.2.2.2.2.2.2.2.h.h.2.2.2.2.2.>.-.+.v f f c v Q I c h g g g g G J D D ` U.cXDXpXJ.` E _ ' ] ] F.}.|.{.R.J.|.kXvXkXkXkXkXaXaXsX_.9.K C L 8.F.F.` ( 4.a.n.n.u.e.( J C C A S S S ] {.sXiXQ.( U 0.V.V.V.V.V.b.&.M a a M #.2.h.k.h.Z.v.b.v.v.M.M.N.M.B.B.B.B.B.B.B.V.B.B.V.XXOXOXXX.X.X.XOX.X.X.X.X.X.XB.B..XB.B.B.x.1.$.<.h.v.h.,.n l j j N u u a x x u u i i i u i k u i i u k k i i t r t i i u x x n } O.#.#.#.#.#.#.#.....#.$.,.1.1.1.1.1.1.1.1.1.1.1.1.1.1.1.1.h.h.h.h.h.k.k.k.k.k.k.k.l.v.v.v.v.v.v.v.v.v.v.v.v.v.v.l.j.1.h.v.v.M.M.M.l.1.<.1.z.v.M.M.N.B.B.B.B.XXXX.XXXXXOXOX;X=X6X7X6X;XOXM.B..X.X.XB.B.B.M.M.M.M.B.M.M.M.x.z.h.h.z.x.z.h.j.j.1.<.1.1.j.h.l.z.z.h.",
"=X=X=X=X=X=X=X=X=X=X=X=X=X=X=X=X=X;X;X;X;X;X;X+X;XOXOXOX+X+XOXOXOXOXOXOXOXOXOXXXV.B.V.V.V.V.V.OXOXOXOXOXOXOX+X+X;X=X=X-X7X8XwXtXmXBXBXBXBXBXBXmXmXtXrX9X8X9XrXmXmXBXBXBXBXBXmXmXmXmXmXmXmXMXMXMXMXnX0X.Xj.x.#XrXMXMXMXMXMXMXMXMXMXMXnXrXrXrX9X9X0X0X0X6X6X6X6X6X#X#X+X+X+X+X@X@X.XXXXX@XOXXXXX.X.X.X.XOX@XOXOXOXXXXXXX.XXXXXXXXXXXXXXXXXXXXX.XB.B.B.M.v.Z.h.2.2.2.2.2.2.w.2.2.2.b.h.2.2.2.2.-.@.Q I v f f g v Q ! P g a a d G G G W ) F E f.dXDXvXsX_.Q.).[.2X|.[.sXiXW.K.R. XkXkXaXkXkXbXkXsX[.J.' K L ` t.F.F.] ` e.d.n.m.T.^.P.9.E E [ F.F.J.W.|.[.U.] D U q.V.Y.E.V.V.C.b.2.%.%.%.>.2.b.v.b.b.b.v.M.M.M.N.B.B.B.B.B.B.B.B.XXV.V.V.XXOXOXOXXXOXOX.XOX.X.X.X.XOXXX.X.XV.B.B.B.B.x.z.z.M.B.N.h.+.n a u u i u u x b u i i i u u i i i u u u i i t i i i i i u u u u u x n O.#.$.,.$.....} } #.$.,.1.1.h.2.1.1.1.1.1.1.1.1.1.h.h.h.h.k.l.l.l.l.l.l.l.k.k.k.l.v.v.v.v.M.M.M.M.M.M.v.v.v.v.M.M.v.M.M.M.M.M.M.M.v.z.l.M.M.N.B.B.B.V.B.XXXXXXXXXXOX;X;X=X6X7X6X+XM.j.1.j.x.B..XB.B.B.B.B.B.B.B.B.M.M.j.1.1.j.z.x.x.z.z.z.z.z.z.l.x.x.l.z.h.h.",
"=X=X-X-X=X=X=X7X=X=X=X=X=X=X=X=X=X=X=X=X;X;X;X;X+X+X+X+X+X+X+X+XOXOXOXOXOXOXOXV.V.V.V.XXXXOXOXOXOXOXOXOXOX+XOX+X;X;X;X=X-X8XwXtXmXmXmXmXmXnXrX9X-X;XOXV.B.OX=X8XwXtXmXBXBXBXBXBXBXBXBXBXBXmXMXMXMXmXnX6X.XB.+XrXMXMXMXMXMXMXMXMXMXMXMXMXnXnXrXrXrX9X0X0X0X6X6X6X6X6X6X+X+X+X+X+X@X@X@X+X@X@X@XXX.X.X.X@X@XOXOXOXOXXXXXXX.XXXXXOXXXXXXXXXXXXXXX.XB.B.M.v.h.h.h.2.h.2.2.2.2.2.2.2.h.2.2.%.%.+.I v c g g g g c P P P G h p a d g G G U ( H ( H.dXDXAXbXaXpXlXvXvXvXkXkX|.{.W.{.sXkXaXsXkXvXvXkX|.W.t._ L ` 9.G.F.F.9.8.7.d.L.P.:XdXpX2X).W.).|.sXsXsXsXW.] L F 8.L.Y.Y.Y.OXV.V.V.C.b.i.2.2.2.b.b.v.v.v.N.N.N.N.B.B..XB.B.B.B.B.B.V.V.V.XXXXOXOXOXOXOXOX.X.XOXOXOXOXOXOXXX.XB.M.M.B..XB.B.B.B.V.C.b.2.+.c a u u u u z z l i u b n b j i i i u i t t t i y u u y y t t t t u x n } O.$.#.O.......#.$.,.<.1.1.1.1.1.1.j.h.h.h.h.h.h.h.l.l.v.M.v.M.M.M.v.l.k.k.k.l.v.v.M.M.M.M.M.M.M.v.v.v.v.M.C.M.M.M.M.v.v.M.M.M.M.M.M.N.B.B.B.B.B.B.B.XXXXXXOXOX;X;X=X6X7X7X;XB.j.o.o.1.x.B..X.XB.B.B.B.B.B.B.B.B.x.1.<.1.h.x.M.x.M.x.x.x.l.z.z.z.z.z.h.h.h.",
"-X-X7X7X7X7X7X7X7X7X7X7X7X7X-X-X-X=X=X=X=X=X;X;X;X;X+X;X;X+X+X+XOXOXOXOXOXOXOXOXXXV.V.V.XXXXV.V.V.OXOXOXOXOXOXOXOXOXOXOX+X=X8X9XwXwX9X8X=X;XOXB.x.l.z.z.k.k.x.B.OX=X9XnXmXBXBXBXBXBXBXBXBXBXmXmXmXmXmXnX6X=X6XnXMXBXBXMXBXBXMXMXMXMXMXMXMXnXnXnXrXrXrX9X0X0X0X0X6X6X6X6X+X+X+X+X+X+X+X@X@X@X@X@XXXXX.X@X+X@XOXOXOXOXXXXXXXXXOXOXXXXXXXXXXXXXXX.XB.B.B.M.v.b.h.h.2.2.%.&.O.&.$.3.2.3.#.I n c c c c g f f g g g h d d h s s d J d G Y W J ' Q.lXDXAXvXlXlXvXvXvXvXvXkX|.|.sXgXkXaXsXsXkXvXbXaX[.J.] E K ` 9.G.F.F.9.9.p.L.P./.4XxXvXvXlXsXsXkXbXvXbXsXK._ S ` H.P.Y.V.Y.OXOXV.V.C.C.b.2.3.1.2.b.v.N.N.N.N.N.B.B..X.XB.B.V.B.B.B.B.B.B.B.B.B.XX.X.XOXOXOXOXOXOXOXOXOXOXXXB.M.l.l.v.x.B.B.V.B.V.C.b.w.-.c a f x j l l l l u l n O.O.b u i u u u t t t t y y y t r r t t t u u j b n } O.#.#.#.O.#.$.,.<.1.1.1.1.1.j.j.h.h.h.h.h.z.l.v.M.M.M.M.M.M.M.M.v.l.k.k.l.v.M.M.M.M.M.M.v.v.v.v.M.C.M.M.M.v.M.v.v.M.M.M.M.M.M.v.N.B.B.B.M.v.v.B.B.XXOXOX;X;X=X6X7X7X6X+XM.j.1.j.x..XXX.X.X.XB.B.B.B.B.B..XB.B.z.h.z.M.B.B.M.M.x.x.M.x.z.z.z.z.z.z.h.h.",
"1X1X1X1X1X1X8X7X8X8X8X8X8X8X7X7X7X7X-X=X=X=X=X=X=X=X;X=X=X;X+X+X+X+X+X+XOXOXOXOXE.V.V.V.V.V.V.V.B.V.V.V.V.V.V.B.B.B.v.v.B.V.OXOXOXOXXXB.v.z.2.1.1.,.,.1.1.1.1.1.z.B.OX=X8XrXmXBXBXGXGXGXBXBXBXBXBXBXBXBXMXrXnXmXBXBXBXBXBXBXBXBXmXMXMXMXMXMXMXMXnXnXrXrX9X0X0X0X0X0X6X6X6X#X+X+X+X+X+X+X@X@X@X@XXXXXXXXX@X+X+X+X@XOX.X.XXXOXOXOXOXXXXXXXXXXXXXXX.XB.N.N.M.v.v.Z.h.<.O.x x x n } ..} n f u f g g v c g h h s s s s d G U G J D D D J J D 8._.vXvXvXbXaXkXbXvXvXvXvXkX|.|.kXvXkXsX|.|.kXbXkXsX{.K.] E H ( 9.F.F.t.9.9.f.I.Q.:XpXvXDXDXvXbXvXvXvXvXvXiXF.T T F.U.U.P.Y.Y.$XOXV.V.V.C.2.%.Q Q &.<.2.b.N.B.B.B.B.V.XXXX.XB.B.B.B.v.l.z.z.l.B.B.XXXX.XXX.XXXOXOXOXOXOXOXXXB.v.h.h.h.k.z.j.l.V.V.C.n.i.0.;.I c c m n n l l k l n ,.2.1.#.n i u u u u y r i y y y y r r t t t t y u u u x n } } ..#.$.$.$.,.<.1.1.1.1.1.1.1.j.h.k.z.l.l.M.N.N.B.B.B.B.N.M.v.v.l.v.v.l.v.M.B.B.M.M.M.M.v.M.M.C.C.N.M.M.M.M.v.M.M.M.v.M.M.M.N.B.M.h.1.1.1.j.l.B.OX+X;X=X7X7X7X7X6X;XOX.XB.XXXXOXXXXX.X.X.X.X.XB.B.B..X.X.XM.B.B.B.B.B.B.M.M.M.M.M.l.z.z.z.l.l.z.z.",
"1X8X8X8X8X8X8X8X8X8X8X8X8X8X8X8X8X8X8X7X-X=X=X=X=X=X=X=X=X=X=X;X;X;X+X+XOXOXOXOXOXOXV.B.B.B.B.B.M.M.v.l.z.k.1.1.1.,.$.$.$.$.,.,.1.,.,.,.,.,.,.,.1.,.,.1.1.1.1.1.1.1.1.2.z.B.=X9XmXBXFXFXGXGXGXBXBXBXGXIXGXBXBXBXVXVXVXBXGXGXGXGXBXBXmXMXMXMXMXMXMXnXnXnXrXrX9X9X9X9X0X6X6X6X6X=X#X+X+X+X@X@X@X+XXXXXXXXX@X+X+X+X+XOX.X.X.XOXOXOXXXXXXXXXXXXXXXXX.XB.N.N.v.h.h.h.2.>.O.x u u x x M M x x a f c c v I v g a s s s G U / ;.=.U D J V H J K G.2XAXvXbXbXkXbXvXvXvXvXvXkXsXaXbXbXaX|.|.|.kXkXkXiX{.K.] E H ( 9.F.F.t.9.9.f.I./.2XlXAXvXDXvXvXvXvXvXvXbX[.] L _ F.U.Q./.!.Y.$XOXXXXXV.C.2.m u y f Q 3.h.v.B.V.B.V..XXXOXOXOXXXB.l.1.,...X.$.z.B.OX@XOXB.B.XX@XOXXXOXXXOXB.k.<.,.1.h.v.1.$.1.C.V.C.u.0.5.;.-.+.%.2.2.<.X.| | X.$.h.N.V.k.,.l i u u u u y y y t r r r y r r r r r t t t r i u x n } X.#.} ..#.,.<.1.1.1.1.1.j.h.k.l.v.M.B.B.B.B.B.B.B.B.B.M.B.B.C.v.l.M.B.B.B.M.M.M.C.M.M.C.C.C.N.M.M.M.M.v.v.M.M.M.M.M.M.B.M.h.$.n z z X.1.M.XX;X6X7X8X8X7X7X7X7X6X=X=X+X+XOXXXXXXX.XXX.X.X.X.XXXXXXXXXXXXXXXXX.XB.B.B.M.M.M.M.M.x.l.l.l.z.z.h.",
"-X1X8X8X8X8X8X8X9X8X8X8X8X8X8X8X8X8X8X8X8X7X7X7X7X=X=X=X=X=X=X;X;X;X;X;XOXOXV.B.B.B.v.l.z.k.k.2.1.1.1.,.,.,.,.$.$.$.,.,.,.,.,.,.,.,.,.,.,.,.,.,.1.,.,.1.1.1.1.1.1.1.1.1.1.k.M.OX=X9XmXBXBXGXIXIXBXBXBXGXFXGXBXBXFXIXGXGXGXGXGXGXGXBXBXmXmXmXMXMXMXMXnXMXMXnXnXrXnXrX9X0X0X6X6X6X6X6X+X+X@X@X@X+X+X@X@X@X+X+X+X+X+X+XXX.X.XXXOXOXXXXXXXXXXXXXXXXX.XB.N.N.M.v.Z.h.h.<.&.n x x x x x x x x f f g c Q +.+.P g d d J p G =.a.p.^ J ) 7.t.E E J.aXDXDXvXbXbXvXvXvXvXvXkX|.|.kXbXkX|. X|.sXkXkXsX[.).K.9._ H ( 9.t.F.t.9.9.G.P./.>XaXvXvXvXvXvXvXvXvXvXaXJ.E K _ K.U.].4X4X*X$X$XXXXXV.B.k.&.x u u M Q $.1.v.B.XXXXXXXXOXOXOXXXB.M.h.1.n z n $.M.XXXXM.j.j.M.OXOXXXOXOXOXB.2.A.| $.Z.N.N.v.b.C.n.n.n.n.s.q.;.@.-.b.V.V.2.,.1.k.k.h.k.N.N.2.n b u u u u y y y y r r y y t r r r r r r 2 r t i i u j l l l b | #.$.,.1.1.1.1.j.h.z.l.M.N.N.N.N.N.B.B.B.B.B.C.B.C.l.1.<.h.M.C.B.C.M.C.C.B.C.C.C.N.N.M.M.M.M.v.v.M.v.M.M.M.M.B.M.k.,.| | X.1.l.XX;X-X7X8X8X9X8X7X7X6X6X6X=X;X+XOXXXXXXXXXXX.X.X.XXXXXXXXXXXXXXXXXXX.XB.B.B.M.M.M.M.x.l.z.z.x.x.l.z.",
"$X=X1X8X8XqXqXwXwX9X8X8X9XwXwXwX8X8X8X8X8X8X8X8X8X8X8X7X=X=X=X=X+X;X;XOXE.M.k.k.h.2.1.<.,.$.$.$.$.$.X.X.$.$.o.X.X.X.$.$.$.$.$.$.,.,.,.,.$.$.$.$.,.,.,.,.<.<.<.<.1.1.1.1.1.1.1.h.x..X+X7XrXMXMXMXrXrXmXBXFXFXGXVXFXVXBXBXVXGXGXFXGXBXBXBXBXBXmXMXMXMXMXMXMXMXnXnXnXnXrXrX9X0X0X6X6X6X6X+X+X+X@X@X+X+X+X+X+X+X+X=X=X+X+X@XXXXXOXOXXXOXXXXXXXOXOXXXXXB.B.M.v.v.v.Z.2.3.O.n v v M M x M x x c M v I Q @.@.Q G d d G s J U =.4.J H p.Q.Q.8.t._.lXAXvXvXbXbXvXvXvXvXvXgX{.|.gXkXaX X X|.sXkXsX{.W.J.K.] E K E 8.9.F.t.t.8.d.~.^.].iXbXvXvXvXvXbXvXvXkX].' F L ] J.).[.fXdX:X!.UXXXXXXXV.v.<.+.c f f h n X.<.k.B.V.V.OXOX+X;XOXOXXXM.k.$.| z o.M.+XOXx.j.j.x.OXOXXXXXXXV.M.2.$.} $.b.V.V.V.Y.V.n.m.I.T.a.e.*.I +.h.V.V.k.$.<.h.1.<.#.1.v.k.1.<...n N u u u u u y y y y y y r r r r r 2 r t r r r i i i i u l n } ..$.,.<.1.h.k.l.v.M.B.V.B.C.C.B.B.M.v.h.h.l.v.h.$.X.1.l.v.C.C.C.C.C.C.B.C.C.N.M.M.M.M.M.M.M.M.M.M.M.M.N.B.B.N.k.1.1.k.B.XX;X7X7X8X8X9X9X8X7X7X7X6X=X=X;X+XOXOXXXOXXXXXXXXXXXXXXXXXXXXXXXXXXXXX.XB.B.B.M.M.M.M.M.x.l.l.M.x.x.x.",
"V.OX-X1X8XqXwXwXwXwX8X8XqXwXwXwXwX9XqX8X8X8X8X8X8X8X8X8X7X=X=X;X;X;X;XE.v.1.<.,.&.$.&.X...O.O.O.#.#.#.#.X.X.#.#.X.$.$.$.$.X.$.$.$.$.$.$.,.,.,.,.,.,.,.,.,.<.<.<.1.1.1.1.1.1.1.2.1.h.z.M.XX=X=X=X+X;X8XmXGXFXFXFXFXBXmXmXBXIXFXFXFXGXVXBXBXBXBXBXBXmXmXmXmXmXMXMXMXMXnXnXrX9X0X0X6X6X6X=X+X+X+X@X@X+X+X+X+X+X#X=X=X=X+X+X@XOXOXXXXXXXXXXXXXOXOXXXXXB.M.M.v.h.h.2.3.&.m v v c c x x c x f c I +.Q I I Q Q P g G G d G U ( ( J H 7.U./.t.G.].aXbXbXbXkXbXbXbXvXvXbXiX{.|.kXkX|.{. X|.sXaX|.{.J.K.F.] E L E ] 9.F.t.f.7.L.^.%X_.[.bXvXvXkXkXkXbXlX2XG.H J ` H.{.).|.aXaX>X!.Y.$X$XXXV.C.2.%.m f u a l b n $.2.v.V.OXOX;X;X;X+X+XXXM.z.1.o.1.B.+X+X.Xx.x.B.XXOXXXXXB.v.v.Z.2.,.3.b.V.XXUXUXY.m.L.I.T.a.5.+.+.%.b.V.XXk.....,.<.X...<.l.v.v.N.h.$.n l N u u u u u y r t t t t y y r 2 2 r r r r r t i i i i j j l n | $.,.1.k.l.v.M.N.B.N.B.N.B.M.h.,...| ,.k.h.,.X.1.l.v.M.C.C.C.N.N.B.B.B.M.M.M.M.M.M.M.M.M.M.M.M.v.v.M.B.V.B.N.B.V.OX;X=X7X7X8X8X9X8X8X7X7X7X6X=X=X+X+X+XOXOXOXOXOXXXXXXXOXOXOXXXXXOXOXXX.XV.B.B.B.B.B.M.M.x.M.M.M.M.v.x.x.",
"k.C.E.&X1XqXwXrXrXrXrXrXrXrXwXwXwXwXqX8X8XqX9XwXqX8X8X8X8X-X=X=X=X;XOXv.1.$.$.$.$.&.X...O.&.&.&.X.X.X.X.X.#.#.#...X.#.#.#.#.$.$.$.$.$.$.$.$.$.$.$.$.$.$.$.,.<.<.$.,.<.<.1.1.1.2.j.j.j.j.z.x.B.B.M.B.OX8XmXIXFXHXHXIXBXBXVXFXFXFXFXFXIXBXMXtXMXBXBXBXBXBXBXmXMXMXMXMXMXnXnXrX9X0X0X6X6X=X+X+X+X+X;X;X;X;X+X+X+X=X=X=X#X+X@XOXXX.X.X.XXXXXXXXXOXOXXXB.B.M.v.Z.h.2.#.I n c c c c c c c c f M +.+.I f f g c g d g G G G H ^ 4.( ( 4.9.H.t.F.Q.[.|.sXkXkXvXvXvXvXbXkX|.[.sXkXkX|.{.|.sXaXsX{.W.R.K.F.] _ E E ] 9.G.G.p.q.Y.:X*X(._.aXvXvXkXkXkXkXiXQ.` D Y 9.).[.).[.sXsX>X/.!.$XUXXXXXB.b.2.O.x a f x u u x X.1.M.OXOX;X;X+X+X;X;XOXXXB.B.B.XX+X;X+XOX.XB.B.XXXXB.v.k.v.C.C.2.%.Z.XX$XXXC.m.m.L.I.P.n.5.+.+.2.C.XXXXN.$...X.$.$.$.2.v.M.M.V.v.2.#.n x u i y u y y y 5 r t u f f y r r t y t r r t i u u i i i i j l n } $.<.2.k.v.v.v.v.N.N.B.v.<.n i i z ,.h.1.1.l.M.M.C.C.C.C.C.C.B.B.B.M.M.M.M.M.M.M.M.M.M.M.l.1.<.1.v.V.XXXXOX;X=X6X7X8X8X8X8X8X8X7X7X7X=X=X;X;X+X+X+XOXOXOXOXOXOXOXOXOXOXOXOXXXXXXXXX.X.X.X.X.XB.M.l.h.h.z.l.v.l.l.l.z.",
"k.v.C.E.&X1X8XqXwXrXrXrXrXrXrXrXrXwXwXwXwXwXwXwXrXwX8X8X-X;X;X=X&XOXv.1.$.X.&.&.&.&.O.O.O.O.O.O.#.#.#.#.O.X.....O.#.#.#.#.O.X...#.$.$.$.$.$.$.$.$.$.$.$.$.$.,.,.<.<.<.$.$.<.1.k.z.z.j.j.j.j.z.z.l.l.B.;X8XmXFXJXJXJXHXFXHXHXFXFXFXFXFXBXnX9XrXmXBXVXBXBXBXBXBXBXmXmXMXMXMXnXrXrX9X0X6X6X=X=X;X+X;X;X;X;X;X+X=X=X6X=X=X+X@XXX.X.X.X.XXXXXXXOXOXOXXX.XB.B.M.Z.2.3.m M x x c h g c c c c c v I I v u y y p p p p s p s G / q.7.' ) E ' ' 9.K.J.W.|.kXbXvXvXvXvXkXgX X|.kXbXkX|.|.|.sXsX|.{.W.R.F.F.] ( E ( ] 9.F.t.6.q.%X3X*X(.Q.iXkXbXbXkXbXaX].t.F D H 9.).{.J.{.|.iX[._.~.Y.UXXXV.V.C.b.>.m f a x a u u l ..1.B.OX;X=X;X+X;X=X=X=X;X=X=X+X#X=X=X+X@XB.B.XXXXB.v.N.V.XXV.h.2.b.UXOXV.C.b.n.m.m.I.Y.n.w.Z.C.OX$XXXv.,.....X.,.h.B.B.B.v.V.N.k.1.,.&.n x u u y y y t t u f x x f y 2 r r r t t i u u i r i i i i k j j b } O.$.,.<.2.2.k.v.v.2...j i w k X.2.k.l.B.M.M.M.M.C.C.C.C.N.M.M.M.M.M.M.M.M.M.M.M.M.v.h.$.| X.h.B.XXOXOX;X;X=X7X7X7X7X7X7X7X7X7X6X=X=X=X;X;X+X+XOXOXOXOXOXOXOXOXOXOXOXOXXXOXOXXXXXXXXXB.B.l.h.1.$.,.1.z.v.l.l.l.l.",
"k.k.k.v.V.OX&X=X-X8XwXrXtXtXtXrXrXrXrXrXrXrXrXrXrXwX8X-XOXC.B.OXOXB.2.$.X.&.&...R R } } O.O.O.O.........O.X.#.#.X.O.#.#.#.#.#.$.#.#.$.$.$.$.$.$.$.$.$.$.$.$.$.,.$.<.<.,.$.<.<.1.j.j.1.j.j.z.z.z.l.l.M.B.OX8XmXVXLXLXLXJXJXJXHXFXFXFXFXIXmX9XrXmXVXIXIXGXGXBXBXBXBXBXmXmXmXMXMXnX9X9X0X6X6X6X;X+XXXXXOX+X+X+X6X6X6X6X=X+X@X.X.X.X.X.XXXXXOXOX+X+XXXXX.XB.M.h.<.#.A.m v v c c c c c c c v m I v c c c f a p p p s s s s G ( 7.4.) H L ` ] F.S.K.|.aXbXvXvXvXvXkXsX{.|.kXkXkX|.iXsXaXaXsX|.{.W.F.9.' ( E E ] 9.t.9.7.n.,XyX*X(.H.}.sXaXkXkXkXiXJ.` A F ) 8.H.K.D.W.iXiX[.]./.Y.Y.UXXXXXV.C.2.Q c c c c c f u u ..j.XXOX=X6X=X=X=X=X6X6X6X0X6X=X=X+X+XOXB.B.OX+XOXXXOXOXXXV.C.C.V.UX&X$XV.b.2.0.u.n.m.b.w.b.V.$XOXV.h.1.<.1.1.j.M.V.OXV.B.XXV.v.h.2.r.>.O.v f y y y u u a f x x f y r r r r r r t i u t B e i i i i i r r i j l b n n n O.%.<.$.n i i i n $.<.<.<.h.v.v.M.M.B.B.N.M.N.M.M.M.M.M.M.M.M.M.M.N.N.M.h.#.z } 1.B.OXOXOX;X=X7X7X7X7X7X7X7X7X7X6X6X=X=X;X;X+X+XOXOX+XOXOXOXOXOXOXOXOXOXOXOXOXOXOXXXV.M.h.,.$...z z | ,.k.v.M.M.M.x.",
"V.V.C.C.C.V.E.OXOX;X&X7XqXrXtXtXjXtXtXtXtXtXtXrXrXrXwX=XB.2.2.v.v.h.$.X.&.O.O.O.Q Q Q Q Q Q O.O.O.O.O.....#.#.#.#.#.#.#.#.#.#.#.#.#.$.$.$.$.$.$.$.$.$.$.$.$.$.$.,.,.<.<.<.<.<.<.1.1.1.j.h.j.z.z.l.l.M.B.V.;XqXNXHXKXKXJXJXJXHXFXFXFXFXFXBXnXnXNXFXFXFXFXGXGXBXBXBXBXBXBXBXMXMXMXnXrX0X6X6X6X=X@XM.x.M.B..X+X=X6X0X0X6X+X@XXX.X.X.XXXOXOXOX+X+XOXOXB.N.N.v.2.#.} I I I v c g g c c g c c c c x x c c c g g h s s s J H ) 4.8.( W Y F ` t.F.{ F. XaXaXkXkXvXvXkXsX XsXkXkXgX|.|.sXgXkXkXsX|.W.K.] ` E L _ ' ' ] ' 6.I.yXyX*XI.G.J.).{.|.sXaX[.t.K Z A ( t.J.F.[ W.sXsX X{.'.~.!.!.E.$XE.V.b.+.c g g a x M x u x ..h.XX;X6X6X6X6X6X6X6X0X0X0X6X=X=X#X@XOXOX;X=X=X=X=X;XV.C.C.C.V.UX+X;X;XB.b.w.2.b.b.b.h.l.B.OXOXXXv.v.N.V.V.V.XXOXOXOXOXOXV.v.k.h.b.2.%.O.m x a f f f h f f u y t r r r r r r r r r r r r r e i i i i i i i i i i i u l b n l u i i l X.<.<.$.<.k.v.M.M.C.M.M.N.N.M.N.M.M.M.N.M.M.M.M.M.M.M.B.M.1.| #.l.XX;XOX;X;X=X7X7X8X8X7X8X7X7X7X6X6X=X=X=X;X+X+X+X+X+XOXOXOXOXOXOXOXOXOXOXOXXXXXOXOXB.z.,.| z z l n X.1.l.M.N.v.v.l.",
"-X-X&X$X$XOXOXE.OXOX$X&X7X8XrXhXmXhXmXhXtXtXtXrXrXrXwX=XV.2.1.2.2.<.$...O.O.O.O.Q Q Q Q Q Q O.O.O.O.O.O.....#.#.O.#.#.#.#.#.#.#.#.#.#.$.$.$.$.$.$.$.$.$.$.$.$.$.,.,.,.<.,.<.<.<.1.1.1.j.h.j.z.l.l.M.B.B.XX;X8XmXHXLXKXLXLXJXJXHXHXHXFXHXFXBXBXVXFXFXFXFXFXFXGXBXBXBXBXBXBXmXMXMXnXrX9X0X6X6X=X@Xx.j.j.z.M.B.@X6X0X0X6X+X@X.X.X.X.X.XXXOXOX+X+XOXXXN.v.k.2.,.m n I I I I v c c g g h f f f f x x g c c g g g d d J P ) ( ( ( ) ( ( ( 9.U.J.K.J.iXaXaXkXkXbXvXkXsX|.aXbXvXkXsX|.sXaXgXkXaX|.W.K.] ` E H E ` ' ' ' y.!.eXyX%XG.t.t.K.J.{.iXaX[.9.S F Z ( G.U.F.[ {.aXaX|.{.}.Q.(.!.$X&X$X!.b.@.c g a a a x N u l n $.l.OX=X6X6X6X6X6X6X0X0X9X0X6X=X6X=X#X=X6X8X8X8X7X;XV.v.b.b.C.V.OX+X;XOXV.b.i.b.b.C.N.B.XX+XOXXXC.C.C.V.OXOXOXOXXXB.V.OXXXC.v.v.w.>.@.+.O.Q m m m v x f u y r 2 r r r r t r r r r r t r r r i i i i i i i i i i u i u u u i i i l ..1.k.h.2.h.v.M.M.M.M.M.M.M.N.M.N.N.M.M.M.M.M.M.M.N.N.N.V.B.h.#.1.M.OX=X;X;X=X7X7X7X8X8X8X8X8X7X7X7X6X6X=X;X=X=X;X+XOXOXOXOXOXOXOXOXOXOXOXOXOXXXXXOXOX.Xl.1.X.n n ..$.1.l.M.B.M.M.v.l.",
"wXwXwXwXqX8X1X1X-X=X=X=X1X8XwXhXhXhXmXmXhXhXhXtXwXrXwX1X$Xb.1.3.%.&.O.R ..O.O.O.Q Q Q Q Q O.O.O.O.O.O.O...........X.O.O.O.X.O.O.O.#.#.$.$.$.$.$.$.$.$.$.$.$.$.,.$.,.,.,.<.<.<.<.1.1.1.j.h.z.k.l.v.M.B.V.OX;X8XnXHXLXKXLXLXJXJXJXJXHXHXHXHXFXFXFXHXHXFXFXFXFXFXGXGXBXBXBXmXmXMXMXMXnXrX0X6X6X=X@Xx.1.1.j.z.l..X=X0X0X=X;XOX.X.X.XOX.XXXOX+X+XXXB.v.h.2.<.,.#.n x c c c v I I c g f f f a u a f c g c c c c g d d d G H W ) H ) 4.e.e.U.>XiX[.[.aXkXkXkXbXvXvXbXkXkXvXvXvXkXaX|.sXaXaXkXkXsX{.K.] ` ` E ( ` ' ' ' u.*XzXeX%XG.] ] S.J.{.[.iX_.9.E F Z ` J.).F.S.{.aXgX X{.{.'.^./.3X3X,X%Xb.-.c a a a a f f u u l n $.k.V.=X6X6X6X0X0X0X9X9X9X0X0X6X6X6X8X0X0X8X8X8X=XXXk.,.1.v.N.B.V.OX$X$XV.C.C.V.OX$XOX+X;XOXV.b.b.C.V.XX;X+XXXB.x.v.V.V.C.b.i.:.;.*.-.-.@.+.I O.m x y i y r 2 r r r t t t t r t t t t r r t t i i i i u u u u u i i i r i i i n <.v.M.v.v.v.M.M.M.M.N.N.N.N.N.N.N.N.N.M.M.v.M.M.M.B.B.B.V.V.B.h.l.B.OX;X;X;X=X7X7X7X8X8X8X8X8X8X7X7X7X7X=X=X=X=X=X+XOXOX;XOXOXOXOXOXOXOX;XOXOXV.XXOXOXXXB.l.1.<.1.j.z.M.B.B.B.M.M.v.v.",
"hXhXhXmXmXmXmXmXhXhXjXjXjXjXhXhXhXhXhXhXhXtXtXrXtXwX8X-X$Xb.>.&.&.&.O.m } Q Q } O.O.Q Q Q O.O.O.O.O.O.O...............O.O.O.O.O.&.O.O.$.$.$.$.$.$.$.$.$.$.$.$.$.,.,.,.<.<.<.<.1.1.1.1.j.h.z.z.l.v.M.B.V.OX=XwXNXHXLXKXLXLXJXJXJXJXJXJXHXHXHXHXHXHXHXHXFXFXFXFXFXIXGXBXBXmXMXMXMXMXnXrX0X6X6X6X=X.Xj.o.1.1.1.v.;X8X6X;X+XOX.X.X.X.X.XXXOX+XOXB.z.1.#.O.A.} m m M c c g c I I v c f f f f f f c c c c c c c g g P ^ U d 9 J D ( 8.f.G.'.pXlXkXsXaXaXaXaXbXvXvXvXbXvXvXvXvXkXsX|.|.sXsXkXbXgX[.J.] ` ` ( ( ' 9.8.8.b.3XNXfX:XG.' ] K.).).F.J.F.` A F F ` J.).R.K. XkXkXsX X X[.[.>XlXxXeX%Xa.:.Q c x a a a a u u u b b n 1.V.=X6X6X6X0X0X9X9X9X9X9X0X0X0X0X0X0X0X8X0X6X+Xx.,.1.M.B.v.M.OX$X$X$X$X$X;X=X=X;X+X;XXXB.i.w.w.b.V.OX+XXXM.z.l.V.V.C.b.u.s.a.a.q.:.+.+.+.#.m x u u u y t t t t y y y y t t t t t t r t t t i i i u t t t i t r t i i i k n ,.k.v.v.v.v.v.v.v.C.N.C.C.C.C.N.N.N.B.M.v.v.M.M.M.B.B.V.XXOXXXXXXXOXOX$XOX$X=X7X8X7X7X8X8X8X8X8X8X8X7X7X-X=X-X-X=X;X;X;X;X;X$XOXOXOXOXOXOXOXOXV.XXOXOXOXOXV.B.N.N.B.B.B.N.N.N.N.N.M.M.",
"hXhXhXhXhXhXmXNXmXmXmXmXmXmXrXqX-X-X=X=X1XqXwXtXwX1X$XV.b.2.%.O.&.&.O.m Q O.Q } O.O.O.O.O.O.Q Q O.O.O.O.O.O.O...O.O.O.O.O.O.&.&.&.&.&.O.O.$.$.$.$.$.$.$.$.,.,.,.,.,.<.<.<.<.<.1.1.1.1.h.h.k.l.l.v.M.B.V.OX-XtXVXJXKXKXLXLXLXLXJXJXJXJXJXHXHXHXHXHXHXHXFXFXFXFXFXIXIXGXBXBXmXmXMXMXnXrX9X0X6X6X6X@Xx.1.o.$.$.z.OX=X=XOXOX@XOXOXOXOX@X+X=X=X=XOXB.2.$.O.O.O.+.I I c c c v I Q I v c c c c c v P P c c c c g h G ^ a.5.U D J H 8.f.L.H.].aXbXbXaXaXaXaXaXkXkXaXsXsXkXvXvXbXkXsX X|.|.sXbXvXkX|.J.] ` ` ( ( 8.9.8.7.m.qXNXzX:Xf.` ] F.J.F._ ' ` ( L E ` ] F.J.R.R.{.iXgXgX|.|. X|.iXiXaX5X^.y.-.I f x a a u u u u N x N u n 1.B.OX=X6X0X0X9X9X9X9X9X0X0X0X0X9X9X0X8X8X6X=XOXx.B.OX;X;X;X;X$XV.C.V.OX6X6X6X=X;X;XXXN.b.i.w.b.N.OXOXOXB.M.B.OXOXV.n.a.m.m.n.q.-.! +.&.,.#.n x f f a y t y u u u u u u t t i i t t t t r t t t t t r t r r B r i i i i l } %.1.k.k.v.N.N.N.C.N.N.N.C.C.C.N.N.N.M.v.l.M.M.M.B.B.V.XXOXOX;X;XOXB.l.j.v.OX-X8X7X7X8X8X8X8X8X8X8X8X7X7X-X-X-X=X;X;X;X;X$X$X;X$X;X$XOXOXOXOXXXXXXXXXXXXXXXV.V.V.B.B.B.B.N.N.N.N.N.N.",
"hXhXNXmXmXmXNXNXNXNXmXNXNXNXhXqX=X$XE.B.C.V.OX$X$XV.k.<.%.&.O.&.&.&.O.Q O.O.O.O.Q O.O.O.O.O.Q Q O.O.O.O.O.O.O.O.O.O.O.O.O.O.&.&.&.&.&.&.O.$.$.$.$.$.$.$.,.,.,.,.,.<.<.<.<.<.<.<.1.1.h.h.h.k.l.v.M.B.V.OX=XwXBXHXLXKXLXLXLXLXLXJXJXJXJXJXHXJXJXHXHXHXHXHXFXFXFXFXFXIXIXBXBXBXMXMXMXnXrXrX0X0X6X6X=X.Xj.o.X.o.j.XX;X+XOXOX@X+X@XOXXX+X=X=X=X=X;XV.2.&.O.m I +.I I I c c v I I I m v v c c v I P P c c c c g h G *.p.7.4.8.t.f.U.U.I.H.[.aXbXkXaXkXaXkXkXbXbXaXiXsXkXvXvXkXgX|. X|.iXaXvXbXgX[.J.] ` ` ( ( 4.8.8.p.!.yXzXzX:Xp.H ` J.Q.J.] ` _ ` 8.G.F.K.K.K.K.R.W.{.{.{.[. X X[.[._.'.^.~.a.@.v x x x x a u u f f u x x l n $.l.V.;X6X6X6X6X0X9X9X0X0X0X0X9X9X9X0X6X6X=X+X+X=X6X=X7X-X=XOXk.2.k.E.=X0X0X6X=X;X;XOXV.C.C.C.V.OXOX+XOXOXOX;XOXV.b.i.0.:.@.Q I I +.%.3.$.O.m x x a p t y a f x u u u t t i t t t t t t t t t t r t t t r B r t i t t i j b O.<.2.k.N.C.C.C.C.N.N.N.N.N.N.N.M.v.v.v.M.M.B.B.B.V.OXOXOX;X;XOXv.X.n ,.B.=X8X7X7X8X8X8X8X8X8X8X8X7X8X7X=X=X=X=X;X;X;X;X;X&X=X;X;X;X$XOXOXV.v.k.l.M.B.V.V.V.V.B.B.N.N.N.N.N.N.N.N.",
"hXhXmXmXmXNXNXNXNXNXmXmXNXNXNXhXwX8X&XE.v.r.b.b.r.<.%.&.&.&.&.%.O.O.O.Q O.O.Q O.Q Q O.O.O.O.Q Q O.O.O.O.O.O.O.O.O.O.O.O.O.O.O.&.&.&.&.&.$.$.$.$.$.$.$.$.%.%.$.,.<.<.<.<.<.1.1.1.1.h.h.h.h.z.l.M.B.B.OX=XwXNXFXLXLXLXLXKXLXLXLXLXJXJXJXJXJXJXJXHXJXJXHXHXHXFXFXFXFXIXIXGXBXBXMXMXMXnXnXrX9X0X0X6X6X+XB.1.X.X.1.B.+X+X@XOX@X+X+X@XOX+X=X=X=X;XOXM.<.#.O.O.Q Q I I I v c v I I I I I v c c I P P G c g g g g d g U ) ( 7.I._._.]./.H.G.[.aXbXbXkXbXvXvXvXvXbXaXsXaXkXkXbXkXaX|.|.|.aXvXvXkX|.{.J.F.' ` ( ( 4.8.( 7.!.eXzXNX,Xp.D E G.Q.'.G.' ` G.'.}.J.J.J.R.K.J.J.J.R.R.W.).{.[.[.J.G.t.d.n.@.v b x x x x f f f f u f x l l b X.1.B.;XOXB..X+X0X9X0X0X0X0X0X9X0X0X6X6X=X=X=X=X6X6X0X0X-XOXv.2.z.V.=X0X0X6X=X=X=X;X$X$X$X$X$XOXOXOXOXOX;X+XOXB.k.2.O.v c I +.%.%.3.3.%.$.O.n x f a t y u a f u u t r t i t t t t t t t i t t r t t u t r r u i i i i i j b ..$.1.k.v.b.v.C.N.N.N.N.C.N.N.v.v.M.M.M.B.B.B.B.XXOXOX;XOXOXB.h.n k $.B.=X8X8X7X8X8X8X8X7X8X8X8X8X8X7X=X=X=X=X=X;X;X;X;X=X;X&X;X;X;XOXOXl.,...$.h.M.V.V.V.V.V.B.B.B.N.N.N.N.N.N.",
"mXmXmXNXNXNXNXNXNXhXtXtXhXNXNXBXNXmXrX-XV.2.<.3.3.%.&.%.&.&.&.&.O.O.Q Q O.} m O.Q Q O.O.O.O.Q Q O.O.O.O.O.O.O.O.O.O.O.O.O.O.O.&.&.&.&.#.#.$.$.$.$.$.$.$.%.%.,.,.<.<.<.<.1.1.1.1.1.h.k.k.h.z.M.B.B.XX+X8XmXFXJXLXLXLXLXLXLXLXLXJXJXJXJXJXJXHXHXJXJXHXHXFXFXFXFXFXFXFXFXGXBXBXmXMXMXnXnXrX9X9X0X6X0X6X@Xz.o.X.o.c.@X+X+X@X@X@X+X@X@X@X+X;X=X+XB.1.$.} } m m m v I v v v I I I Q I I v v v I P G g g g g g g G J G J H 4.U.].].].U.F.F.[.aXbXvXvXvXvXvXbXbXkXaXsXkXkXgXkXbXkXsXiXsXkXvXvXaX|.{.J.F.' ` ` ` 8.4.) 4.I.eXzXNX,Xa.d J 8.P.U.9.` 9.'.sX XJ.J.{.W.R.W.J.K.K.K.K.K.W.{.|.).F.' 6.n.2.O.b x x x M x f a a f u u x M b b } 1.B.M.j.j.B.6X0X9X9X0X6X6X0X0X0X8X6X=X=X=X=X6X6X0X0X8X;XV.C.B.OX6X0X0X6X=X=X=X;X;X;X&X-X&XXXV.V.OXOX;X+XOXB.l.2.$...O.%.2.2.%.&.3.<.>.&.m x a a y y y y u u u i r t i t t t r r t t t t r r t i y t t y u u i i i j u u l } $.1.h.v.v.N.N.N.v.v.C.C.N.v.v.M.B.M.M.B.B.B.XXOXOX;X;XOXB.h...| 1.V.;X8X8X7X8X-X-X-X-X-X8X8X8X8X7X-X=X=X=X;X;X;X;X;X&X&X$X$X;X$XOXV.1.n i b 1.M.V.V.V.V.V.B.B.B.B.N.C.N.N.N.",
"hXhXmXNXNXNXNXNXNXtX1X-X-XqXhXNXNXNXmXqXE.r.3.&.O.&.&.%.%.%.&.&.O.O.O.O.m m Q O.Q Q O.O.O.Q Q Q O.O.O.O.O.O.O.O.O.O.O.O.O.O.&.&.&.&.&.&.&.$.$.$.$.$.$.$.$.$.,.<.<.<.<.<.1.1.1.1.h.h.h.k.l.M.B.B.B.OX7XmXFXJXLXLXLXLXLXLXLXLXLXJXJXJXJXJXJXJXHXHXHXHXHXHXFXFXFXFXFXFXIXGXBXBXmXmXMXMXnXnXrX9X0X0X0X0X=X.Xj.X.o.z..X@X+XOXOXOXXXXX.XB.B.XXXXv.1.$.O.m m m m I I I I I I P I ! +.+.+.I I P P g g g d G G G G P U U D D F ' t.t.t.] ' t.iXvXvXvXvXbXaXsXiX[.[.[. XsXsXaXbXvXvXaXaXkXvXvXvXaX|. X).K.9.` ` 4.e.4.W ( p.^.dXzX,Xa.g s D ( ' ` ` H.iXlX[.S.K.W.W.R.K.K.F.F.F.S.] R.).[.[.J.F.q.m.b.2.} x u f c c f a f f a y u x v x u n 1.h.1.h.V.6X8X0X8X=X+XOX;X6X0X0X8X6X#X#X#X=X6X0X9X9X0X6X=X=X=X0X9X9X0X6X=X=X;X;X;X=X=X&XV.v.b.V.OX;X+XOX.XB.c.l.l.k.l.h.1.%.$.<.1.>.%.Q v c g a a y r t u i t t t t t t t t t t i y i t r t t y y t t t u u i u j l j u l n $.2.b.C.N.N.v.h.k.v.C.N.N.v.C.B.v.M.M.V.OXOXOX;X$X=X=X;XB.z.l.XX;X-X8X8X8X7X-X-X-X7X7X8X7X-X-X7X-X=XOXOX;X=X=X;X;X;X;X;X$X;X;XOXM.,.l i ..h.B.XXXXV.V.B.B.B.B.B.B.N.N.B.V.",
"tXhXhXhXmXmXNXNXmXwX$XE.E.-XtXNXNXtX1XE.k.3.&.&.&.&.&.&.&.&.O.O.O.O.O.O.Q m m Q O.Q O.O.O.Q Q Q O.O.O.O.O.O.O.O...O.O.O.O.O.O.&.&.&.&.&.&.$.$.$.$.$.$.$.$.%.,.<.<.<.1.1.1.1.1.1.1.h.l.l.M.B.B.B.OX-XrXVXJXLXLXLXLXLXLXLXJXJXJXJXJXJXJXJXJXHXHXHXHXHXHXFXFXFXFXFXFXFXIXGXBXBXmXmXMXMXMXnXrXrX9X0X0X0X6X+XB.h.j.z.B.OX+XOXXXXXXXXXB.v.v.N.C.2.&.m m m m I m I I I I I P P I ! +.Q I v v v v g g g g G G G P ^ =.6.( W F K K A S K E H.aXAXvXvXaX|.).J.G.J.J.W.{.|.sXaXbXbXkXaXkXvXvXvXvXgX|.{.W.R.9.` ` 4.8.( ) ( 7.H._.2X%Xs.U s 0 J L ( E H.pXcX}.[ K.R.R.F.K.D.{ ] ] ] S.F.J.J.W.J.U.~.*X&XV.k.%.n u a f f a a f f f u u u f x j n $.1.M.OX=X;XXXM.1.,.1.z..X;X6X6X6X=X#X=X6X6X6X0X9X9X9X9X9XrX9X9X9X9X0X6X=X=X;X;X=X=X;XV.k.b.V.OX+X+X@X@XOX.XB.M.l.k.h.1.<.<.<.,.&.&.&.+.@.+.! I f a u y u i t t t t t t t y u u u y r r r r y y t t t i y i u u j i i i l } 1.b.N.C.v.k.2.2.k.b.M.N.B.B.v.h.z.l.B.XX+X;X=X=X=X-X;XXXB.XX=X7X7X7X-X7X8X8X8X8X8X7X8X8X-X=X=X;XB.l.v.V.;X=X=X=X;X=X=X=X&X&XOXN.<.#.$.1.v.V.XXV.V.V.B.B.B.B.B.B.N.N.B.B.",
"tXhXhXmXmXmXNXNXNXhXwX1X1XqXtXhXtX-XV.r.3.&.&.&.%.&.&.O.O.O.O.O.O.O.O.O.Q Q Q Q O.O.O.O.O.O.Q Q O.O.O.O.O.O.O.O...O.O.O.O.O.O.&.&.&.&.&.&.$.$.$.$.$.$.$.$.,.,.<.<.<.1.1.1.1.1.2.h.l.l.v.B.B.V.OX;XrXBXHXJXJXLXJXLXLXLXJXJXJXJXJXJXJXJXJXHXHXHXHXHXFXFXFXFXFXFXFXIXIXGXBXBXBXMXmXMXMXMXnXnXnXrXrX9X0X6X6X+X.XB.B.XXOX+XXXM.v.N.XXV.C.b.b.b.2.%.Q m Q O.O.I I I I I P I I I ! ! I v c c c g g d g G G G G G ^ 5.y.6.4.' ' ] ' ` E E H.aXlXsX[.Q.K.F.9.F.J.J.).[.sXsXaXkXkXkXaXbXvXvXvXvXaX XW.R.K.F.' ` 4.4.( ) ` ] t.J.].].P.;.Z D D H ( ` J.iXfX'.[ R.W.).K.J.F.] ' ] ] S.F.R.W.K.F.H.L.!.-X-X;XC.<.x a x x f N f h f u y y a x x x n $.1.k.k.2.,...n | } X.1.l.XX=X6X6X=X6X6X8X6X0X0X9X9X9X9XrX9X9X0X0X8X6X=X;X+X=X6X7X7X;XXXOXOX;X;X+X@X.X.XB.B.c.x.z.k.h.1.2.1.$.} &.>.2.2.2.-.+.I m x u u t i t t i t r y y u u u y t r r r y y y r r t i i i i i i i i l ..1.v.N.v.v.v.h.2.k.v.N.v.l.h.1.1.h.v.B.V.XX$X;X-X=X-X;XOXV.OX=X=X-X-X=X-X7X7X-X=X$XOXOX;X-X-X$XB.k.1.k.B.;X-X=XOX$X;X&XOXV.V.B.k.<.h.v.B.B.XXXXV.V.V.B.B.B.N.N.N.N.N.B.B.",
"wXwXtXtXhXhXhXmXNXNXmXhXtXtXtXqX&XV.2.3.%.%.%.&.%.&.O.O.O.O.O.O.O.Q O.O.O.O.O.O.O.O.O.O.O.O.Q Q O.O.O.O.O.O.O.O.O.O.O.O.O.O.O.&.&.&.&.&.&.$.$.$.$.$.%.%.$.,.<.<.<.<.1.1.1.1.1.h.h.l.l.M.B.B.V.;XwXBXHXJXJXJXLXLXLXLXJXJXJXJXJXJXJXJXJXHXHXHXHXFXHXFXFXFXFXFXFXGXIXIXGXBXBXBXMXMXMXMXMXMXnXnXnXnXrX9X0X6X=X;XOX+XOX+XXXM.h.,.1.v.C.b.i.w.w.w.>.@.Q O.+.Q I I I I I I I P U ! ! Q v c c c g h h g G G g g g G U ( 7.7.7.t.H.U.G.` E G.2X2XQ.9.` _ ` 9.F.J.F.).[.sXaXgXkXkXbXbXvXbXvXvXvXaX{.R.K.K.F.' ` ' ' E ( ' F.K.W.[.2X].G.E F V F L ` J.>XiXJ.T K.{.{.K.J.F.] ] ] ] ] S.R.{.J.F.t.f.Y.-XqXqX$Xb.Q f x x f f a f f u u u a a c x x n m n n n n j j b n n | $.h.XX;X=X6X6X6X6X6X6X0X0X9X9XrXrX9X0X0X0X8X=X=X;X+X+X=X6X7X-X;X=X=X=X=X+X@XOX.X.Xc.c.x.x.x.z.h.h.<.#.n I >.2.i.w.-.+.@.&.m x u u u i i y t r t y u u u u y r r y y y y y t i u u i i i i i i j } <.h.k.b.v.v.v.v.v.N.b.2.,...n ..1.v.M.M.OX=X=X=X=X-X7X=X$X;X=X=X=X=X=X=X-X7X=XV.v.1.<.v.;X=XOXv.<.2.V.OX;X;X$XV.OX$X$XN.k.k.h.<.<.v.V.XXV.V.V.V.V.V.B.B.B.B.C.N.N.N.B.B.",
"wXwXwXtXtXhXhXhXmXNXNXNXtXwX-X$Xb.2.3.%.%.%.&.&.&.O.O.O.O.O.O.O.O.O.O.O.O.O.O.O.O.O.O.O.O.O.Q Q ....O.O.O.O.O.O.O.O.O.O.O.O.O.&.&.&.&.&.&.$.$.$.$.$.%.%.,.,.<.<.<.<.1.1.1.1.h.z.l.l.v.B.V.V.OX=XnXIXJXJXJXJXJXJXJXJXJXJXJXHXHXHXJXHXHXHXFXHXFXFXFXFXFXFXFXIXGXGXGXGXBXBXBXBXMXMXMXMXMXMXMXnXnXrXrX9X6X=X=X=X;X;X;X;XXXM.1.#.O.3.2.2.>.>.:.w.:.-.O.O.O.Q I I I v I ! +.! ! ! ! ! I v v v c g g v I c c c h s s J ^ 4.9.t.H.Q.H.' E 9.U.f.' L K L _ ' 9.t.] J.[.aXgXaXkXbXbXbXvXbXkXkXkXaX XR.K.R.F.] ] 8.` E E 8.F.R.{.|.sXiX_.] L A A K ` H.'.'.] S F.).{.K.K.F.t.] t.t.] ] K.{.).F.8.7.m.-XqXqX3XV.@.g g h h x a u u a a a a y f a a x x x x x x N N x x l l b #.h.XX=X6X6X6X6X6X8X0X0X0X9X9X9X9X9X9X0X0X7X;XOXXXOX;X=X7X8X7X8X=X=X=X;X+X@XOX.XoXc.c.x.z.z.z.h.h.<.} m &.:.w.2.@.@.3.%.n x N u u u u i t t r y u a f u y r t y u u u y y u u u i i i i i i l ..$.,.3.2.v.v.v.v.V.N.h.$.} l k n 1.B.B.k.B.;X=X;X;X7X8X8X-X-X-X=X;X;X$X;X;X=X;Xv.<...X.h.XX;X$XB.v.l.V.$X;XOXXXV.V.XXV.v.2.2.2.<.2.v.V.OXXXV.V.V.V.V.B.C.C.C.C.N.N.N.B.V.",
"qXqXwXwXwXtXtXtXtXhXtXwX-X$Xb.<.<.%.%.%.&.&.&.&.O.O.O.O.O.O.O.O.O.O.O.O.O.O.O.O.O.O.O.O.O.O.Q Q ....O.O.O.O.O.O.O.O.O.O.O.O.O.&.&.&.&.&.&.$.$.$.$.%.%.%.,.<.<.<.1.1.1.2.h.h.z.l.v.v.M.V.OXOX=XqXNXFXHXJXJXJXJXJXJXJXJXJXJXFXFXHXHXHXHXFXFXFXFXFXFXFXFXFXGXVXVXVXVXVXBXBXBXmXMXMXMXMXMXMXnXnXnXrX9X0X+X@X+X;X;X;X;X;XXXN.2.#.} O.%.%.+.+.-.:.:.-.O.O.Q Q I I I I ! -.;.-.@.! ! Q I I v I v c c v I I P G g d d d U H H K ` t.9.` ( ' ' F A F L ) L ( _ ` _ F.).iXaXsXkXbXvXvXbXaXiXiXiX|.{.R.K.J.K.9.9.9.` E E ] K.R.W.{.|.iXiX).] _ S S _ G.J.J.T S F.'.).F.F.F.t.t.F.F.t.] F.J.).K.9.8.n.,XeXwXyX%X2.v h f f c f f f f a a a a a a f f f f N u N x x x x x x l n $.l.OX6X6X6X6X6X6X0X0X0X9X9X0X9X9X9X0X9X8X$XC.2.v.OX=X=X=X=X=X=X=X=X;X+XOX.X.XB.c.c.x.z.z.z.z.h.1.O.n m +.>.3.3.3.>.&.j u j u u u u u t t t t u f x u y r t u y y u u u u u u i i i i i i j } n n n $.2.<.<.2.N.N.2.X.n l n ,.v.B.h.#.1.B.OX;X=X-X8X8X7X8X=XOXV.XXXXOXOX=X;XC.k.k.v.B.OX;X=X;XB.h.v.N.V.k.v.V.$X&X$XC.k.v.N.V.N.V.OXOXV.N.N.V.V.V.V.N.C.C.C.C.N.N.V.V.",
"8X1X1X8X8X8X8X8X1X-X&X$XC.k.<.%.3.%.%.%.&.&.&.&.O.O.O.O.O.O.O.O.O.O.O.O.O.O.Q Q Q Q O.O.O.O.Q Q ......O.O.O.O.O.O.O.O.O.O.O.&.&.O.&.&.&.&.$.$.$.$.%.%.%.,.<.<.1.1.1.1.2.k.k.l.M.M.B.V.;X-X8XrXmXFXHXJXJXJXJXJXJXJXJXHXFXVXBXBXFXFXHXFXFXFXFXFXFXFXFXFXFXVXVXBXBXBXBXBXBXmXmXMXMXMXMXMXnXnXnXrX9X0X6X@X.XXX+X;X=X+XOXB.l.<.O.n m O.m m m I O.+.+.O.O.+.Q Q I Q Q *.:.0.5.;.*.! ! ! I P P P v v P I I I G G G G G D 9 A E G.]._.G.8.( ) J J L ( ) ` ` ` ` ' F.).|.|.sXkXbXvXkXaXsXiX|.|. XW.R.R.{.J.S.] 8.` E E ' S.K.W.{.|.iXiX).J.] _ S ] J.J.S.S _ G.).).K.t.t.t.t.t.t.9.] ] F.K.F.] 8.d.,XyXyXyX,Xm.*.G p 8 a g f a a a a a a a a f f N f f x x x a u u x x n l n ,.x.+X6X6X6X=X6X6X0X0X9XrX9X9X9X0X0X8X8X$XV.b.C.OX;X=X=X=X;X;X;X;X;X;X@X.X.Xc.x.x.x.x.x.z.z.h.h.<.%.%.>.2.w.>.3.>.$.l i k i k u u u i t t y u u u u u t t u i t y u u u u u u u j i i i u b b x b ..#.n n #.v.N.v.2.,.$.2.N.B.k...n 1.XX;X;X7X=X;X=X-X8X;XB.1.1.h.v.V.=X8X;X;X;X;X;X;X;X;X;XV.B.OXV.v.$.2.V.$X=X&XN.h.k.N.V.OXOXV.N.v.h.h.v.C.V.V.C.v.v.C.C.V.V.V.C.",
"E.E.E.V.V.V.V.V.V.C.b.r.2.%.&.&.%.%.%.%.&.%.&.O.O.O.O.O.O.O.O.O.O.O.O.O.O.O.O.Q Q Q O.O.O.Q Q Q ......O.O.O.O.O.O.O.O.O.O.O.&.&.O.&.&.&.&.$.$.$.%.%.%.<.<.<.<.1.1.1.1.2.k.l.v.M.B.OX-XwXmXBXFXHXJXJXJXJXJXJXJXJXJXHXVXBXmXtXmXBXFXFXFXFXFXFXFXFXFXFXFXIXVXVXBXBXBXBXBXmXmXMXMXMXnXnXnXnXnXrXrX9X0X6X+X.X.XOX+X;X;XOXB.h.,...m O.&.m M v v v v m Q Q O.+.Q Q ! +.:.0.i.i.0.:.-.*.+.! Q Q I I I I I I I c g d G J D D F ` Q.aXpX_.p.( ) H H H ) ) L ` ' ` ] H.).[. XsXkXkXkXsXsXsXaXgXaX XK.R.W. XJ.S.' 8.' ( ` ' F.K.J.W. X{. X{.{.J.S._ K.).J.] S _ F.J.J.F.] ' ' ] 8.] 9.] ] K.K.F.` ` p.*X3XyXyXeX,Xn./ d p g g f a a a a u u f u u N f f f N a a f x x N x x z n X.1.B.=X6X6X6X0X0X6X6X0X9X9X0X0X0X0X8X1X*X$XY.V.V.XXOX;X=X=X=X;X+X+X+XOXXXB.M.x.x.z.z.z.z.z.h.k.2.2.>.%.>.2.>.3.2.1.} j j i k k u k u i i i u u u u i i i i r r i u u u u i i u l l b n } $.#.#.#.$.O.b b $.k.N.V.V.N.v.N.OXC.h.,.1.B.OX$X;X;XV.v.N.;X-XXX1...n n $.2.E.-X-X-X-X-X=X;X=X;XOXOXOX=XXXk.X.$.<.v.XX$XN.h.2.N.XXXXV.v.1.<.$.,.2.C.N.V.N.k.k.v.C.C.C.C.C.",
"r.r.r.r.2.2.2.2.2.<.<.3.%.&.&.&.&.%.%.%.&.&.+.&.O.O.O.O.O.O.O.O.O.O.O.O.O.O.O.O.Q Q Q Q Q Q Q Q O.O.O.O.O.O.O.O.&.&.O.O.O.O.&.&.&.&.&.&.&.$.$.$.%.%.3.<.<.<.1.2.1.1.1.k.l.l.N.XX+X0XMXBXFXJXJXJXJXLXJXJXJXJXJXJXHXSXBXmXrXwXmXBXIXFXFXFXFXFXFXIXVXVXVXVXVXBXBXBXBXBXmXmXmXMXnXnXnXnXnXnXrXrX9X9X0X9X6X+X.XXX+X+X+XXXM.1.$.O.#.%.&.m x x x x M v Q O.&.+.Q I Q @.:.w.u.u.q.5.:.*.-.@.+.+.! I I Q I I v c g g d d D J L 9.].aXpX].d.8.( ( ( ( ( ` ` ` ` ' F.).}.[.[.aXbXbXsXiXsXaXkXkXsX).K.K.{. XU.t.` ` ` ( ` ' ] F.K.J.W.W.W.W.|.{.K.[ J.{.W.S._ S.F.R.K.F.] ] ' ] ' ` 9.9.F.J.U.9._ ( f.!.*X3X4XcXpX/.f.) q d d d h a f a a a a a a a f f f N f f f f f x x x z z z o.z.OX=X7X6X8X0X8X6X6X0X9X0X0X0X8X7X-X*X%X!.Y.m.n.V.&X=X;X;X;X=X;XOXOXV.B.B.x.x.x.z.z.z.z.h.z.l.v.2.$.$.2.3.2.h.h.$.b j i k j j j u u u i u u u u u u i u i i i u l l l l l l b } #.,.1.h.h.2.2.2.1.$.$.1.v.V.V.XXV.C.V.OXXXN.N.V.$X$XOX;X$XB.2.2.$X=XV.<.n b n n <.C.;X;X&X-X-X=X-X=X$X$X$X;X;XB.1.n l n <.C.XXC.v.C.N.V.V.C.<.O.n O.<.2.C.C.C.v.b.b.C.C.b.2.2.>.",
"3.3.3.3.3.3.3.3.3.%.%.%.%.&.&.&.&.&.+.&.&.&.+.+.O.O.O.O.O.O.O.O.O.O.O.O.O.O.O.O.O.O.O.O.O.O.O.O.O.O.O.O.O.O.O.O.&.&.&.&.&.O.&.&.&.&.&.&.$.$.$.&.%.%.<.<.<.1.1.2.1.1.h.v.v.M.XX;XrXmXFXJXJXJXJXHXHXJXJXJXJXJXJXJXFXBXmXmXmXmXNXBXFXFXFXFXFXFXVXVXVXVXBXBXBXBXBXBXBXNXmXmXMXMXnXnXnXnXrXrXrX9X9X0X9X9X0X6X+XOXOXXXB.M.h.<.$.#.#.%.&.m v v n v n n Q O.+.Q Q Q ! +.:.0.u.u.q.0.5.:.:.-.*.+.! Q Q Q Q Q I I P G G J J W 8.I.2XaX2XQ.G.d.p.7.7.8.8.e.e.' ` 8.K.).{.{. XkXvXbXsXiXaXkXbXkXiXJ.F.K.).{.J.t.' ` ( ( ` ' ] t.F.K.D.K.R.W.iX XR.[ J.|.{.F.[ F.F.R.J.R.{ ] ] ] ] 9.9.] F.).).] L E 7.n.n.~.5XcXlX>XU.8.H d s d d h f f a a a a a a a f N N f f f a a a u u z z z ..,.l.OX+X+X=X6X0X6X6X0X0X0X6X6X8X-X&X!.L.L.m.a.a.m.$X$X$XOX;X;X;XOXXXB.B.M.x.x.z.z.z.z.z.j.h.l.v.2.$.O.%.2.2.k.k.<...n z l n | | b j j j u u i u u u i k k i j b } } } ....O.#.$.<.2.v.N.N.v.v.v.v.2.2.h.N.XXV.V.V.v.N.XX$X$X$X&X$XXXV.XX=X$XV.N.&X=XV.2.%.X.O.3.k.C.V.B.OX&X;X&X;X;X$X$X;X=X$Xk...l l n 2.C.V.V.V.XXXXXXV.v.%.n n $.2.k.b.b.C.b.v.b.v.v.2.&.m n ",
"%.%.%.%.%.3.3.3.%.%.%.%.%.%.%.%.O.O.O.+.+.+.+.+.+.+.O.O.O.O.O.O.O.O.O.O.O.O.O.O.O.O.O.O.O.O.O.O.O.O.O.O.O.O.O.O.&.&.&.&.&.&.&.&.&.&.$.$.$.$.%.%.%.3.<.<.<.1.2.2.h.h.k.l.v.B.=XrXBXFXJXLXJXHXVXBXVXFXJXJXJXJXJXJXHXVXBXBXVXFXFXFXFXFXVXIXFXVXVXBXVXBXBXBXBXBXBXBXNXNXmXmXmXnXnXrXrXrX9X9X9X9X9X0X0X9X0X6X=XOX.Xx.z.1.<.$.$.&.O.&.O.Q Q Q Q m n m Q +.Q I Q +.@.-.:.5.w.u.u.u.0.:.:.-.@.! Q ! ! Q Q ! +.*./ ^ ^ / 4.f.Q.>XaXaX[.J.d.I.I.G.d.f.f.G.G.9.' 9.J.{.{.).[.kXvXbXaXaXkXlXaXiX'.K.F.K.J.).K.9.' ` U E ` 9.8.] ] F.K.K.K.J.|.{.K.[ J.iX).F.] F.F.J.).W.K.S.] F.t.9.] ` 9.J.G._ S E ( ( ' f.[.aXpX>X).G.( 9 s d g d h a a a a a a a a f f N f a a a a a a x l l z z n o.1.l.B.XX+X6X0X6X6X6X6X6X6X-X-X!.n.7.7.p.f.n.L.!.!.V.V.$X;X;XOXXXB.B.M.M.x.z.x.l.l.z.z.z.z.v.h.,.#.#.<.2.v.M.l.j.1.o.X.#.<.1.,...} n l j k j j j l z n n } #.,.1.1.2.h.2.1.<.<.2.v.N.N.C.N.V.N.v.k.v.V.$XV.N.C.k.h.N.OX$X;X$XV.v.h.v.&X-X7X-X-XOXM.k.k.r.2.k.k.k.2.k.V.$X$XV.V.V.V.$X&X=XOXv.%.....X.2.v.v.V.$X$XV.C.N.b.1.$.%.1.2.1.%.2.k.2.1.>.2.v.>.} x x ",
"Q Q Q Q Q Q Q Q O.O.O.&.&.O.O.O.O.+.+.+.+.+.+.+.+.+.+.O.O.O.O.O.O.O.O.O.O.O.O.O.O.O.O.O.O.O.O.O.O.O.O.O.O.O.O.O.&.&.&.&.&.&.&.$.$.$.$.%.$.%.%.%.3.<.<.<.<.1.2.2.k.l.l.l.M.;XrXVXFXHXJXJXJXFXNXtXmXVXHXJXJXJXJXHXHXFXFXFXHXHXFXFXFXVXBXVXVXVXBXBXBXBXBXBXBXBXBXmXNXmXmXmXnXnXnXnXrXrX9X9X9X9X9X0X0X9X0X=XOXB.z.j.1.,.,.$.$.&.O.O.&.&.%.%.&.O.O.O.O.+.Q Q @.>.:.;.-.:.0.u.n.a.w.5.:.-.! Q Q ! ! ! *.-.:.0.u.p.p.d.~.>XpXpXaX>XJ.F.f.U.U.I.I.L.L.U.I.G.t.F.J.{.).J.{.aXkXkXkXbXbXlXaXiX'.J.F.F.F.F.t.8.' ( U L ' 9.8.` 9.J.W.{.R.R. X{.R.] ).[.).{ T ] ] F.K.K.S.] ] t.t.9.9.] 8.9.` L L L E E ` H.[.sXiX[.[.).t.F D D D d s a f a a a a a f a a a a a a a a f x x u x z l z n ..X.,.h..X=X0X0X6X6X6X6X6X-X&XY.p.4.' t.H.P.T.^.Y.m.V.OX$X+XOX.XB.M.M.M.x.x.x.x.l.l.x.z.z.l.l.h.2.1.h.v.B.V.B.B.x.h.1.1.h.v.v.k.1.$.} n z l j j n X.,.,.<.1.h.k.v.v.v.v.1.O.} $.2.v.N.N.V.V.N.v.v.N.XXOXv.<.<.1.v.V.$XOXV.XXv.,.n } N.&X7X-X;Xk.$.#.<.2.<.$.X.O...O.k.v.v.1.$.<.v.V.;X;X;XV.C.k.<.$.%.$.1.v.V.V.v.v.V.V.V.C.C.b.2.<.%.2.2.>.} m %.b.r.>.%.%.",
"} m m m m n v v M v m m m n m Q O.O.O.+.+.+.+.+.+.+.O.O.O.O.O.O.O.Q O.O.Q Q Q Q O.O.O.O.O.O.O.Q O.O.O.O.O.&.&.&.&.&.&.&.&.&.$.$.$.$.%.%.$.%.%.%.<.<.<.<.<.1.1.2.k.v.v.v.V.8XNXFXHXHXHXHXHXFXBXmXmXVXHXJXJXJXJXJXHXHXHXHXHXFXFXFXFXGXVXFXGXVXBXBXBXBXBXBXBXmXmXmXmXmXmXmXnXnXrXrXrX9X0X0X9X9X9X9X0X0X6X@XM.z.1.1.<.<.<.%.%.&.&.&.%.%.3.%.&.O.O.&.+.&.+.+.-.>.>.-.*.:.q.s.n.n.i.0.:.:.-.! @.*.@.+.@.-.5.u.s.d.d.d./.5XpXsX2XQ.F.t.G.Q.Q.U.U.U.U.Q.U.U.J.G.J.).).W.W.[.iXsXaXbXvXvXvXlX[.J.F.9.' 9.' ' ' ( U ( 4.8.8.` F.{.iX|.W.R.).J.K.] J.J.t._ _ ] ] F.K.F.] ] ] 9.t.9.9.9.8.` L L ` E L ` t.Q.|.sX|.[.[.[.Q.' H D D d d h h a a a a a f a a a a a a a a f f x f x x x l n n b n $.z.@X6X0X0X6X6X6X6X=X$Xm.y.4.8.G.G.G.H./.T.L.C.V.OXOX.X.XB.M.M.M.x.l.l.x.l.l.x.x.x.M.B.B.N.v.v.N.V.B.B.B.B.x.h.1.h.M.B.M.v.k.1.1.$.| z l ..1.h.h.h.k.k.v.v.v.v.2.#.l l O.2.C.C.N.V.V.V.N.N.V.OXV.1.} $.v.OXOXN.2.<.v.N.v.2.2.N.$X-X-X$Xk.#.} O.X.n z b n b M O.&.X.n ..%.v.V.$X&X;X$XV.C.v.2.k.v.v.C.v.k.b.C.V.XXXXV.V.V.N.v.2.b.b.2.m x %.b.b.b.b.b.",
"v v c M x x x x M v v v x x v m Q Q O.O.O.O.O.+.O.O.O.O.O.O.O.O.O.Q Q O.Q Q O.Q O.O.O.Q O.Q Q Q O.O.O.O.O.O.&.&.&.&.&.O.&.&.&.&.$.%.%.%.%.%.%.%.<.<.1.1.<.1.2.h.k.v.M.B.;XrXBXFXFXHXHXHXHXFXVXBXVXFXJXJXJXJXJXJXJXHXHXHXHXHXFXFXFXFXFXFXFXVXBXBXBXBXBXBXmXmXmXmXmXMXMXMXnXnXrXrXrX9X0X0X0X0X0X0X0X6X+X.Xz.1.<.<.<.<.3.%.%.&.&.@.@.&.+.+.O.Q Q O.+.&.O.+.+.! ! ! *.:.q.n.n.d.a.q.0.0.:.=.*.*.*.*.*.:.0.s.m.I.L.G.U.2XpXsX[.J.G.K.J.Q.Q.Q./._.).Q._._.).J.J.).{.).J.).[.[.iXaXbXvXAXvX2XU.G.9.` ' ` ` ` ( ( ` 8.9.] [ K.sXkXsXW.K.J.J.K.] ] ] [ [ ] G.K.J.W.J.K.K.F.F.G.G.F.9.' _ K _ ` E L ' F.).|.iX X{.[.|.[.G.` F D J d h h p a a a f f a a a f f a a a a a a x f f N x n n M n ..1.XX6X6X6X6X6X6X6X=XV.b.0.5.8.p.7.7.p.I.I.n.C.V.XX.X.X.XB.M.M.x.l.z.z.z.x.l.z.x.M.M.B.XXC.h.1.k.M.N.B.B.B.B.l.z.z.M.M.M.C.C.M.v.h.,.| n X.1.k.l.l.l.l.l.l.l.k.<.n k j #.k.N.C.N.N.V.XXXXXXOXOXB.h.,.2.OX=XXXh.#.n <.N.$X;X$X$X&X-X-X=XV.2.1.<.O.b b M n M n x l l m %.b.V.$X$X$XE.V.b.2.2.2.2.C.C.2.%.>.b.V.V.XXV.V.C.C.C.C.C.C.C.2.+.m %.2.b.b.b.b.",
"v v v c M M M M M x x x f f f x m Q O.O.O.O.O.O.O.O.Q Q Q O.O.O.O.O.O.O.O.O.O.O.O.O.O.Q Q Q Q Q O.O.O.O.O.O.&.O.&.&.&.&.&.&.&.&.$.$.$.$.%.%.%.%.3.<.1.1.1.1.h.k.l.v.B.OX8XmXVXFXFXFXJXJXHXFXFXFXHXJXJXJXJXJXJXJXJXHXHXHXHXHXHXFXFXFXFXFXFXGXVXBXBXBXBXmXmXmXmXmXMXMXMXnXnXnXrXrX9X0X0X0X0X0X6X6X6X=XXXx.j.1.1.<.<.<.%.%.%.@.@.@.@.+.O.&.3.@.+.Q &.&.+.O.Q P P Q =.5.q.s.n.d.d.a.a.a.q.6.:.*.*.-.=.:.0.a.I.T.~.P.Q.2XsXsXiX[._.).).).'.'.`.`.].`.].].].).).'.).).J.U.).).}.|.aXvXvXvXpX_.H.9.` ` ` ` ` ( ( ` 9.9.] ] J.sXkXgXW.D.K.R.K.] [ [ ] ] F.).).).{.{.{.).W.).{.).K.F.F.] _ _ _ _ _ ` F.).{.|.{.{.|.iXiXJ.' H D D d d d p a a f f f f f a f a a a p a u u f f f N x M M n n n ,.B.=X6X6X6X6X6X6X=XOXN.b.2.0.0.0.y.b.V.V.C.B.V.XX.X.X.XB.M.x.x.l.z.z.z.z.z.l.x.B.B.V.V.z.,.X.$.1.z.v.B.V.V.B.M.M.C.M.M.B.B.B.B.v.k.<.$.<.1.h.k.l.l.v.v.v.k.h.,.b j n ,.k.N.N.N.V.V.OXOXOX$X$XV.C.v.C.$X=XV.h.#...h.XX-X7X7X-X&X&X-X-X;XOXV.b.2.>.%.%.&.O.m m n n O.2.V.&X-X&X$XV.b.<.&.} Q <.2.2.&.A.2.C.V.XXV.V.C.h.2.b.C.C.C.b.2.&.m I +.%.%.>.2.",
"c c M x x x x x M x x x x x c v m Q O.+.+.O.O.O.O.O.O.O.O.O.+.+.O.O.O.O.O.O.O.O.O.O.O.O.O.O.O.O.O.O.O.O.O.O.O.O.O.O.&.&.&.&.&.&.$.$.$.%.%.%.%.%.3.<.1.1.1.2.k.z.z.v.V.-XtXBXFXFXFXFXHXHXHXHXJXJXJXJXJXJXJXJXJXJXJXJXJXHXHXHXHXHXFXFXFXFXFXGXVXBXBXBXBXmXMXMXMXmXMXMXnXnXnXrXrX9X0X0X0X0X9X0X6X=X=X@XB.z.j.1.1.1.<.<.%.3.>.-.-.-.-.@.@.>.i.w.>.+.&.%.@.&.O.P Q @.5.0.a.d.L.L.L.L.L.n.n.q.5.;.;.:.0.q.q.s.P.^.`.^.].2XsXaXaXbXaXiX].].].].].<X>X>X>X[.].'.'.'.U.J.J.J.J.J.Q.{.2XpXcXvXlX].H.F.8.4.' ` ` ` ` 8.9.9.S.S.K.|.aXaX{.D.D.R.J.K.F.F.F.F.K.).J.J.J.).{.{.[.iXaXiX[.[.[.).S.[ _ _ [ ] 9.J.{.{.{. X|.sXiXJ.8.K Z D J d d s a f f f f f f a N a a a a u u u u a f f f x x x M z $.B.+X6X6X6X6X6X6X=X;XXXC.C.v.b.b.C.V.$XOXOXV.XX.X.X.X.XB.B.M.x.l.z.z.z.z.z.l.x.B.B.XXB.z.o.z z | X.<.k.v.M.B.M.M.B.B.B.C.M.N.C.C.M.k.h.2.2.1.h.k.v.v.v.v.l.2.#.l b #.h.N.B.N.V.V.XXOXXXOX$X$X$X$X&X&X&X;XOXk.1.h.OX-X8X8X8X&XV.V.$X-X-X-X&X&X!.V.C.V.V.b.O.m m v n %.V.&X&X&X&X$XC.i.>.O.n n n M n &.b.V.V.V.V.C.2.} n 3.b.C.V.C.2.A.x N N a a n &.",
"v c M x x h x h h h x x x c v v Q Q O.+.+.+.O.+.+.+.O.O.O.O.O.O.O.O.O.O.O.O.O.O.O.O.O.O.O.O.O.O.O.O.O.O.+.+.O.O.O.O.&.&.&.&.&.&.&.%.&.%.%.%.3.3.,.<.1.1.2.k.k.z.l.B.;XwXNXVXFXFXFXFXFXFXFXHXJXJXHXJXJXJXJXJXJXJXJXHXHXHXHXHXHXHXHXFXFXFXFXGXVXBXBXBXBXmXmXmXmXMXMXMXMXnXrXrX9X6X6X6X0X9X9X0X7X6X6X+X.Xz.j.j.1.<.<.3.%.3.%.3.:.2.w.2.>.:.i.2.-.-.%.%.%.%.&.+.@.:.0.q.q.p.L.I.I.P.P.L.n.a.0.5.0.u.a.a.d.L.~.<X>X>X>XpXaXaXsXsXiXiX[.[.[.[.[.[.[.>X>X>X>X].'.).U.J.J.J.J.J.).[.iXiXsXaXsX>XU.G.9.8.` ` ( ( ( ` ' 9.S.D.K.{.sXgX|.J.F.K.J.J.F.S.D.F.J.{.J.K.K.K.K.K.K.K.W.{.[.sXaX XR.[ [ [ ] F.K.). X|.|.|.|.sXsX).F.` H D H H U G a p y f f f f p p p p u u u u u N N f f f f x x b z $.B.+X6X6X6X6X6X6X6X6X=X;X+XOXOX+X+X+X+X+X+XOXXX.X.X.X.XB.B.M.x.z.z.l.l.l.z.l.M.B.B.XXXXl.,...z l n ..X.,.1.k.M.B.B.B.B.B.C.C.B.B.M.M.v.k.z.2.h.k.l.l.v.v.v.k.1.%.<.h.v.N.N.B.V.V.V.XXXXXXOX$X$X;X&X$X&XOXk.,.,.B.=X-X-X-X7X=X$XV.&X-X-X&X&X-X&X&X&X&X&XV.>.v f x c @.C.$X*X-X-X-X&X$XV.b.2.+.Q M v %.b.C.V.V.b.2.&.x M %.b.C.C.C.2.+.M f M x f c m ",
"v M M x x x x x x M c v v m m I O.O.O.+.O.O.O.+.+.+.O.O.O.O.O.O.O.O.O.O.O.O.O.O.O.O.O.O.O.O.O.O.O.O.O.O.+.+.O.O.O.&.&.&.&.&.&.&.%.%.%.%.%.%.3.3.<.1.1.1.2.h.k.z.B.;X8XmXBXIXFXFXFXFXFXHXHXHXJXJXJXJXJXJXJXJXJXJXJXHXHXHXHXHXHXHXHXFXFXFXFXGXGXBXBXBXBXmXmXmXmXmXMXMXMXnXrXrX0X6X=X=X6X0X7X6X6X6X6X+X.XM.h.2.1.<.<.<.3.3.3.>.2.2.w.2.>.2.:.>.&.@.&.&.&.%.&.O.+.-.:.5.7.f.L.T.~./.T.I.L.n.u.u.a.n.s.s.d.I./.:X2X>X>XiXpXiX[.).).).[.[.2X2X>X[.>X>X>X>X>X>X].).U.J.J.J.J.J.U.[.iXiXiXiX2X[.Q.G.9.8.8.8.` ` ` ` ' ] S.D.K.{.iXsXiX{.K.R.J.J.F.D.S.F.J.{.R.S.S.S.D.D.D.S.] F.J.{. X[.W.J.R.J.J.K.K.J.{.|.sX|.sXgXkXiX_.G.` H U ( / ! d a p f f f f a p p p u u u u u u N f f f f l x n n 1.XX=X6X6X6X6X6X6X6X6X6X6X6X-X-X=X=X=X+X+X+XOXOXXX.X.X.XB.B.M.x.z.l.l.l.l.z.l.M.B.B.V.XXM.h.X.n z z n n ..X.<.h.v.v.M.M.M.M.M.B.C.M.M.v.v.l.k.k.k.h.1.h.l.v.v.k.h.k.N.N.B.B.N.V.V.XXXXXXOXOX$X$X&X&X;X;XV.2.1.k.OX-X-X7X8XqX8X-X&X-X1X-X-X-X*X*X-X-X1X-X$Xb.&.m m Q 2.V.-X1X-X-X-X*X*X&XV.C.b.2.>.@.2.b.V.V.b.3.+.M a x A.>.b.C.C.w.%.m M M x x x M ",
"M M M x x M M M v v m Q Q Q O.O.+.O.+.O.O.O.O.O.+.O.O.O.O.O.O.O.O.O.O.O.O.O.O.O.+.+.O.O.O.O.O.O.O.O.O.O.+.O.O.O.&.&.&.&.&.&.&.&.%.%.%.%.%.3.3.>.<.1.1.2.h.2.k.l.XX-XtXBXVXVXIXFXFXFXFXHXHXHXJXHXJXJXJXJXJXJXJXJXJXHXHXHXHXHXHXHXHXFXFXFXFXFXGXBXBXBXBXBXmXmXmXmXMXnXnXrX9X9X0X6X=X=X7X7X6X6X6X6X6X;XOXB.l.2.<.<.,.<.>.>.3.3.>.2.2.:.-.%.%.O.Q &.&.%.%.%.@.Q Q ! *.:.q.f.I./.^.^./.T.I.n.n.n.n.n.d.s.n.P.^.:X>X>X>XiXsXiX'.J.H.J.].>XiXiXiX>X>X>X>X>X>X>X]._.U.J.H.H.J.J.J.{.iXaXiX2X[.[._.U.G.9.9.9.8.8.` 8.] ] S.K.J.{. X|.|.{.R.K.J.J.K.F.F.K.W.{.J.F.S.S.F.F.] [ [ S.K.J.{.{.{. X X[.{.W.J.J.{.|.aX|.sXkXvXaX2XQ.t.( ( ` =.^ J h a a a a f p p p p u u u u u u u N f f N x l n X.z.+X=X6X6X0X6X6X6X6X6X6X7X7X7X6X=X=X=X;X+X+XOXOXXX.X.X.XB.B.M.x.l.l.l.l.l.l.l.B.B.B.V.XXB.M.1.$.n l l z z z n $.<.k.v.v.v.M.M.C.N.v.v.v.v.v.v.v.k.1.<.<.k.v.N.v.v.v.B.N.V.N.N.V.V.XXXXXXOXOX$X$X&X&X-X;XXXv.v.V.-X8X7XqXqXqXqXqXqXqXqX3X-X-X*X-X3XqXqXqX-X!.m.b.i.b.V.*X3XqX,X,X-X-X-X*X&X$X!.V.m.b.b.V.V.V.2.+.x u u x M O.2.b.C.b.>.A.M M M M M c ",
"h x x M M v v v } Q O.+.&.&.&.+.+.+.O.+.+.+.+.+.+.O.O.O.O.O.O.O.+.+.+.+.O.O.O.O.+.+.+.+.O.O.O.O.O.O.O.O.O.O.O.&.&.&.&.&.&.&.&.%.%.%.%.%.3.3.>.>.1.1.1.h.k.h.k.M.;X8XmXBXBXVXIXFXFXFXFXFXHXHXHXHXJXJXJXJXJXJXJXJXHXHXHXHXHXHXHXHXHXFXFXFXFXFXVXBXmXmXBXBXmXmXmXmXMXMXrX9X0X9X9X8X0X0X0X0X7X6X6X6X=X+XXXB.l.2.1.<.<.1.2.2.3.3.%.%.@.%.+.+.%.&.%.2.2.2.2.2.%.O.Q ! =.6.p.n.T.^.<X%X^.~.T.P.I.L.L.L.n.d.I./.`.:X>X>X>X>XiXiX[.Q.J.).[.iXaXaXsXiX>X>X>XiXiXiX>X'.U.J.H.H.H.J.U.{.iXpXsXiX>X>X].Q.H.G.G.G.t.9.' 9.9.] F.K.).{.{.{.{.J.R.F.K.K.K.R.K.K.W.[.{.W.J.F.S.] ] [ ] F.K.J.{.[.|.gXgXiX|.).W.W.W. X|.|.aXkXvXsX[.'.U.t.9.' ( J s s h a a a f p f p p a u u u u u u N N N f x l z X.l.+X6X6X6X6X6X6X6X6X6X6X6X6X6X=X;X+X+X+X+X+X@XOXXX.X.X.XB.M.M.l.l.z.l.z.z.l.l.M.B.B.B.V.V.B.l.1.X.z z z z l l n X.<.k.v.v.B.C.B.M.v.v.M.v.v.C.v.l.h.<.1.k.v.v.v.2.1.h.v.B.V.V.V.V.XXXXXXOXOX$X$X&X&X-X=X$X$X;X=X8XqXqXqXqXqXqXqXqX1X,X3X-X-X-X-XqXqXqXyXwXqX-X*X&X&X-X3X3XqX3X3X3X-X*X&X&X&X$X$X!.V.V.!.V.V.2.Q x x a x M O.2.b.C.b.2.%.I I I Q Q I ",
"h x M v v m m Q Q +.&.@.&.&.+.+.O.O.O.+.+.+.+.+.+.+.O.O.O.O.+.O.+.+.O.O.O.O.+.O.+.+.O.O.O.O.+.+.O.O.O.O.&.&.&.&.&.&.&.&.&.&.%.%.%.%.%.3.3.<.>.>.1.1.2.h.k.h.l.B.-XrXmXmXNXBXVXFXFXFXBXBXFXHXHXHXJXJXJXJXJXJXJXJXHXHXHXHXHXHXHXHXHXFXFXFXFXFXBXNXmXmXNXBXBXBXmXmXMXMXrX9X9X9X9X9X9X8X8X8X8X7X=X;XOX.XN.v.k.1.1.1.<.2.2.>.3.3.%.&.O.&.%.<.2.2.b.C.V.V.b.2.>.&.@.>.w.a.m.P./.<X<X<X`./.~.~.!.T.!.Y.I.I./.`.<X<X>X>X2X2XsXaXaXsXiXiXsXaXaXaXsXsXiX>X>XiXiXiX>X].).U.J.H.J.J.Q.].2XiXiX2X>X>X]._.U.H.U.U.H.t.] 9.9.9.] F.J.J.K.R.J.K.F.F.F.J.J.J.J.J.).[. X[.'.R.9.] [ ] t.G.K.J.{. X|.sXsXsX|. XiX|.).W.{. XgXbXvX|.[.[.'.U.J.9.` J s s d g a f f p a p p a u u u u u u u N N N N f z X.x.+X6X6X6X6X6X6X#X#X6X6X6X6X6X=X+X+X+X+X+XOX@XOXXX.X.XB.B.M.l.l.z.z.z.k.z.l.l.M.B.B.B.B.V.V.C.l.1.X.n z l z l z n $.2.k.v.C.C.C.v.v.v.M.M.M.v.v.v.l.k.k.l.v.v.h.$...$.k.V.V.V.XXXXXXXXOXOX$X$X;X;X;X-X-X-X7X8XqXqXqXqXwXwXqXqXqXqX-X-X3X3X-X3X3XyXyXqXyXeXeXeXeXtXyXqXqXqXqXwXqX3X-X-X*X%X%X&X&X&X!.!.!.V.C.2.+.Q Q O.+.%.2.b.b.C.C.b.2.>.>.>.2.2.2.",
"v v v m m Q O.+.O.&.&.@.@.&.+.+.O.+.+.+.@.@.+.+.&.+.+.+.O.+.+.+.+.+.O.O.O.O.+.+.+.+.O.O.O.O.+.+.O.O.&.&.O.O.&.&.&.&.&.&.&.%.%.%.%.3.3.3.<.<.<.1.2.2.2.h.z.z.B.OX8XrXMXmXmXBXVXFXFXGXMXhXBXFXHXHXHXJXJXJXJXJXJXJXJXHXHXHXHXHXHXHXHXFXFXFXFXFXBXBXmXmXBXBXBXBXmXmXMXrXrXrX9XrXrXwX9X8X8X8X8X7X;XXXB.l.h.h.2.1.2.2.<.>.3.%.3.3.2.<.2.2.b.C.V.C.C.C.E.V.C.r.1.2.2.b.m.V.Y.^.%X<X<X<X<X`.^.^./.~.^.^.^.^.`.:X:X>X>X2X2X2XiXiXsXaXaXsXaXaXaXsXsXsXiXiXiXiXsXiXiX>X'.).U.J.J.).].>X2X2X>X[.>X>X].'.).U.).'.U.G.8.9.9.t.] 9.F.F.F.F.F.F.F.F.G.J.J.).J.).).{.{.).J.9.' 9.9.9.] ] ] K.{.sX|.|.|.|. X X|.|.{.K.R.{.sXbXbX|.[.[.[.'.).J.9.( D D G g g f f p a p a a p u u u u u u N N N f f z X.l.OX6X6X0X6X6X6X#X#X#X#X=X#X+X+X+X+X+X+X+XOX@XOX.X.X.XB.M.x.z.z.z.h.z.z.k.z.l.l.B.B.B.B.B.V.B.B.v.1.X.z l z z z z ..,.1.2.k.k.k.h.h.k.v.v.v.k.h.k.v.v.v.v.v.v.k.,.#.<.k.V.XXXXXXXXXXXXOX$X$X$X;X&X=X-X-X-XqXqXqXqXwXwXwXqXqXqXqX3X3X3X3XqXqXqXyXeXeXeXeXeXtXeXyXyX,X$X!.$X%X-X-X-X*X*X*X*X*X&X*X&X!.!.!.V.V.w.>.2.2.i.b.b.C.m.m.m.m.m.n.b.b.b.n.n.n.",
"Q Q Q Q +.+.+.&.+.&.&.&.&.&.+.+.&.&.&.&.@.@.+.+.@.@.+.+.+.+.+.+.+.+.+.+.+.+.+.+.+.+.+.O.+.+.O.+.&.&.&.&.O.&.&.&.&.&.%.%.%.%.%.%.%.3.3.<.<.<.1.2.2.2.2.h.z.M.OX-XwXrXMXmXmXBXBXIXIXBXrXwXmXFXHXJXHXJXJXJXJXJXJXJXHXHXHXHXHXHXHXHXHXFXFXFXFXFXVXBXBXBXBXVXBXmXtX9X-X=X-X7X8XwXrXrX9X8X8X8X7X=XOXB.l.h.h.h.2.2.2.2.2.>.>.>.2.2.b.b.C.C.V.XXUXV.C.V.OXOXV.v.b.b.C.V.Y.!.%X*X:X<X<X<X>X<X:X<X^.^.%X:X<X<X:X>X>X>X2X5XiXiX2X2X>X2XiXiXsXsXiX2XiXiXiXiXiXiXsXiXiXiX>X]._.U.).'.>XiXiXiX>X[.>X>X>X[.'._.[.2X].J.9.t.F.F.F.F.F.F.F.F.G.G.G.R.R.J.).{.).{.{.{.).J.F.' ' 9.8.8.] ] t.K.{.|.|. X X X{.{.|.|.|.R.K.W.|.kXkX|.|.iXiX[.{.).H.8.L J J g g a a p a p a a p u u u u u u N u f f f z n ,.M.OX=X6X6X6X#X#X+X#X#X+X+X+X@X@X@X@X@XOXOXOXOX.X.XB.B.M.l.l.z.j.j.h.h.z.k.l.l.B.B.B.B.B.B.B.B.B.v.1.X.n z z z z n ..X.X.$.$.$.$.$.2.k.k.v.r.2.r.v.v.v.v.v.v.v.k.2.k.C.V.V.V.V.V.XXOXOX$X$X$X&X=X-X-X-X8XqXqXqXqXwXwXqXqXqXqXqXqXqX3XqXqXwXyXeXtXtXtXtXeXtXtXyX,XY.i.w.w.i.b.V.$X*X*X*X*X*X*X*X%X%X$X$X$X!.n.b.b.n.m.m.m.V.V.V.m.m.V.V.m.m.m.m.m.n.",
"+.+.+.+.&.&.@.@.&.&.&.@.@.@.@.@.@.@.@.&.+.+.+.@.@.@.+.+.+.+.+.+.+.+.+.+.+.+.+.+.+.+.+.O.+.+.+.+.&.&.&.&.&.&.&.&.&.&.%.%.%.%.%.%.3.3.3.<.<.1.2.2.1.2.h.k.l.B.=X9XrXMXMXmXmXNXBXBXGXBXrXwXmXFXHXJXHXJXJXJXJXJXJXHXHXHXHXHXHXHXFXFXHXFXFXFXFXFXFXVXVXBXBXBXNXnX8X;XOXOXOXOX;X8XwXwXrX9X9X9X8X=XOXM.z.h.h.h.k.2.2.2.2.2.2.Z.b.C.C.V.V.UXUX$X$XXXV.XXOXOXV.B.V.XX$X$X!.%X*X:X:X:X:X>X>X>X,X:X:X:X:X,X>X:X>X>X>X2X5XiXiXiXiX>X].'.[.iX2X[.{.'.[.[.>XiXsXsXsXsXsXsXiX>X].'.'.[.2XiXiX2XiX>X>X>X>X>X[.'.iXaXiX).t.t.t.9.9.9.9.F.F.F.F.F.G.J.J.).[.[.{.).{.).).R.9.` ( ` ( ` ` ] F.J.).{.|.|. X{.W.W. X|.|.J.D.K. XgXaXsXkXaXaX[.[.'.J.9.E J s h a a a p a p p a p u u u u u u u a N N x z z X.1.z..X+X=X#X+X+X+X+X#X+X+X@X@XOXOXOXOXOXOXXX.X.XB.B.M.x.z.z.z.h.h.h.h.h.k.l.z.M.B.V.B.B.B.B.C.M.M.l.1...z z z z l z z z n n n n ..3.2.k.k.k.2.2.v.v.v.v.b.v.C.C.C.C.V.V.V.V.V.V.OXOXOX$X$X&X;X=X-X7X8XqXqXwXwXqXqXwXqXqXqXqXqXqXqXqXqXwXeXtXtXfXfXfXtXtXfXzXyX*Xb.+.Q Q Q +.i.V.%X*X-X*X*X*X*X*X*X*X*X*X*X$X!.!.Y.V.V.V.V.V.V.V.m.V.Y.V.V.V.m.n.n.",
"@.@.@.@.@.@.@.@.@.@.%.%.%.@.@.&.-.@.@.@.&.+.Q +.O.O.O.+.+.+.&.&.+.+.+.+.+.+.+.+.+.+.+.+.+.+.+.+.&.&.&.&.O.+.&.&.&.%.%.%.%.%.3.3.3.3.3.3.>.1.2.2.1.2.h.k.M.OX8XrXMXMXMXmXmXNXNXNXNXjXwXrXNXFXJXHXHXJXJXJXJXJXJXHXJXHXHXHXHXHXHXHXHXFXFXFXFXFXFXIXIXVXVXBXmX9X=XOXB.V.V.V.OX=X8XwXwXwXwXqX8X-XOXN.v.v.v.C.v.v.r.r.2.b.b.b.C.C.C.XX$X$X$X$X$X$XXXXXXXXXXXXX$X;X$X&X$X*X:X,X,X>X>X2X>X>X>X>X>X>X,X3X2X2X2X2X2XpXiX2XiXiXpX>X'.'.).[.'.).).).).{.[.iXsXsXsXiXsXsXiXiX>X].].>XiXiX2XiX2X>X>X>X>X>X[.[.sXbXsX).H.H.t.9.8.9.9.9.F.F.9.9.G.J.).).{.{._.).).J.J.F.8.` L Y F L ` 8.t.K.W.). X|. X{.W.W. X|.|.J.S.K.{.aXkXsXkXkXkXsX|.{.).F.` D J g p a f p p a a a a u u u u u u u u a f f l l z | $.z.B.B.B..X.X+X#X+X+X+X@XOXOXOX.X.X.X.X.X.X.XB.B.M.l.l.z.h.h.h.h.h.h.h.z.l.M.B.B.B.B.B.B.M.M.M.v.k.,...n z l l l l l l z l l n ..$.1.1.2.2.k.k.b.b.v.v.v.C.V.V.V.V.V.V.V.V.V.XXOXOX$X$X$X=X-X-X8XqXqXqXwXqXqXqXqXqXqXqXqXwXwXwXyXeXeXtXtXfXfXfXfXfXzXzXzXeX*Xn.>.~ Q ! @.i.Y.%X*X-X,X,X*X*X,X,X,X3X,X-X*X*X%X!.V.m.m.m.V.V.V.V.V.V.V.V.C.m.n.b.",
"@.@.@.@.@.@.@.&.@.%.%.%.%.@.@.@.@.&.&.@.&.+.O.O.&.&.+.O.O.O.+.+.+.+.+.+.+.+.+.+.+.+.+.+.+.+.+.+.+.+.&.&.&.&.&.&.%.%.3.3.%.3.3.<.<.<.2.<.<.1.1.1.2.2.k.v.XX=X9XrXrXrXMXmXNXNXmXjX8X8X8XrXBXHXJXJXJXJXJXJXJXJXJXHXHXHXHXHXHXHXHXHXHXHXFXFXFXFXIXVXBXVXVXBXtX8X;XOXOXOXOXOX+X-XwXrXrXrXwXwXqX8X-X$XV.V.XXOXOXV.C.b.b.V.V.C.b.C.C.V.XX$X$XOX$X$XXXXXXXV.V.XX$X;X;X;X&X*X,X,X4X4X2X4X4X4X4X4X4X4X4X4X4X4X4X2X4X5XiXiXiX2X2X>X'.).J.J.J.J.J.Q.)._.}.[.iXsXsXsXsXiXiXiX>X].].>XiXiX2XiX>X>X>X<X>X2X>X>XlXbXiX_.Q.Q.G.9.8.8.] 9.F.F.t.F.J.U.).).).).).U.J.K.F.9.' ` E H F L ` 8.] F.K.J.{.|.|.|. X{. X X{.R.S.K.{.aXkXsXaXkXkXkXgX|.{.J.` H U P c g f a f f a a a a a a a a u u u a a f l l l z n X.X.o.o.1.j..X@X+X+X@X@XOX.X.X.X.X.X.X.XB.B.B.M.l.z.l.k.h.h.h.h.h.h.h.k.l.M.B.B.B.B.B.B.B.C.C.C.v.k.1.X.| n b z b b z j j l l l b n X.%.<.1.k.v.v.v.v.v.C.B.V.V.V.B.B.V.V.V.V.OXOX$X$X&X-X-X8XqXqXqXqXqXqXqXqXqXqXqXqXqXyXyXyXeXeXfXfXzXzXzXzXzXzXzXzXCXzXeX*XV.b.i.i.m.!.*X-X,X3X3X3X3X3X3X3X3X3X3X3X*X%X!.!.Y.V.V.V.V.V.m.m.V.V.m.m.m.m.n.n.",
"@.@.@.@.@.@.@.@.%.-.%.-.%.%.@.%.%.%.@.@.%.@.&.&.@.&.&.&.&.&.&.@.+.+.+.+.+.+.+.+.&.&.&.&.&.&.&.&.&.+.+.+.&.&.&.%.%.%.3.3.3.3.<.<.<.2.2.2.1.1.1.2.r.k.M.V.;X-X8X9XwXrXjXmXmXrX8X=X;XOX=XwXBXFXHXHXJXJXJXJXJXJXJXHXHXHXHXHXHXHXHXHXHXHXFXFXFXFXIXVXBXBXBXNXrX=XOXOXOXOXOXOX=X8XrXrXrXwXwXwXqX8X-X;XXXXX$X&X&X$XV.b.b.C.C.b.2.2.2.b.V.XXXXXX$X$XOXXXXXXXXX$X;X&X;X-X*X-X,X3X4X4X4X4XpXpX4X4X4X4X4X4X4X4X5X5X5X5XpXpXpXiXiX>X_.J.F.F.K.J.J.J.).).).{.[.iXsXsXiXiX2X>X>X].'.<X>X>X>X>X2X>X>X>X>X2X2X>XaXaX2X).U.U.t.' 8.' ' 9.9.t.G.G.U.)._.).).).).U.J.R.F.F.9.8.` ) H E 8.' ' ] F.K.W. XsXsX|. X X X{.K.D.K.{.|.aXaXkXkXkXkXkXsX[.J.` E / *.+.P g f f a p a a a a u a a a u u a a a l l l l l z n n n X.1.B.@X@X@X@XOXOX.X.X.XB.B.B.B.B.B.M.x.l.z.z.k.h.h.h.h.h.h.k.z.l.l.B.B.B.B.B.B.B.B.B.B.C.v.l.1.<.X...} ....n b l b M l j b n n ..$.<.2.k.v.v.v.C.C.B.V.V.V.V.V.V.V.V.OXOX$X;X&X-XuXqXqXqXqXqXqXqXqXqXqX3X3X3XqXyXeXtXtXfXzXzXzXzXzXzXzXxXxXxXzXCXzXfXyX3X,X*X,X3X4X4X4X4X3X3X3X3X3X4XyXyX4X3X*X%X!.!.Y.Y.Y.m.V.V.m.m.m.m.m.m.m.m.m.m.",
"3.3.3.%.%.%.@.@.%.%.3.3.3.3.3.3.3.3.%.@.@.%.%.3.&.&.+.+.+.+.&.@.&.&.&.&.&.&.+.+.&.&.&.&.&.&.&.&.&.&.&.&.&.&.%.%.%.%.>.>.3.3.<.<.2.2.2.2.2.2.v.v.C.B.B.V.OX;X8X8XwXrXjXMXrX8X=X=X=X=X8XjXBXFXHXHXHXJXJXJXJXHXHXHXHXHXHXHXHXHXHXHXHXHXFXFXFXFXFXIXIXVXBXNXwX=X+X;X;X;X;X=X8XrXtXtXrXtXrXwX8X-X$XOXV.V.OX&X-X&XV.v.2.2.2.2.<.2.2.b.B.XXXXOX$X$X$XOXXX$X;X=X=X-X-X-X-X,X,X3X4X4X4X4XpXpXpX4X4X4X4X4X4X4X4XpXpX5XiXpXpX>X].'.U.F.9.F.K.J.K.K.J.Q.).)._.[.2XiXiXiX>X[.].'.'.].].].>X>X2X>X>X[.[.[.[.[.iXsX[.U.G.F.8.' 8.8.8.9.9.t.G.U.Q.'.'.'.'._.).).).J.J.J.G.p.4.( ( ` 8.8.` [ ] F.J.{.|.gX|.|.|.|.{.R.D.K.W.{.sXkXkXgXsXgXkXgX X).9.` *.-.*.! g a f f a a a f f f a a a a u u a a f f l N N l b n z | ,.M.OX@X@X@XOXOX.X.XB.B.B.B.B.B.M.M.l.z.z.h.h.1.1.1.2.2.h.k.k.l.l.M.B.B.B.B.B.B.B.M.C.C.M.M.v.k.1.<.<.2.<.#.n b l b x l l l x b n } &.<.2.v.v.C.C.C.C.B.V.V.V.V.V.V.OX$X$X&X-X-X8XqXqXqXqXqXqX3X3X3X3X3X3X3XyXeXtXfXzXzXzXzXxXzXzXzXCXxXxXxXzXzXfXdXeXeXyXyXyXeXeXyXyXyXyXyXyX4XyXyXyXyX4X3X,X%X!.!.Y.Y.Y.m.V.V.V.m.m.m.m.m.m.m.m.n.",
"3.3.3.3.%.%.%.@.%.3.-.-.3.3.3.>.>.>.>.3.%.@.@.3.3.@.&.&.&.&.+.+.&.&.&.&.&.&.&.&.&.&.&.&.&.&.&.&.&.&.&.&.&.%.%.%.%.3.>.>.3.3.<.2.2.2.2.1.2.v.V.E.OXV.B.M.B.OX-XwXrXtXMXtXrX8X8X8XwXtXmXBXFXHXHXHXHXJXJXJXJXHXHXHXJXHXHXHXHXHXHXHXHXHXFXFXFXFXFXFXFXFXBXmXwX=X;X=X=X-X8XqXrXtXtXtXtXtXtXwX-X&X$XV.V.V.V.$X&X$XC.2.>.%.<.2.h.b.v.C.V.XXOXOXOX$X$XOXXXOX;X=X7X7XuXqXqX,X,X3X4X4X4XpXiXpXpX5X4X4X4X4X4X4XpXpXpX2X2XiXiX[.'.Q.J.G.t.F.G.U.J.K.J.J.J.Q.).).{.>XiX>X[.'.'.'.'.'._.'.].[.>X>X].].'.].'.{.2X2X_.J.t.9.' ' 8.8.8.8.9.G.H.Q.).].[.[.[.[.[.[.'.).).U.U.G.e.( ( ( 8.' ` [ 9.F.K.W.|.gXgXsXgXgX{.R.K.R.J.W.|.kXkXsX X|.gXkXsX[.H.9.=.Q ! P h p a h a a a a a a a a a a a u u u N N u u u x x n b n $.l.OXOX@XOXOX.X.XB.B.B.B.B.M.M.M.x.l.k.h.h.1.1.1.1.1.1.2.h.k.l.l.M.M.M.B.M.M.B.B.M.v.v.C.B.B.M.v.k.v.v.v.1.&.n l x b l u u l l N l M O.<.2.v.v.C.C.C.C.C.V.V.V.E.OXOX$X$X&X-X-XqXqXqXqXqX3XqX3X3X3X3X3X3XqXyXeXfXzXzXxXxXxXCXCXCXCXCXCXCXxXCXzXfXeXdXdXeXeXyXeXeXeXdXdXeXyXyXyX4XyXyXyXyX3X,X*X!.!.!.Y.Y.I.m.m.m.m.m.m.m.m.m.m.m.m.",
"2.2.2.2.>.>.>.>.2.2.2.2.2.2.2.2.r.r.i.r.2.2.>.>.>.%.%.%.%.@.@.@.&.&.&.&.@.@.@.@.&.&.&.&.&.&.&.&.%.%.%.%.&.%.%.%.%.3.>.>.3.3.3.<.2.2.2.1.2.C.V.OXOXV.B.B.V.+X8X9XrXrXjXtXrXrXrXMXNXBXIXIXFXFXHXHXJXJXJXJXJXJXJXHXJXJXHXHXHXHXHXHXHXHXFXFXFXFXFXFXFXFXVXNXrX7X-X8XqXrXtXtXwXwXwXtXtXtXwXqX-X$X$XV.V.V.E.$X&X&XV.2.$.#.<.h.N.V.V.V.OXOX$XOXOX$XOXXXV.B.XX;X7XqXwXqXqXqX3X4X4X4X4XpXiXpXpX5X4X4X4X4X4X4XpXpXpXiX2X2X>X].).U.).'.J.] 9.J.J.J.K.G.J.J.Q.).).{.[.[.[.).).).'.'.).).'.].<X<X`._.).).).).[.[.).H.] ' ` 4.8.8.8.9.t.G.H.Q.'.].].].].].].[.].'.'._.U.G.7.` ( ( ' ` ` ' F.F.K.J. XgXkXkXkXkX|.R.K.R.W.W. XaXgXsX X|.gXkXaXiX].L.5.Q I P P g a h h a p a a a a a a a a u u u u u u N x x M v n n $.l.XXOXOXOXOX.XXXB.B.B.B.B.M.M.M.M.l.z.z.h.1.1.1.1.1.1.2.h.k.l.l.l.M.M.M.M.M.M.M.M.v.v.v.M.B.B.C.C.C.V.C.v.3.R x b b l N l x l l N l M ..%.2.b.C.V.V.B.C.V.V.V.E.OX$X$X&X&X-X-X8XqXqXqXqX3X3X3X3X3X3X3XqXyXeXfXzXCXCXCXCXCXCXCXCXCXCXCXCXCXzXzXfXdXeXdXeXeXeXeXfXfXfXdXeXyXyX4XyXyXeXeXeX4X,X*X%X!.!.Y.Y.Y.m.m.m.m.m.m.m.m.n.n.n.m.",
"b.b.b.b.b.b.b.b.C.C.C.C.C.C.C.m.V.V.V.V.C.b.b.b.2.2.>.3.%.@.&.%.%.%.%.%.%.%.%.%.@.@.@.@.@.@.@.@.%.%.%.%.%.%.%.%.3.>.<.<.3.3.3.<.2.2.2.2.k.C.V.OXOXXXXXOX;X-X8X8X9XrXtXMXmXmXBXBXIXFXFXFXFXFXHXJXJXJXJXJXJXJXJXHXHXJXHXHXHXHXHXHXHXHXHXFXFXFXFXFXFXFXFXBXmXrXrXtXnXmXNXnXrXwXwXtXtXtXqX-X-X$X$X$X!.!.$X&X-X-XXXv.<.<.v.V.UX;X$X$X$X$X$XOXOX$X$XXXN.v.M.XX7X9XwXqXqXqXyXyXyX4X>X<X>XiXpXpX5X4X4X4X4X5XiXpXiXiXiXiXiX[._.].sXbX[.K.] F.J.J.F.F.K.J.W.W.J.).{.[.'.Q.).).).).Q.Q.).'.].]._.U.U.J.J.Q.[.iX[.J.] ' ` 8.' 8.8.t.t.G.H.Q.).'.'.)._._.)._.'.'._.).U.G.8.' ` ( ` ` ` 9.F.F.D.K.{.|.gXkXvXkX|.R.D.R.W.{.{.sXsX|. X|.gXkXaXsX2X^.m.0.+.! ~ P g g g g a f f a a a f a a a u u N f f f a a a a l z ..z.V.OXOXOXOX.X.XB.B.B.B.B.B.M.M.l.z.z.h.h.1.1.1.1.1.1.h.k.k.l.l.l.l.l.v.v.M.M.M.v.v.v.v.M.C.C.B.B.C.V.V.C.<.} l l l u N l x x b l l l M n $.2.k.C.B.V.V.V.V.V.OXOX$X&X&X-X-X-XqXqXqXqXqXqXqXqX3X3X3X3XyXeXtXzXCXCXCXCXCXCXCXCXCXCXCXCXCXCXxXxXxXzXzXfXfXdXdXfXzXzXzXfXeXyXyXyXeXeXeXeXeX4X3X*X%X!.!.!.Y.Y.Y.Y.L.m.m.m.m.m.m.n.m.m.",
"!.!.!.$X$X$X$X$X$X$X$X$X$X$X$X$X$X$X$XE.V.V.V.V.C.b.r.2.>.%.%.%.%.%.%.%.%.%.%.%.%.@.%.%.@.@.@.@.%.%.%.%.%.%.%.3.<.<.2.<.3.3.<.<.2.k.b.b.b.C.V.$X$X$X;X=X8X8X8X8X9XwXrXMXmXmXBXBXBXBXGXFXFXFXHXJXJXJXJXJXJXJXJXJXHXJXHXHXHXHXHXHXHXHXHXHXHXFXFXFXFXFXFXFXVXBXBXBXBXBXNXmXtXtXtXtXwXqX-X&X$X$X$X$X!.V.V.$X&X-XUXb.2.Z.V.$X;X;X;X;X;X$X$XOXOX;X;XOXV.v.N.OX7XwXrXwXqXqXwXyX4X,X^.U.'.>X2X2X>X4X4X4X4X4XiX5X2X2X2XiXiX2X2XiXaXbXiXQ.F.t.G.G.F.F.F.J.J.J.J.J.)._.).J.J.Q.).Q.U.U.Q.Q._._.U.U.H.J.J.U.[.iX2XU.8.' ` 4.' 8.8.t.t.t.G.J.Q.Q.).).).).).).).).U.U.G.t.8.` ` ( ` ` ` 9.F.F.S.K.W. XgXkXvXkX XK.D.R.W.{.[.iXsX|.{. X|.gXaXsXpX,X%Xm.:.-.! I h h h a a f f a a a a a a a a a N f f f a a x M b b X.z.V.OXOXOX.X.X.XB.B.B.B.B.B.M.l.k.h.1.1.1.1.<.<.1.1.1.h.k.k.k.l.l.l.l.l.l.v.v.v.v.C.B.B.B.B.B.B.B.C.C.C.C.r.O.l l l N N N x b M b l j l b n O.<.k.v.C.V.V.V.E.OX$X$X&X-X-X1X8XqXqXqXyXyXyXqXqXqXqXyXyXeXtXzXzXCXCXCXCXCXCXCXCXCXCXCXCXCXxXzXzXzXzXzXzXfXfXfXzXzXzXzXfXdXeXeXeXdXfXdXdXyX5X,X*X!.!.!.!.!.Y.Y.Y.I.I.m.m.m.m.m.m.m.m.",
"$X&X&X&X&X&X&X&X&X$X$X$X$X$X$X$X$X$XE.V.C.C.V.E.E.V.C.r.2.3.%.3.-.-.3.3.3.3.%.%.-.-.-.%.%.@.%.-.%.%.%.%.%.%.>.>.>.>.>.2.2.2.2.b.C.V.V.V.V.V.OX$X$XOX$X=X-X-X8X8X9X9XrXtXmXmXNXNXBXBXVXFXFXHXHXHXJXJXJXJXJXJXJXJXJXHXHXFXHXHXHXHXJXHXHXHXHXHXHXHXFXVXVXBXBXBXBXBXBXBXNXNXmXmXmXmXwXqX-X-X&X$X$X$X$XY.!.$X-X-X;XV.B.XX;X-X-X-X&X;X$X$X$XOXOXOXOXOXXXXXXX;X7XqXwXwXqXqXqXyX4X,X/.L.G.U./.`.>X4X4X4X5X2X2XiX2X2X2X2XiX2XiXiXsXiX[.).F.] ' ] F.F.F.K.J.W.J.J.).[.).U.J.J.J.J.J.J.J.J.U.U.H.G.G.G.H.J.).iX[.U.` ` ` ` ` ' 8.9.t.f.G.G.H.J.Q.Q.Q.Q.Q.Q.U.U.I.G.t.8.' ` ' ` ( ( ` 9.F.] S.F.J.W.|.kXvXsXW.K.R.W.W.{. XsXgX|. X X|.sXiXiX5X4X,X!.u.:.-.I c p y a h p a f u a f a a a u u u u f f a f x c M b ..k.B.OX.XOX.X.X.X.XB.B.B.B.M.v.k.1.<.,.#.#.X.X.X.$.,.<.1.2.h.z.l.z.l.l.l.l.l.v.v.v.M.B.B.B.B.C.B.V.V.V.V.V.v.<.M l x x l N N l l l l l l N x M ..%.2.v.C.V.V.V.OX$X&X&X-X1X8XwXwXwXwXeXeXeXeXeXeXeXeXeXtXfXzXCXCXCXCXCXCXCXCXCXCXCXCXCXCXxXxXzXzXzXzXxXzXzXzXzXzXxXzXzXfXdXdXfXfXfXdXeXyX4X,X:X%X^.~.!.!.Y.Y.Y.Y.Y.I.I.I.L.m.m.m.m.",
"&X&X&X&X&X&X&X&X$X$X$X$X$X$X$X$X$X$XE.V.b.b.C.E.$XE.C.r.2.3.%.3.>.-.3.%.%.3.%.%.%.%.%.%.%.%.3.%.%.%.%.3.3.3.%.>.>.>.3.<.2.i.C.V.V.E.OXE.OXOXOXOXOXXXOX;X=X=X8X8X9X9XrXtXmXmXmXNXBXVXVXFXFXFXFXHXJXJXJXJXJXJXJXJXJXJXHXHXHXHXHXHXHXHXHXHXHXHXHXFXNXmXnXnXnXtXnXNXNXBXBXNXNXNXNXNXtXwXqX-X-X&X$X$X$X$X&X-X-XuXuX-X&X-XuXuXuX-X=X;X;X;X$X$XOXOXOXOX$XOX;X=X7XqXwXwXqXqXqXyX4X4X^.I.9.t.H.Q.<X4X4X4X4X2X2X2X>X>X>X2X2X[.[.2XiXsX[.).H.] _ [ F.G.F.G.J.).).).{.[._.U.J.H.G.H.H.H.G.G.G.H.G.G.F.G.G.H.U.].Q.G.` ` ` ` ` ' 8.9.t.t.f.G.G.H.H.J.J.J.J.J.H.G.G.9.9.' ` ` ` ( ( ( ` 9.9.] ] S.K.J.{.gXkX|.W.W.{.{.{.{.|.aXsX|. X{. X X[.[.4X5X3X%XV.w.>.+.I g h g g a a u u a a a p a a u u u f f f a a x x b X.k.B.OX.X.X.X.X.XB.B.B.B.B.v.l.h.,.X...n n n z n } ..$.,.1.2.k.z.z.k.z.z.l.v.v.v.v.C.M.M.M.B.B.V.V.V.V.OX$XV.2.O.M x x x N u N l j l l l l l l b n &.1.v.C.V.V.OX$X$X-X-XqXwXtXtXtXtXtXtXtXtXtXtXeXeXtXfXzXzXCXCXCXCXCXCXCXCXxXxXxXxXxXxXxXzXzXzXzXxXxXxXxXzXzXxXxXxXzXzXfXfXzXzXfXdXeX4X4X,X:X^.^.~.~.!.~.Y.Y.Y.Y.Y.Y.Y.I.m.L.m.m.",
"$X$X$X&X&X&X&X$X&X&X$X$X$X$X$X$X$X$X$XV.C.C.V.E.&XE.b.2.>.>.>.-.-.-.%.3.3.3.-.-.%.%.3.3.%.%.3.3.3.3.>.>.>.>.>.<.<.<.<.1.b.C.V.E.E.OXOX$X$XOXOXOXOXOXOX;X=X=X-X8X8X9XwXrXMXmXmXNXBXBXVXFXFXFXFXFXHXJXJXJXLXLXLXLXJXJXHXHXHXHXHXHXHXHXHXHXHXHXFXVXnXwX8X8X8X8XqXtXNXBXBXBXNXNXNXNXNXtXtXwXqX-X-X&X&X&X-X-XuX7X8XqX7XuX8X8XuX-X-X&X;X&X;X$X$XOXOXOX;X;X;X=X7X7XqXqXqXqX3X3X3X4X,X^.H.G.P.`.>X2X4X4X2X2X2X>X>X>X2X2X[.'.}.[.iXsXiX).H.t._ ` 9.F.F.G.J.).).{.[.[.).J.J.G.F.G.G.H.G.G.G.G.t.t.9.t.t.t.H.U.G.8.L ( ` ' ` ' 8.8.9.t.t.p.f.G.G.G.G.G.G.G.G.t.9.8.` ( ( ' ` ( L _ ` 9.9.9.] ] F.K.W.sXkX|.{. XsX|.{. XsXsX|.|.|. X{.{.).{.2X5X4X,X!.i.:.-.Q P P P P c x a u f a p p a a a u N f f u u a a l M X.2.B.V.V.B.B.B.B.B.B.B.B.B.x.l.1.X.n b l j j j l b n n ..$.1.2.k.k.z.z.z.l.v.v.v.v.v.C.C.B.B.V.E.OX$X$X;X&X$XC.1...n b x x x N u u N x x x x N N x M O.>.b.C.V.$X$X-X-X3XqXwXwXtXtXzXfXtXtXeXfXfXfXfXfXzXzXzXxXCXCXCXCXCXCXxXxXxXxXxXxXxXzXzXzXzXzXzXxXxXxXxXxXxXxXxXxXcXzXzXzXfXdXeXyX4X3X,X:X^.^./.~.!.!.Y.Y.Y.Y.!.!.Y.Y.L.I.L.L.",
"E.$X$X&X&X&X&X&X&X$X$X$X$X$X$X$X$X$X$X$XE.E.$X$X$XV.r.<.>.>.>.>.-.-.3.>.>.>.>.>.%.3.3.3.3.3.3.>.%.3.3.<.<.3.<.<.1.1.2.k.C.V.V.OXE.V.OXOX$XOXOXOXOXOX;X=X=X=X-X8X8X9XwXrXtXMXmXmXBXBXBXVXFXFXFXFXHXHXJXJXLXLXLXLXJXJXJXHXHXHXHXHXJXJXJXJXHXFXBXmX8X-X;X=X-X-XqXtXNXBXBXBXBXNXNXNXNXNXmXnXtXwXqX-X&X;X;X=X=X-X-X7X7X7X7X7X7X-X-X-X=X;X;X$X$X$X$X$X$X$X;X;X=X7X8X8X8X-X-X-X-X3X4X3X:X:X:X4XpX2X2X2X2X>X>X>X>X2X2X>X).U.Q.}.2XiX[.J.F.K.F.] ] t.F.F.F.G.J.{.[.{.J.F.J.G.F.G.H.H.H.G.t.t.9.9.8.8.' 9.G.G.t.' L E ` ' ` ' ' 8.7.7.7.7.t.p.p.t.f.G.G.F.t.9.8.' ` ( ( ' ` ( ( ` ' 9.F.F.9.] F.F.J.|.kXsX|.gXkXaX|.aXkXkXsX|.|. X X{.W.).].2X3X*XC.>.! Q P P G g h f x x x f f a a a a u u N f f N u u u l n ..<.v.B.V.XXXXV.B.B.B.B.M.M.l.z.<...n l N N l u j x l l b } ,.1.2.k.z.l.l.l.k.v.v.v.C.C.C.B.V.OX$X$X;X&X&X-X&X$XC.<.} x x x x f N u f f x x x x f x x x Q %.i.C.E.&X-XqXyXtXtXtXtXtXtXtXeXeXeXtXfXfXfXfXzXzXzXxXxXCXCXCXxXxXxXxXxXxXxXzXzXzXfXfXfXfXfXzXzXzXxXxXxXxXxXxXxXcXfXfXdXdX4X4X5X3X:X<X^.^././.~.~.!.!.!.!.~.!.T.P.Y.Y.Y.Y.",
"!.$X&X&X&X&X&X&X&X&X$X$X&X&X$X$X$X$X$X$X$X$X$X$X$XV.b.2.<.<.<.>.>.<.2.2.2.2.2.2.2.2.2.>.>.3.>.2.3.3.<.<.<.<.<.2.2.2.v.C.V.V.V.OXOXOXOXOXOXOXOX$X;X;X;X=X=X-X-X7X8X8XwXrXrXMXmXmXmXNXBXBXVXFXFXFXFXHXJXJXJXLXLXJXJXJXJXJXHXJXJXJXJXJXJXJXHXVXNXwX-X-X-X-X8XrXmXBXBXVXBXBXBXBXNXNXNXNXmXmXnXtXtXwXuX-X=X-X-X-X7X7X8X8X7X7X7X-X-X-X-X&X&X;X$X$X$X$X$X$X;X;X=X-X8X8X7X=X&X&X&X*X3X3X4X4X4X4X4X2X2X2X>X<X].'.].[.[.].J.H.J.Q._.[.).J.K.H.G.t.9.t.t.9.] ] F.).{.J.F.F.G.G.t.t.G.G.G.G.9.' ' ' 8.8.' 9.f.G.9.' ( ( ` ` ` ` ' 4.4.4.4.4.7.7.7.8.9.9.9.9.t.8.8.8.' ( ( ( ' ` ` ` ] 9.F.F.9.] t.F.K.{.sX|. XaXkXkXkXvXvXvXaX|. X X X{.{.{.].2X5X*Xm.:.@.@.! G G d s a f f x a a a s h a a u u N N N N N N x M m O.2.C.V.XXXXXXXX.X.XB.B.M.l.h.,.n b x f f x u N x x j n ..,.1.2.k.k.z.l.l.k.k.v.v.C.B.V.V.OX$X;X&X;X&X&X-X-X-X$XC.3.m M x x x x f f x x x x x x x x f x m +.2.b.V.&XqXtXzXzXtXyXyXyXyXyXeXeXeXfXzXfXzXzXzXzXzXCXxXxXCXxXxXxXcXcXcXzXzXzXfXfXdXdXdXdXdXdXfXfXfXfXcXcXcXcXfXdXdXdX4X4X4X4X3X:X<X^.^././.~.~.~./././.~.~.T.T.Y.T.Y.T.",
"$X$X$X$XE.E.$X&X&X&X&X&X&X&X&X&X$X$X&X&X$X$X$X$X$XE.C.b.r.2.2.2.2.2.i.i.b.b.b.b.b.b.b.r.2.r.r.i.r.r.k.k.b.b.b.b.v.C.C.V.OXOXV.E.OXOXOX$XOXOX;X;X;X;X;X=X-X-X8X8X8X8X9XrXrXtXMXmXmXNXBXBXBXVXIXFXFXFXHXJXJXJXJXJXJXJXJXJXJXJXJXJXJXJXJXHXFXBXtXwXwXwXrXtXmXBXVXFXVXVXVXBXBXBXBXBXBXNXNXmXmXmXmXtXrXqXqXqXqXqXqXwXqXqX8X8X7XuX-X-X-X=X&X&X;X$X$X$X$X$X;X;X=X7X8X8X-X=X&X&X&X&X*X,X3X,X,X3X>X>X>X<X].`._.U.).'._.Q.G.H.J.J.W.Q.W.J.W.J.F.{ ] ] ] 9.9.] ] J.Q.F.t.t.F.t.t.9.t.G.G.t.9.8.8.' 8.8.' 8.t.f.9.' ( E ` ` ` ` ( ` ' 4.4.4.4.4.4.' ' ' 8.8.9.8.8.8.4.( ( ( ' ` ` ' ] ] ] ] [ ` ] ] F.J.{.{.W. X|.aXkXvXDXvXsX|.{. X X{.[.[.].^.%X*XY.0.@.-./ U J J J d f f f a p s s s a f u u N N a a f f f x x n %.h.C.N.N.B.B..X.XB.M.x.l.k.,.n l l f f f u u x x x n O.<.2.h.k.k.k.k.z.k.k.v.v.C.B.V.E.$X$X;X&X&X-X-X-X-X-X-X$Xb.>.} x x x f f f x x x x x x x x f x x c m &.:.m.$X3XyXtXtXeXyXyXyXyXyXeXeXeXfXzXzXzXzXzXxXxXxXxXxXxXxXxXcXcXzXzXzXfXfXdXdXdXeXeXyXeXdXdXdXdXdXdXdXdXdXdXdX4X4X4X4X3X,X:X<X^.^././././././.^./.~.~.~./.^.%X%X%X",
"$X$X$XE.V.E.$X&X*X&X&X&X&X&X&X&X$X&X&X&X&X&X&X&X$X!.V.V.C.C.C.C.C.C.C.m.m.m.V.V.m.V.m.b.b.b.C.C.V.C.C.V.V.V.C.C.C.V.V.V.OXOXV.E.OX$X$XOXOX;X;X;X;X;X=X=X-X7X8X8X8X8X9XwXrXrXtXMXmXmXNXBXBXBXVXIXFXFXFXHXHXHXJXJXJXJXJXJXJXJXJXJXJXJXJXHXVXNXmXhXNXNXBXBXBXVXFXFXFXVXVXVXVXVXBXBXBXBXNXNXNXNXNXmXtXtXrXrXwXqXqXqXqX8X8X8X8X7X7X7X-X-X=X=X=X;X;X;X;X;X;X=X-X7X8X8X-X=X&X&X&X&X*X*X*X*X:X:X<X`.`.].<X`.).U.U.Q.Q.J.G.J.J.J.J.J.J.).).).J.K.F.] [ ] 9.t.F.J.J.t.] t.t.t.9.9.t.t.t.t.t.G.J.t.8.' ' ' 9.t.8.' ` ( ` ( ( ( ( ` ` ' 4.4.4.4.' ` ` ' 8.8.8.8.4.4.4.` ( ` ` ` ' ] S.F.] [ _ _ _ [ ] F.R.R.R.W. X|.kXvXDXvXaX|.|. X{. X|.iX].~.!.!.!.n.:.>./ W ) ( ) G h f f h d D D J h f a a a a a f f f f x x M O.>.2.2.h.l.M.B.B.M.x.x.v.k.,.n x x x f f u f x x x n $.1.2.h.k.k.k.k.k.k.k.v.v.B.V.E.OX$X&X&X&X-X-X-X-X-X-X-X&X$XC.<.O.n x f f x x x x f x x x x x x x x x x m %.2.m.!.*X3XyXeXeXeXeXeXeXeXeXeXeXtXfXdXfXzXzXxXxXxXxXxXzXzXzXzXzXzXfXdXdXdXeXyX4X4X4X4X4X4XyXpXdXdXdX4X4X4X4X4X3X2X,X:X:X<X^.^.^.^.^././.^.^.^.^.^.%X<X,X,X,X,X",
"$X$XE.V.V.E.$X&X-X-X*X&X&X&X&X&X&X$X$X$X&X&X$X$X$X$X$X!.E.E.V.E.!.!.E.V.V.V.V.V.V.V.V.C.b.C.V.V.V.V.V.E.E.V.V.V.C.C.C.V.E.OXOXOXOX$X$X$X$X;X;X;X;X=X=X=X-X-X7X8X8X8X9X9XrXrXtXtXmXmXmXNXBXBXBXVXIXFXFXFXHXHXHXHXJXJXJXJXJXJXJXJXJXJXJXHXVXNXNXBXIXFXFXFXFXFXFXIXVXVXVXVXVXVXVXBXBXBXBXNXNXmXmXmXmXtXtXtXtXrXwXqXqXqX8X8X8X8X7X7X7X7X=X=X=X=X;X;X;X;X;X=X7X7X8X8X-X=X&X&X&X&X%X!.!.^.<X:X<X/._.].<X]._.U.U.U.J.H.F.K.H.H.J.K.J.).}.}.}.).Q.F.[ _ [ ] F.W.U.t.9.9.9.9.9.9.9.t.t.t.G.U.].H.8.' ` ' t.t.8.' ` ( ` ( ( ( ( ( ` ' 4.4.8.8.8.' ` ' 8.8.4.4.4.4.4.' ` ` ` ` ' S.F.F.S.[ _ _ _ [ ] S.D.D.K.W.{.|.aXvXDXvXkXaXiX{.W.[.sXaX5X(.m.!.!.!.i.:./ ( p.d.6.U d g g g U U H G h f f a a a f f f x c v M m O.&.#.#.$.1.v.B.B.x.x.x.l.h.,.n l x x x f u l x x b } ,.1.h.k.k.k.k.k.k.k.k.k.v.B.V.OX$X$X&X&X&X-X-X-X-X-X-X-X-X&X$Xb.>.O.n x x x x x f f x x f x v v x f f f x v m &.:.b.E.&X3XyXeXeXeXeXeXeXeXeXeXeXeXeXdXzXzXzXcXzXzXzXzXzXzXzXfXdXdXdXdXeXeX4X4X4X4X4X4X4X4X4X4X4X4X4X4X3X3X2X,X:X:X:X:X<X<X<X%X^.^.^.^.<X:X:X>X>X2X4X4XyXyX",
"!.!.E.E.E.$X&X1X-X-X-X*X*X*X&X&X&X&X$X$X$X$X$X&X$X$X$X$X!.!.!.!.!.!.E.V.m.b.b.b.b.C.V.C.b.C.m.V.V.V.V.E.E.E.V.C.v.b.C.V.OX$X$XOXOXOX$X$X;X;X;X;X=X=X=X=X-X7X8X8X8X8X9X9XwXrXrXtXmXmXmXNXNXBXBXBXIXIXIXIXFXFXHXHXHXJXJXJXJXJXJXJXJXJXJXHXVXBXVXFXHXHXHXFXFXIXVXVXIXIXFXVXVXVXVXVXBXBXNXmXmXmXmXNXmXmXtXtXrXrXrXwXwXwXqX9X8X8X8X7X8X-X-X-X-X-X=X=X=X=X=X-X7X8X8X8X7X-X=X-X&X$X!.!.!.%X*X:X,X<X`.].<X`.Q.U.U.U.H.F.t.t.F.G.H.G.G.H.).}.sXkXaX[.F._ _ ] K.).J.F.] 9.9.8.9.9.9.9.9.9.t.U.].U.9.` ' 9.t.t.8.8.' ` ( ( E ( ( ` ` ' 8.8.9.' ' ` ` ' 8.8.4.` ( ` ' ` ' ' ` ] ] K.R.K.F.S.[ [ _ [ ] F.K.K.R.).{.|.kXvXAXAXbXkXsX{.W.{.aXcXfX3X!.V.!.!.m.:.;.6.P.^.L.4.U d G / 5.7.4.G s a f g g g g c c P I I I I +.O.O.} #.1.v.B.N.v.l.l.h.1.#.n x x x N l j x x x n O.3.2.2.h.k.k.k.k.k.k.l.v.C.B.V.OX$X&X&X&X-X-X-X-X-X-X-X&X&X&X&X!.C.2.&.n x x x x x x x x x x x x x f x v v x f h x Q -.i.m.%X*X3XeXeXeXeXeXyXyX4XyXeXeXdXzXzXzXzXzXzXfXfXfXfXfXdXdXdXdXeXeX4X4X4X4X4X4X4X4X4X4X4X4X4X3X,X,X>X>X:X:X:X:X:X<X<X^.^.^.<X<X>X4X4X4XdXdXdXdXpX4X",
"!.!.$X$X$X$X&X-X-X-X-X-X-X*X&X&X&X&X&X$X$X$X$X$X$X$X$X$X$X!.!.!.E.E.V.V.C.b.b.i.b.V.V.V.V.V.V.V.E.E.E.E.E.E.V.V.C.C.C.C.V.OX$X$XOXOX$X$X;X;X;X;X=X=X=X-X-X7X8X8X8X8X9X9XwXrXrXrXMXmXmXmXmXNXBXBXBXBXBXVXVXVXFXFXHXJXJXJXJXJXJXJXJXJXJXHXVXVXVXFXHXHXFXFXFXFXFXFXFXFXFXFXIXVXVXBXVXBXBXNXmXNXNXNXNXmXmXmXnXtXrXrXrXrXwXwXwX8X9X8X8X-X-X7X7X7X7X-X=X=X-X7X8X8XqX8X8X8X-X-X*X&X$X!.!.%X%X%X<X/.U.U.I.L.H.H.G.G.G.t.9.9.9.t.F.t.] { F.W.iXaXaX|.K.[ _ ] J.}.G.] ' ] ] ] 8.' ' 9.F.t.9.t.H.H.G.t.9.9.t.9.8.' ' ` ( E E ( ` ` ' ' 8.8.9.] ] [ [ ' 9.9.8.` ` ( ( ( ` ` ' ] t.W.W.K.D.D.S.] [ [ ] J.J.K.K.J.).[.sXvXAXvXvXaXiX[.{.[.pXdXdXyX*XE.$X*X!.2.^ *.a.L.p.5.^ P ! 6.n.I.p.! P c c c c c c P I I I I I I +.@.&.O.,.h.v.N.M.v.l.l.1.$.n x x x x x j j x x x n &.<.2.2.h.h.h.k.k.k.k.v.C.B.V.E.$X$X;X&X&X&X&X&X&X&X-X&X&X$X$X&X$X$XC.2.&.m x x x f x x x f x x x x f x x c x x x c v m Q @.:.i.m.%X3XyXeXeXeXyX4X4XyXyXeXeXfXzXzXzXdXdXdXdXdXdXdXdXdXdXdXeX4X4X4X4X4X4X4X4X4X4X4X4X4X3X3X3X3X3X,X>X:X:X<X<X`.`.<X<X>X4X4XpXdXdXfXdXdX4X4X4X",
"E.!.$X$X$X&X&X&X-X-X-X-X-X-X*X&X&X&X&X$X$X$X$X&X&X&X$X$X$X$X$X$X$X$XE.E.V.V.m.C.V.V.E.E.E.E.E.E.E.E.E.E.E.OXE.E.V.V.C.C.V.OX$X$XOX$X$X$X;X;X;X=X=X=X=X-X-X7X7X8X8X8X8XwXwXrXrXrXtXmXmXmXmXmXNXNXBXBXBXBXBXVXVXFXFXFXHXJXJXJXJXJXJXJXJXHXHXFXFXHXHXHXHXFXFXFXFXFXFXFXFXFXIXVXVXVXVXVXBXBXNXNXNXNXNXNXNXNXmXmXnXtXtXtXrXrXwX8X8X8X8X-X-X8X8X8X8X7X-X-X7X7X8X8X9XqX8X8X8X-X-X&X$X$X!.!.!.~.~.P.G.f.p.p.f.G.G.f.t.t.t.t.9.9.] ] ] ] ] F.J.{.[.{.J.K.] F.W.).{ [ ] ] ' 9.9.8.' 9.G.F.t.] 9.F.H.G.9.] 9.8.' ' ' ' ` ` ` ` ` ' 8.' ' ] ] ] ] ] [ ] 9.9.8.` ` ( ( ( ` ` ` ] K.{.).R.R.J.J.J.K.F.F.J.J.K.D.R.{.|.sXbXvXvXkXsX|.[.[.2X5X4XyXeX3X-X=X8X-XC.@.P P W ^ =.^ Q ! :.a.n.q.Q v v I v c P P I I I ! I I I +.%.%.&.3.h.v.h.1.h.h.h.<.} z l x x x x u x x x N M &.2.2.h.h.h.h.h.k.k.k.v.C.B.V.V.OXOXOXOX$X;X&X&X$X$X$X$X$X$X$X$X$X&X$XC.2.%.m x x f f f f x x x f x f f f h x v v v c v c c v Q >.i.m.!.*X,X3X3X3X3X3X3XeXeXdXfXdXeXeXeXeXeXdXdXdXdXeXeXeXeXdXeX4X4X4X4X4X4X4X4X4X4X4X4X4X4X4X4X4X4X2X>X:X:X<X:X4X4XpXdXdXfXlXlXfXdX4X2X,X,X",
"E.!.!.$X$X$X&X&X-X-X-X-X-X-X-X&X&X&X$X!.E.E.$X$X&X&X&X$X$X$X$X$X$X$X$X$X!.E.E.E.E.$X$X$X!.!.$X$XOXOXE.E.OX$X$X$XOXE.B.k.v.B.OXOX$X$X$X;X;X;X;X=X=X=X=X-X-X-X7X7X8X8X8XwXwXrXrXrXtXmXmXmXmXmXmXNXNXBXBXBXBXBXVXVXFXFXHXHXJXJXJXJXJXHXHXHXHXHXHXHXHXHXHXHXFXFXFXFXFXFXFXFXIXVXVXVXVXVXBXBXBXBXBXNXNXNXNXNXNXmXmXmXmXmXtXtXrXwXqX8X-X-X7X8X8X8X8X8X7X-X7X8X8X8X9X9X8X8X8X-X-X&X$X$X!.!.!.Y.P.I.d.7.e.e.t.G.G.t.t.9.9.9.9.] ] ] ] ] ] ] ] F.K.J.).).J.J.).J.] [ ] ] ] 9.t.9.] t.F.F.F.t.F.9.9.] ' ' 9.' ' ' 8.8.' ' ' ` ' 8.8.] ] ] S.D.D.S.S.D.F.F.9.' ` ` ` ` ` ` ( ] W.|.{.W.W.W.{.{.{.J.F.J.J.R.F.J.[.iXaXbXvXvXaXiX[.[.].].:X3XqXqXqX8X9XwX9X;Xv.&.f h W *.-.! Q ! *.5.=.I m m I I P P I I ! ! +.! I I +.+.+.O.%.2.2.,.#.,.1.2.1.#.n x x b x x j x x x x n $.2.2.2.h.h.h.h.k.k.v.v.C.C.V.V.V.V.OXOXOX$X$X$X$X$X$X$X$XOXE.E.$X$X$X$XC.b.%.m x x x x x x x x f f f f f f x x v v x v v m m v I ! -.2.b.Y.%X*X*X,X,X3XyXeXeXeXyXyXyXyXyXeXeXdXeXeXdXeXeXeXeXeX4X4X4X4X4X4XpXpX4X4X4X4X4X4X4XpXpXpX4X4X2X2X4X4XdXfXfXlXlXlXlXlXdX4X<X/.P.P.",
"!.!.!.E.OX$X&X&X-X-X-X-X-X-X-X-X-X*X&X$X$X$X$X$X$X&X&X&X$X$X$X$X$X$X$X$X$X$X$X$X$X$X!.!.$X$X$X$XOXOXOXE.OX$X$X$X$XOXC.k.k.B.OXOXOX$X;X;X;X;X;X=X=X=X=X-X-X-X7X7X8X8X8XwXwXrXrXrXtXtXnXMXmXmXmXmXNXNXNXBXBXBXBXBXFXFXFXFXFXHXHXHXHXHXHXJXJXHXHXHXHXHXHXHXHXFXFXFXFXFXFXFXFXVXVXVXVXVXBXBXBXBXBXBXNXNXNXNXNXNXNXmXmXmXmXnXtXrXwX-XOX;X-X8XqX8X8X8X7X-X7X8X8X8X9XwXqX8X7X-X&X&X$X$X!.!.Y.m.Y.Y.I.d.7.8.p.G.d.9.8.8.8.8.8.8.8.] ] ] ] ] [ [ F.J.{.{.).{.).K.] ' ] ] 9.9.9.9.] 9.F.t.F.H.J.] ` _ ` ' ] ' ` ' 8.8.8.8.] ' ' ] ] ] ] ] S.S.D.K.K.K.K.K.F.S.] [ _ ` ` ( ( ] W.sX|.{.W.{.{. X[.).F.K.J.R.J.{.iXaXkXvXvXvXaXiX'.Q.Q.^.*X3XwX8X9X9X9X9X9X0XOX2.m I -.:.-.+.I P P ! U g x n I I I I I ! ! U U U I I I I I I O.$.,.#.| } $.2.1.,.} b x x x j N x x M m A.%.2.2.2.h.h.h.k.l.v.v.v.C.C.B.V.V.V.V.V.E.OX$X$X$X$XOXE.E.OX$X$X$X$X$X$X!.C.2.%.I v x x x M M x f f f f f f h x x x x x x c v v c v I Q @.2.b.m.V.!.*X,X3X3X3X,X,X,X3X4XeXeX4X4XeXeXeXeXdXeXpX4X4X4X4X4X4X4X4X4X4X4X4X4X4XpXdXdXdXdXdXpX4XpXdXfXcXxXcXlXlXfXlXfXpX>X/.G.7.p.",
"!.!.!.E.E.$X$X&X&X*X-X-X-X-X-X-X-X-X-X-X-X&X$X!.E.$X&X&X&X&X$X$X$X$X$X$X$X$X$X$X!.E.E.$X$X$X$X$X$X$XOXOXOX$X$X$X$XOXB.v.C.V.OX$X$X;X&X;X;X;X;X=X=X=X=X=X-X-X7X8X8X8X8X9XwXrXrXrXrXrXtXtXtXmXmXmXmXmXNXNXBXBXBXBXBXBXBXBXBXVXFXHXHXHXHXJXJXHXHXHXHXHXHXHXHXHXHXHXFXFXFXFXFXIXVXVXVXVXBXBXBXBXBXBXBXBXNXNXNXNXNXmXmXNXmXmXnXtXqX;XM.V.;X8XwXqX8X8X8X7X8X8X8XqXwXwXwX8X-X-X&X$X$X$X!.V.m.m.m.Y.P.L.q.5.7.d.d.7.8.8.8.8.8.' ' ' ] 9.] ] ] F.F.G.J.K.{.[.).F.[ ` [ ] 9.] ] t.F.H.J.K.J.).).F.9.] [ [ ] ' ` ' ] ] 9.9.] ] [ ' ] S.F.D.S.D.K.W.{.W.R.R.K.K.D.] _ _ ` ` E ` H.sXsX{.{.{.{. X{.W.F.F.F.F.R.{.sXkXvXvXvXvXaX>XU.L.P.*X1XqX9X9X9X9X0X0X9X0X;Xv.O.I +.+.+.Q +.! W W P h v m I v c G P I P P P P I I m c m m m O.#.#.} | #.<.h.2.3.A.n n n x n n n } O.$.<.2.2.2.h.k.k.k.v.v.C.C.C.C.N.B.V.V.V.V.E.$X$X$X$X$X$XE.E.E.$X$X$X!.$XY.V.V.C.b.2.&.I M x x x x f f a f x x f f f h x x f f c v v v m m I ! +.+.>.u.Y.%X-X*X%X!.!.!.^.3XeXeX4X5X4XdXeXeX4X4X4X4X4X4X4X4X4X4X4X4X4X4XpXpXdXfXlXcXcXcXdXdXdXfXcXxXxXxXlXlXlXfXfXfXdX4X~.p.' ' ",
"$X$X!.E.E.!.$X$X&X&X-X-X-X-X-X-X-X-X-X-X-X&XE.C.b.V.$X&X&X&X&X&X&X$X$X$X$X$X$X$XE.E.E.$X$X$X$X$X$X$X$X$X$X$X&X&X&X$XOXV.E.$X&X;X;X&X;X=X&X=X=X=X=X=X-X-X-X-X7X8X8X8X8X9X9XwXrXrXrXrXrXrXtXtXmXmXmXmXmXNXNXBXBXBXNXNXmXNXBXVXFXHXHXHXHXJXJXJXJXHXHXHXHXHXHXHXHXHXHXHXFXFXFXSXVXVXVXVXBXBXBXBXBXBXBXBXBXNXNXBXNXNXNXNXNXmXmXtXwX=XV.OX=XqXwXwXqXqX8X8X8XqXwXwXrXwXqX8X-X-X$X$X$X!.!.V.m.m.n.m.m.d.4./ ( 6.7.6.4.8.8.7.8.` ` ' 9.9.t.t.F.t.t.F.F.F.).}.J.] _ _ ` ] ' ' ] F.J._.[.'.{.[.{.J.H.G.t.] ] ' ` [ ' ] ] t.F.] [ [ ] F.R.K.D.D.R. X|. XW.R.K.K.F.D.] _ ` ` ( _ t.[.|.|.{.{.{.{.{.W.F.D.S.S.D.W.|.gXkXvXkXgXsX].I.I.%X1XqXwX0X9X0X0X8X8X0X0X=XB.<.m m I ! Q ! ! U W U G v v v c c c G P P P G P I v v c c v m O.#.$.$.$.<.2.b.h.2.<.,.,.$.#.#.#.$.$.3.2.2.2.h.h.k.k.k.v.v.v.C.C.C.C.C.B.V.V.V.E.OX$X$X$X$X$X$X$XE.E.$X$X$X$X!.V.V.V.V.C.b.b.>.O.x x x x f f f f x x h f f f f h f f x c x c m m m I P v Q @.:.n.!.Y.m.n.u.u.L.%X4X4X5X5X4X4X4X4X4X4X4X5X4X2X4X4X4X4X4X4XpXdXdXfXfXcXxXxXxXxXcXcXcXxXxXxXxXcXlXlXfXdXdXdXdX4X:X~.L.G.",
"$X$X$X!.E.$X$X$X&X&X-X-X-X-X-X-X-X-X-X-X-X&XV.b.2.b.V.$X&X&X&X&X&X&X&X&X&X&X$X$XE.E.E.$X$X$X$X$X$X&X&X$X&X&X&X-X&X&X&X$X$X;X&X&X;X;X;X=X=X=X=X=X-X-X-X-X-X-X7X8X8X8X8X9X9XwXrXrXrXrXrXtXtXMXMXmXmXmXmXmXNXBXBXBXBXNXmXmXBXVXFXHXHXHXHXJXJXJXJXHXHXHXHXHXHXHXHXHXHXFXFXFXFXSXVXVXVXVXBXBXBXBXBXBXBXBXBXBXBXBXBXBXNXNXNXNXmXmXtX8X-X-X8XrXrXrXrXwXwXwXwXwXrXtXtXrXqX8X-X-X$X$X!.!.$XV.V.V.n.n.s.q.6.( / 4.4.' ( ( 8.7.9.8.9.t.t.t.9.8.9.9.] 9.t.G.Q.).J.t.] ] ] 9.t.9.9.F.J.[.iX[.[.[.).J.J.H.F.t.] ` _ _ ` ' ] t.G.F.] [ S.R.J.J.D.D.K.W. X{.W.R.K.D.D.D.] ] ` _ ( _ ] W. X|.|.{.W.{.{.W.R.K.D.D.D.J. XsXgXkXbXaX[.).I.~.3XqX8X9X9X9X0X0X0X6X6X6X=XOX1.Q v m ! Q U ! ^ =.=.^ Q c I v c c P P P P G c c c c c c v v m O.#.$.3.2.h.b.h.h.h.h.2.2.2.<.<.1.2.2.2.2.h.h.k.k.k.k.l.v.v.C.C.C.C.B.V.V.V.V.OX$X$X$X$X$X$X$X$X$X$X$X$X$X$X$XV.V.V.V.V.V.C.b.%.v x x x f f f x x x h h h h x x h f h h h c c v v v I I P I Q :.i.i.0.0.0.0.a.~.:X5X5X4X4X3X3X3X5X5X4X2X2X2X2X2X4X4X4X4XdXfXcXcXcXxXxXxXxXxXxXcXxXxXxXxXxXcXlXlXfXdXpXpXpX4X>X<X^.^.",
"$X$X$X$X$X$X$X$X&X&X-X-X-X-X-X-X-X-X-X-X-X-XE.b.2.r.C.E.&X*X-X&X&X&X&X&X&X&X&X&X$X$X$X$X&X&X&X&X$X&X=X&X=X=X-X-X=X-X-X&X&X=X=X&X&X&X;X=X=X=X=X=X-X-X-X-X-X-X7X8X8X8X8X9XwXwXrXrXrXrXrXrXtXtXtXmXmXmXmXmXmXNXNXBXBXNXNXBXBXVXFXHXHXHXHXHXJXJXJXHXHXHXHXHXHXHXHXHXHXHXFXFXFXVXVXVXVXVXVXBXBXBXBXBXBXBXBXBXBXBXBXBXNXNXmXmXNXNXmXtXwXwXwXwXtXtXtXtXrXtXrXtXtXmXmXrXqX8X7X-X-X&X$X!.!.V.V.m.n.a.y.q.5.=.^ =.^ ) H U ( 8.8.9.f.H.G.G.9.9.8.8.] ] ] 9.H.J.K.F.G.t.] ] t.F.F.F.K.W.[.[.{.W.K.F.K.R.J.S.' ] ] ] [ ] G.K.J.F.S.{ S.K.R.R.D.S.S.D.R.R.R.R.D.S.S.D.S.' ` ` ` ` ' K.[.|.|.{.W.W.{.{.J.R.K.R.R.{.{.|.gXkXvXaX[././.*XqXqX8X0X9X9X9X0X6X6X=X=X=X+Xv.O.m Q I I U H ( 4.7.=.! v v v g g P P P G g G P v v c c v x M n m %.<.2.h.h.h.h.h.h.h.2.2.h.2.h.h.2.2.2.2.k.k.k.b.v.b.v.v.C.N.C.N.V.V.V.V.E.OXOXOX$X$X$X$X$X$X$X$X$X&X&X&X$X!.V.V.V.V.V.V.C.2.O.x f f x x f x x x h f h h x x h f f x x x x x c v v m m P v ! -.@.@.-.:.0.y.L.^.,X,X,X,X,X>X>X>X>X2X>X>X>X>X2X2X5X4XpXdXlXxXxXxXxXxXxXvXxXxXxXxXxXxXxXlXfXfXlXfXdXpXpX4X2X,X<X<X`.",
"$X$X$X$X$X$X&X&X*X*X-X-X-X-X-X-X-X-X-X-X-X-X!.m.r.r.b.V.$X-X-X-X-X-X-X-X*X-X&X&X$X$X&X&X-X&X&X&X&X-X-X-X=X-X-X7X-X1X-X-X=X=X=X=X=X=X=X=X=X=X=X=X=X-X-X-X-X7X8X8X8X8X8X9XwXwXwXrXrXrXrXrXrXtXtXtXmXmXmXmXmXmXNXNXNXNXBXBXVXFXFXHXHXHXHXHXHXJXHXHXHXHXHXHXHXHXHXHXHXHXFXFXFXIXVXVXSXVXVXVXVXVXBXBXBXBXBXBXBXBXBXBXNXmXrXrXmXNXNXmXmXtXwXwXrXhXmXmXhXhXtXmXNXNXmXtXqX-XuXqXqX*X$XV.V.V.m.b.b.n.a.u.0.=.! / ^ U J H ) ` 4.7.f.G.G.t.9.8.' ' ` ` ' ' ] F.F.K.J.F.' ` ] 9.F.F.F.R.{.[.{.K.S.F.F.K.J.K.F.] ] F.K.J.).).W.R.K.S.S.D.K.K.D.S.S.S.D.R.R.R.D.S.S.S.] [ ` ` ` ` ' F.{. X X{.W.W.{.{.W.J.R.W.{. X X|.|.aXvXaX>X_.%X3X8X8X8X0X9X0X0X0X6X=X=X#X;X+XM.%.I I I I G H ( 8.7.=.Q P P P g g P P P G g P P P v c h x x f x n O.<.2.2.2.2.h.h.k.h.h.h.2.h.h.h.2.2.2.r.h.k.k.k.v.v.v.v.C.C.C.N.V.V.V.V.E.OX$X$X$X$X$X$X$X$X$X$X&X-X&X&X&X$X$XV.V.V.V.V.V.b.&.M f f x x f x x x h h h h h h x x x x x x x x c c v v v v v I Q I P Q -.0.6.n.^.:X:X:X:X:X:X:X:X>X>X>X>X>X>X2X2X4XpXdXlXcXxXxXvXxXxXxXxXxXxXxXxXxXxXcXfXfXdXdXdXdXpXpX4X>X<X<X^.^.",
"$X$X$X$X&X&X&X*X-X-X-X-X-X-X-X-X1X1X1X1X1X-X&XE.C.b.b.V.$X-X-X-X-X-X-X-X-X-X-X-X&X-X-X-X&X&X$X&X$X-X-X-X-X7X7X1X7X1X1X-X-X-X-X=X=X=X-X-X=X-X-X-X-X-X7X7X7X8X8X8X8X8X8X9XwXwXwXwXrXrXrXrXrXrXtXtXmXmXmXmXmXmXmXNXNXNXBXBXVXVXFXFXFXFXHXHXHXHXHXHXHXHXHXHXHXHXHXHXHXHXHXFXFXFXFXFXFXFXIXVXVXVXVXVXBXBXBXBXBXBXBXBXNXtX-X-XrXNXBXNXmXtXwXqXwXtXmXNXNXNXmXNXNXNXmXwX-X-X-XqXqX-X$XV.m.m.n.u.u.n.n.u.:.^ W / ^ ) ^ =.( ' ' 4.7.9.8.' 8.' ( ( ( ( _ _ { t.F.G.H.G.t.] ' _ F.F.K.K.{.sX[.J.] K.K.K.J.W.K.K.J.}.iXsXsXiX[.{.R.D.S.S.D.D.S.S.[ [ S.D.D.K.D.S.[ [ ] ' ` ` ( ` ` F.W.{. X{.W.{.{.[.W.W.R.W.{.|.|. X|.sXbXaX>X`.*X3X8X8X6X0X0X0X6X6X=X=X#X+X=X+XV.1...n c c G J F L ( U P W ! Q P P Q / ! P G P P P v c f f x f N x m #.>.1.1.2.h.k.k.h.h.h.2.2.h.h.2.2.2.2.k.k.k.k.k.v.b.v.C.C.C.V.V.V.V.V.E.OX$X$X$X$X$X$X$X$X$X&X-X-X-X&X&X$X$X!.V.V.V.V.Y.b.>.m x f f f f f x x x x x x h h h x x x x x x x x x c c c c v v I I v P ! *.6.n.~.%X<X<X<X<X<X:X:X:X:X:X:X:X>X>X2X5XpXdXlXxXvXvXxXxXxXxXxXxXxXvXxXxXcXlXfXdXpXdXpX4X4X2X>X<X%X^./.~.",
"&X&X&X&X&X&X*X-X-X-X-X-X-X-X-X1X1X1X1X1X1X-X-X&X!.E.$X&X-X-X-X-X-X-X-X-X-X-X-X-X-X-X-X-X$XV.V.E.$X&X-X1X1X1X1X1X1X1X1X-X-X-X-X-X=X-X-X-X-X-X-X-X-X7X7X8X8X8X8X8X8X8X8X8X9XwXwXwXrXrXrXrXrXrXrXtXtXmXmXmXmXmXNXNXNXNXBXBXBXBXVXVXFXFXHXHXHXHXHXHXHXHXHXHXHXHXHXHXHXHXFXFXFXFXFXFXFXFXFXFXIXVXVXVXVXVXBXBXBXBXBXBXNXrX=X=XrXNXVXBXBXmXtXwXrXmXNXBXNXNXNXCXCXNXtXqX-X-X-XqX,X*X$XY.V.m.n.b.i.b.i.0.*.^ ! ^ / / =.e.4.4.( ' 4.` ( E ( ( ) ( ( ` ` _ ` ' ] 9.G.'.2X2XJ.] F.J.W.J.{.gXsX{.R.).W.J.K.W.J.W.[.aXvXvXvXkXaX|.W.K.D.D.K.F.S.S.[ S.S.S.S.S.D.S.[ [ [ ' ` ` E E E ] R.{.{.{.{.{.{.{.{.W.R.J.{.|.|.|.|.sXbXaX:X^.*X-X8X0X6X0X6X6X=X=X=X=X#X#X=X=XOXl.#.n M M G J H ( 7.( U U ^ ! P U =.0.5./ W Q Q P g f f x x x x x x n &.<.1.2.k.k.h.h.j.j.2.2.h.h.h.h.r.k.k.k.k.k.k.b.v.v.C.C.C.C.V.V.V.V.E.OX$X$X$X$X$X$X$X$X$X&X-X-X-X-X&X$X$X!.V.V.V.!.Y.C.2.O.x x x f a f x x h x h x h h h x x x x x x x x x c c c c c c v I I P P W 6.n.T./.^.^.%X^.].<X:X:X<X<X<X:X:X:X>X2X4XdXfXcXxXxXxXxXxXxXxXxXxXxXxXxXlXfXdXpXpXpX4X>X>X>X<X<X`./.~.~.",
"&X&X&X&X&X&X*X*X-X-X-X-X-X-X-X-X1X1X3X1X1X1X1X-X-X-X-X-X1X1X1X1X1X1X1X1X1X1X1X1X-X-X-X-X!.b.b.C.OX&X1X1X1X1X1X8X8X8X1X1X1X1X1X-X1X8X1X-X-X-X-X=X=X=X-X7X8X8X8X8X8X8X8X8X9X9X9XwXrXrXrXrXrXrXrXtXtXtXmXmXmXmXNXNXBXBXBXBXBXBXBXVXVXFXFXHXHXHXHXHXHXHXHXHXHXHXHXHXHXHXHXFXFXFXFXFXFXFXFXFXFXSXVXVXVXVXVXVXVXVXVXVXBXtXqXqXmXVXFXFXVXBXNXmXmXNXBXBXCXCXNXCXCXNXzXyXqXqXuX-X&X$X!.Y.V.m.n.b.i.w.2.-.*.*.^ ! :.q.p.q.8.( ( ( ( ) E ( ^ ) U ) ( ` ` ` ` ' ' ] F.].aXvXsXQ.).{.|.{.|.kXaXiX[.sX[.W.K.K.J.}.sXbXvXkXkXkXgX|. XR.K.K.K.K.D.D.S.S.[ ] ] ] S.S.] [ [ ` ` ` ( E E [ S.K.W.{.{.{. X{.{.W.W.W.W.{.|.|.|.sXkXaX>X^.&X=X-X6X6X6X=X=X=X=X;X=X=X#X=X=X+XB.1.O.n n g G ( p.I.p./ U U U U ! =.q.0.=./ *.^ P g h f f f x x x f x O.%.1.2.h.k.h.h.h.h.h.k.k.k.k.k.k.b.k.k.k.k.k.b.v.b.v.C.N.N.V.V.V.V.V.OX$X$X$X$X$X$X$X$X&X&X&X-X-X&X&X$X$X!.V.V.V.V.Y.V.b.>.m c x f a f f f f f x x f f x x x h f f x x x x f f x c c f h v I I P Q *.6.s.L.P.~.^.^.^.^.<X].`.`.`.].].].>X2X2X4XdXfXlXcXcXxXxXxXxXxXvXxXxXcXfXdXpX4XpX4X2X>X<X<X`._.^./.~.~.",
"%X%X%X&X&X&X&X*X&X*X*X*X*X-X-X-X1X1X1X1X1X1X1X3X1X-X-X-X1X1X1X1X1X1X1X1X1X1X1X1X1X1X1X1X&XC.b.C.OX-X1X1X1X1X1X8X8X8X8X1X1X1X1X1X1X8X1X-X-X=X=X;X;X;X=X-X8X8X8X8X8X8X8X8X9X9X9XwXrXrXrXrXrXrXrXtXtXtXtXnXmXmXmXNXNXNXNXBXBXBXBXVXVXVXFXFXFXHXHXHXHXHXHXHXHXHXHXHXHXHXFXFXFXFXFXFXFXFXFXSXSXSXSXSXVXSXVXVXVXVXVXVXVXBXNXNXVXFXFXFXVXVXBXNXNXNXBXBXCXCXCXCXCXCXNXtXwXwX-X$XC.C.V.V.V.b.b.n.b.b.i.0.:.-.*.=.n.^.^.I.p.4.) ) ) U ) ( / ) ) W ) ( ' ' ' ( ` ' 9.U.iXvXvXsX2XiXsXsXkXvXvXlXaXkXsX{.W.K.).iXaXaX|.[.[.|.|.|. X{.R.K.R.R.K.K.D.[ [ [ ] ] ] S.S.] [ ` ` ` ( ( _ _ _ [ D.W.{.{. X{.{.W.W.{.{.{.|.|.|.aXbXlX2X%X*X=X=X=X=X=X=X=X=X=X=X=X=X=X=X=X=X+XM.<...n c G / 7.L.q.*.W P ! ! ! ^ / ^ ! / *.*.Q g h f f f f f f x v O.%.1.2.h.k.h.h.k.k.k.k.k.k.k.k.k.k.k.k.k.k.k.k.v.v.v.v.N.C.B.V.V.V.E.OX$X$X$X$X$X$X$X$X&X&X&X&X&X&X$X$X$X!.Y.V.V.V.V.V.b.2.O.m x x f f f f f f f f f f f x f f f f f f f f f f f x c h h c v c v P P ! ;.q.n.P.^.^.^.^.^.`.`.`.`.`.].].<X>X>X4XpXdXdXfXfXfXfXfXlXcXxXcXlXfXdXpX4X4X2X>X>X>X:X<X`./.^./.~.~.",
"&X&X%X%X&X&X&X*X*X*X*X*X*X-X-X-X1X3X3X3X1X1X3X3X1X1X-X1X1X1X1X1X3X1X1X1X1X1X3X3X1X3XqX1X-XOXV.E.&X1X8X8X8XqXqXqXqX8X8X1X1X1X1X1X1X1X1X8X-X;XOXXXOXOX$X;X=X8X8X8X8X8X8X8X9X9X9X9XwXwXrXrXrXrXrXrXtXtXtXnXmXmXmXmXmXmXNXNXBXBXBXBXVXVXVXIXFXFXFXFXHXHXHXHXHXHXHXHXHXHXHXFXSXSXSXSXFXSXSXVXVXSXSXSXSXSXFXSXVXVXVXVXVXVXVXVXVXVXVXVXVXVXVXBXBXBXVXVXVXVXCXCXCXCXCXtXtXwX-XY.C.C.V.V.V.C.C.m.m.m.m.u.0.5.:.y.%XdXpX].I.7.) W L L U U ) U ) ) W E ` 9.8.` ( ' ' t.'.pXvXlXiXsXlXvXvXAXDXvXvXvXbXiX).J.[.aXaX2XW.W.W.W.{. X|. XW.R.R.R.J.R.K.S._ [ ] ] 9.9.] ] [ ` ` ` ( ( ` _ _ [ D.R.W.W.W.W.{.W.W.W.W.{.|.|.sXkXbXkX>X*X&X=X=X=X;X=X=X=X=X=X=X=X=X#X=X=X6X6XXXk.#.b v P / 5.q.*.! W ! ! ! U P G G G W ^ ! U g h g g g c c f x v O.%.2.2.2.h.h.k.k.z.l.l.l.l.l.k.k.k.k.k.k.k.k.k.v.v.v.v.N.N.V.V.V.V.V.OX$X$X$X$X$X$X$X$X$X$X&X&X$X$X$X$X$X!.Y.Y.V.V.V.V.C.b.:.+.v f f f f f f f f f f f f f f f f f f f f f f f f f c c c M c g g g g P Q *.0.n.~.^.^.^.^.^.^.`.`.`._.`.].<X<X>X2X4XpXpXpXdXdXdXdXfXfXdXdXpXpX5X2X>X>X>X>X:X<X<X_././.~.~.~.",
"&X&X&X%X&X&X&X*X*X*X&X&X*X*X-X-X1X3X3X3X3X1X1X1X1X1X1X1X1X1X3XqXqXqXqXqXqXqXqXqXqXqXqXqXqX1X-X-X1XqXqXqXqXwXqXwXwXqXqX8X8X8X1X1X8X1X8X8X-X$XB.v.v.M.V.OX&X-X8X8X8X8X8X8X9X9X9X9XwXwXrXrXrXrXrXrXrXtXtXMXmXmXmXmXmXmXmXNXBXBXBXBXBXBXVXVXVXVXVXFXFXFXHXHXHXHXHXHXHXHXHXFXFXFXFXFXFXSXVXVXVXIXSXSXFXHXHXFXSXVXVXVXVXFXVXVXFXVXVXVXVXVXVXVXVXVXVXVXVXVXBXVXVXVXCXtXwXqX-X&X$X!.!.!.V.V.V.V.m.m.m.0.:.:.5.p.,XcXcX5X~.p.) H H L ) U U U ) ) H H ( t.8.' ` ` ` 9.Q.iXlXaX[.sXvXDXDXDXDXAXAXDXvXaX{.R.|.lXsX[.J.W.W.W.W. X|.|. XW.W.W.W.R.K.D.[ _ [ ] 9.9.] ] ' ` ` ( ) ( ` _ [ ] D.R.J.K.R.J.{.W.W.R.W.{.sXaXgXkXbXaX>X^.$X;X;X=X;X;X;X;X=X=X=X=X#X#X=X#X6X6X+Xl.,.n m Q ^ / ! G P W W U P P U W U G G P U G d h g G P P P v f x O.%.<.1.2.2.k.k.l.l.l.M.M.M.v.l.l.l.k.b.k.k.k.k.v.v.v.C.N.N.V.V.V.V.V.V.OX!.$X$X$X$X$X$X$X$X$X$X$X$X$X$X$X!.!.Y.V.V.V.V.V.m.b.>.I f x x x f f f f f f f f f f f f f f h h h f f f f h h x x f f c v v v v W *.0.m.!.^.^.~./.^.^.`.`._._.`.].].<X>X>X>X>X2X5XpXpXpXpXpXpXpX5X2X>X>X<X<X:X:X<X].`.^.^./.~.U.~.",
"&X&X&X*X*X&X&X&X&X&X&X&X&X*X-X-X-X1X3X3X3X3X3X3X3X1X1X1X3XqXqXqXqXqXqXqXqXqXqXqXqXqXwXwXwXwXqXqXqXwXwXwXwXwXwXwXqXqXqXqXqXqX8XqXqX8X1X8X-X;XV.C.M.B.V.$X=X8X8X8X8X8X8X8X9X9X9X9X9XwXwXrXrXrXrXrXrXtXmXmXmXmXmXmXmXmXmXNXNXBXBXBXBXBXBXBXVXVXVXFXFXFXHXHXHXHXFXFXHXHXHXFXFXFXFXSXSXSXVXVXVXSXSXFXFXHXHXHXFXSXSXSXSXSXSXSXSXSXSXSXHXSXVXVXVXVXVXVXVXVXVXVXVXVXNXtXwXwXqX8X-X&X$X$XOXV.V.V.V.V.m.q.;.W W 4.:XlXcX2XH.4.H H H U W U U G W H W W ( 4.4.( ( ` ' ' J.[.aXlXcXvXZXZXDXDXPXPXDXDXDXlX[.).W.W.K.J.J.J.K.W.W.|.gXgX|. X{. X{.W.K.D.S._ _ [ [ ] 9.] ] ' ` ( ) ) ( ` [ ] F.R.J.J.R.J.{.{.W.J.R.W.|.sXsXgXkXiX`.!.$X+X;X;X;X;X;X;X=X=X7X=X=X=X=X=X6X6X;XB.1.n x v m m c c v P G v P P U P d d G P P P d d P ^ 0.i.:.P f f x O.$.%.<.2.k.v.v.v.v.v.M.M.M.x.l.l.k.k.k.k.k.k.v.b.v.v.N.C.V.V.V.V.V.V.OX$X$X!.!.$X$X$X$X$X$X$X$X$X$X$X$X$X!.Y.V.Y.V.V.V.m.b.w.-.P v c c x f f h f h h f f f f f f f f h h h h f f f x c c c c c c m m P v P @.0.n.m.Y.Y.~./.^.`.`._.`.`.`.].:X:X<X>X>X>X2X2X2X2X2X2X>X>X>X>X<X].].].<X<X`._.^././.~.~.T.T.",
"&X&X%X*X*X&X$X$X&X&X&X&X&X&X*X-X-X-X3X3X3X3X3X3XqXqXqXqXqXqXqXqXqXqXqXqXqXqXqXqXqXwXwXwXwXwXwXwXwXwXtXtXwXwXwXwXwXwXwXwXqX1X1X1X1X1X8X8X-X;X$X$X$X;X;X-X8X8X8X8X8X8X8X8X9XwX9X9XwXwXwXwXrXrXrXrXrXrXrXrXtXmXmXmXmXmXmXmXNXNXNXBXBXBXBXBXBXVXVXVXFXFXFXHXHXHXFXFXHXHXFXFXFXFXFXFXSXSXVXVXVXSXSXFXFXFXHXHXHXHXSXSXSXSXSXSXSXSXHXHXHXSXVXVXVXVXVXVXVXVXSXVXCXCXzXzXtXwXqX-X&X&X&X&X$XV.V.V.b.n.n.y.;.) ) 8.^.4X5XQ.9.( L L W H U U H H ) W W H ) ( ( ( ' ` ` ' F.Q.iXlXvXDXDXDXDXDXDXDXDXDXAXlX|.}.W.K.F.J.R.R.J.W.{.|.aXgX|.|. X X X{.R.D.S.[ _ _ [ ' ] 9.9.] ' ` ) ) E ( ` [ S.F.F.F.F.K.).{.W.R.F.J.[.|.sXgXaX2X^.!.$XOX+X+X+X;X;X+X+X=X=X=X=X=X=X=X6X0X=XOXk.X.M M v c g g v m v g W / / ! g d g P W U g d P -.n.a.:.P f u N n n O.$.<.2.k.l.M.M.M.M.B.B.M.M.l.k.l.k.k.k.k.v.b.v.C.N.C.N.V.V.V.V.V.E.!.E.E.!.!.$X$X$X$X$X$X$X$X$X$X$X!.Y.Y.Y.Y.V.V.V.V.m.b.:.+.I c x x f f g f h h f f f f f f f f h f h h f f f f c c h c c c c v v c v P ! :.y.a.d.n.I.P.~./.^.`.`.`.].].].:X:X>X>X>X>X>X>X>X>X>X<X<X<X].].`.`.`.`._././.Q.~.~.T.T.T.",
"&X&X&X%X*X&X$X$X&X&X&X&X&X&X&X*X-X-X1X3X3X3XqXqXqXqXqXqXqXqXqXqXqXqXqXqXqXqXwXwXwXwXwXtXwXwXwXwXtXtXtXtXtXwXrXrXwXwXwXqX1X&X$XOX$X-X1X1X-X&X&X-X-X8X8X8XqXqX8X8X8X8XqXwXwXwXwXwXwXwXwXwXwXrXrXrXrXwX8X8XwXrXtXnXtXtXmXmXmXNXNXNXNXNXNXBXBXBXVXVXVXFXFXFXFXFXFXFXFXFXFXFXFXFXSXFXSXVXSXVXSXSXSXFXFXFXFXHXHXHXHXHXHXHXSXSXSXSXSXSXSXSXVXVXVXVXVXVXVXVXVXCXzXtXtXNXtXwX-X&X&X&X&X&X$XOXV.C.i.2.6.:.=./ ;.8.I.Q.Q.f.( ( ) ( W H U H U H ) W H H ) E ) ( ' ` ` ` ] G.).iXvXDXDXDXDXDXPXPXPXDXAXlX|.}.J.F.K.K.F.W.[. X{.{. X|.|.|.|.|.|. XW.R.D.] [ _ _ [ ] ] S.S.] ` ( ) L L E _ [ ] ] ] ] S.R.).W.K.S.K.{. XsXgXaX].(.m.E.OXOXOXOX+XOX+X+X#X=X=X#X=X=X6X6X0X0X=XB.<.R M x c h h c c g g ! 6.0.-.P g P P Q ! P g P *.u.0.*.v h f u x x n n O.<.2.v.B.B.N.M.B.B.M.M.l.v.v.l.k.k.b.v.b.v.C.C.C.N.V.V.V.V.V.V.V.V.V.E.!.!.!.$X$X$X!.!.!.!.!.!.Y.Y.Y.V.V.V.V.V.V.V.m.u.>.Q c h h f f f h x f f f f f f x f f f f f f f f f f f f f h c c c v c g g g P Q *.=.;.5.q.f.L.P.~.^.^.`.`.].].:X:X<X<X>X<X<X>X>X>X<X<X<X].].].`.`._.^./.(.~.Q.T.T.T.T.T.",
"$X&X%X%X&X&X$X$X&X&X&X&X&X&X&X&X*X-X-X3X3XqXqXqXqXqXqXqXqXqXqXqXqXqXqXqXqXwXwXwXtXtXtXtXtXtXtXtXtXtXhXhXtXrXtXwXwXtXwXqX-XOXV.V.E.$X1X1X-X&X=X1X8X8XqXwXwXwXqXqXqXwXwXwXwXwXwXwXwXwXwXwXwXrXrXrXrX8X=X=X8XwXrXtXtXtXnXmXmXmXmXNXNXNXNXNXNXBXBXBXVXVXFXFXFXFXFXFXFXFXFXFXFXFXSXSXSXSXSXSXSXSXFXFXFXFXFXFXFXHXSXSXSXSXSXSXVXVXVXSXSXSXVXVXVXVXVXVXVXCXCXzXtXyXwXhXtXqX-X&X&X-X-X&X&X$XE.V.b.2.:./ / =.4.4.6.8.7.4.( ( ( ( ) W W W H W ) H W / 4.( ) ( ( ` ` _ ' t.J.).iXcXDXDXDXDXDXDXPXPXDXlXiX[.).J.K.F.F.[.aXaX{.W.R.W. X|. X X X X XW.R.F.] _ _ _ ` ] S.S.9.' ` ( L H L L E ` ` _ _ _ ] J.).F.] F.).[.sXkXaX'.m.n.V.XXXXOXOXOXOXOXOX+X+X+X#X=X6X6X6X6X0X8X;Xk.&.R v v c h h x h g *.y.u.:.P P P P W ! ! P P P *.! v f f f f b x b b n #.<.v.V.B.B.M.M.B.B.M.l.v.v.v.b.b.b.v.v.v.C.C.C.N.C.V.V.V.V.V.V.V.V.V.V.V.E.!.!.!.V.Y.Y.Y.Y.Y.Y.V.V.V.V.V.V.V.V.V.V.n.2.+.v h h f f f f f f f f f f f x f f f f f f f f f f f f f f h c c c c c v g g P P U W W / 4.7.d.I.T./.^.`.].].:X<X<X<X].].].:X>X>X>X<X<X].].].].`.`.^./.Q.Q.Q.T.T.T.T.T.",
"V.!.!.$X%X$X$X&X&X&X&X&X&X&X&X$X&X*X-X1X3X3XqXqXqXqXqXqXqXqXqXqXqXqXqXqXqXwXwXwXtXtXtXtXtXtXwXwXwXwXtXhXhXhXtXtXtXtXtXwX1X&X$XOX$X-XqXqX1X-X1XqXwXwXwXwXwXwXwXwXwXwXwXwXwXwXwXwXwXwXwXwXrXrXrXrXrXwX8X7X8XrXrXtXtXtXmXmXmXmXmXmXmXmXmXNXNXBXBXBXBXVXVXVXFXFXFXFXFXHXHXFXFXSXSXSXFXFXSXSXSXSXSXSXSXSXSXFXFXFXHXFXSXSXSXSXVXVXVXVXSXSXSXVXVXVXVXBXCXCXCXfXyX3XqXwXwXqX-X-X-X-X-X-X&X$X$XV.C.b.0.6.;.=.;.( ( ) ( ( ` ( ' ' ( / ) W W W W J ) 7.G.7.( ) ) ( ` _ ' t.J.H.Q.2XcXDXDXDXDXDXPXPXDXvXlXsX[.W.F.J.[.bXbXiXW.K.D.R.W. X XW.W.{.{.{.W.K.9.[ _ _ ` [ ] ] ] ' 4.` ( E L L L L L L L L ` G.J.F.' 9.J.).iXaXsXQ.s.u.C.B.B.B.B.B.B.E.OXOXOX@X+X#X6X6X6X6X0X9X-XB.<.&.&.O.m h f h h g ! 0.0.-.P P P P U ! W G g g G h a p f f f f f x l l n $.k.V.V.B.M.M.M.M.M.l.v.v.v.v.v.b.v.b.C.C.C.C.C.C.C.V.V.V.V.V.V.V.V.V.V.V.V.V.V.V.V.V.V.V.V.V.Y.Y.Y.V.Y.V.V.V.V.V.m.i.@.I c c g f f f f f f f f f f f f f f f f f f f f f f f f f x c c c c c v v c P g G G G G W / 4.p.n.P./.^.`.].].:X:X:X].].].<X>X>X>X>X<X<X].].].].`.`././.Q.~.~.~.~.T.T.",
"m.V.!.!.$X$X$X&X&X&X&X&X&X&X&X$X&X&X*X-X-X-X3XqXqXqXqXqXqXqXqXqXqXqXqXqXyXyXwXwXwXtXtXtXtXwXqXqX1X1XqXtXhXhXhXtXtXtXtXtXwXqXqXqXqXwXwXwXqXqXqXwXwXwXwXwXwXwXwXwXwXwXwXwXrXrXrXrXrXrXwXrXrXrXrXrXrXrXwXwXrXtXtXtXtXtXnXnXtXmXmXmXmXmXmXmXNXNXBXBXBXBXBXVXVXIXFXFXFXFXHXHXFXSXSXSXFXFXSXSXVXVXVXVXVXVXVXVXSXSXSXSXVXVXVXVXVXVXVXVXSXSXSXSXVXVXBXNXtXzXzXwX-X&X-XqXwXqXqXqX8X-X-X-X&X&X$XV.C.b.u.u.0.:.=.( ( ( ( 4.' ' 4.4.4.;.( ) W W H J / g.~.f.( W L ( ` ` ] H.Q.F.t.Q.pXAXDXDXDXPXPXPXDXvXcXvXlX[.).2XbXaX[.R.K.D.S.D.R.{. X{.R.R.R.J.J.K.] ` ` _ E _ _ ] ' ` 4.8.' ` ( ) H H ) H F F L ' t.9.` ] F.W.|.sX2XH.y.i.b.v.v.C.v.C.M.B.B.E.OXOX@X+X=X6X6X6X0X9X8XOX2.<.<.<.@.v h h f g I @.@.Q g g G P P P g h h h s h a f f a f f x x u l b X.2.N.V.B.M.M.M.B.M.v.v.v.v.v.v.v.v.v.C.C.N.C.C.C.C.C.V.V.V.V.V.V.V.V.V.V.V.V.V.V.V.V.V.V.V.V.Y.Y.Y.Y.Y.V.V.V.V.Y.V.n.2.@.I v c g f f f f f f f f f f f f f f f f f f f f f f f f c x c c g c v v c c g G g g G G U ^ ;.y.L.P././._.].].:X:X].].].>X>X2X2X4X>X>X>X>X<X:X<X`.^./.(.~.~.~.~.T.T.",
"m.V.!.!.!.!.!.$X$X&X&X&X&X$X$X$X$X$X&X&X*X-X-X3X3X3X3X3X1X1X1X3XqXqXqXqXyXwXwXwXwXtXtXtXtXtXwXqX-X-XqXwXtXtXhXhXtXhXhXhXtXtXtXtXtXtXtXtXwXwXwXwXwXwXwXwXwXwXwXrXrXrXwXrXrXrXrXrXrXrXrXrXrXrXrXrXrXrXrXtXtXmXtXtXtXtXnXnXtXtXhXmXmXmXmXmXmXNXNXNXNXBXBXBXVXVXSXFXFXHXHXHXFXSXSXSXFXSXSXVXVXVXVXVXVXVXVXVXVXSXVXVXVXVXVXBXCXCXBXBXVXSXSXVXVXVXNXhXwXwXeX3X&X$X-XqXwXwXwXqX-X-X-X-X-X-X&XE.b.i.0.i.0.;./ / ( ( 4.4.4.' 4.8.4.4.;.( ) ) H H / p.L.7.( W ) ` ` ` t.Q.].H.{ G.[.vXDXDXDXDXPXPXDXZXvXZXAXlXpXaXlX[.J.F.F.F.D.S.D.J.{.{.R.D.] F.F.t.' _ ` E E L _ _ ` ` ' 8.9.' ( ) U U ( U H F A K ( ( _ ' F.J.|.sX[.G.y.0.i.v.k.b.v.b.k.v.B.B.B.OX@X+X#X6X6X0X0X9X7XOXh.1.2.2.>.Q M x f f v I v c g c g g c g h f h h s s h f f f f f x x N N b } <.k.N.B.B.B.B.B.M.v.v.v.v.v.v.v.b.v.v.C.N.N.N.C.C.C.C.C.C.C.C.C.C.V.V.V.V.m.m.V.V.V.V.V.V.V.Y.Y.Y.Y.!.Y.V.V.V.Y.Y.V.n.0.-.Q v c g f f f f f g f f f f f f f f f f f f f f f f f f x c c f c v c g g v v g v P P G W ! 5.p.L.P.Q.(./.].<X:X<X].].<X>X2XiXiX2X>X>X>X>X<X<X<X`././.~.~.~.~.T.T.",
"m.V.V.V.V.V.!.!.$X&X&X&X$X!.!.!.$X$X$X$X&X*X-X-X-X1X1X1X-X-X1X1X1X1X1XqXqXqXqXqXqXqXwXwXtXtXwXqX1X1XqXwXwXtXtXhXhXhXhXhXtXtXhXhXhXtXtXtXtXtXtXwXwXwXwXrXrXwXwXrXrXrXrXrXrXrXrXrXrXrXwXwXwXwXrXrXrXtXtXtXtXmXtXtXtXtXnXnXtXtXhXmXmXmXmXmXmXNXNXNXNXNXBXBXBXVXVXFXFXHXHXHXFXSXSXSXSXSXSXSXVXVXVXVXVXVXVXVXVXVXVXBXBXBXCXNXNXNXBXCXVXVXVXVXVXCXhXtXwXwXwXqX-X-X1XwXwXwXqX&XOX$X-X-X-X-X&X$Xm.w.:.:.:.*./ / / ( 4.4.4.4.4.8.4.4.4.' ( ) H W ) 4.p.( ) W ( ` ` ` t.Q.2XJ.t.t.Q.iXcXvXDXDXPXPXPXDXDXDXDXAXvXbXaX'.J.F.S.{ ] S.S.K.J.W.J.D.[ ] t.] ` ` ( E E L T _ _ E ` ' 8.` ( E ( ( ` ( ( E F Z D H E ` t.W.iXsX[.G.6.:.r.r.2.r.r.r.k.v.v.c.B.OX@X+X#X=X6X0X0X0X=XB.2.1.1.2.<.Q x f f f v g g c c I g P g g g g h a s s h f a f h f x f N u l n #.1.v.N.B.B.B.B.M.v.v.v.v.b.v.v.b.v.v.C.C.N.C.C.C.C.C.C.C.C.C.C.C.m.m.m.C.C.C.m.V.V.V.V.V.Y.Y.!.!.!.!.Y.Y.V.V.Y.!.!.V.b.:.! I v c g g f f f g f f f f f f f f f f f f f f f f f f c f f a g c c g g g g g v P G G G W ;.y.d.L.P.Q.(._.`.].`.`.`.<X>X>X2X4X2X>X>X>X>X>X<X<X`.^./.~.~.~.T.T.T.",
"V.V.V.m.b.b.m.!.$X&X&X$XV.b.b.V.$X$X$X$X$X&X*X-X-X-X-X*X*X-X-X-X-X-X-X1XqXqXqX1X-X1XqXwXwXwXyXwXqXwXtXwXqXqXwXhXhXhXhXhXhXhXhXhXhXtXtXtXtXtXtXtXwXtXwXwXwXwXrXtXrXrXrXrXrXtXtXtXrXrXwXqXqXqXwXwXrXtXtXtXtXtXtXtXhXhXtXtXtXhXmXmXmXmXmXmXmXNXNXNXNXNXNXBXBXBXVXSXFXFXFXFXFXFXSXSXSXSXSXVXVXVXVXVXVXVXBXBXBXBXCXNXNXBXCXhXtXhXNXCXCXVXVXCXCXNXtXqXqXwXeXwXwXwXyXwXwXwX-XV.b.V.&X-X-X-X-X&X!.b.:.*.*.! *.=.( =.=.4.4.4.4.6.4.4.4.' ;.( ( W ' ' ( H ) ( ( ( ' ( t.).iXQ.t.] F.).iXsXlXvXPXPXPXPXDXDXPXPXDXZXcX2XQ.F.t.] ] ] ] S.F.W.J.F.] ] ] ' ` ` ( ( E L L E E L ` ' 9.] ` L L ` 4.` ` ( ) q 9 J E ` t.W.|.iX[.t.6.:.2.2.2.2.2.2.r.k.z.x.M.E.@X+X#X#X6X6X6X=XV.l.1.<.1.2.<.O.M x f x f f f c v v c c g g v P P g d h f f f f f f f f u N b l n %.v.N.B.B.B.C.M.v.v.v.v.v.v.v.v.b.v.v.v.v.b.C.C.C.C.C.C.C.b.C.C.C.m.m.V.V.V.V.C.V.V.V.V.Y.Y.!.!.!.!.Y.Y.V.V.Y.!.!.Y.m.b.:.! I g h h c c f c h f f f f f f f f f f f f f f f f f f f f x c c c c f g g g v v v G P W ^ :.y.G.I.U.Q._.`.].<X].`.].<X>X2X2X>X>X>X>X>X<X:X<X`._./.Q.Q.T.T.T.T.",
"!.!.V.i.@.@.i.V.$X&X&XV.2.&.>.m.!.$X$X$X$X$X&X&X&X&X&X&X&X&X*X*X-X-X-X1XqXqX1X-X-X-X3XqXwXwXwXwXwXtXtXwX-X&X1XtXhXhXhXhXhXhXhXtXhXtXhXtXtXtXtXtXwXwXwXwXwXqXqXwXrXrXrXrXtXtXtXtXtXrX8X=X;X=X-XqXrXtXhXhXtXmXmXmXmXhXhXhXmXmXmXmXmXmXmXmXmXmXNXNXmXNXNXNXBXBXVXVXFXFXFXFXFXSXSXSXSXSXSXVXSXSXVXVXVXVXVXBXBXNXCXNXNXBXNXwXqXwXNXCXCXCXCXNXtXtXwX,X-XqXeXtXtXtXwXtXwXqX-XV.b.V.&X-XqXqX-X-X$XC.:.@.*.*.=.=./ ( ( 5.4.( 4.4.4.' ' ' ;.4.( ( p.f.8.E ) ( ( ( ` ( t.Q.2XJ.t.] t.J.Q.).2XcXDXPXPXPXPXDXPXPXDXDXDXvX2XJ.] ] ] ] ] ] S.F.F.F.] ] ` _ _ ` ( ( E L L E E L _ ' 9.F.] ` _ ` ` ` ` ( ' H D H E ` 9.J.[.[.'.t.4.;.>.>.>.-.2.2.2.r.l.x.B.OXOX@X+X=X6X6X+XXXl.1.1.2.2.2.2.&.n M f f f f f f f f f c v P I Q P P P g h f f a f f f f u f x l b $.k.N.B.B.B.M.M.v.b.v.k.k.v.v.v.v.v.v.v.b.v.b.v.v.C.C.C.C.b.b.C.C.C.m.m.m.m.C.C.V.V.V.V.Y.Y.!.!.!.!.!.!.Y.V.V.Y.!.$X$XY.m.w.-.P h h c c c g c c c f f f f f a f f f f f f f f f f f f x c c c c f c c g v v G G P P ~ / 6.f.G.I.U./.`.].].`.`.].:X>X>X>X>X<X<X].].`.`.`.`._./.Q.U.P.P.T.T.",
"!.!.!.m.i.i.m.!.$X&X&XV.b.2.i.V.!.!.$X$X$X$X$X$X&X&X&X&X&X&X&X&X&X&X-X-X1XqXqXqXqXqXwXyXwXwXwXwXwXwXtXwX1X1XqXtXtXtXhXhXhXhXhXhXtXtXhXhXhXtXtXwXwXqX1X-X-X&X&X-XqXqXwXrXtXtXhXhXtXwX-XOXV.OX&X1XrXtXmXmXhXmXmXmXmXmXmXmXmXmXmXmXmXmXmXmXmXNXmXmXmXmXNXNXNXBXBXVXSXSXSXSXSXSXSXSXSXSXVXSXFXFXSXVXVXVXVXBXNXNXNXNXNXNXmXtXtXNXCXBXNXNXhXwXqX-X-X*X-XwXtXtXtXtXtXtXtXwXqX-X&X-XqXwXwXqX1X-X-X!.b.:.-.;.:.*.( ( ( 7.8.' ' 4.4.( ` ' 4.4.) p.:X4XP.' ( ( ( ( ( ( t.).2XH.] ' ] F.F.H.Q.pXZXPXPXPXPXDXDXPXPXPXPXDXlX/.F.] ' [ ] ] ] 9.t.t.{ ' _ E E ( ( ( ( L H L L L _ ' F.R.F.9.8.8.' ` ( ` 8.( H W ( ` t.W.[.|.'.G.7.;.-.>.-.-.>.2.2.2.z.c.B.E.OXOX+X=X=X@XB.z.1.,.1.1.2.2.2.3.O.n x M m O.O.v f f c v m P P P P P P g f a a a a f f f f f x x b ..2.v.N.C.M.v.v.l.k.k.b.v.k.v.v.v.v.v.v.v.b.b.v.v.b.b.v.b.C.b.b.b.C.C.m.m.V.C.V.V.C.V.V.V.Y.!.!.!.!.!.Y.Y.Y.Y.Y.!.Y.!.$X!.V.n.5.+.c c c g f g c c f f f f f a a f f f f f f f f f f f x g c c c c g g g v G g G G v P ! ;.p.d.I.Q.`.].:X].`./._.`.<X>X>X<X`._._././.^.^.^.^./.Q.U.P.P.P.P.",
"!.!.!.!.V.!.!.$X$X&X&X$XY.C.C.!.!.!.!.!.!.$X$X$X$X$X&X&X*X*X*X*X&X&X*X-X1XqXwXwXwXwXwXwXwXwXwXyXtXqXwXyXwXwXwXtXhXhXhXtXtXtXhXhXhXhXhXhXtXqX1X-X-X-X$XE.V.V.E.OX&X=X8XwXtXmXmXmXmXtXqX-X=X=X8XwXtXtXhXhXhXhXhXmXhXmXmXmXmXmXmXmXmXmXmXmXNXNXmXmXmXmXmXNXNXBXBXBXVXVXVXVXVXVXVXVXSXSXSXSXSXSXSXVXSXVXBXBXNXNXNXNXwXqXqXtXNXNXNXNXNXtXtXqX-X-X,X,XwXtXzXzXzXtXtXtXtXtXtXtXtXtXmXtXtXwX8X-X-X&XV.i.:.:.;.*.=.( 4.p.d.6.' ' ' ( ( 4.4.( 4.~.pXdXP.f./.~.d.' ( ( f._.[.G.] ' ] t.F.F.J.[.vXPXPXLXPXPXDXAXDXPXPXPXZX4XQ.9.' ` [ ] ] ] t.t.] ' ` _ E E E ( E L H H H F L ` F.R.F.9.9.8.` ( E ( t.4.W H E ` F.).|.iX[.U.f.4.*.-.-.-.-.>.>.2.z.x.B.B.OXOX+X#X+XOXz.1.1.,.,.<.2.2.2.<.%.&.Q &.2.i.2.&.v M Q Q I v c g c P g h f a f a a f f f f x b x b n <.k.v.N.M.v.l.l.b.b.v.v.k.v.v.v.v.v.v.v.v.b.b.v.v.v.v.b.b.b.b.b.b.b.C.C.C.C.C.m.m.V.V.V.V.Y.!.Y.!.Y.V.V.Y.V.V.V.V.Y.Y.!.!.!.V.b.=.Q P c g f c x f f f f f a f f f f f f f f f f f f f f c c g g g g g v g g g G v P ! ;.p.L.P.(.`.].<X`.^./././.`.`.`.'._./././.Q.Q././.(.~.U.P.I.P.P.P.",
"$X$X$X$X!.!.$X$X&X&X&X&X!.V.V.!.!.!.!.!.!.!.$X$X$X$X$X$X&X&X*X-X*X-X-X-X-X3XqXqXwXwXwXwXtXtXtXtXtXqXqXqXwXtXtXhXzXzXhXhXhXtXhXhXhXhXhXtXqX*X!.V.V.E.E.V.V.V.V.E.OX$X-XqXtXmXmXmXhXtXrXwXwXwXrXtXtXhXhXhXhXmXmXmXhXmXmXmXmXmXmXmXmXmXmXmXNXNXmXmXmXmXNXNXNXNXBXBXVXVXVXVXVXVXVXVXVXFXFXFXVXVXVXVXVXVXBXBXBXNXNXhXwX1X1XwXNXNXNXNXtXtXwXwXqXqXeXtXtXzXzXzXzXfXzXzXNXNXNXNXNXNXNXNXtXwXqX-X-X&XV.b.:.:.:.*.( / 4.L./.d.4.( ' ' 4.4.4.( L.2XpX<X7.L.4X,XL.( ( ( f.2X2Xt.' ] ] ] F.{ F.).lXDXPXPXPXPXDXCXCXDXPXPXDXxX2XH.] ] ] ' ] ' ] 9.' ' ` ` ( E E E E L H H H L L _ 9.S.] [ ` ` ` E E ` t.4.W G F ` t.W.[.[.Q.J.p.4.*.*./ / *.-.-.<.k.x.M.B.B.OX+X+X@XB.j.1.,.$.,.3.<.<.<.<.3.&.3.2.b.v.2.&.v v Q Q m m c g g c P g f f f a f f f f f x x x x n #.2.k.v.v.l.l.l.v.v.v.b.v.v.v.b.b.b.b.v.v.v.b.b.v.v.b.b.b.b.b.b.b.C.C.m.C.C.C.C.m.C.V.V.V.V.V.V.V.V.V.V.V.V.m.m.m.V.V.Y.!.%X%X!.n.:.P P c g c c f f f f f f f f f f f f f f f f f f f f f f g g g g v P G g g G P P W ;.s.I.P.Q./.^._._.^././././././.U.U.U.U.U.U.U.U.U.T.U.P.I.I.I.P.P.",
"!.!.$X$X$X$X%X%X$X$X&X*X&X$X$X&X!.!.!.!.!.Y.!.!.$X$X$X$X$X&X&X&X-X&X*X-X-X3XqXwXtXtXtXtXtXhXhXtXtXqX3XqXwXtXtXzXzXzXNXzXhXtXtXtXtXtXtXqX-XE.m.C.C.V.V.C.C.C.V.OX&X-XqXwXhXmXmXmXhXhXtXhXmXhXhXmXtXtXhXmXmXmXmXhXmXmXmXmXmXmXmXmXmXmXmXmXNXNXNXmXmXmXmXmXNXNXNXBXBXBXBXBXVXVXVXVXVXSXFXFXVXVXVXVXVXVXBXBXNXNXmXhXtXqXqXtXhXNXNXNXtXtXtXtXtXtXzXNXzXNXNXNXzXzXzXNXNXNXCXCXCXVXVXNXtXtXwXqX7X-X!.b.2.:.:.;.( / 8.I.,XP.8.( ( 4.4.4.4.( ^.dX4XP.( f.2X>XG.( ( ( G.2X2Xt.' ] 9.] F.F.F.Q.pXAXPXPXPXPXDXZXZXAXDXAXDXAXlX).G.F.t.' ' ] ' ] ] ' ` ` ( E L E ( U H H L L _ ` S.S.[ T L K L L E ` t.' E J E ` t.H.W.J.t.t.4.;.*.*./ =.;.:.-.<.k.l.x.v.B.OX+X+XOXx.1.1.,.$.$.&.%.%.%.%.&.&.%.<.2.2.<.O.m m Q v c c c c v P P g f a a a a f f N f f f x x b } <.h.v.v.k.k.k.k.k.b.b.k.k.k.k.k.k.k.b.v.v.v.v.v.v.b.b.b.b.b.b.b.b.b.b.b.b.m.C.m.m.m.V.V.V.V.V.V.m.V.V.V.V.m.m.m.m.Y.Y.!.%X*X*XY.u.! G c c x c f f f f f f f f f f f f f f f f f f f f f f g g g g g P G g G P P P W 4.d.I.T.U.~././././././.Q.U.U.U.U.U.U.U.T.U.U.U.P.P.P.I.I.I.I.P.P.",
"$X$X!.!.!.$X$X&X&X$X&X*X&X&X*X$X$X$X!.!.Y.Y.Y.!.!.!.!.!.$X$X$X&X&X&X&X-X3XqXwXwXtXzXzXzXzXzXzXtXqX1XqXwXhXhXtXtXhXzXzXhXtXwXwXtXwXyXqX-X$XV.C.C.V.V.C.C.C.V.$X-XwXwXtXmXmXmXmXmXhXhXhXhXmXmXhXhXtXhXhXhXmXmXmXmXhXmXmXmXmXmXmXmXmXmXmXmXmXmXmXmXmXmXmXmXmXNXNXNXNXNXNXBXBXBXVXVXVXSXFXFXSXSXSXSXSXBXNXmXmXmXmXhXtXhXmXmXhXNXNXNXtXtXtXNXNXNXNXNXNXNXNXNXNXNXNXNXCXCXVXVXVXVXVXNXNXtXrXqX8X7X$XC.2.:.:.;.=.;.p.I.<XP.7.( 4.4.( 4.' 7.5XzX:Xp.E ' p.t.` H E ( f._.2XG.' ' ] ] 9.F.K.Q.pXAXPXPXPXPXDXZXDXDXZXcXvXDXvX2X).).H.] ` ' ' ' ' ' ' ` ( E L ) E U H H H U _ ` 9.F.[ K A Y L L E ` F.8.E J ) ' 9.G.H.t.` ' 5.:.-.*.;.q.y.0.>.2.h.l.l.v.B.OX+X+XOXc.k.1.<.,.&.&.&.+.O.O.O.O.O.&.$.%.%.%.%.%.O.v x x c c v Q P g f a f f f f f f f f u x x x n $.1.k.k.h.k.k.h.k.h.h.k.k.k.k.k.k.k.k.k.k.v.v.v.b.b.b.b.b.b.b.b.b.b.b.b.b.n.C.C.m.m.m.V.V.V.V.m.m.m.m.m.n.b.i.n.n.m.Y.!.%X%X*X%Xn.*.G g c f h f f f f f f f f f f f f f f f f f f f g f h h h h g g g g g P P W W ^ 4.p.L.I.U.T.~.Q.Q.~.Q.~.U.U.U.U.U.U.U.U.T.T.T.U.P.P.P.P.P.I.P.P.P.",
"!.!.!.!.!.!.$X&X*X&X*X&X&X&X*X&X$X$X$X!.!.Y.Y.V.V.!.!.!.!.$X$X$X$X&X-X3XqXqXqX3XqXwXyXqXqXqX3X-X&X&X1XtXzXzXhXNXNXNXzXtXqX1XqXyXtXyXqX-XE.C.C.m.C.C.m.V.$X-XqXtXhXhXmXNXmXmXmXNXNXmXmXmXmXhXhXhXhXmXmXhXhXhXmXmXhXhXmXmXmXmXmXmXtXhXmXmXmXmXmXmXmXmXmXmXmXmXNXNXNXNXNXNXNXCXBXVXVXVXSXFXFXFXFXSXBXhXqX8XqXrXwXqXtXNXNXhXtXtXhXhXtXwXtXzXNXNXNXNXNXNXNXNXNXCXCXCXVXVXVXVXVXVXVXBXNXmXtXwX8X8X&XC.w.>.-.=.;.7.d.L.T.G.8.( 4.4.( ( ( p.4XdX/.7.( ( E E ) E ( E t.H._.G.8.` ] 9.t.t.F.Q.aXDXDXPXPXDXDXDXPXDXAXlXvXAXvXaXiXiX'.G.[ ` ' ` _ ` ' ' ` ( L U ) U G J H H L ` 9.F.] L F L ( E L ` G.t.E F E ( 8.G.F.8.E ' q.:.*.@.5.s.m.u.2.2.h.l.v.v.B.OX+X=X+XOXx.k.<.X.$.&.O.O.Q O.O.O.&.#.#.$.<.2.2.2.&.m v v v c c c g g f g g c c c f f f f u x x x b #.<.h.k.h.h.k.h.h.h.h.h.h.k.k.h.2.2.k.k.k.b.v.v.v.b.b.b.i.i.b.b.b.b.b.b.b.n.C.C.m.m.C.m.V.m.m.m.m.C.C.b.i.:./ *.*.5.n.Y.!.%X%X%XY.5.P g c c f f f f f f f f f f f f f f f f f f f f g h h h h g g g g g g P ! ^ *.=.5.7.7.f.L.P.U.Q.~.U.U.U.U.T.U.U.U.U./.Q.~.U.U.T.U.I.I.I.I.P.P.P.T.",
"!.!.$X%X$X$X&X&X*X&X&X*X*X&X&X*X&X$X$X$X!.!.!.!.Y.!.!.!.$X$X$X$X$X*X-X1X1X-X$XE.$X$X$X$X!.!.V.V.V.V.$XqXzXNXNXzXNXNXNXtXqX1XqXqXwXqX-X$XV.m.m.m.V.V.E.$X1XwXtXhXmXhXhXmXNXNXmXmXhXmXmXmXmXhXhXhXhXhXhXhXhXmXmXmXmXmXmXmXmXmXtXtXtXmXhXhXhXmXmXmXmXmXhXhXmXmXmXmXNXmXNXNXNXNXBXVXVXVXFXFXSXFXFXSXBXwX&X$X&X8XrXtXmXBXNXNXwXwXwXwXeXwXwXtXNXNXzXNXNXNXCXCXNXCXCXCXCXBXVXVXVXVXCXNXNXtXtXwXqXuX;XC.i.>.*./ ;.d.I.f.t.t.' ( ( ( ' ( ( p.dX4X(.4.' ( ( ( ( ( ( ` ' t.Q._.G.t.9.9.{ t.F.W.pXDXDXDXDXDXZXZXDXPXDXlXlXvXvXbXaXbXsX).9.t.' ` ( ` ' 8.' ( E U ) ) U G H H L ` 8.t.' H H ( ` E K [ J.H.` L H D ) 8.8.( C H / =.*./ :.y.u.y.:.2.2.r.l.M.B.OX+X=X=XOXM.h.1.X.&.&.&.O.O.O.&.&.$.,.,.$.,.1.2.1.%.O.O.%.@.+.Q Q I I v v v v m v M x x x f x x b b ..<.h.k.h.h.h.h.h.2.h.k.h.h.k.h.h.h.k.b.v.v.v.k.v.v.b.b.i.b.b.b.b.b.b.b.b.n.C.C.C.m.m.C.C.V.V.m.m.m.m.b.:.Q h g P I ! :.u.n.m.Y.m.0.+.I c c f f f f f f a f f f f f f f f f f f f f f h g g g g g g G P U / 5.6.q.a.a.f.p.f.f.H.H.I.U.U.U.T.U.U.U.U.U./././././.Q.U.T.P.P.U.U.P.P.T.T.",
"$X%X&X%X$X$X$X&X*X&X&X&X&X&X*X-X&X&X$X$X!.!.!.V.Y.!.V.V.E.E.!.$X$X&X*X-X&X$XV.b.m.C.C.C.C.C.C.C.C.C.$XqXhXNXNXNXNXNXNXzXtXwXqXqX1X-X$XE.V.C.C.V.V.$X-XqXwXtXtXtXmXhXmXNXNXNXNXmXmXmXmXmXmXhXhXhXhXhXhXhXmXmXmXmXhXhXhXhXhXtXtXtXtXtXtXhXhXmXmXmXmXmXmXmXmXmXmXmXhXhXmXNXNXNXBXVXVXVXSXFXFXFXFXVXNXwX-X$X&XwXhXNXNXNXhXhXtXwXwXhXfXtXtXNXNXNXNXNXNXCXCXNXCXCXCXCXCXCXCXCXCXCXNXmXtXtXwXqXqX-X;XC.i.:.*.=.q.I.I.p.8.7.' ' ' ( 4.( ` g.dX5XI.` ' ' ( ( ( ( ` ` ' ' H.>X].U.t.9.t.t.F.J.iXAXDXDXPXDXxXxXZXDXDXlXiXaXvXvXvXvXbX2XH.G.' ` ( ` ' 7.' ` ( ) ) W U J J J L E ' 8.` H E ' ' E K ] Q.J.` A Z 9 F L L J 0 D / :.:.*.*.:.0.0.>.2.2.r.z.M.B.OX;X=X;XE.l.1.$.X.&.&.&.&.&.&.&.%.,.<.<.,.$.<.1.>.%.&.%.2.2.2.2.>.-.@.+.Q +.Q I I v c c x x x x x x } 3.2.k.h.h.h.h.h.h.h.k.h.h.k.h.h.h.k.k.b.k.b.k.b.b.b.b.b.b.b.b.b.b.b.C.b.C.C.C.C.m.m.C.C.V.V.m.m.m.m.b.2.Q f g g g g P ! *.-.:.0.0.*.I c h c f f f f f f f f f f f f f f f g f f g g h g h h G P P U ^ ( 5.y.n.L.I.I.I.L.G.G.p.f.d.H.I.P.U.U.U.U.U.Q./._._._././.~.U.U.U.U.U.T.T.T.T.",
"%X&X&X&X$X$X&X%X&X&X&X&X&X*X*X*X&X&X$X$X!.E.E.!.!.V.V.V.V.!.!.$X$X$X!.Y.V.C.b.b.b.b.b.b.b.b.b.C.m.V.*XwXNXCXCXNXCXCXCXNXzXyX1X*X$X!.V.V.V.V.V.E.&X-XqXwXwXtXtXtXhXmXNXNXNXNXNXmXmXmXmXmXmXmXmXhXhXmXmXmXmXmXmXhXhXhXhXhXtXtXtXrXrXtXtXtXtXhXmXmXmXmXmXmXmXmXmXhXhXhXmXNXNXNXBXBXVXVXSXFXSXVXVXVXVXNXwXqXwXNXBXBXNXtXwXhXmXhXtXhXNXzXzXNXNXNXNXNXNXNXNXNXNXNXNXNXNXNXNXNXNXNXhXtXwXqXqXqX-X*XY.n.i.0.:.;.6.d.d.4.7.p.p.' ( ' 4.' ( d.dX5XH.` ' ' ' ;.' ' ' ' ' ` G.2XiX'.t.9.t.t.{ H.2XvXDXDXDXPXZXlXcXvXDXaX[.[.aXvXAXDXAXlX_.G.8.` ` ` ' ' ' ( E L L H G G J F L E ( ` E E ( 8.t.` E ` H.G._ A C Z H J D D 9 D ;.y.u.;.! ^ -.-.2.2.r.k.z.M.E.OX+XOXB.l.1.,.$.$.&.&.&.&.%.%.>.>.,.<.<.,.$.%.<.>.>.>.:.w.w.w.i.w.2.2.>.%.+.I c c c x x x x x x x x m +.<.2.2.2.h.2.2.2.2.2.2.h.h.2.h.h.h.k.b.b.b.b.b.b.b.b.b.b.b.b.b.b.b.C.b.C.C.C.C.m.m.m.m.m.m.m.m.m.m.n.0.+.f f f a p p f g c g I *.-.-.! v c f f f f f f f f f f a a f f f g c g g c G G G G G U ^ =.8.p.d.L.P.T.~././.~.U.L.G.G.G.G.H.U.U.Q.Q.Q.(./.^._._.`._././.Q.Q.U.U.U.~.~.U.U.",
"*X*X&X%X&X&X&X&X%X%X&X%X%X%X%X&X*X%X%X!.V.C.V.E.E.V.m.m.V.!.!.!.V.V.m.b.b.i.i.b.i.b.b.b.b.b.b.C.m.!.1XtXNXCXCXNXCXCXCXNXtX3X&X!.V.V.C.C.V.C.V.$X1XwXwXwXwXtXwXwXtXmXNXmXmXNXNXmXNXNXNXmXhXhXhXhXhXhXhXmXmXmXhXhXhXhXhXtXtXtXtXrXrXrXtXtXtXtXtXhXhXmXmXmXmXhXhXtXhXhXmXNXNXNXBXNXBXVXFXFXCXhXmXBXSXVXCXCXBXVXVXBXtXqXqXNXNXNXNXNXNXNXNXNXNXNXzXNXNXNXzXzXzXzXzXzXmXzXzXzXzXtXtXwXwXqX8X1X-X!.n.w.0.0.:.*.=.6.6.4.L.~.I.7.( ` ' ( ' H.pX2Xd.' ' ' ' ' ' ' ' ' ' ' t.).2X].G.9.t.t.F.J.2XvXAXDXDXDXDXcXpXlXvXaX{.'.iXvXDXDXDXvX2Xt.8.' ` ' ` ` ` ` ) E L H H G J J H H E E E E ( 8.7.( K K ' t.` E K E ` E J 9 9 d =.q.u.:.! Q &.>.2.r.k.k.v.B.E.OXOXB.z.2.<.,.%.%.O.O.#.%.%.>.1.1.3.,.,.$.#.#.%.>.-.:.w.2.>.>.2.2.b.b.b.2.%.I c a a a x c x x x x x M m %.2.2.2.2.2.2.2.2.2.2.2.2.r.2.r.k.r.b.i.i.b.b.b.b.b.b.b.b.b.b.b.b.b.b.m.C.n.C.C.m.C.m.m.m.m.m.m.m.n.i.-.c a a a a p p a a y a c +.>.-.I f a a f f f f g f f a a a f f g c g g d d d g G U W ( 8.p.d.L.T.Q.Q.Q.(././././.U.U.U.U.U.U.Q.Q././././._._._._._._._._././././././.Q.U.U.",
"*X*X%X%X%X%X%X%X%X&X%X%X&X&X&X&X!.!.!.C.:.@.-.:.C.C.n.n.m.m.m.m.n.b.b.b.w.:.>.>.2.:.2.i.b.b.b.b.C.V.$X-XwXzXCXVXVXVXCXNXwX-X!.V.V.V.m.m.m.C.V.$X-XqXwXwXwXwXwXqXwXhXmXmXmXNXNXmXmXmXNXhXhXhXhXhXhXhXhXmXmXhXhXhXhXhXhXtXtXtXtXtXrXrXtXrXtXtXtXtXtXhXhXhXhXhXtXtXtXjXhXmXmXNXmXtXtXNXVXVXhXqXqXtXBXSXSXSXVXVXBXNXNXtXhXBXNXhXtXhXNXNXNXNXNXNXNXNXNXzXzXzXzXzXhXhXtXtXhXtXeXyXyXwXwXqX3X3X*XV.w.5.0.5.=./ ( 4.6.7.7.f.d.9.' ' ' ' ' G.:XQ.t.' 7.8.7.8.8.9.9.' ' t.] G.).].Q.t.t.F.F.J.[.vXvXDXDXDXDXvXpX5XaXvXsX[.iXlXvXDXDXAXaXH.9.` ` ' ' ` ' ' ( ( ( ) W G H H E H H E E E ( ` 4.( F K 9.J.J.F.] 9.t.' W J D D H / ;.-.@.+.%.2.2.2.r.k.C.V.OXOXV.M.k.k.2.<.%.$.$.$.%.$.>.1.2.2.1.,.,.3.,.%.>.2.i.b.m.b.2.2.2.h.v.v.b.Z.2.-.I c c c v v c x x f f x v O.3.2.2.2.2.2.2.2.2.2.2.2.b.b.b.b.2.r.b.b.Z.b.b.b.b.b.b.b.b.b.b.b.b.b.m.n.n.C.C.C.m.m.C.C.m.m.m.n.n.u.:.P a a a f a y y u t y a m +.Q c f f f f a a f f f f f f f f f g g h h d d G J ) ( 4.e.f.L.U.U.Q._._._._./././._._.Q.Q.Q.Q.Q./._._._._._._._._._._._._._._._._././._./.Q.Q.",
"-X*X%X%X*X*X*X*X*X*X%X%X%X%X&X%X%X%X!.m.>.P v Q :.w.u.b.n.b.u.u.u.u.i.w.>.+.Q I Q O.%.2.b.b.b.b.b.b.m.E.*XyXNXVXCXVXCXNXyX*XE.V.V.V.V.m.V.V.E.&X-XqXqXwXwXwXqX8XwXtXmXmXmXNXNXhXNXzXNXhXhXhXhXhXhXhXhXhXhXhXhXhXtXtXtXtXtXtXtXtXrXrXrXrXwXwXtXrXtXtXtXtXtXtXtXtXrXjXhXhXmXmXtX8X-XqXNXBXhXqXqXtXBXSXSXSXSXBXhXwXwXhXCXBXhXtXtXmXNXNXNXNXNXNXNXNXzXzXzXfXfXtXtXtXtXtXtXeXyX3X3X3XqX3X,X-X*Xm.q.6.6.:.;.( =.6.y.y.' 4.8.8.8.8.8.7.f.U./.f.8.7.g.g.f.f.g.H.H.f.f.G.t.t.Q.[.}.F.t.K.H.J.[.lXvXvXAXDXDXDXfX].>XvXbXaXiXiXlXvXvXvXvX].f.` ` ' ' ` ' ' ` ` ( ) W H W ( ( E L E ) E ) ) ) H A F ] ).).J.F.t.' L J d d G W W / *.>.-.3.2.2.r.k.v.V.OXOXE.B.B.v.v.k.2.<.$.$.,.%.3.<.2.2.h.2.2.2.h.h.h.Z.w.n.m.n.w.2.2.2.k.l.v.v.b.Z.2.-.I I I I I M M M M a f M Q %.%.3.>.2.2.2.2.2.2.2.2.b.b.b.b.2.Z.b.b.b.b.b.b.b.v.v.v.b.b.b.b.b.b.n.m.b.b.n.n.m.C.n.n.m.m.n.b.b.b.0.@.v f a f f a a a y y p f c f a a f f f a a f f f f f f f f f a a s d G G U ( 4.p.G.L.I.U.U.U.Q.Q.).)._._././._._._._._.'.'.'.'.'._._._._._._._._._._._._._._././._._././.",
"3X-X*X*X*X-X*X*X*X*X*X%X%X%X!.!.%X!.!.m.w.@.P P @.:.i.u.u.i.w.w.i.i.2.-.Q v v v c c m @.2.i.b.b.b.b.C.E.*XyXNXCXVXVXCXNXtX1X$XE.V.V.V.V.V.OX&X1XwXwXqXwXwXqXqXqXwXtXmXmXmXmXmXhXNXhXmXmXhXmXmXmXmXmXhXhXhXhXhXtXtXtXtXtXtXtXtXtXtXrXrXwXwXwXrXrXrXrXtXtXtXrXrXrXtXtXjXjXhXhXwX1X$X-XtXBXNXhXhXNXSXFXVXSXSXCXwX-XqXhXVXVXNXtXwXhXBXBXNXNXNXNXNXzXzXzXzXfXtXtXtXtXeXeXeXyX3X*X*X-X3X3X-X%X!.m.u.0.5.4.;.( ( 6.p.p.` ( ( 8.H.^.`.`.].2X2XU.d.d.I.P.(.(.^.^.^./././.Q.U._.2XiXQ.K.J.J.J.}.aXvXvXvXDXDXDXlX>X].fXvXvXaX2XsXpXlXvXvXfXQ.t.[ ] ' [ ' ' 8.' ` ) H E ) ` ( ( W E ) W E E E L F K ' J.Q.).Q.H.` D D D U 5.y.5.*.*.>.>.2.2.r.r.b.B.E.OXV.B.C.v.b.k.h.2.<.%.,.,.<.>.2.2.2.h.h.k.v.v.C.b.b.w.b.b.w.:.2.2.k.b.k.l.v.b.b.b.:.%.+.I I c c M v c f x x m +.&.%.3.2.2.2.2.2.2.w.2.b.b.2.2.2.h.b.b.b.b.b.b.b.b.b.b.b.b.b.b.b.b.b.b.b.b.n.n.n.n.b.n.n.n.b.b.b.b.i.:.I c a a a a y a f a y y u p y a a f a y y a a a a f f f f g g g d J H ^ 4.7.d.L.U.U.U.U.U.U.Q.Q.).).).)././._._.'.'.'.'.].'.'.'._._._._.'.'.'.'.`.'._._._._._._._._._._.",
"3X3X*X*X*X-X-X*X*X*X*X%X!.!.!.Y.Y.Y.m.m.n.:.-.@.-.2.0.i.i.i.w.0.w.i.2.@.v f c v c x x Q %.2.i.b.C.b.C.!.-XtXCXCXVXVXCXCXNXwX1X*X$X$X$X$X$X-XqXwXwXwXqXqXqX1X-X-XqXtXhXhXhXhXhXhXhXhXhXhXhXhXhXhXNXNXmXhXhXhXhXhXtXtXtXtXtXtXtXtXrXwXwXqXwXwXwXrXrXrXrXrXrXrXrXrXtXrXrXtXhXmXhXqX-X1XtXBXVXBXVXVXHXSXVXVXSXBXqX-X1XhXBXVXNXmXhXNXBXBXCXCXNXNXNXzXzXzXzXzXtXtXtXtXeXeXyX3X,X*X*X*X,X3X*XY.m.m.u.0.6.5.;./ ( q.d.p.( ( ( 8.(.fXlXpXpXcXfX:X/./.^.:X3X3X4X4XyX4X4X5X2X].2XpXaX[.Q.Q.J.J.).sXbXvXvXDXDXDXcX4X>XpXvXZXvXpXpXiXaXlXvXvX2XJ.t.9.] ] t.F.t.9.` ( E E ( ` ( ) L H H H H H H H Z F ' H.J.Q.].Q.' J V H =.L.P.d.;.! *.>.2.2.r.r.v.B.OXE.B.v.k.k.k.h.1.<.%.&.%.<.<.1.2.2.2.k.h.v.M.N.C.b.2.>.%.>.3.-.2.2.2.2.h.v.v.C.b.b.w.2.%.+.m c x c c M x x x v m O.%.>.2.2.2.2.2.2.2.2.2.2.2.2.2.h.b.b.b.b.b.b.b.b.b.b.b.b.b.b.b.b.b.C.b.b.n.n.n.n.b.b.n.n.b.b.b.n.b.0.@.v f f f a y u a a a y t t t a a a p t t p a a a a f c c v P P U W / 5.p.d.I.U.U.U.Q.U.U.U.Q.Q.).).).)././._./._._._.'.'.'.'.'.'.'.'.'._.'._.'._.'._._.'.'._._._._._._.",
"*X*X%X%X%X%X*X*X*X*X%X$X!.Y.m.m.m.n.u.u.n.n.i.0.q.y.i.w.0.i.i.i.i.i.:.Q c c c v v c f c Q %.2.b.C.C.V.*XwXNXCXVXCXVXVXVXCXNXtXyX3X1X-X3XwXtXtXtXwXqX-X-X-X$X$X$X-XqXtXtXtXhXhXhXtXhXhXhXtXhXmXNXNXmXhXhXhXtXtXtXtXtXtXtXhXhXtXwXqX8X1X1X8XqXwXrXwXwXrXwXrXrXrXwXtXtXwXtXtXhXhXhXwXwXrXNXSXHXSXSXSXVXVXVXBXNXtXwXtXNXVXVXBXCXCXCXVXBXBXCXBXBXNXNXNXzXzXzXfXtXtXeXeXyX5X3X,X:X:X:X,X,X%Xm.y.n.m.a.q.5.;./ / 7.d.7.( ( E t.2XvXcX5X2XlXvXdXyX4XeXfXzXCXCXCXCXCXCXCXzXzXdXlXcXaX'.}.Q.W.{.sXaXvXvXDXDXDXvXfXyXdXxXAXDXZXzXzXfXcXvXAXlX>XJ.F.] F.J._.J.9.' ` ( E E ( ( ) H J J J J H H H F F ` G.J.J.'.'.9.H J H 5.^.^.L.=.W @.-.3.2.h.k.C.V.V.C.v.k.r.2.2.<.%.$.$.$.<.<.<.<.2.2.h.k.k.N.N.v.b.b.2.>.O.+.%.2.2.2.2.2.h.v.N.C.b.C.V.C.b.>.m x x x x c x M v x m &.2.2.w.2.2.b.2.2.2.2.2.b.b.b.Z.Z.b.b.b.b.b.b.b.b.b.b.b.b.b.b.n.n.b.b.b.n.n.n.b.b.b.b.b.n.b.b.b.n.b.b.:.! g a a a u u u a p y y t y p p t t t y y y y p a a g c I +.-.;.q.n.I.I.I.P.T.U.Q.Q.U.U.U.Q.Q.).).Q.Q.Q.)._._._._._.)._.'._.'.'._.'._.'.'._._._._._._._._._._._._._._.",
"!.Y.V.m.m.V.!.!.!.!.Y.Y.m.m.n.n.b.u.i.i.i.i.i.w.q.y.i.i.i.u.i.i.w.w.>.Q c c c v m v c c m Q >.i.b.C.E.-XtXNXCXCXCXCXCXCXCXCXNXNXzXhXtXtXhXhXtXtXqX-X$XE.E.V.V.V.$X1XwXwXwXwXwXwXwXtXtXhXmXmXhXtXmXhXtXtXtXtXtXtXtXtXtXtXtXwX1X&XOXE.V.E.$X=X8XwXwXwXwXwXwXwXwXwXwXwX8XqXwXtXhXmXhXtXhXBXSXVXVXSXVXVXVXCXNXNXNXNXCXVXSXVXVXVXVXBXCXNXNXBXBXBXCXCXCXNXzXzXfXtXeXeXyX4X4X4X2X,X>X,X4X3X*XY.m.Y.Y.s.q.6.4.' 4.d.d.4.E ( ' G.2X4X^.H.U.pXZXCXfXCXAXAXHXHXPXPXPXPXHXHXDXAXDXAXDXvXfX2X].{.[.sXaXbXvXDXAXDXAXZXZXCXZXAXPXDXZXAXZXDXDXDXvX4XU.F.S.W.iXsXQ.] ' ` ` ( ( ' ' ( H H J J J H H H D L ' J.J.).J.G.E D D H ( a.L.p.=.! *.-.2.r.v.C.B.V.C.k.1.<.2.2.2.<.$.$.$.$.<.<.<.<.<.1.k.k.v.C.C.v.b.b.b.2.2.2.2.2.i.2.2.2.v.v.v.k.1.k.C.V.b.2.%.m n v m m m n v M m +.2.2.b.2.2.b.2.2.2.2.b.b.b.b.2.2.b.b.b.b.b.b.b.b.C.C.b.b.b.b.n.n.b.n.n.n.n.n.b.b.b.b.b.n.n.b.n.n.b.b.0.-.I g a a y t y p a u y y t t t t t t y y t t 3 t y a f c I Q *.5.a.n.n.d.f.f.L.I.T.~.U.Q.Q.Q./.Q.Q.U.Q._._._.'._._.).'.'.'.'.'._._.'._._._._._._._._._._._._._._././.",
"m.n.C.n.n.n.n.n.m.m.m.m.n.n.n.u.u.u.u.i.q.0.q.w.q.y.y.i.u.i.i.0.w.w.>.I c c c c v I m v c v @.i.b.m.!.3XtXNXNXNXCXCXCXCXCXCXNXNXNXNXNXNXNXNXzXtXqX&XV.V.V.C.C.V.E.&X-X&X&X$X&X&X-X-XqXwXtXhXhXhXhXtXtXtXtXtXtXtXtXwXtXwX8X&XE.C.B.v.v.B.OX&X1XqXwXwXqXqXqXqXqXwX8X1X&X-X1XqXwXtXmXhXmXBXCXNXNXCXVXVXVXNXNXNXVXSXSXSXVXVXVXVXVXBXNXNXhXNXCXCXNXNXNXNXzXzXtXeXyXyX5X5X3X3X>X>X>X3X5X3X,X%X^.^.~.I.s.7.4.( 8.d.f.4.E E ' H.>X~.H.G.^.zXZXZXHXPXPXPXLXLXLXLXLXLXLXLXPXKXLXPXPXPXxXfX2XiXaXaXaXbXvXDXDXAXPXPXHXPXPXPXLXLXPXPXPXPXPXPXDXfX].J.K.[.aXaXQ.] ' ' ' ` ' 8.8.( U H H H J J H H F E ] J.).).J.9.F D D U ^ ( ( ( / / >.>.2.b.v.C.C.v.r.1.<.<.2.1.<.3.&.$.$.$.3.3.3.<.<.2.k.v.M.N.N.v.v.b.b.b.i.i.i.i.2.2.2.k.b.v.v.2.<.2.C.C.C.r.2.%.&.Q Q O.O.m v v m &.2.2.2.2.2.2.2.2.2.b.2.h.b.b.2.2.Z.b.b.b.b.b.b.b.b.b.b.b.b.n.C.m.m.m.n.b.n.n.n.n.b.b.b.b.n.n.n.n.n.n.b.i.:.U g g a a y a a p y y t t t t t y y y t t r t t y y y a a g P ! *./ ^ U U ^ 4.q.d.I.T.~./.Q./.Q./.Q./._._._._._.).'._._.'.).)._._._._._._._._._._._._._._././././.",
"m.m.n.n.n.s.n.n.n.n.n.n.a.a.u.u.u.u.a.u.q.q.q.u.q.0.0.0.q.w.0.0.w.w.:.Q c g g g c v m m v v %.i.C.V.&XqXtXzXzXzXNXNXCXCXCXCXNXNXNXNXNXNXNXNXzXzXeX1X$XV.C.b.b.b.C.V.C.b.b.b.b.C.C.V.$X-XqXtXtXhXhXtXtXtXtXtXtXtXtXtXtXwX=XE.C.v.C.C.V.OX&X1X8XwXqXqX8XqX8X8XqXqXqX-X$X$X-X1X-XwXtXhXNXmXtXwXwXmXSXSXVXBXBXVXSXSXVXVXVXBXVXVXBXNXtXwXtXhXNXNXNXNXNXNXNXzXtXyX3X3X,X,X3X2X>X>X>X4X3X4X4X3X:X^.^.~.I.d.4.( ' 8.8.' ( ` f./.>XL.G.^.yXZXAXPXPXNX2.x & #       X & t %.$XJXKXKXPXPXCXlXlXbXaXkXbXAXDXDXPXPXLXLXLXLXLXLXKXKXLXLXLXLXKXDXvXpX{.).iXaXsXJ.' ' ' ' ' 8.9.8.( L H H H H H H H H ` ] J.).W.J.9.K J J ) ( ( W ) ^ *.:.:.r.b.v.v.k.2.<.%.3.1.2.1.<.3.&.$.$.$.%.3.<.<.<.1.k.v.v.v.v.v.v.b.b.r.r.i.i.i.2.2.2.k.b.v.v.k.k.v.C.V.C.C.b.v.r.<.&.O.O.m n v I %.2.2.2.2.2.2.2.2.2.2.2.2.Z.b.2.2.b.b.b.b.b.b.b.b.b.b.C.C.C.n.C.C.C.m.m.n.m.n.n.n.n.n.b.b.n.m.m.n.n.n.n.n.w.-.P g a a p a p y y y y t t y y y y y y y y y y y t t t t 3 t p a p p p p d G ! =.6.p.d.L.I.T.~./.Q.Q./._._._._.'._._._._.'.'.'._._.).)._././././._./././.Q.Q.Q.Q.",
"m.m.n.n.n.s.a.a.a.a.a.a.a.a.u.u.u.a.u.u.q.u.u.a.q.q.0.q.q.w.0.0.0.0.:.Q v g g c h v I Q Q +.:.b.V.$X-XqXtXtXhXzXNXNXCXCXCXNXNXNXNXNXNXCXCXCXNXNXhXyX-XV.b.b.i.i.2.r.2.2.2.2.2.r.r.r.C.E.-XwXtXtXtXtXtXtXtXtXtXtXwXwXwXqX-X$XOX$X$X&X-X1XqXqXqXqX8X8X1X8XqX1X1XqX8X-XE.$X$X$X$X-XqXtXNXhXwXqXwXNXVXVXSXVXSXSXSXVXVXVXVXVXVXVXBXNXhXtXtXNXNXNXNXNXNXNXNXhXeX3X,X*X:X,X4X4X>X>X>X4X4X4X,X:X<X^./.T.P.I.p.' ( ' 4.' E 7./.2X/.d.P.3XzXSXPXtXx                           X 2.PXKXLXHXZXZXAXbXlXvXDXDXPXLXf                         : PXAXfX[.{.sXsX[.] ` ] ' ' ' 9.9.' ( H H H H H H H H L ` ] U.).W.H.t.E J H ) ( ^ / ( =.;.:.2.r.b.b.k.2.<.3.,.<.1.1.<.<.<.$.$.$.$.%.<.<.1.1.2.k.v.v.v.v.v.v.b.k.2.2.r.i.r.2.2.h.k.v.k.h.h.k.v.C.V.V.V.V.V.C.2.%.O.&.&.O.Q &.2.2.2.<.2.2.2.2.2.2.Z.b.h.b.b.b.b.2.b.v.b.b.b.b.b.n.m.C.C.C.C.C.C.C.C.m.m.m.n.n.n.n.n.n.b.n.m.n.n.n.n.m.m.m.a.=.P h s f a a p y y a y y y y y y y y p y y y y y y y y y y y y y y p p 3 3 p d P ^ =.;.6.a.L.P.~./././.Q./._._.).)._._._.'._.).).Q.Q._./././.Q.Q.Q.Q.Q.Q.Q.Q.Q.",
"m.m.n.n.n.a.a.a.s.s.s.a.a.a.a.a.a.a.u.y.u.u.u.u.q.q.w.u.u.i.q.0.0.0.:.! v f f g Q +.@.-.>.2.b.V.!.&X-XqXwXtXtXzXNXNXCXCXCXCXCXNXNXNXNXCXCXNXNXzXhXwX-XV.i.2.2.>.2.2.2.2.2.2.2.r.k.r.b.V.-XwXtXtXtXtXtXtXtXtXtXtXtXwXwXwXqX8XqXwXqXqXwXwXwXqX8X1X-X-X-X-X-X-X-X-X&X$XV.V.V.V.C.OX1XwXNXtXwXwXtXNXVXVXSXVXVXVXVXVXVXVXVXVXBXBXBXCXCXNXNXNXNXmXhXzXNXNXNXhXyX,X*X^.*X:X4X4X4X2X4X4X4X:X~.I.~./.P.L.I.I.G.4.( 4.p.7.( L.4X4XP.L.:XdXVXPX,X                                  B HXLXLXPXPXDXvXcXvXDXPXPXPXX                         u LXDXcX[.[.iX[.K.[ ' 9.] ' ] t.9.` E H H H H H H H H K E 9.).'.).J.t.K D J U H H / ;.6.y.u.b.b.C.k.2.<.3.3.<.1.1.1.1.<.<.<.%.%.<.<.1.2.2.k.k.v.v.v.v.v.v.k.k.k.2.h.k.b.r.2.2.k.k.v.2.$.O.<.2.b.C.V.V.V.V.C.r.3.O.%.%.%.%.>.2.b.2.%.>.2.2.2.2.2.b.2.2.b.b.b.b.h.b.b.b.b.C.b.b.C.n.m.C.m.m.m.m.m.C.m.m.m.m.n.n.n.n.n.n.n.m.n.n.n.m.Y.Y.Y.Y.a.*.G s h a a p a a y y y p p y y y y p y y y y y y y y y y u y y p p y a p p a p p 7 7 G U =.p.I.~.(.Q.Q./././.).)._._.).'._._.Q.Q.Q.Q.Q.Q.Q.Q.U.U.U.U.U.U.U.U.",
"m.m.n.n.n.s.a.a.n.n.s.s.a.a.a.a.s.a.a.u.a.u.u.q.q.q.q.u.u.y.q.y.q.q.6.-.Q P P Q :.2.w.w.i.n.V.!.&X*X-X3XqXyXtXtXzXNXNXCXVXVXCXNXzXtXeXwXwX3X-X&X!.V.b.2.>.>.2.>.2.2.2.2.2.2.2.r.r.b.V.&XqXwXwXwXtXtXtXtXtXtXtXtXtXtXwXwXqX8X8XqXqXqXqXqX8X-X-X&X$X$X$X$X$XV.V.!.E.V.C.C.C.C.V.$X1XqXwXtXtXhXNXBXBXVXVXVXVXVXVXVXVXVXVXBXBXBXCXCXBXNXNXNXNXmXhXzXmXNXNXhXeX3X*X*X%X:X>X2X4X4X4X4X4X<XI.L.P./.P.L.L.I.L.7.( 4.p.7.' P.4X5XP.~.4XzXHXVX#     o                               n KXLXKXLXPXDXvXAXDXPXLX&X      o                   x LXPXxXiXsXiX).{ [ ] 8.' ] ] 9.] ` E H H H H H H H F K E ] ).{.).J.] A H H H J J G ^ 6.n.n.m.C.C.v.r.2.3.3.<.2.k.b.v.k.k.2.1.1.2.2.k.k.k.v.v.v.v.v.v.k.k.k.h.h.k.k.k.k.r.2.2.k.k.v.1...n ..&.3.r.C.C.V.V.C.b.2.&.&.&.&.&.>.2.b.2.2.2.2.2.2.2.2.2.2.2.Z.b.b.b.b.b.b.b.b.C.b.n.m.m.C.V.V.V.m.m.C.m.m.m.m.m.n.n.n.n.n.n.n.m.m.I.L.Y.Y.Y.~.Y.L.0.^ d h p a a a a y p p p y y y y y y p y y y y y y y y y y u y a p p p y a a a p p p 7 s G ^ 4.f.P.~./.Q.Q.Q.Q./.Q.Q._._.'.'._._.Q._.Q.U.U.U.U.U.U.U.U.U.U.U.",
"m.m.n.n.s.a.a.a.s.s.a.a.a.a.a.a.a.a.a.u.u.u.u.u.a.y.q.u.i.q.y.u.y.y.0.:.:.*.-.:.u.b.b.b.n.V.!.%X-X-X-X3X3XyXwXtXtXhXzXNXCXCXzXyX1X*X$X$X!.V.b.w.2.2.2.2.2.2.2.>.2.2.2.2.2.2.2.r.k.V.&XqXwXwXwXtXtXtXtXtXtXtXtXtXtXtXwXwX8X8XqXwXqXqXqX8X-X&X$XE.V.V.V.V.C.C.C.C.C.C.C.C.C.V.E.$X-X1X3XwXtXNXNXNXNXCXVXVXVXVXVXVXVXVXVXVXVXVXBXCXBXNXNXNXNXmXhXhXmXmXhXzXhXeXyX3X*X:X:X:X>X4X4X4X4X>X^.~.^.^.~.T.I.d.d.p.( ( ' ' ( d.~./.I.%XeXZXPXb.                                        $XKXKXLXLXPXAXDXPXLXLX&.                          x LXPXZXfXaX[.J.] ' ] ] ` ] ] 9.] ` E H L H J H H H H L E ` U.{.}.Q.] E ' ^ U J D J W 5.u.n.m.V.C.v.r.2.<.<.2.C.V.V.V.V.C.v.v.v.v.v.v.v.v.v.v.v.v.v.k.k.k.k.h.k.k.v.v.k.k.r.k.k.k.v.1...n n n m &.<.b.C.C.b.b.2.O.n x x m &.2.2.2.Z.2.2.2.>.2.2.2.2.2.b.b.b.b.b.b.C.C.C.C.n.m.m.m.m.V.V.V.V.m.m.m.m.m.m.m.n.n.n.n.n.n.m.m.L.Y.Y.!.~.~.~.~.Y.n.6.^ h p p a a a y a p p y y y y y y y y y y y y y y u u y y y y y y a y y p a a p h p s d s J ( d.~./.(.U.Q.Q./.Q.Q.Q.)._._._.Q.U.U.Q.Q.U.U.U.U.U.U.U.U.U.U.",
"L.m.n.s.s.s.s.s.s.s.s.a.a.a.a.a.a.a.a.u.u.u.u.u.q.q.q.q.q.y.y.y.i.i.i.0.0.0.i.b.n.n.n.m.V.$X&X*X-X-X-X1X3XqXwXwXtXtXzXNXNXtX3X&XV.m.b.i.i.2.:.2.>.:.2.:.2.2.2.2.>.2.2.2.r.2.2.b.V.&XqXwXwXwXtXtXtXtXtXtXtXtXtXtXtXtXwXwXwXwXwXqXqXqXqX-X&XE.V.V.C.b.b.b.b.b.b.b.b.b.C.C.C.V.$X&X3X-X-X1XwXhXhXmXNXCXVXVXVXVXVXVXVXVXVXVXVXBXBXBXNXNXNXNXNXNXmXhXmXhXhXhXzXzXeXyX3X,X:X:X>X4X4X4X3X:X>X:X<X~.P.T.I.I.d.p.6.( ) ) ( 7.L.L.~.,XzXSXKX&                                         t KXKXLXLXPXDXPXPXLXLX#                           n KXPXZXlXiX).F.] ] ' ' ' ' ] ] ' ` L L L H H H E L H L ( ' H.'.[.Q.8.' p.8.^ ) H H ) =.y.m.V.V.C.C.r.2.2.r.C.OX$X$X$XOXV.V.C.C.v.v.v.v.v.v.v.v.v.k.k.k.k.2.k.k.l.k.k.k.k.k.k.v.v.v.1.O.n M b M M &.>.2.b.b.b.2.Q f u N m &.>.<.<.2.2.2.2.>.>.2.2.b.2.b.b.b.2.2.2.b.C.C.b.n.m.n.m.V.V.V.m.m.m.m.m.m.m.m.m.n.n.n.n.n.n.n.m.I.P.~././././.~.~.P.d.5.U s p s h p a a p p p p y y y y y y y y y y y y y y y y y y p p p p p p t p p a a a s 8 8 J 7.T./.(.Q.U.Q.Q.Q.Q.Q.Q.Q.Q.Q.Q.Q.U.Q.Q.Q.U.U.U.U.U.U.U.U.U.",
"Y.m.n.n.s.s.s.s.s.s.a.a.a.a.a.a.a.a.a.a.u.u.u.u.a.u.y.q.y.y.y.y.i.i.i.u.u.u.n.n.n.m.m.Y.$X*X*X*X*X-X-X-X3XqXyXwXeXtXfXfXtX3X$Xm.i.w.2.:.2.2.:.:.2.2.2.:.2.>.2.:.2.:.2.2.2.2.b.V.&X1XwXwXwXwXtXtXtXtXtXhXtXtXtXtXtXtXwXwXwXwXwXwXqXqX3X-X$Xm.b.C.b.b.i.b.b.b.b.b.b.m.C.C.C.C.E.&X1X1X1XqXwXtXhXNXNXNXCXVXVXVXVXVXVXVXVXVXVXBXBXBXCXNXNXNXNXNXNXNXNXNXNXNXNXzXtXeXyX3X3X,X>X2X4X4X>X:X:X:X^.I.L.I.I.L.L.d.7.( ) ) ( 6.d.L.^.4XCXHXHXX                   &XNX>.                o CXLXLXKXLXPXPXLXLXqX                            n LXPXZXdX[.J.t.] 9.' ' ' ' ' ' ` E L H E L H H W U H L E ` t.Q.'.).9.' p.7.4.( ) ) ^ =.0.n.V.V.V.C.r.2.r.v.E.;X&X;X;XOXOXV.B.C.C.v.b.v.k.k.k.k.k.k.k.k.k.k.k.k.l.l.l.l.k.v.v.C.C.C.2.$.m b M M n m O.%.2.b.b.>.m u N v &.3.3.%.%.%.2.2.2.2.>.2.b.2.2.2.h.2.%.%.>.b.C.C.C.m.m.n.m.V.V.V.V.m.m.m.m.m.m.m.m.m.m.n.n.n.n.n.m.I.!./.^.^.^./././.~.I.a.=.U s p p a a a p a a y y y y y p p y y y y y y y y y y y y y y y y p p p p p p a a a p 8 D 4.d.~././.Q.U.Q.Q.Q.Q.Q.Q.Q.Q.U.Q./.Q.Q.U.U.U.U.U.U.U.U.U.J.",
"Y.L.n.d.d.s.d.s.a.a.a.a.a.a.a.a.a.a.a.a.a.a.u.u.u.u.q.q.y.u.y.y.y.y.i.u.u.u.n.n.n.m.Y.!.%X*X*X&X$X%X&X*X,X3XyXwXwXtXtXwX,X$Xn.2.:.2.2.2.2.2.0.2.:.:.:.>.>.-.>.>.2.>.>.>.2.b.!.*XqXqXqXqXwXwXtXtXtXtXhXhXhXhXtXtXtXtXwXwXwXwXwXqXqXqXqX*XV.b.b.C.b.b.i.i.i.b.b.b.b.b.b.b.b.b.V.$X-XqXqXwXwXtXhXNXNXNXNXCXVXVXVXVXVXVXVXVXVXBXBXBXCXBXNXNXNXNXNXNXNXNXNXzXzXhXtXtXeXyX4X5X4X4X4X,X%X^.:X%XY.p.7.d.I.I.L.n.p.4.( ) ( 4.q.d.%XeXCXPXtX                  x KXKXHX                  $XKXKXLXPXPXPXLXKX+.                            m LXPXZXpX).G.t.] ' ' ' ' ' 8.' ( L H L E ) L U W U Y H H H ' G.J.G.( K ( ( ( =.( U ) / :.u.m.V.E.V.v.k.C.V.OX;X=X&X;XOXV.V.B.C.C.v.v.b.k.h.2.2.h.k.k.k.k.k.k.k.v.v.v.k.k.v.v.B.V.V.v.1.O.n M n m x v m &.2.2.<.O.n } %.2.r.2.>.%.%.2.b.2.>.%.%.2.2.2.2.2.>.%.%.%.Z.C.C.C.m.m.m.V.V.V.V.V.V.m.m.m.m.m.m.m.m.m.m.m.n.n.n.m.I.~.^.^./././.Q././.T.I.p.=.G s p a a a a a p y y y y y y y y y y y y y t t y y y y y y y y y y y t y p a a a p 8 d L 4.f.I.~.~.~.Q.Q.Q.Q.Q./.Q.U.U.U.Q.Q.Q.Q.U.Q.U.U.U.I.I.I.I.",
"!.P.m.n.d.d.d.a.a.a.a.a.a.a.a.u.a.a.a.a.a.a.u.u.y.q.q.q.u.u.u.y.y.y.u.u.u.i.i.u.n.Y.!.!.!.Y.Y.Y.Y.!.$X&X-X3XqXwXyXeXyX3X$Xm.i.2.2.2.2.w.2.2.2.2.2.2.:.:.:.w.i.b.2.>.:.b.m.$X-XqXqXqXqXqXwXwXwXwXtXtXhXhXhXhXtXtXtXtXwXwXwXwXqXqXqXqX3X&XV.C.C.V.n.b.b.i.i.i.i.i.b.b.b.b.b.b.V.$X-XqXwXwXwXtXtXNXNXNXNXCXVXVXVXVXVXVXVXVXBXBXBXCXBXNXNXNXNXNXNXNXNXNXNXhXtXtXwXyXyXyX3X3X4X4X2X%XI.Y.*X:XY.p.7.d.I.I.L.n.g.7.' ) ) / 4.a.!.eXCXHX-X                  %.KXLXKX&                 2.KXKXLXPXPXLXLXKX#                             m KXPXZXpXQ.H.t.] ` ` ` ' ' ' ` E L H W ( ) W U U U G Y J D K ' 9.t.` E ( U U U H H W ( 6.n.V.E.$XOXE.V.OX$X&X=X=X;XOXOXV.B.C.C.v.v.v.b.b.h.2.h.h.k.k.v.v.v.v.v.v.v.l.k.k.v.B.V.OXOXV.r.%.m n m m n x x x O.>.2.2.>.<.2.b.b.b.i.2.2.b.b.b.>.&.&.2.2.2.2.2.2.2.2.2.b.C.C.C.m.m.m.V.V.V.V.V.V.m.m.V.m.m.m.m.m.m.m.n.n.m.n.m.I.P./.^._._._././.Q.~.U.L.y.=.P h f f a a a y y y y y y p y y y y y y y y y y y y y y y y y y t t t y p p p a p p 8 d H ( 7.d.I.P.~.~.~.Q.Q.Q.Q.Q.U.U.U.U.U.Q.U.U.U.U.U.U.I.I.I.",
"^.~.L.n.n.d.d.d.a.a.a.a.a.a.u.u.a.a.a.a.a.a.u.u.u.u.u.u.u.u.u.u.y.u.n.m.m.n.n.n.Y.Y.Y.V.m.m.V.Y.Y.!.$X*X-X,XqXyXeXyXqX*XV.b.w.w.w.2.2.w.2.:.:.2.w.i.w.2.i.V.$X*XV.b.C.!.*X3XqXqXqXqXqXqXwXwXwXwXtXtXtXtXtXtXtXtXtXwXwXwXwXqXqXqXqXqX-X$XV.b.b.C.m.b.b.b.b.b.b.b.b.b.b.C.V.V.E.$X-X1XwXwXwXtXtXmXNXNXNXCXVXVXVXVXVXVXBXBXBXBXCXBXNXNXNXNXNXNXNXNXNXNXhXtXwXwXwXqXyX3X3X3X3X5X:X~.n.I.%X,X%Xn.a.L.P.I.L.n.d.y.4./ W W ( y.!.yXCXHX$X                  %.KXLXKX#                 %.KXLXPXPXPXLXKXwX                              m KXPXZXpX/.G.t.' ` ` ` ' ' ( ( ) U U ) ( ( W L H U P Y J D D H ( ` E ( ' ( ^ ) ^ W / 5.u.n.V.V.E.$X$X$X;X&X&X&X;X$XOXV.V.V.C.v.v.v.b.h.h.h.h.b.b.k.b.b.v.C.C.v.v.v.v.l.v.v.B.OX$X$XV.v.3.m m m v m v x x m %.2.b.2.2.2.b.b.C.b.b.b.C.C.b.2.%.%.2.2.2.2.2.b.b.b.C.C.C.C.C.m.m.V.V.V.V.Y.Y.V.V.m.V.V.m.m.m.m.m.m.m.m.m.n.L.I.P.Q./._._._._././././.U.L.y.=.G h g f a a a p p y y t y y y y y y y y y u u u u u u u y y y t t t y p y y p a p 8 8 s D U ( 6.f.I.P.I.H.H.H.I.U.Q.U.U.U.U.Q.Q.U.U.U.U.U.I.H.H.",
"*X(.I.m.n.n.d.s.a.a.a.a.a.a.u.u.a.u.u.u.u.u.u.u.u.u.u.u.u.u.u.u.a.m.Y.!.!.Y.Y.!.$XY.V.n.n.m.Y.$X%X*X*X-X,X3XqXyXeXyX,X$Xn.w.2.w.w.2.2.0.2.:.:.2.i.b.b.i.n.!.*X,X$X!.$X-X3XqXqXqXqXqXqXqXwXwXwXtXtXtXhXtXtXtXtXtXwXwXwXwXwXqXqX3XqX3X&XV.C.b.b.b.b.i.i.b.n.n.n.n.b.b.C.V.$X&X&X&X-X1XqXwXwXtXtXhXmXNXNXCXBXVXVXVXVXVXBXBXBXCXBXNXNXNXNXNXNXNXNXNXzXhXtXtXtXwXyXqX3X3X3X,X,X,X:X%XY.Y.*X,X*XY.n.L.P.I.I.n.n.g.6.( W ) / y.!.3XCXHXV.                  %.LXKXKX%                 O.KXLXPXDXPXPXKX%.          #                   m KXPXZXpXQ.t.8.` ` ` ' ` ( ( ( ) ) ) ( ( ( U L H H H U H J J F H E K E ` 4.=.^ ! ) / ;.y.n.C.C.m.$X&X&X$X$X$X$X$XOXE.V.V.C.C.v.v.b.2.2.2.r.k.b.b.b.b.C.C.C.C.v.v.v.v.k.v.M.V.OX&X$XE.v.<.O.m v c c x x v m &.2.b.b.i.b.b.b.b.b.b.C.C.C.v.k.2.2.b.b.b.i.b.b.b.C.C.V.C.C.C.V.V.V.V.V.V.Y.Y.Y.V.L.Y.L.L.L.L.m.m.m.m.L.L.L.I.P.U.Q./._._._._._._._./.^.U.L.7.^ G h a f a a a p y y y y y t y y y y y y y y y y y y y y u u u u y y y t y y p p p 7 7 8 8 d H ( 7.p.p.4.4.8.p.G.P.Q.Q.U.U.Q.U.U.U.U.U.U.H.H.H.",
",X%XY.m.n.n.d.d.s.s.a.a.a.a.a.a.a.u.u.u.u.u.u.u.u.u.u.u.u.u.u.n.m.Y.!.%X%X%X%X%X&X$XV.m.m.Y.$X*X*X-X-X,X,X3XyXyXyX3X%XV.n.0.0.w.0.:.:.2.:.2.:.2.i.i.u.b.b.V.!.$X$X%X*X-X3X3X3X3X3XqXqXqXyXqXqXwXwXtXtXtXtXtXtXwXwXwXqXqXqXqXqXqX3X-X!.m.b.b.b.b.i.w.w.i.n.n.n.n.b.C.V.$X-X-X-X-X-X3XqXwXwXtXtXtXmXNXNXCXBXVXVXVXVXVXCXCXCXNXNXNXNXNXNXNXNXNXNXNXhXtXtXwXwXwXyXqX3X1X-X-X*X*X*X*X%X!.*X*X*X!.P.I.I.P.I.m.d.d.q.4./ / ;.7.Y.3XzXSXV.                  O.KXLXLX%                 O.LXLXPXSXPXLXPX&           >.                  n LXPXZX5XQ.t.' ` ` ` ` ( ) ) ( ) ( ) ( ( ( L L H L U W ) ) ) U ) E E E ' 8.4.( =.W W W *.:.:.2.i.V.$X*X$X$X$XOXOXV.V.V.V.C.C.b.b.r.2.2.2.2.2.i.b.b.C.C.V.C.C.C.v.v.v.v.v.B.E.OX&X&XOXC.2.&.m v c c c M v m O.>.2.i.2.2.2.i.b.b.b.b.C.C.C.b.v.v.C.C.b.i.2.2.i.b.C.V.C.V.V.V.V.V.V.Y.Y.Y.Y.I.Y.Y.Y.I.I.I.I.Y.Y.Y.Y.I.P.P.P.U.Q.Q._._._._._._._._./././.P.d.5.^ G h h h h a p y y y y y t y y p p y y y y y y y y y y y a a a y y y y y y y p p y y y 3 7 p G W ) ^ H G H ) 4.d.I.~.Q.Q.U.U.Q.U.U.U.U.U.H.H.",
"yX,X!.L.m.n.n.n.s.s.s.a.a.a.a.a.a.u.u.u.u.u.u.u.u.u.u.u.u.u.n.m.!.%X*X*X*X*X-X-X*X&X$XY.Y.$X*X*X*X*X-X-X,X3XyXeX3X*XY.n.u.0.0.0.5.0.0.0.i.i.i.i.w.2.:.:.>.>.2.u.!.*X3X1X1X3X3X3X3X3XqXqXqX1X-X-XqXwXtXtXwXwXwXwXqXqXqXqXqX3X3X3X3X*X!.C.b.m.m.m.i.2.0.i.b.b.b.b.b.V.!.&X-X-X&X&X-X3XqXqXwXwXtXtXmXmXNXNXBXCXBXBXVXVXCXCXCXNXNXNXNXNXNXNXNXNXhXhXtXtXtXwXwXwXqXqX3X-X-X-X*X*X*X*X%X!.%X%X*X!.!.L.I.P.I.n.d.d.p.7.;./ / 6.L.,XtXCXb.                  O.LXKXKX#                 2.KXLXHXDXPXLXtX            &X                  m LXPXxX2XQ.t.' ` ` ` ` ( ) ) ( ( ( E ( ( ) L L L U ( ( ( ' ' ( ( ( ( ` e.p.8.=.=./ W G P ! -.-.>.i.E.$X$XE.E.V.V.V.V.V.C.C.C.b.b.r.2.2.2.2.r.r.b.C.C.V.V.V.C.v.C.v.v.v.C.B.OX$X&X&X$XV.k.%.m v v m v v v m Q %.2.<.+.m O.2.b.b.b.b.b.C.C.V.C.C.V.C.b.w.>.>.2.b.C.V.C.V.V.V.V.V.!.!.Y.Y.Y.Y.Y.Y.Y.P.P.Y.Y.T.T.T.T.~./.(.(././._.'.'.'.'.'._.'.'._./././.T.d.4.^ J d d g h p y y y y y t y y a p y y y y y y y y y y y y u u u y y u u y y y y p p p p p p p p p p s s s d U 6.m.Y.Q.U.U.U.U.U.U.U.U.U.U.H.",
"dX5X*XT.L.n.n.d.s.a.a.a.a.a.a.a.a.a.a.a.a.a.u.u.a.u.u.a.s.n.m.V.!.!.%X*X*X*X*X*X*X*X*X*X*X-X-X-X*X-X-X-X,X,X3XyX3X*XV.n.u.u.u.u.a.m.I.!.*X,X3X3X*X&X!.V.V.V.!.*X*X-X-X-X*X*X-X-X3X3X3X3X-X&X!.$X-XqXwXwXwXwXqXqXqXqXqXqX3X3XqX3X3X*X!.m.C.n.n.n.u.u.u.u.i.i.u.u.b.V.!.$X&X*X*X-X1X3XqXwXwXwXwXtXmXmXNXNXNXBXBXBXBXVXBXCXCXNXNXNXhXhXzXNXNXhXtXtXtXwXwXwXqXqXqXqX-X-X-X*X$XY.Y.!.!.!.!.^.^.!.P.m.n.L.L.d.g.g.y.6.4./ ;.5.n.*XyXxXtX!.&X-XqXqXqXqXqXqXCXKXKXKX                  V.KXPXPXPXPXLX2.          # tX                  m LXPXCX5XU.t.' ` ` ( ( ( ) W ) ( ( ( ( ( ( ( ( ` ( ( ( ( ( ( ( ` ` ` ( ( 4.4.4.4.^ W U U P P Q @.2.m.!.!.E.V.V.V.C.C.C.C.b.b.i.r.i.r.2.2.r.r.r.b.k.v.C.C.C.V.V.V.C.v.C.B.OXOX;X;X;XOXE.b.3.} v v v v v v v m Q &.&.Q v m %.i.b.b.b.1.1.v.C.V.V.V.C.b.n.b.w.w.b.n.m.V.V.V.V.V.V.V.!.Y.V.Y.Y.Y.Y.Y.Y.T.T.T.~.~.~.~.Q.(./._._._._._.`.`.`.'._._._._._././.Q.P.L.7.^ U s y p a f u y y y t t y u p p p p p y y y y y y y y y u u u u u u u u y y y y y y p p p p p p s s a s P *.q.m.P.T.T.T.U.U.U.U.U.U.U.U.",
"zXyX:X~.Y.m.n.n.s.s.s.a.a.a.a.a.a.a.a.a.a.a.u.u.a.u.u.u.n.n.V.!.!.%X*X*X*X*X*X%X$X*X*X*X*X*X*X&X*X-X-X-X3X3X3XyXyX3X3X3X3X3X3X3X,X3X3XyXeXfXtXeXeXyX3X3X*X*X&X%X!.!.%X%X&X&X%X%X*X*X*X*X$XE.V.V.&X3XwXyXwXwXqXqX1X3XqX3X3X3X3X3X*X!.V.C.b.u.u.n.b.u.u.u.i.i.i.u.b.V.$X&X&X*X-X-X-X1XqXqXqXwXwXwXtXhXNXNXNXBXBXBXCXBXCXCXCXNXNXNXhXhXhXhXhXtXtXtXwXwXwXqXqX3X3X3X-X-X-X*X$XV.m.m.!.!.!.!.!.!.I.m.m.L.L.s.p.p.y.y.;./ / ;.y.L.*XeXCXCXSXHXPXLXLXLXKXLXLXKXKXNX                  NXLXLXPXPXLXLXw           %.tX                  m LXPXxX3XU.t.' ` ( ( ) ) W W ) ( ( ' ( ( E ( ' 8.' ' ' ' ( E ) ( 8.' ( ( ` 4.4.5.^ ) W W W W @.2.b.V.!.E.V.V.V.C.b.C.b.b.b.b.i.r.i.i.r.r.r.i.b.b.k.v.C.C.C.C.C.C.k.b.B.E.OX;X$X$XOXOXE.b.3.} v v v v v v v v m Q O.Q v Q >.i.b.i.2.O.} <.v.V.V.V.C.C.V.n.i.w.b.C.C.C.V.V.V.Y.Y.Y.Y.Y.Y.Y.Y.Y.Y.!.~.~.~.~.~./././././._._.'.`.`.`.`.`.`.`.`._._._._./././.Q.T.L.y.=.G s p a a f u u y y y y y p p p p p y y y y y y y y y u u u u u u u u y y y y y y p p p p p p s s s p s P =.q.d.I.P.P.T.U.U.U.U.U.U.U.",
"zXeX3X%XY.m.n.d.d.s.s.s.s.a.a.a.a.a.a.a.a.a.a.a.a.a.u.u.n.m.Y.!.!.%X%X%X%X%X%X%X$X&X*X*X*X*X$XY.$X*X-X,X3X3XqXyXyXyXeXfXzXzXzXzXeXeXeXeXeXeXyXqX3X,X3X3X3X-X*X!.V.m.m.m.!.!.!.!.V.E.!.!.V.m.C.V.$X-X1X3XqXqXqXqX1X1X3X1X1X1X1X*X!.V.C.b.i.i.i.u.b.u.u.u.u.i.u.b.m.!.&X&X&X*X*X-X-X-X-X1XqXwXwXwXtXtXhXNXNXNXNXNXCXCXCXCXCXNXNXzXzXtXtXtXwXwXtXtXwXyXqXqXqX3X3X1X3X1X3X-X&XY.m.m.!.!.Y.m.m.Y.m.n.L.I.L.d.p.p.y.y.;./ ) ( 6.g.P.:X4XzXCXZXHXPXLXPXLXKXKXLXHXu                 O.KXPXPXHXPXPXtX            &XtX                  m LXPXCX3XU.t.' ` ( ( ) W W W W / ( ( ( ) E ` 8.9.8.8.' ' ( E ( ` 8.' ( L ` 4.4.4.( ) ) ! / *.2.n.V.E.V.V.V.m.C.C.b.b.b.b.b.b.i.i.i.i.i.i.i.i.b.b.k.v.C.C.C.v.v.r.2.b.E.$X=X=X$XOXOXOXV.b.3.} m m v v v v v v n m Q m m O.2.b.b.i.2.O.n &.2.C.V.V.V.V.V.V.b.b.b.b.b.b.C.V.V.Y.V.V.Y.Y.Y.Y.Y.!.~././././.^.^.^.^.^._._._.`.`.`.`.`.`.`.`.`.`.`._._._._._./././.T.L.y.=.G s a a f a a a a u y y y p y y y y y y y y y y y y u u u u u u u y y y y y p p p p p p p p a a p p p d U *.7.d.L.L.I.P.U.P.P.P.U.U.",
"zXeX3X%XY.L.n.n.d.d.d.s.s.s.a.a.a.a.a.a.a.a.a.a.a.a.a.u.n.m.Y.!.!.!.!.!.!.%X%X%X%X*X*X*X*X%XY.V.!.*X-X-X,X,X3XyXeXeXeXtXfXfXfXdXeXeXyX3X3X,X%X!.!.!.%X*X*X*X%X!.m.n.i.u.n.C.C.C.C.C.C.C.C.b.C.V.$X$X&X&X&X-X-X-X-X-X-X-X-X1X-X%X!.m.n.n.b.i.i.u.u.u.u.u.u.u.n.n.V.!.$X$X&X&X&X&X*X-X-X-X3XwXwXwXwXwXtXtXhXNXNXNXNXNXNXCXNXNXNXNXNXtXqX1X-XqXyXeXwXwXqXqXqX3X3X-X-X-X-X-X*X!.Y.V.!.Y.m.u.u.s.n.s.L.I.I.L.d.s.y.y.;./ ) ' 7.p.d.P.^.3X4XdXCXSXPXPXx & & #                   u JXLXPXHXHXPXLXZ.            CXtX                  m LXHXxX3XT.p.8.` ( ( ) E W W ) ( ( ( U H E ' 9.9.8.8.` ` _ ` ' 9.9.' ` ( ` 8.' ( ( ) ^ / / @.:.u.V.V.m.m.m.C.C.b.b.b.b.b.b.b.b.b.i.i.i.i.r.i.b.b.b.v.v.v.v.C.b.r.k.C.$X=X=X&X$XOXE.E.B.r.%.m m m m v v v m v m m I v m O.>.i.b.b.b.2.>.1.r.b.m.V.!.!.Y.m.b.b.n.b.:.2.b.m.V.Y.Y.Y.Y.Y.Y.Y.!././././.^.^.`.%X`.`.`._.`.`.`.`.`.`.`.`.`.`.`.`.`._._.'._._./.Q.Q.U.T.L.p.=.U g h f p a a f a u y y y y y y y y y y y a y y y y u u u u u u y y y y y y y p p p p p p p p p p p p d U =.6.q.p.f.d.L.L.L.L.L.I.",
"zXeX3X*X!.I.L.n.d.d.d.d.s.s.a.a.a.a.a.a.a.a.a.a.a.a.n.n.m.Y.!.Y.!.!.!.!.!.%X%X!.!.%X%X%X%X$X!.Y.Y.*X*X-X-X,X3XqXyX3X3X,X*X*X*X,X3X3X3X*X%XY.u.i.i.n.V.%X%X*X,X-X%X!.C.n.b.n.b.b.n.b.b.b.n.n.n.C.V.V.V.V.V.!.!.$X&X&X*X-X-X1X*X$XV.m.b.n.n.n.u.u.u.i.i.u.b.n.m.V.!.!.Y.V.V.$X&X&X&X-X-X-X1X3X1X-X-X-X1XqXtXhXzXhXNXNXNXNXNXNXCXNXzXqX&X!.!.&X3XyXqXqXqX3X3X1X-X-X-X*X*X-X*X!.Y.m.Y.Y.n.i.6.0.y.y.d.m.I.I.L.s.y.;./ / / ( 4.7.7.p.G.P.^.4XdXCXSXPX%                   X   b.KXKXKXLXHXPXPXKXB           # LXtX                  m LXHXxX3X~.f.8.' ( ( ) E E E ( ( ` ( L K E ` ' ' ` ` ` ` ` ' F.G.F.9.` ` 8.8.' E ( ( 4.( P g P -.n.V.m.C.b.b.b.b.b.b.b.b.b.b.b.b.i.i.r.r.2.r.r.r.b.b.k.2.b.C.V.V.V.$X=X=X-X;XOXE.E.V.C.2.&.m v v v v v v v v v m v v v Q &.:.i.b.b.b.b.b.b.b.b.V.V.V.n.w.:.0.b.b.>.>.i.b.m.V.Y.Y.Y.Y.Y.Y.~.^.^.^.`.`.`.<X%X`.`.`.`.`.`.`.`.`.`.`.`.`.`.`.`.`.`._._._._._./././.Q.U.I.d.q./ P d p p p a f a y t y y y y y y y p p a a y y y y y u u y y y y y y y y y y y y p p p p a p p p y p s J G U ) / =.4.5.4.8.7.p.",
"fXeX3X*X~.P.L.n.n.n.d.d.d.s.s.a.a.a.a.a.a.n.n.n.n.m.m.m.I.~.!.L.P.!.!.!.Y.Y.m.n.n.m.m.Y.Y.!.!.Y.$X*X-X-X3X3X3XyXyXyX3X*X!.!.!.*X,X,X*X!.m.u.:.:.u.m.%X*X%X!.!.!.m.n.u.u.u.n.n.n.b.b.b.b.n.n.n.n.m.m.n.b.m.m.m.V.V.$X*X-X-X&X!.!.m.n.u.u.b.b.u.u.u.u.u.u.n.m.Y.Y.!.!.m.b.b.V.$X&X&X-X-X-X*X&X$XV.C.C.V.$X3XwXtXtXhXhXNXNXNXCXCXNXqX&Xm.b.i.m.$X-XqXqX3X-X-X*X*X&X*X*X*X-X*X%X!.Y.m.m.n.y.0.6.6.6.q.y.s.d.d.y.;./ / / ( / ( 4.4.7.f.d.P.<X5XzXSXPX#                     # V.JXKXLXLXPXPXLXNX            O.KXtX                  m LXHXxX4X~.f.8.' ` ( E E E E ` ' ' ` ` ` ` ] ] ] [ [ [ ] ] 9.F.R.G.S.] ' 9.8.' ` 4.6.7.4.U d v @.b.V.V.m.b.b.b.i.b.b.b.b.b.b.i.i.i.i.r.r.r.r.r.b.b.k.2.3.2.b.V.$X&X-X-X-X&XOXE.V.V.V.b.>.Q m m v v v v v v v v v I I I I Q @.:.i.b.b.C.C.b.b.b.m.V.V.V.b.0.b.V.V.C.C.m.V.V.Y.Y.Y.Y.Y.Y.Y.~.^.^.^.^.`.`.%X`.`.<X<X`.`.`.`.`.`.`.`.`.`.`.`.`.`.`.`.'._._._._._._./././.T.L.q.=.U g a p p a a u y y p y y y y p p p p p y y y y y y y y y y y t y y y y y y y y p p p p p p p p 7 y 7 7 7 s J d d G G H U ) ",
"eXyX3X:X%X~.I.n.n.n.n.n.d.d.s.a.s.s.s.s.n.n.m.m.m.L.I.I.Y.Y.P.P.!.!.!.Y.n.u.q.0.:.0.q.i.n.n.m.m.Y.%X%X%X*X,X3X3X3X3X*X%XY.m.V.Y.Y.m.n.i.:.-.:.i.m.!.*X%X%XY.n.n.n.C.n.u.u.u.u.u.b.n.b.n.n.n.n.n.n.n.b.n.m.m.n.m.V.!.%X*X*X!.Y.V.V.n.i.i.i.u.u.u.b.b.n.n.m.V.V.V.Y.!.m.b.u.m.!.&X&X$X$X!.V.C.b.b.2.2.i.V.-XwXtXwXtXtXhXzXNXNXNXwX$Xm.i.2.2.i.V.$X-X-X*X&X$X!.!.!.!.&X*X*X*X%X!.!.Y.m.n.u.i.0.6.:.5.6.7.y.7.5.;./ / / ( / ( 4.6.p.p.d.L.^.5XCXSXPX&                         & CXKXKXLXLXLXb.            &XLXwX                  m LXHXxX3XQ.f.8.` ' ( ) E E ` ' ] 9.] ] 9.F.F.F.F.F.F.F.S.D.D.F.F.F.F.9.9.' ` ' ' 7.p.p.6.*.*.:.i.V.!.V.m.C.b.b.i.i.b.b.b.b.i.i.i.r.r.i.i.b.b.b.b.v.b.2.&.&.2.V.$X&X&X$X$XOXE.V.V.V.C.r.%.Q m m v v v v v v v v I Q Q Q Q Q Q @.>.2.b.b.C.m.m.m.V.V.Y.!.Y.m.Y.!.Y.C.C.m.n.b.m.Y.Y.!.Y.I.L.I.Y./.^.^.^.^.^.`.`.<X<X`.`.].`.`.`.`.`.`.`.`.`.`.`.`.`.].'.'.'._._._././././.T.L.a.5.^ G d p a a p p p p p p p y y y y p y y y y y y y y y y t t t t t y y y y y y y y t p p p a p y p p p p s h a p s s s s s ",
"eX4X3X:X*X^.P.n.n.n.n.n.d.d.d.s.s.s.n.m.m.m.L.I.I.Y.Y.Y.Y.~.(.(.%X*X*XY.a.0.5.:.:.:.:.:.:.0.i.a.n.m.m.m.!.%X%X%X*X%XY.m.m.n.b.b.u.i.0.:.:.:.u.m.!.*X%X!.V.n.u.n.u.n.n.n.u.u.u.u.i.b.n.n.n.n.n.n.n.n.b.n.n.n.n.n.m.Y.!.%X*X!.Y.!.!.m.u.w.2.i.u.u.u.b.n.V.!.!.V.m.m.Y.Y.m.b.C.V.$X$X!.V.b.i.2.2.2.2.2.2.V.-XwXwXwXtXtXtXzXzXNXtX-XC.i.2.2.2.:.b.V.$X$X!.V.m.b.b.b.m.Y.&X*X%X%X!.!.Y.n.u.i.0.0.6.:.;.5.5.6.4.;.=.*./ / / / ;.6.q.s.n.T.!.,XeXCXSXPX#                           r LXKXKXKXLXi             CXKXwX                  m LXHXxX3XQ.f.' ` ' ( E E _ ` ] 9.F.F.F.F.F.F.F.K.F.F.F.D.D.F.F.F.F.F.S.9.[ _ ` ' p.t.7.4.6.u.n.m.V.!.V.m.b.i.i.i.i.i.i.b.i.i.r.r.r.r.i.b.b.b.C.C.C.C.r.&.m %.b.V.E.E.E.E.E.E.V.C.C.C.r.%.Q m I v v v v v v v m I I I I I I I Q &.2.i.b.m.m.m.V.E.Y.!.!.!.!.!.!.I.C.n.m.b.w.b.Y.Y.!.Y.L.n.n.I.~.^.^.^.^.^.^.`.<X<X<X<X].].`.`.`.`.`.`.`.`.`.`.`.`.].'.'.`.'._._././././.~.~.P.n.6.W G s a f a p p p p p p y y y y p y y y y y y y y y y y t t t t t y y y y y y y t p p p p 3 3 p y a p p p p p a s s s s ",
"yX3X3X,X,X%XT.L.n.n.n.d.n.n.d.d.n.m.L.m.m.I.Y.Y.Y.Y.Y.!.!.~.~.~.%X%X~.L.y.5.5.6.6.5.:.;.;.:.5.6.0.y.u.a.n.n.m.m.m.n.u.i.i.i.0.w.0.:.:.0.i.n.I.!.*X%X!.m.n.n.n.n.u.u.n.n.u.u.u.a.n.n.n.n.n.n.n.n.n.n.u.u.n.n.n.n.m.Y.!.%X%X!.Y.!.!.Y.n.u.i.u.u.u.u.C.V.!.!.!.m.C.m.Y.!.V.n.n.m.V.V.b.i.2.2.2.2.2.2.2.i.m.&XqXwXwXwXeXtXtXzXtX1X$Xb.i.2.2.2.2.2.b.m.m.n.b.i.i.w.w.u.n.m.!.%X!.!.Y.I.m.u.0.0.0.6.:.5.q.y.7.;.( / *.^ ! / ( ;.7.s.L.^.*X3XeXzXVXHXPX#                             &XKXKXKXCX            # KXKXwX                  m LXHXCX4XQ.f.8.' ` ( ( ( ` ' ] F.F.F.F.F.F.F.D.D.D.D.D.D.F.K.K.K.F.F.F.S.' E ` 9.f.f.p.7.y.n.m.V.V.V.m.n.u.u.u.i.i.i.i.b.i.2.2.2.2.i.b.b.C.C.C.C.V.C.b.<.m m 3.C.V.V.V.V.V.V.C.C.C.C.2.%.m m Q c c v v v v v v v v v v I I I P I @.:.i.C.m.m.m.V.Y.!.!.!.%X!.Y.m.n.m.m.y.:.i.n.m.Y.Y.Y.L.L.P./.^././././.^.`.`.`.].].].].].].`.`.].].`.`.`.`.`.`.'.'._.'._.'._._._././././.T.I.L.7.( G g a a a p p y y y y y p p p y y y y y y t y y y t t t y y t y y y y y y y t t y p p y y y p p p y y y y y p a s s ",
"eXyX3X,X:X%X~.I.L.n.n.n.d.n.n.n.L.Y.P.Y.Y.Y.Y.Y.Y.Y.Y.Y.!.Y.Y.L.a.a.y.q.0.5.5.5.5.5.:.:.:.:.5.5.:.5.5.5.:.:.:.:.:.:.:.:.:.:.:.:.:.:.:.i.n.!.%X*XY.m.n.a.n.n.n.u.u.a.n.n.a.u.u.u.n.n.u.u.a.a.u.u.n.n.u.b.n.n.b.n.m.Y.Y.!.!.V.m.Y.!.!.Y.m.n.b.b.b.m.V.!.!.!.Y.m.n.m.!.!.!.m.n.b.u.2.:.2.>.>.>.>.2.2.2.2.m.&XqXwXwXyXyXeXtXwX-X!.C.V.b.i.2.>.-.>.2.i.u.i.i.i.i.i.u.u.i.i.m.!.!.Y.m.Y.m.n.u.i.0.6.:.y.d.n.p.4.( / ! / / ( ;.6.s.Y.*X,XeXzXCXVXHXPXPXLXJXVXwX2.                    2.KXKXLXV.            &.KXKXwX                  n LXHXCX4X/.G.8.' ( ( ( ( ` 9.F.F.S.S.] ] ] S.S.S.S.F.K.K.K.K.F.D.S.F.S.9.` L ` 9.G.G.d.s.s.n.n.u.m.m.C.n.i.u.i.i.i.i.i.b.i.2.@.&.2.i.b.b.C.C.C.C.V.V.V.r.&.M v %.b.C.V.V.C.V.C.C.C.b.2.%.I v m c v v v m v v v v v v v I I I P I ~ -.i.u.C.m.m.V.Y.Y.Y.!.!.!.Y.m.m.L.m.u.:.w.i.u.m.L.Y.~.^.^.^./././././.^._.`.`.`.`.].].].].`.`.`.`.`.`.`.`.`.`.'._._._._.'.'._._._._./.^./.~.T.P.p./ P h a s a a a p p y y y y y y y y y y y y t t t t t t y y y t t t y y y y t t y y y y y y y y y y y y y y y y p p ",
"eXyX3X,X:X%X!.I.I.n.m.L.n.n.I.I.Y.Y.Y.Y.Y.I.I.L.m.m.n.n.n.a.y.q.0.6.6.6.6.6.:.:.5.5.:.5.:.:.5.5.:.:.6.6.6.6.6.6.6.6.6.:.:.:.:.:.-.:.0.u.m.!.!.!.n.u.y.u.n.n.a.a.u.a.a.a.a.a.u.u.a.a.a.a.a.a.u.u.u.u.u.u.u.0.0.u.n.I.Y.Y.Y.m.n.m.Y.!.!.Y.m.n.n.m.Y.!.$X!.!.Y.Y.Y.!.!.!.V.n.u.w.:.>.>.2.:.2.>.2.:.2.2.2.m.&XqXyXqXyXwXeXyX-X!.b.i.b.i.2.2.>.-.>.2.w.i.w.w.w.w.i.u.u.u.n.m.!.!.!.Y.m.n.n.n.u.u.u.y.s.L.I.s.6.;./ / W W =.4.y.L.*X4XfXCXSXFXHXHXLXLXLXKXKXLXKX>.                  x KXKXKXu             $XKXKXqX                  O.LXPXZXdX`.H.9.8.' ( E ` ' 9.9.F.S.] ] ] ] ] S.D.S.F.F.F.F.D.S.S.S.9.] ] ' ` ' 9.t.f.d.d.d.m.n.n.C.C.C.b.u.u.u.i.i.i.i.b.i.>.Q Q >.i.C.b.C.C.C.C.C.V.V.b.3.v x Q 2.b.C.C.C.C.C.C.b.b.2.-.Q v v v v v m m v v v I m v m I I I P P W *.:.u.n.n.m.Y.Y.Y.Y.!.^.^.!.Y.P.!.!.m.n.u.0.0.n.I.^.%X^.^./.~./././././.`.`.`.`.`.`.`.].`.`.`.`.`.`.`.`.`.`.`._._._._._._.'.'._._._._./././././.I.y.;.W G d s a a p p p p p p y t t y y y y t t t t t t y y y y y t t t y y y t t t t y y y y t t y y y y y y y y y y ",
"eXeXyX3X:X%X~.Y.I.m.P.Y.P.I.~.P.Y.L.m.m.n.n.n.a.a.u.q.0.0.6.:.;.:.:.5.5.5.:.:.:.:.5.:.:.:.:.5.5.:.:.:.5.6.6.6.6.6.6.6.6.6.6.6.6.0.u.n.m.I.Y.m.a.a.a.a.n.n.a.a.a.u.a.a.a.a.u.u.u.a.a.s.a.n.n.n.a.a.a.u.u.y.6.6.y.n.m.Y.Y.m.n.b.n.m.Y.!.Y.m.m.m.Y.!.!.!.!.!.Y.!.!.!.!.Y.m.i.2.:.>.>.>.>.:.>.-.>.2.2.:.i.V.&X3XqXqXyXeXeX3X$Xb.2.:.2.2.:.:.>.>.:.2.i.i.i.w.0.0.w.u.n.m.Y.Y.Y.I.Y.Y.a.u.n.m.n.n.n.n.n.L.L.p.6.6.4.;.W W ;.6.a.!.3XzXNXtXNXCXVXCXVXCXVXCXHXKXKXNX                  r KXKXVXo             CXKXKXqX                  O.LXLXAXfX,XP.f.8.4.( ( ` ] F.] 9.] ] ] ] ] ] ] ] S.S.D.S.S.S.S.S.F.] [ ] 9.9.9.9.t.p.p.y.y.a.n.n.n.n.n.n.n.n.b.u.i.i.i.b.i.>.+.Q 2.b.b.b.b.C.C.C.V.V.V.b.3.v f m O.2.b.C.m.b.i.r.2.i.2.>.+.I v v v v I I I I I I P I I I I P P P P ~ -.6.i.u.a.m.L.P.Y.!.^.%X^.~.!.(.~.P.Y.n.0.:.0.n.Y./.^.^.^.^././././.`.`.`.].`.`.`.].].].`.`.`.`.`.`.`.`.`.`.'._._._._._._._._._._._._././.U.~.T.I.d.5.^ G s s a p p p p p p y y t y y y y t t t t t t y y y y y t t t y y y t t y y y y y y y y y y y y y y y y y p ",
"yXyXyX4X3X:X%X~.T.!.:X:X:X^.:X^.L.s.y.q.0.0.0.6.6.6.:.:.:.:.;.=.*.=.:.:.:.:.:.:.:.:.:.:.:.:.6.5.4.4.4.6.6.7.7.7.q.6.5.:.:.6.0.y.a.n.m.m.n.n.n.a.s.n.n.n.n.s.a.a.u.u.a.u.u.u.u.u.a.s.n.n.n.n.n.n.a.a.a.u.y.6.6.y.n.m.Y.L.m.n.n.m.Y.Y.!.Y.m.m.Y.Y.!.!.!.!.!.!.!.!.Y.V.n.i.2.:.>.-.>.-.-.-.>.>.>.:.>.2.b.V.-XqXqX3XyXyXqX*Xm.i.:.:.:.>.>.-.-.-.:.2.w.i.w.0.w.2.0.i.n.m.Y.Y.m.a.u.u.i.u.n.I.m.m.m.m.L.I.n.p.7.q.7.;./ / ;.6.m.*XeXCXb.                  O.KXKXKXo                 # KXKX$X            # KXKXKXtX  o               %.KXLXDXxX4XP.f.7.' ( ( ` ] F.S.F.S.] ] ] ] ] [ [ ] S.S.S.S.F.F.G.F.] [ ` ] 9.9.9.f.p.7.6.6.y.u.u.u.u.u.u.u.u.u.u.i.y.i.i.:.-.@.3.2.b.C.C.C.C.C.V.C.V.V.b.3.v u f x Q 2.b.C.b.<.%.:.i.2.-.O.I m v v v I I I v I I P I I I I P P P P W W / *.;.6.a.n.I.Y.~.^.^.^.^.~.(.!.P.P.n.5.=.*.5.a.P.^.<X<X_././._._.`.].].].].].].].].].].].`.`.`.`.`.`.`.`.'.'.`.'.'.'.'.'._._._._._._._.Q.Q.Q.Q.P.d.6.) G d d a p p p p p p p y y y y y t y y y y y t y y y y t t y y y y y y y y y y y y y y y y y y y y y y y y ",
"yX3X,X3X4X4X,X<X*X,XdXdXyX5X4X^.m.y.5.:.:.:.:.:.:.:.:.:.:.:.:.=.:.:.:.5.5.5.:.:.:.:.:.:.5.6.6.0.7.6.6.7.7.y.y.p.y.y.y.7.6.0.y.u.u.a.n.n.a.u.u.a.a.n.n.a.s.n.s.a.u.u.a.a.u.u.u.a.a.a.a.a.a.a.a.a.a.a.u.u.i.0.0.u.m.m.m.m.n.n.m.Y.Y.!.!.Y.Y.Y.V.m.m.Y.!.!.!.!.!.Y.m.n.0.:.:.:.:.-.>.>.>.>.>.:.2.2.>.w.C.$X-XqXqXqX3X3X*XV.i.2.w.i.2.:.-.-.-.>.:.w.w.w.w.0.0.0.0.0.u.n.m.m.a.0.6.:.0.y.n.Y.Y.I.L.L.L.L.d.p.y.y.7.;.( / / 0.I.,XzXSXV.                  %.KXKXKX=                 o KXKXn           o 2.LXKXKXtXo                 O.KXLXPXZXdX<XU.8.' ` ( ` ] F.F.R.K.F.S.] S.] ] [ ] S.S.] ] ] F.F.G.9.' ` ` 8.9.t.f.p.6.4.4.0.u.u.i.i.u.i.i.u.i.i.y.y.:.2.>.-.>.2.i.b.C.C.m.C.C.C.C.m.m.i.3.m u f f x O.2.b.2.&.Q >.i.2.@.Q I P v v v I I v v I I P I v I I P P P U W W W / =.6.s.L.P./././.^.^.^./.^.!.~.P.n.5.*./ 5.p.L.T.^.`./._._._.`.`.].].].].].].].].].].].].`.`.`.`.`.`.`.`.`.`.`.`.`.'.'.'._._._._.'._.).Q.Q.Q.Q.T.G.5.W g d p p p p a a p p p y y y y t p y y t t t t t y y t y y y y y t y y t y y y y y y y t t t t t y y y t ",
"4X,X,X4XyXpXpXdXxXZXAXxXdXyXdX%Xa.6.;.;.;.:.:.:.5.5.:.5.5.5.:.:.:.:.:.:.:.5.5.5.:.:.5.5.6.6.0.q.7.6.6.6.7.p.p.d.L.I.~.~.P.m.s.s.a.a.n.n.n.a.a.a.a.a.a.a.n.n.n.a.u.a.a.a.u.u.a.n.a.a.a.u.u.u.u.u.a.u.u.u.u.u.u.a.m.m.m.n.n.m.Y.Y.Y.!.!.!.Y.Y.m.n.C.m.Y.!.!.!.V.m.n.0.:.-.-.>.>.-.>.>.>.>.>.>.>.>.:.b.Y.&X-X3X3X3X*X$Xm.i.:.2.i.b.i.2.>.>.-.:.:.0.w.w.0.0.0.0.5.0.0.i.u.u.0.:.:.:.:.6.a.m.Y.Y.I.L.m.L.m.s.q.7.4.;./ ) ( y.!.yXCXHX$X                  &.KXLXLX&                 o LXKXX             r x x n u                   % j t b.AXZX,XI.t.8.` ` ` ] F.J.).U.J.F.] ] S.9.9.F.S.] [ _ _ ' 9.F.9.' ` ` ` 8.9.p.p.7.6.5.6.0.0.y.i.i.0.0.i.0.0.:.:.:.:.>.>.2.i.b.b.b.C.C.C.C.C.C.V.C.2.O.v u u f f v &.2.>.Q v +.2.2.-.+.I P v v v I I v v I I P I v I P P P P U ^ / ;.6.6.y.d.I./.^.^.^.^.^.^.~.~.!.P.P.m.u.5.6.s.I.I.I.Q.'.`._._.'.`.`.`.].`.].].].].].].].].].].`.`.`.`.`.`.`.`.`.`.`.`.`.'.'._._.'._._.).).Q.Q.Q._./.~.d.6.! G a p p y p f p p p p y y y y y y y t t t t t y t y y t y y t t t u u y y t i t t t t t t t t y y t t ",
"4X4X4XdXfXcXxXZXDXDXZX5X%X^.:XI.q.5.;.:.:.:.:.:.:.:.;.;.;.;.=.=.:.:.:.:.:.:.:.6.5.5.6.6.0.q.q.q.7.7.7.g.L.P.^.:X4XdXxXxXeX:X!.L.n.a.a.a.a.n.a.a.a.a.a.a.a.a.u.a.u.a.n.a.u.u.a.n.n.a.a.u.u.u.u.u.a.a.u.u.a.n.a.n.a.s.m.m.m.Y.Y.Y.Y.Y.!.Y.Y.Y.Y.m.m.m.Y.Y.V.n.u.i.6.:.:.:.:.-.*.*.-.-.-.-.-.>.>.>.2.m.$X*X*X-X*X&X!.n.w.:.>.>.:.2.2.>.-.>.:.:.2.w.0.0.0.0.0.0.5.0.0.0.6.0.0.6.:.:.=.:.y.n.m.L.L.m.L.P.I.d.q.4./ / ) ) ;.s.%XeXCXPX$X                  %.KXKXKXX                   KXKX                                                >.PXCXdX^.t.8.` ` _ ] J.{.|.|.).R.F.S.S.S.S.9.9.] _ T L _ ` 9.8.` ( L L ` ' 8.7.p.p.y.q.0.0.0.0.0.:.:.0.6.:.-.:.:.>.>.>.i.b.b.b.i.b.b.b.b.C.b.C.b.>.Q c a a f f f M Q O.m f c -.:.-.@.I I v v I I I v v I I I I v P P P P P W / 6.a.d.s.s.d.I./.^././././.~.Q.~.P.P.Y.Y.I.m.Y./.^./.~.^.`.'._._.`.`.`.`.`.`.].].].].].].].].].].].`.`.`.`.`.`.`.`.`.`.`.`.'._._._._.'._.).)._.'._._./.(.P.G.6./ v a p y y p p p p p y y y y y y y y t t t t y t r t t t t t t t u u u y i i t t t t t t t 4 t t t t ",
"4X3X,X2X>X:X4XcXZXZX4X!.n.L.Y.y.5.6.6.:.:.:.:.;.:.;.=.;.=.=.=.:.:.:.:.:.:.:.6.0.0.0.0.0.q.y.y.y.f.d.L./.:X4XdXfXZXZXZXxXdX,X~.I.s.a.a.a.u.a.s.n.n.n.n.s.s.a.a.a.n.n.n.s.a.a.s.n.s.s.s.s.s.s.s.s.s.u.a.s.a.a.n.n.a.n.L.I.Y.L.m.m.m.Y.!.!.Y.!.Y.Y.V.V.m.n.u.w.2.:.=.=.:.:.:.;.*.*.-.-.>.>.-.-.>.:.b.V.$X*X*X%XE.m.b.w.>.-.-.-.-.-.>.-.*.*.-.:.0.0.0.0.0.q.q.q.0.0.0.5.6.0.0.:.:.;.*.;.:.u.s.L.L.L.I.P.P.L.y.;./ / / / 4.d.%XfXVXPX$X                  %.KXKXKXX                 o KXKX.                                               3.PXZXdX^.L.4.4.` ` ] K.).{. X{.R.S.S.F.S.S.S.S.] [ _ ` ' ' 8.' ' ` L E L E 4.5.7.y.y.q.5.;.:.:.:.6.0.y.0.:.=.*.*.-.>.>.:.r.i.r.r.b.b.b.b.b.b.b.r.%.v f N N f f u u f c v x x I -.:.-.I P I v v v I v v I P I P I I P P P P W ;.p.L.I.d.p.p.d.I.~./././.~.~.Q.U.P.P.P.~./.Y.Y.Y./.`.^._.]._._._.`.`.`.`._.'.`.].].].].].].].].].].].].].].].`.`.`.`.`.'.'.'._._.'._._.'.'.'.'.'.).).Q./.Q.Q.m.y.=.P a p p a p p p p p p p y y y y t t t t t y y y y y t t t y y y y t t t t y y y y y y y y t t t t ",
"%XT.I.L.d.L.^.4XdX4X!.s.a.n.n.q.6.6.5.5.:.:.5.:.;.;.;.;.=.=.=.=.:.:.5.:.5.6.0.0.0.q.y.y.y.u.s.L.I.~.:X4XdXcXcXcXzXzXfXdX3X^.P.n.s.s.s.a.a.a.s.n.s.s.s.s.s.a.a.a.n.n.n.s.a.a.n.n.s.s.s.s.s.s.s.a.a.a.a.a.a.a.a.a.a.n.Y.!.Y.m.m.n.n.m.Y.Y.Y.!.!.Y.m.m.n.i.2.:.>.-.=.;.:.:.;.;.-.-.-.-.-.-.-.-.>.2.n.Y.$X%X%X!.m.u.2.>.-.-.-.-.@.-.-.-.*.*.>.:.0.0.q.0.0.0.q.0.0.0.0.0.6.6.6.;.=.=.;.;.;.6.a.I.I.L.I.P.(.I.p.4.( / / / ;.g.^.eXCXPX-X                  >.KXKXKX#                 X KXKX                          o                     2.PXZXdX^.d.7.' ` ' ] F.J.).).J.K.D.D.S.S.S.] ] ] [ ` ` ` ' ' ` ' ` ` ` L ( ` 4.8.7.q.7.;./ =.:.:.0.q.u.y.:./ ^ / -.-.>.:.:.2.2.r.i.b.b.b.b.b.b.2.&.M N f f u u u y u f h f a m -.:.-.! Q I I I v v v v v v v I I I P P P P / 6.n.P.I.d.6.4.p.d.P.Q././.~.Q.Q.~.T.P.P././.T.f.d.P.^.Q.U._._.'._._._._.`.`.`.`.].].].].].].].].].].].].].].`.`.`.`.`.`.'.'.'.'.'.'.'.'.'.'.'.'.'._._.Q.Q.Q.Q.!.m.y.;.P h a p p a p p y y y y y y y y t y y y y y y y t t t t t t t t y y t t y y y y y y y y t t t t ",
"n.p.7.6.6.p.I.^.^.P.a.p.n.n.a.7.q.q.6.;.;.:.5.:.;.:.:.:.=.=.:.:.5.5.5.5.5.6.7.7.7.y.s.n.n.n.P.^.,XyXfXzXxXxXxXfXdX4X:X^.~.I.L.d.d.d.d.d.s.s.s.n.s.s.s.s.a.a.a.a.s.s.s.s.s.s.s.s.a.a.a.a.s.s.s.s.a.s.a.a.a.y.a.m.~.P.I.P.I.Y.L.n.n.L.Y.L.L.Y.Y.Y.n.u.0.2.>.-.-.;.;.;.:.:.-.-.-.:.-.-.-.-.-.-.:.i.m.!.!.!.V.n.i.:.-.-.-.>.-.*.*.*.-.*.*.*.:.0.0.0.0.0.0.0.0.0.0.0.0.6.6.6.5.;.;.;.y.y.;.5.p.I.P.P.P.P.(.I.d.4.( ( / / ;.y.!.yXCXPXqX                  %.KXKXKX#                 & KXKX                                                2.PXCX4X^.p.8.' ' ` 9.U.[.{.'.U.R.F.F.F.S.S.S.] [ ` [ ` ` ` ' ' 8.8.' ` L ( ` ` 4.4.4.4.4.=.*.*.;.:.6.y.q.5.*./ ! ^ *.-.>.:.:.:.2.r.b.b.b.b.b.i.2.Q x u f h a u y y y u f x M +.:.2.:.-.! Q m v c c v v v v v I I P P P P W ( y.I.P.I.p.4.( 8.p.G.P.Q./.(.Q.Q.~.~.P.T.^./.T.d.f.L.T.L.G.U._._._./.U./.`.].'.`.`.].].].].].].].].].].].].].].].].].`.`.`.`.`.'.'.'.'.'._.'.'._.'.'._._./.Q.Q./.~.L.p.( G d 8 p a p p y y a a t y y y y t y y y y t t t t t t t t t t y y t t t t t t t t t t t t t t ",
"q.q.q.p.p.f.d.L.d.y.q.y.d.s.q.6.y.q.5.;.;.;.;.;.;.5.:.=.=.:.5.5.4.5.5.5.4.4.4.6.p.I./.^.^.*X4XzXAXDXPXPXDXDXDXZXyX:X~.I.L.n.n.n.d.d.d.d.s.s.s.s.s.s.s.s.s.a.a.s.s.s.s.s.s.s.s.s.a.a.a.s.s.s.s.s.s.s.s.s.a.7.p.T.4X:XL.a.n.Y.m.a.m.I.L.m.L.Y.L.n.y.0.:.:.:.-.-.:.:.:.:.:.>.>.-.>.-.-.-.>.-.;.0.n.I.!.!.m.u.0.:.;.-.-.=.=.-.*.*.*.*.*./ *.:.0.0.0.0.0.0.0.0.0.0.0.6.6.6.6.5.4.4.4.g.d.y.7.s.P.I.(.(.P.~.(.d.6.( ( ( / ;.y.!.yXCXPXNX                  >.KXKXLX                  u LXKX              o                       o         2.HXCX4X~.f.8.8.8.8.G.5XvXcXiX>X).J.F.F.F.D.F.] ] ' ] ' ` ` ` ` ' 8.8.' ` ` ` ` ` 4.4.8.e.8.;.;.( ( =.5.5.=.*.! W ! *.:.:.:.>.2.2.2.r.i.i.b.b.r.2.O.h u f h f a u u u u x M +.>.w.w.0.:.-.! v v x v v v v v v I I I P P P ! ;.p.I.I.G.7.' ' 7.p.d.I.~./.Q.Q.T.Q.Q.Q.~.^.^./.(.T.U.U.H.t.L._.'._.U.H.H./.<X<X`.`.].].].].].].].].].].].].].].].].].].`.`.`.`.'._._._.'.'._.'._._._._._.Q.Q.Q.Q.Q.U.H.7.( J 9 s s a a a a u u y y y y y y y y t t t t t t t t t t t t t t t t t t t t t t t t t t t t ",
"y.y.p.p.p.p.p.7.y.6.6.6.q.q.5.q.6.5.4.;.=.=.=.=.=.;.;.;.5.4.5.=.4.4.4.4.4.6.p.d.~.>XdXfXfXxXZXDXPXPXDXZXCXzXdX4X:X/.P.I.L.m.n.d.s.d.d.d.d.s.s.s.s.d.d.d.s.a.a.a.s.a.a.s.s.s.s.a.a.s.s.s.s.s.s.n.s.s.s.n.d.q.p.T.dXdX%Xm.n.P.m.L.L.L.L.L.L.L.n.a.5.:.;.:.>.-.-.-.:.:.:.>.>.>.>.-.-.-.:.>.-.:.u.m.Y.Y.Y.m.y.5.:.:.;.=.*.*.*.*.*.*.*.*.*.=.5.0.0.0.0.0.0.0.q.q.q.0.6.6.6.6.6.6.6.7.p.d.y.y.d.P.P.~.~.~.~./.I.7.4.4.' ( 4.y.Y.3XCXHXJXo                 &.KXKXJX                  &.KXKX.                         o                     >.SXzX:XI.7.4.( ' 4.9._.lXAXDXDXvXiXJ.F.F.F.F.S.] ] ] 9.] ` ' 9.9.' ' ` ` L ( ` 8.e.p.p.p.e.7.4.=.( / =.=./ ! U U / :.5.:.:.>.>.:.:.2.r.i.i.i.r.:.+.M u u f a a a u u u f v +.>.w.w.w.2.>.@.Q I m m m v v v I P I P P P ! *.6.p.d.d.p.7.8.7.f.G.I.U.~.(.Q.Q.U.~.Q.(././._.`.].`.`./.U.I.U./.'./.G.8.9.H._.].`.`.`.].].].].].].].].].].].].].].].].].].`.].`.'.'.'._._.'.'.'._._._._._._./.Q.Q.Q.Q.U.G.7.( D D s s h a a y y y u u u y y y y t t t t t t t t r r t t t t t t t t t t t t t t t t t t ",
"p.y.q.7.6.6.6.8.y.7.7.5.6.q.6.q.5.4.;.4.4.;.;.;.;.4.5.6.q.q.5.4.4.4.=.4.p.I.^.>X3X4X4XdXfXZXAXDXZXxXfXeX4X3X:X:X/.!.T.T.I.L.n.d.d.d.d.d.d.s.s.a.s.d.d.d.d.s.s.s.a.a.a.s.s.s.a.a.a.a.s.s.s.s.s.s.s.d.s.d.d.d.p.d.^.,X%XY.L.L.m.Y.I.I.I.I.L.n.u.0.:.;.-.>.-.-.-.-.:.:.:.:.-.>.>.-.-.>.:.>.-.:.u.m.!.m.m.a.y.6.:.;.-.-.*.*.*.*.*.*.*.*.*.:.0.q.0.0.0.0.0.q.q.q.q.q.6.6.6.6.6.6.6.6.7.7.4.7.d.~.~.~./././.^.I.p.4.4.;.;.6.p.Y.3XNXHXKXX                 t LXKXqX                  V.KXLXKXLXLXLXLXLXKXKXKXLXKXwX    o           X %.LXKXPXZXeX%XG.7.4.` ' 4.' f.2XvXDXDXvXiXJ.F.F.F.] ] ] ] ] ] ] ' _ ` ` ` ' 8.8.` ` ' e.t.p.p.p.7.6.4.=.( =.4.4.=.^ W U ! -.:.:.>.>.>.2.2.2.2.2.2.r.r.:.@.m f u u u a a a u y a v I @.2.w.w.2.>.@.O.Q I m m m m m I I I P P P ^ ;.q.g.f.p.p.p.p.G.I.T.(./.^./.Q.Q./.(./././.(.(._.`.`.`.`././././.].'.U.G.f.U.'.<X].`.`.].<X].].].].].].].].].].].].].].].`.`.`.`.'.'.'.'.'.'.'.'.`.'.'.'.'._._.Q._.).).Q.U.G.7.( Y J s a a p y t u u u u y y y y y t t t t t t t r r i i t t t t t t t t t t t t t t t t ",
"y.7.7.7.7.6.6.6.6.q.q.q.q.q.5.6.5.5.5.5.5.4.4.4.5.5.6.q.q.q.5.5.5.8.6.p.~.3XdXdX3X5X4XzXZXAXZXxXfX4X,X:X*X%X/.~./.~.~.!.P.I.L.n.d.d.d.d.d.d.a.a.s.s.d.d.d.s.s.s.a.s.s.s.s.a.a.s.s.s.s.n.s.s.s.s.s.s.d.d.d.d.f.p.d.I.T.Y.Y.L.L.Y.Y.Y.~.(.Y.s.6.5.:.;.;.:.:.:.:.:.:.i.u.2.-.>.>.-.-.-.>.-.-.0.n.m.!.m.n.u.y.0.5.=.*.*.=.*.*.*.*.*./ *.-.:.0.q.q.0.0.0.q.q.q.q.q.q.q.7.7.6.6.5.;.;./ ( ( 7.d./././././.^./.I.p.5.4.4.4.7.g.P.,XfXVXJXO.                  u &.                  X tXLXKXHXPXHXHXHXPXPXPXLXKXKXqX                  O.KXLXDXxX5XI.p.e.' ` ` ` ' t.^.lXDXDXvX[.J.J.K.F.] ] ] [ [ ` ' 9.9.9.` ' ' ' 8.4.4.8.8.8.e.e.e.5.;.( ( =.=.:.5.;.=.^ P P P Q ! -.-.>.>.2.2.2.2.2.2.2.2.-.Q x u u a a a a a a a c M I +.>.2.2.:.-.+.Q I v v v I I I I P P P W *.6.y.p.p.7.9.f.L.~./.^.^.^.^.~.T.T.T.~.~.~.(.Q.Q.(./._./.(.(./././._._./.U.U./.'.`.].`.`.`.].].`.].].].].].].].].].].].].].`.`.`.`.'.'.'.'.'.'.'.'.'.'.'.'.'._._._._._._.Q.Q.U.G.7.( H d s h a p p y u u u y y y y y y y t t t t t r t t t t r t r t t t t t t t t t t t t ",
"q.6.8.7.7.6.4.6.6.p.a.a.q.6.6.0.5.6.e.7.5.4.4.4.5.5.5.7.7.5.5.5.7.p.L.~.3XfXdX4X:X4XcXAXDXZXzX4X>X:X%X%X%X^.~.Y.~.~.~.!.P.I.I.n.n.n.n.d.d.s.a.a.a.a.s.s.s.s.s.s.a.s.d.s.s.a.s.s.s.s.n.n.n.s.s.d.s.s.d.n.d.p.p.d.a.p.L.L.L.m.m.m.L.I.(.^.P.a.5.:.:.:.:.:.:.:.:.:.y.n.n.w.-.-.-.-.-.>.-.*.-.i.m.I.m.n.u.u.0.0.5.=.*.*.*.*.*./ *.*.*.*.;.:.0.q.q.0.0.0.q.q.q.q.q.q.7.7.6.6.5.4.( / / / ( p.L./.^./././.^./.I.p.6.4.4.4.7.g.L.*XeXCXJX-X                                        r KXLXHXSXCXCXCXCXZXSXHXPXLXLX-X                  O.LXPXVXdX^.G.p.' ' ` ` ` 8.8.U.pXAXAXlX[.J.J.J.K.F.S.] ] [ ` 9.F.U.G.9.8.8.` 8.8.4.4.4.=.4.4.=.( ( ( / ( =.*.=.*./ ! P P G G P ! -.>.2.:.:.2.2.2.:.2.2.>.O.c a u u a a a u u a a a N c +.>.2.2.:.-.+.m c c v v v I I P I P ! =.7.7.7.7.8.p.G.P.^.`.`.^./.~.P.I.L.L.P.U.T.~.Q.U.Q.(./.(.Q.Q.U.U.Q.U./._._.'.'.].].].`.'.`.].`.].].<X<X].].].].].].].].].].].].].].].`.`.`.`.'.'.'.'.'.].].'._.'.'._.Q.Q.Q.Q.(.P.L.y.( J s s f p p y y y y y y y y y y y y t t t t r t t t t r t r t t t t t t t t t t t t ",
"p.8.8.7.6.4.4.4.5.y.d.a.q.6.6.5.6.6.6.6.5.5.5.5.5.6.6.4.5.4.4.q.d./.3X4X4X4X:X^.:XdXZXDXZXdX4X:X:X%X^.^.^.~.Y.I.Y.Y.!.!.Y.Y.L.n.n.d.d.d.s.a.a.a.p.a.a.a.a.s.s.s.s.s.s.s.s.s.s.s.s.s.s.s.s.n.n.s.d.s.d.d.d.d.d.d.d.L.I.n.s.a.p.p.g.d.P.^.P.s.6.;.:.:.:.:.:.:.:.:.0.I.Y.0.-.-.-.:.>.-.-.-.:.a.m.I.m.n.u.u.i.0.:.;.*.*.*.*.*.*.*.*.*.-.:.0.0.q.0.0.q.q.q.q.q.q.q.q.q.q.6.5.4.5.4.4./ / 4.p.I.~.^.^.^.^.^./.P.d.6.4.;.4.6.p.m.!.4XxXSXLXx                                       3XLXHXCXzXdXpX4X4XdXxXCXSXPXKX-X                  n LXHXCX4X~.f.4.( ( ( ( ( ( ' f.2XvXDXlX}.J.J.K.).J.J.t.] [ ' 9.G.U.H.9.8.` ` ` ` ( ( ( ( ( ^ ^ ^ ^ / / =.*./ / ^ / ^ ! U g h g P ! >.:.:.2.:.>.2.>.:.:.>.@.Q g p a f a a a a a a u u a c +.>.2.w.:.-.Q m m m v v P P P P U ! =.5.8.4.4.8.p.I.^.^.`.~.P.I.I.H.f.f.p.G.L.L.U.Q.Q.Q.Q.Q.Q.U.U.U.U.U.U.U./././._.'.'._.`.`.].].].].].<X].].].].].].].].].].].].`.`.`.`.`.`.`.'.'.'.'.'.'.`.`.'.'.'._._._.Q.U.Q./.Q.Q.L.p.( H d p a a p y a a y p p p y y y y y y t t t t t r t t t t t t t t t t t t t t t t ",
"6.7.7.7.4.8.7.6.5.7.y.q.q.6.6.6.5.5.5.5.5.5.4.5.;.5.5.4.6.5.7.a.P.<X:X<X/./.:X3XfXxXxXfX4X:X:X<X^.~.!.!.!.Y.Y.I.P.T.T.T.P.Y.L.m.n.d.s.s.d.s.a.a.p.a.a.s.s.s.s.a.s.s.s.s.s.s.s.a.s.s.d.s.s.d.s.s.s.s.d.d.d.d.d.G.d.L.L.d.s.a.y.q.q.p.L.^.!.d.6.;.:.:.;.;.:.:.:.:.0.m.m.0.-.-.-.:.>.>.-.;.0.n.m.m.n.u.a.a.u.0.:.;.*.*.*.*.*.*.*.*.*.;.6.q.u.u.u.u.u.u.u.y.y.y.y.y.y.q.6.6.6.7.7.6.;.=.;.6.d.I.~.~./.~.~.~.I.d.6.4.;.4.7.p.m.!.3XfXVXHXVXt                                   b.LXHXZXzX4X>X]./.^.:X4XdXCXSXLX&X                  x HXSXfX,XP.9.( ) ) ) ( ) ( ( ' Q.pXvXaX}.J.J.).iX[.U.F.9.9.] ` ' ` 4.' ` ` ( ` ( ( L L L U U ) U ^ ^ / =.=.=./ ^ ! ! U P d f g P ^ >.:.>.2.2.>.>.>.:.:.>.3.Q m h a a a a a a a a a a a f c +.:.w.i.2.-.&.O.Q Q I P P P P Q / ;.5.4.4.4.p.G.P.^./.T.L.f.p.p.9.7.7.p.f.f.d.L.P.U.P.U.Q.Q.U.U.U.I.I.L.U.U././._./.U.Q._.].`.`.`.`._.].].].].].].].].].].].].`.`.].].`.`.`.`.`.'.'.'.'.'.`.`.'.'.'._._._.U.U.Q././.Q.~.L.p.;.H d a a a p a a p p p p y y y y y t t t t t t t t t t r t t t t t t t t t t t t ",
"7.7.8.4.6.d.G.p.q.7.7.q.6.5.5.5.;.4.5.4.4.;.4.5.4.5.5.4.6.7.q.s.d.d.p.d.P.:X4XdXdX4X4X,X:X<X^./.~.T.Y.Y.T.P.P.P.T.T.T.Y.P.P.I.L.L.n.d.d.d.d.a.p.a.a.a.s.s.s.s.a.s.s.s.s.s.s.s.s.s.d.d.d.d.d.d.s.d.d.d.d.d.d.d.L.I.I.L.L.L.L.d.y.7.7.n.:X<XL.q.;.:.:.;.;.:.:.:.:.0.u.u.:.-.-.>.:.:.:.:.:.u.m.m.n.u.u.u.a.u.0.:.;.*.*.*.*.*.*.*.-.-.:.q.u.u.u.u.a.n.s.a.a.y.y.y.y.y.q.q.q.y.y.y.7.;.( ( 4.p.L.Q./.~.~.T.~.I.d.7.4.4.6.y.s.m.~.,XeXxXDXPXPX&.                            X V.KXPXSXxX4X].Q.U.U.U./.:XdXCXDXPX!.                  x HXCXeX^.G.8.( ( ) E ( E ) E ( t./.2XaXsXiXiXiXaXaX).t.9.t.9.8.` ` ` 4.4.4.` ( ` ` ( ( ( U U H H U U U ^ *.=./ ! U P P G g g P P @.>.>.>.>.>.>.>.>.>.:.>.-.@.Q m a a a a a a a a a a a a a v @.2.w.i.2.:.>.-.-.@.Q Q P U ! *.;.5.4.4.7.G.U./.^.~.I.d.7.7.9.9.f.d.G.G.f.f.H.I.I.I.I.U.Q.U.P.L.L.H.H.L.U.U./._.U.U.U._.`.U.U._.].`.`.`.].].].].].].].].].].].].].].].].].`.`.'._._.'.'.'.'.'.'.'.'._._.Q.U.U.Q.Q.Q.Q.Q.I.g.;.H g a a a a a p p p y p y t t y y t t t t t t t t r t t t t t t t t t t t t t ",
"4.7.7.8.p.P./.I.p.7.6.6.6.4.;.=.4.4.4.5.5.5.5.5.5.5.5.e.7.7.p.a.a.p.7.d.^.4X4X3X:X^.^./.^.^./.~.~.!.T.T.Y.Y.P.Y.Y.T.T.T.T.T.P.I.L.m.n.d.n.d.s.a.a.s.d.d.d.s.s.d.s.s.s.s.s.s.a.s.s.d.d.d.d.d.d.d.d.d.d.d.d.d.L.I.T.I.L.L.I.I.s.7.6.6.d.,X,XP.6.=.:.:.;.:.:.:.:.:.:.0.:.;.-.-.:.:.:.:.;.:.u.n.s.u.y.i.y.u.i.0.5.;.*.*.*.*.*.*.=.:.:.0.u.a.n.n.n.n.n.n.n.a.a.p.y.y.y.y.y.a.a.a.y.q.5.;.;.6.p.I.~.~.~.~.P.P.I.d.p.4.7.q.p.s.n.!.*X4XfXCXCXHXLXtXM #                   & 2.HXKXPXPXSXcX4X).H.J.Q._.].4XxXZXPXPXV.                  2 ZXzX3X~.d.8.( ( ) E ( E ) E E ` t.J.pXvXvXaXpXlXlX_.t.] 9.9.9.8.4.( ` 9.f.e.( ( 4.4.` ( ) H Y Y d s d G U U ! U W W W U P P Q ! @.-.>.3.3.3.>.>.:.:.>.>.>.-.+.Q f a a a a p y y a a f a y f P @.:.w.i.i.w.w.2.:.-.! W U / ;.6.6.8.p.f.I.Q./.^.~.H.p.8.8.9.f.H.I.U.I.G.G.H.I.L.H.L.U.U.U.I.L.I.I.L.L.U.U./._./.U.Q._._.L.G.U.`.].'.`.].].].].].].].].].].].].].`.`.`.].`.`.'._._.'.'.'.'.'.'.'._._._._.Q.Q.Q.Q.U.U.U.Q.I.g.;.W g d p a a p p p p p p y y y y y t t t t t t r r r t t t t t t t t t t t t ",
"7.p.7.8.f.~./.I.y.5.5.6.6.4.;.5.4.4.4.5.6.6.6.6.5.5.6.7.q.q.p.p.s.p.p.L.<X3X>X`././././.~.T.~.~.!.!.!.!.T.P.P.P.P.Y.T.T.!.T.P.I.n.n.n.d.d.d.d.a.s.n.L.L.n.s.a.d.s.s.a.a.s.s.s.s.s.d.d.s.d.d.n.n.p.p.p.d.L.I.T.^.<X^./.P.L.d.q.5.4.6.a.3X4X~.q.4.:.;.=.;.:.:.:.=.=.:.-.-.;.:.:.:.:.;.;.6.y.a.a.y.u.6.:.0.0.0.0.:.-.*.*.*.*.*.:.5.0.i.a.n.m.m.m.m.m.m.n.n.d.s.a.p.u.y.y.s.m.m.s.y.6.5.5.7.d.P././.~.~.P.P.I.L.p.6.7.p.s.n.P.^.:X3XeXeXCXVXSXPXKXLXtX$Xb.2.2.>.b.&XCXKXKXLXPXPXDXZXfX2XQ.H.J.].5XlXzXZXPXPXPXLXKXKXKXLXLXLXLXPXHXSXxXyX%XI.p.4.) W ) E E ( E E E ( ` t.2XvXvXlX2X2XiXQ.t.' ' 8.t.f.7.( ( e.G.f.4.` 4.` ( ( ) H P G J d d g P P U U ! ! ^ / ^ ! ! @.^ -.-.-.@.@.@.-.:.>.-.-.-.-.+.Q v c f a a y y a a a a a p a c P -.2.b.b.i.w.2.:.*.! W ! ;.q.p.7.7.d.I.U.Q././.U.G.f.7.t.f.H.U.Q./.Q.U.I.I.I.G.f.H.I.U.U.I.I.I.U.U.U.U.U./._._././._._.U.U.Q.'.`.`.`.`.`.`.].].<X].].`.`.].].`.`.'.`.].].`.'.'._.'.'.'.'.'._._._._._._._.Q.Q.Q.U.U.U.Q.Q.I.f.4.) G s p p p p a a p p p p y y t t t t t t t r r r t t t t t t t t t t t t ",
"p.d.G.G.G.I.L.p.y.5.5.6.6.4.4.5.4.4.5.6.q.q.q.q.6.6.6.7.7.q.p.p.p.d.L.I.I.I.P.~.P.T.~./.~.~.Y.Y.P.P.Y.Y.Y.P.P.P.P.P.Y.Y.Y.P.L.n.s.d.d.d.s.s.s.d.d.L.P.T.L.s.a.a.s.s.a.s.d.d.d.d.d.d.d.s.d.n.n.L.a.p.7.p.L.T.<X4X4X4X4X<XI.y.7.y.7.7.p.,X3X~.q.5.:.:.:.;.;.;.-.*.=.=.;.;.:.:.:.;.:.-.;.6.u.s.u.y.q.:.-.:.0.0.0.:.=.-.*.-.-.=.5.0.u.n.m.m.Y.Y.Y.Y.L.L.m.m.m.n.s.a.a.y.y.s.Y.Y.n.y.5.;.5.6.p.I.~.~.~.P.P.P.I.I.d.p.p.d.L.P.^.%X:X:X:X3XyXzXCXSXPXPXKXLXLXKXKXKXKXLXKXPXHXDXZXZXcXdXpX2X_.Q./.5XvXPXPXLXPXPXLXLXHXHXHXHXPXHXHXHXCXCXdX3X/.d.8.( ) E ) ) ( ) E E E E ` ] ].fXlX2XQ.H.H.t.] ` ` ` 9.9.8.( H U ' 4.` ( ( ( ^ ^ ) ! U U P P P P P P P U Q ! *.*.*.*.@.@.^ *.-.-.@.@.@.-.-.-.-.-.-.-.@.! Q v f a p a a f a a a a a a f c @.:.w.w.2.>.*.Q ! ^ *.4.q.d.d.p.p.I.Q.U.U.Q.Q.L.G.G.H.L.I.U./._.'._./.Q.Q.U.G.f.f.L.P.U.P.U.U.U.U.U.U././._._._._.`.`._._.`.`.`.`.`.`.`.`.].<X<X<X].`.'.'.'.'.`.'.'.`.`.`.`.'.'.'.'.'.'.'._._._._._._._.Q.Q.Q.Q.Q.Q.Q.Q.U.I.d.7.) J s s p p p p t t y t p y t t t t t t r r r r t t t t t t t t t t t t ",
"~././.I.G.I.P.I.p.6.5.6.6.4.4.5.5.5.7.q.q.y.q.q.q.q.q.7.7.p.d.d.d.d.L.I.I.P.I.P.~.~.T.T.T.Y.Y.T.P.P.P.P.P.P.P.Y.Y.P.P.Y.Y.I.L.n.a.s.d.s.s.d.d.d.d.L.P.Y.L.s.a.a.s.s.s.s.s.d.d.d.d.n.n.d.d.n.m.L.d.d.p.f.I.<X4XdXfXcXfX3XP.y.7.y.7.q.7.<X:XP.7.;.5.5.:.:.;.;.-.-.;.;.:.;.;.;.;.;.;.*.;.y.s.s.y.6.6.;.*.:.:.6.5.:.=.-.-.;.:.5.y.n.m.L.Y.Y.!.!.!.!.Y.Y.L.m.m.n.d.s.s.u.y.n.I.I.n.q.0.6.5.5.7.d.L.L.I.P.T.~.~.I.L.d.n.I./.^.%X%X%X^.%X/.:X3XfXCXSXPXPXPXPXPXPXPXPXHXAXZXCXfXeX>X].[.]./.Q.H.H.].cXPXPXPXPXPXPXDXCXCXCXZXZXZXCXxXdX4X3X`.L.7.' ( ) W ) ( ) W ) E E ) ( t.[.vXlX].G.9.G.t.' ` E E ) ( ( ) H W ( 4.4.( U U U U ^ ^ ^ ! U U U U U U P U W ! *.*./ ! ! *.-.-.-.-.-.@.@.@.*.-.*.*.*.*.@.@.! I g a a a f a a a a a a a a f Q @.2.2.:.-.P h Q ;.y.s.d.L.d.p.d.L.I.H.H.I.I.G.H.I.U.Q./._.`.'._._./.Q.Q.U.G.t.t.f.I.P.U.U.Q.Q././._._._._._._._.'.`.`.].]._./._.'.].].].].].<X].`.`.'._._.'.`.'.`.`.`.].'.'.'.'.'.'.'.'.'._._._._._._.).).Q.Q.Q.Q.Q.Q.Q.Q.P.L.7.( H d s p p p y y y p p y t t t t t t t r t t t t t t t t t t r r t t ",
":X<X^.^.>X4X:XP.p.6.5.6.6.5.5.5.5.0.q.p.y.q.q.q.q.q.q.q.q.d.I.P.P.I.I.I.P.P.P.T.P.~.~.~.~.Y.Y.Y.P.P.P.Y.P.P.P.P.T.P.I.I.I.I.L.n.s.d.d.d.d.d.d.d.d.n.L.I.n.a.a.d.s.s.s.s.d.d.d.d.d.d.d.d.d.d.n.L.d.L.L.I.^.4XdXlXcXxXcX4X~.p.7.7.7.q.7.:X>X/.p.4.5.5.5.:.:.:.:.:.=.=.:.;.-.;.;.;.;.*.:.y.n.n.y.:.:.;.;.:.:.:.:.=.-.-.-.:.6.0.n.m.Y.!.!.%X%X%X%X!.Y.Y.L.m.n.n.d.s.s.s.s.n.L.n.a.q.0.6.7.6.7.f.G.L.I.P.~././.~.I.L.I.~.^.^.^.^.~.T.I.~./.,XyXdXCXCXSXSXSXSXAXZXCXCXxXdX4X,X/.Q.Q.J.U.H.H.G.H.^.dXDXPXDXPXZXxXeXeXfXzXzXzXzXcXdX>X(.U.L.p.8.' ( ) W ) ( U H L H E ( ( ' Q.cXvX>XJ.J.).H.9.' ( ) W ( ( ) H U ( ) ( ( ^ U U U U ! U U ! U U P P P P U W ! ^ ! ! ! ! *.-.>.>.>.>.*.@.*.*.*.*.*.*.*.*.@.+.Q c a a a a p a a f c a y y a v +.:.i.w.:.Q g ! 6.n.L.L.I.I.G.H.L.H.H.H.U.U.I.U.Q.`.`.`.].`._._.U.U.L.I.H.t.8.9.f.G.I.U.Q././._._._._._._.'.`._._._._.'._.U.G.U.U._.`._._././._._.`.'.'.'.'.`.`.`.`.`.].].`.`.`.`.`.`.'.'.'.'.'.'._._.'.'./.Q.Q.Q./.Q.Q.Q.~.~.I.p.( H d a p 7 7 y y p p p y t t t t t t t r t t t t t t t t t t t t t ",
"].].>XpXdX>XT.d.7.5.5.5.5.4.5.7.q.q.y.y.q.q.q.q.q.q.q.q.f.L.T./.!.P.P.I.P.(.(.(.P.P.P.P.T.Y.Y.Y.P.P.Y.Y.Y.Y.Y.Y.T.Y.P.I.I.I.L.n.d.n.d.d.d.d.n.n.d.n.m.m.n.d.s.d.d.d.d.d.d.d.d.d.n.n.n.n.d.d.n.L.L.I.I.~.3XdXxXxXvXxXcX4X^.s.7.y.q.p.p.:X2X~.q.4.5.5.5.:.:.:.:.:.;.:.:.:.;.=.=.=.=.;.5.7.n.n.y.6.5.:.:.:.:.;.=.=.=.;.:.5.y.a.m.!.%X%X%X*X*X*X%X%X~.Y.Y.L.m.n.s.n.n.n.m.L.L.n.a.q.q.q.q.7.p.L.I.I.I.I.~.^.^./.P.L.I.!.^.^.~.!.P.L.Y.Y.%X:X4XdXzXCXCXCXCXCXZXcXeX4XiX2X].Q.H.U.H.f.f.f.f.G.P.:XfXZXDXZXcXpX:X/.2X4X2X].].:X5XpX].G.t.' ' 4.( ( ( ) ( ) W H H H H ( ( ` t.2XlX5XQ.U._.H.8.( E ) ) / ) ) W W W ) ^ ^ ^ U U U U U U U U Q Q Q U U U U Q Q ! ! ! ! ! *.>.:.>.-.-.@.*.*.-.*.*.*.*.*.-.-.-.@.P h a a a a p f g f f a u y c Q -.2.i.w.@.g W :.n.I.Y.P.P.P.P.H.f.G.U.Q.Q.U.(._.`.`.`.].'._.U.L.G.f.p.9.8.8.8.9.f.H.U.Q._._.'.'.'.'.'.'.'.'.`._.'.`._.U.G.8.8.G.U._.`.Q.U.U.Q.'.`.`.`._.`.`.'.`.`.].].].].`.].].`.'.'.'.].].'._._._._.'._._.Q._._./.Q.Q.(./.T.L.p.4.H d p p p a a p t t t t t t t t t t t t t t t t t t t t t t r r ",
"^.2XfXxX4XP.7.4.6.5.5.5.6.6.7.q.a.y.q.q.q.6.6.6.q.q.q.a.n.I.T.~.P.P.P.P.P.P.P.P.P.P.P.P.T.T.T.Y.P.P.P.P.P.P.P.Y.Y.T.Y.P.P.P.I.m.n.n.n.d.d.d.n.d.d.d.n.n.d.s.s.d.d.d.d.d.d.d.d.d.n.n.L.L.d.d.L.I.I.I.I.`.pXcXvXZXAXxXdX3X^.d.y.p.t.p.d.4X2XP.7.6.5.5.5.:.:.:.:.:.:.:.:.:.;.:.;.;.;.;.;.6.m.L.n.y.0.5.:.:.:.:.;.;.=.:.:.0.u.n.Y.%X*X*X*X*X*X*X%X%X!.P.I.L.n.d.d.n.m.L.Y.Y.L.n.a.q.q.q.q.q.f.I.I.I.L.I.~.^.^.^.~.I.I.P.!.!.P.P.I.I.Y.!.:X3XyXdXfXzXzXfXfXfXlXpX:X].]._.Q.H.G.G.f.t.f.G.G.G.P.>XcXZXxXpX:X/.H.H.].2X_.G.t.G./.2X].t.` ` ` ( ) ) ( ) ) L H H L W U ) E E ` Q.2X].U.H.U.t.` H L W ) ) ) ) ) ) ) ^ ^ ^ ^ U U U U U U U U Q Q Q Q Q U U Q ! ! ! ! ! *.:.>.>.>.-.-.-.@.*.@.*.*.*.*.*.-.-.-.-.+.c a a a a a a f f f f u u a c Q >.2.:.*.U ! :.s.L.I.P.T.~.P.H.f.H.U././.(./._.`.`._._._._.U.H.G.9.9.8.8.' 8.9.f.H.P.Q./._.'.'.'.'.'.'.'.'._._.`.`._.U.t.` ` ' f.U.`._.U.U.Q.'.'._.`.].].`.`.`.`.`.`.`.`.`.].].`.`.`.'.'.'._._._._._._._._.)._._._././.(.(./.Q.I.f.;.G s p s a a p p p p p t t t y t t t t t t t t t t t t t t r r ",
"fXcXlX4XP.7.4.8.6.5.6.q.q.q.q.p.q.q.7.6.6.5.5.5.q.y.s.n.I.I.P.P.P.P.I.I.P.P.P.P.P.P.P.P.T.T.T.T.P.P.P.P.Y.Y.T.T.P.T.T.T.Y.Y.P.I.L.m.n.d.d.d.d.d.d.d.d.d.d.d.d.d.d.d.d.d.d.d.d.d.n.L.L.L.n.d.L.I.P.P.~.>XcXZXDXDXDXfX2X`.~.d.p.f.p.p.I.dX2XI.6.7.6.6.5.:.;.:.:.:.:.:.:.:.:.:.:.:.;.;.5.y.L.(.P.a.0.6.:.:.:.:.:.:.:.0.y.a.m.Y.!.*X,X,X,X,X*X*X%X!.~.I.L.n.n.d.n.m.I.Y.!.!.Y.n.a.u.u.q.q.7.p.L.I.I.L.I.~.~./.^./.P.I.I.I.I.L.I.P.P.~.:X5XeXdXfXfXfXfXdX4X4X5X>XQ.U.Q.Q.U.G.G.F.t.t.f.H.H.d.I.2XcXxX>XU.G.F.G.J.Q.'.).J.J.J.Q.[.[.t.` ` ( ( ) W ) W ) W L U U U ) U ) ( E ` 9.t.t.t.t.8.( ) ) ) W U W ) / ( ( ^ ) ^ W U U U U U U U ! ! ! ! ! Q ! U Q ! ! ! Q Q ! *.-.>.>.-.-.@.@.*.! *.*.*.-.-.-.:.:.:.:.! c f f f a a a f f f f f a a f v ! @.-.:.6.a.n.L.L.L.I.I.H.f.G.I.(._./.Q./._._._././.Q.Q.U.H.G.t.9.9.8.8.9.9.f.G.U.Q._._.'.'.'.'.`.`.'.'.`.`.`.].`.Q.G.' E E ` G./.`._._.`.].`._._.'.'._.`.`.`.`.`.`.].].`.`.`.`.`.].'.'._._._._._.).)._.).Q.)._._._.Q.Q.Q.Q.Q.P.s.;.P p p p p p p t t p y y t y t t t t t t t t t t t t t t r r ",
"xXpX/.d.p.p.p.8.7.7.q.p.a.a.y.q.6.6.6.6.0.0.q.q.s.n.L.Y.P.P.P.I.I.I.P.P.P.P.P.P.P.I.P.P.Y.Y.T.T.Y.T.Y.Y.Y.Y.P.P.P.T.!.T.Y.Y.Y.Y.L.L.m.n.n.n.d.s.n.d.d.d.d.d.d.d.d.d.d.n.d.n.n.n.G.G.L.L.L.L.I.I.P.~.<XdXZXDXPXPXDX4X/.I.L.p.p.p.p.f.^.zX3XI.7.7.q.q.6.5.:.:.:.:.:.:.:.:.:.:.:.:.;.;.5.y.!.^.(.s.5.:.:.:.:.5.0.0.0.u.n.I.!.%X*X,X,X,X,X,X*X%X!.!.I.L.n.d.d.d.n.L.Y.!.~.!.L.n.u.q.0.0.6.6.p.L.I.I.I.P.~.~.~./.~.I.L.L.L.L.L.I.!./.%X3XdXfXfXfXfXdXdXyX,X`.^.Q.U.H.U._.Q.I.G.G.t.t.G.H.L.G.I.:XpXfX_.H.G.G.J.J.J.F.F.Q.2XiXsXaX2XF.` E E E W W W ) U ) U ) H H ) U L ) E F ` 8.t.t.t.9.' ( ( ^ ^ W W ^ / ( ( ^ ^ ^ W U U U U W U ! ! ! ! ! ! Q Q Q ! ! ! ! ! Q I I / -.>.-.@.^ ^ ^ ^ / / *.=.;.:.:.:.5.0.:.! c c c f a y u a f f c c f a p f I *.:.a.n.L.L.d.f.f.f.t.f.H.Q.`._.Q.U.Q._._./.U.U.U.U.U.J.H.L.H.H.G.t.7.t.f.H.U.(._._.'.'.'.'.`.`.`.'.`.`.`.`.`.`.Q.H.9.8.8.G.Q.`._./.Q.U.U.Q._.'._.'.'.'.'.].].].].].`.`.`.'.`.'.'.'.).)._.).).Q._._.Q.Q.Q./._._._.Q.Q.Q.Q.~.P.d.;.G p 8 8 p p y 3 p p y t t t t t t t t t t t t t t t t r r ",
"<XU.f.p.p.7.7.y.q.q.q.p.a.y.q.q.5.6.6.7.7.q.p.s.n.L.I.P.P.P.P.P.P.P.P.(.P.P.P.P.P.P.P.P.P.Y.T.T.P.P.P.P.P.Y.I.I.I.P.P.P.P.P.P.I.L.L.m.m.L.n.d.a.d.d.d.d.d.n.n.n.d.n.n.n.n.n.n.n.G.G.L.L.I.I.I.P.T.^.4XxXDXDXPXDXDX4XT.d.d.g.d.d.f.L.,XxX3XI.f.p.y.q.0.6.5.5.:.:.:.:.:.:.:.:.:.:.;.;.6.a.(.%X(.a.:.:.:.5.6.0.q.u.a.m.Y.%X:X,X,X3X3X3X,X,X*X%X!.!.I.L.n.n.n.n.I.P.!./.^.!.L.a.q.0.0.0.6.q.p.L.I.I.P.P.~.~.~.~.~.I.n.L.L.L.L.P./.%X,XyXfXfXdXfXdXeXeX4X:X~.P.I.P.H.U.].].U.H.G.G.H.G.L.T.~.~.].2X4X].Q.Q.).W.J.F.S.] t.Q.].iXpXpX].Q.f.8.( ) H W ) W ) ) ^ ) ) ( ) H H E ' G.H.f.7.t.t.6.4.( ^ / =./ / / / / / ^ ^ U U U U W U Q ! ! ! ! Q ! Q Q Q ! Q Q ! ! Q P P ^ *.>.-.*.^ / *./ / *.-.:.:.5.0.:.5.w.i.2.! c c f a y y a a f f g f f f f f v U ;.q.s.s.p.p.7.8.8.f.P./.`./.Q.Q./._._.Q.U.I.U.U.U.U.U.U.Q.U.L.f.t.t.f.H.U./._._._._.'.'.`.`.`.`.`.`._._.`.].]._.U.I.U.U._.'.Q.I.t.9.G.U._._._.`._._.'.'.'.'.'.'.'.'.'.'.'.'.'.'.).).).)._.).)._./.Q.Q.Q._._._.).Q.Q.Q.P.I.L.u.;.W g p 8 p p p p p y t t t y t t t t t t t t t t t t t t ",
"L.p.e.7.p.q.e.e.q.q.q.q.q.7.7.e.7.7.7.7.q.q.s.L.I.P.P.T.P.I.P.P.P.P.(.(.P.P.P.P.P.P.I.I.P.P.P.P.P.P.P.P.I.I.I.I.I.I.I.I.I.I.I.I.I.L.L.L.L.L.d.f.d.d.d.d.d.d.n.d.n.n.n.n.L.L.L.L.L.L.L.I.I.I.P.T.Q.>XfXAXDXPXPXPXZX4XU.d.f.g.d.G.f.P.4XxX2X(.d.f.p.q.q.6.5.5.5.5.:.:.:.:.:.:.:.:.:.;.6.s.^.^.P.y.:.:.5.0.0.q.u.a.m.Y.!.*X3X4X4X4X4X5X3X,X*X%X~.Y.L.m.n.n.L.L.P.~.^.%X%X~.L.a.0.6.0.q.q.y.a.n.I.I.I.I.~.~.~.~.P.I.n.L.L.I.I.!.%X:X4XfXzXfXfXdXfXeXeXyX3X^.~.!.~.P.H._.].(.P.P.T.T.I.P.^.<X^./._.].Q.Q.).[.[.W.F.{ ] ` 9.t.G.H./._.]./.f.` ( ^ ( / ( ^ ) ( ( ( ( ) ) ( f.(._.H.9.7.t.p.p.7.;./ / =.=./ W W ^ / ^ ^ U U U Q W U Q Q ! Q I P U Q ! ! ! ! ! ! @.@.@.*.:.:.:.>.-.*.*.*.=./ *.=.5.5.6.0.:.:.q.n.b.>.v f f f a a a a a a a f f f f f h h G ^ 6.p.a.p.7.6.8.p.I.(./.Q./.'.`._./.U.U.U.U.Q.Q.Q.Q././.Q.I.f.t.9.p.H.U./._._.'.'.'.`.`.`.].].`.`._._._.].]._._._._._.`._.Q.H.' ` 9.U._.`./._._.`.`._._._.'.'._._.'._.'.'.'.'._.).)._._._.Q._._././._._._._._.Q.Q.I.f.p.d.n.s.6.^ d 8 p p p y p y t t y y t t r t t t t t t r t t t r ",
"4.7.p.e.8.e.q.q.q.q.q.7.7.7.7.7.7.7.q.q.p.a.n.L.T.T.T.P.P.I.P.P.P.P.P.P.P.P.I.I.P.I.I.I.I.I.I.I.P.P.I.I.L.L.L.L.L.L.I.I.I.P.I.I.I.L.L.L.L.n.d.d.d.n.n.n.d.G.n.d.n.n.n.n.L.L.L.L.n.n.L.I.I.I.P.~./.4XxXDXDXPXPXPXxX>XQ.G.d.d.G.G.H./.dXxX2X~.L.d.p.y.7.6.6.5.5.5.5.5.:.:.:.:.:.:.5.;.6.m.:X:XY.q.6.6.q.y.u.u.n.m.Y.!.*X,X3X3X3X3X4X3X,X:X*X%X!.Y.L.m.m.L.I.P.!./.%X%X*X%XY.n.q.0.q.q.a.a.a.d.n.L.L.I.P.~.~.~.!.P.L.L.L.I.!.^.,X5XeXzXzXzXfXfXdXeXeXyX3X:X%X^./.~.I./.<X`.^.%X<X%X^./.<X:X^.U.U.U.H.Q.].iX[.J.t.] ' ` E E E E ' G.Q.Q.f.4.( ( ( ) ) U ) ) ^ ) ) ( ' f.`.>XQ.t.4.p.p.p.p.p.7.;./ ^ =./ U H W / / ! U U U W U U U Q ! U U U U U U W W ! ! ! ! / -.:.0.6.;.*.*.*.*./ ( ( =.4.6.6.6.6.:.:.0.u.b.2.Q g f f f f a a a a a a a a a f h h h P *.6.y.u.q.6.4.p.I.Q./.).'.'.'._.Q.U.U.U.Q./._././././.~.I.d.9.9.9.G.U./._._.'.'.'.`.`.`.`.`.`._.`.`._.`.`._.<X].].`._._.Q.U.9.` t.U./.`./.~.Q./.`._._.'.'._._._.'.'.'.'.'.'._.Q.Q._._._.Q.Q._._._._._.).Q.).Q.U.f.4.( ;.y.n.a.0.^ G s p p 3 p t t t y y t 5 r r t t t t r r t t r r ",
"p.p.p.7.q.p.y.q.7.p.7.7.7.6.7.7.7.7.p.a.d.n.L.P.P.T.T.T.P.P.P.T.P.P.P.P.P.P.I.I.P.I.I.I.I.I.I.I.I.I.L.n.d.d.n.L.L.L.I.P.P.P.P.I.I.I.L.L.L.L.L.L.n.n.n.n.d.d.L.n.n.n.n.L.L.L.L.L.d.n.I.I.I.I.P.~.:XdXZXDXDXPXPXDXcX:XT.I.H.d.G.H.U.`.fXxX2X~.I.G.p.7.6.6.6.6.5.5.5.5.5.5.5.5.5.5.5.:.q.Y.4X,XY.7.q.y.u.a.a.n.L.Y.!.*X:X,X,X,X,X,X3X,X,X*X%X!.!.Y.L.L.L.Y.Y.!./.%X:X:X:X*X~.n.y.q.q.a.s.s.a.a.d.n.L.L.I.!.!.!.!.!.I.I.I.P.^.:X5XeXdXfXzXfXdXdXeXeXdXyX4X5X,X:X<X^.~.^.:X,X,X,X3X,X:X^.<X<X~.I.H.f.t.Q.>X>XQ.t.' ' ` ` ` ' ' ( E F E ( ( ) ( ( ) ( ) U ) ) ) ) ) 8.d.Q./.H.' ` ( 7.p.p.7.q.q.6.;.=.*.^ U G W / / ! U U U W U U U Q Q Q Q W W U U P P W ! ^ ! ! *.:.5.-.! W ! *.*.*.( ( 4.5.7.6.6.5.5.:.:.0.u.i.-.m h h f a a f f f f f f f a f f a f h P ^ :.y.0.5.8.p.I.Q./.'.'.'.Q.Q.Q.Q.Q.Q.Q.Q.Q.Q.Q.~.U.P.I.d.9.9.9.f.I./._.'.`.`.'.'.'.'.'.'._._._.`.`.`.`.`.'._._.`._._._./.U.f.G.I.Q./.P.L.I.Q./._._.`.'._.).'.'.`.'.'._._._.Q.Q._._._.Q.Q.Q.Q./._._._./.Q.U.f.` H Z D ) 5.a.s.u.=.P s p p p t t t y y t 5 r r t t t t t t t t r r ",
"y.p.p.p.q.q.q.q.p.7.7.7.7.7.7.7.7.p.p.d.d.L.L.I.I.I.I.I.P.P.P.P.I.I.I.I.I.I.I.I.I.I.L.G.G.L.L.L.n.d.f.p.f.d.d.L.L.L.I.I.P.P.P.P.I.L.L.L.L.L.n.n.L.n.n.n.n.n.n.L.n.n.L.L.L.L.L.L.L.L.L.I.L.P.(.^.5XxXDXDXDXDXDXAXcX>XP.H.G.G.H.U.Q.].cXvX5X/.Q.H.g.q.4.7.6.5.5.6.5.5.5.5.;.;.;.5.5.0.a.L.~.I.a.q.a.s.n.L.Y.!.!.!.*X*X*X*X*X*X*X*X:X*X%X%X^.!.!.Y.I.Y.Y.Y.!.!.%X%X:X:X:X*X^.Y.n.n.a.n.m.m.n.a.y.q.y.s.L.!.^.^.^.~.!.!.~.^.:X3XyXeXfXfXfXfXdXdXeXeXeXeX4X5X3X,X:X:X%X3XyXyX4X3X3X5X,X:X^./.U.G.f.f.t.H.Q.U.f.8.8.9.7.' ' ( ' ' ) ( 7.7.( ) ) ) W W U W U J ) ) 4.].4X2X9.` ( ' 8.7.7.7.6.6.6.5.4.;.=.^ G H U U / ^ U U U U U P U U Q U U U U U W ! ^ / ! U P W ^ =.=.^ W P U =.=.=.' ( 4.7.7.7.6.4.;.;.;.0.C.m.i.@.h f f f f f a c f f f f f f f f a f g P ~ *.:.:.8.f.P.(./._._.).).Q.Q.Q.Q.Q.Q.U.U.U.I.L.L.L.L.d.p.e.9.G.U.Q._._._._._.`._._.Q.I.G.G.U._.`.`.`.`._._._.`.`._._._.Q.U.U.U./.P.7.4.8.L./.`._._._.`._._._._.'.'.'._._./._._._.Q.U._._._.)._._._././.U.t.` Y D V D J =.7.s.s.5.Q h 8 p p p y 3 3 t t t t t t t t t t t t t t ",
"y.p.p.p.p.p.q.q.p.7.7.7.7.7.7.p.p.p.f.d.L.L.I.I.I.I.I.I.I.I.I.I.I.I.I.I.I.I.I.L.I.L.G.d.G.L.L.L.d.d.f.f.f.d.L.L.L.L.I.I.I.P.I.I.L.L.L.L.L.L.n.L.L.L.n.n.n.n.n.n.n.n.L.L.L.L.L.L.I.I.I.I.I.P.~.:XdXZXDXDXDXAXAXvXlX>XP.G.d.G.L.P./.2XxXZXpX].Q.I.g.q.7.7.5.5.5.6.6.5.5.5.;.;.;.5.6.q.n.m.L.n.q.p.m.L.I.Y.~.~.!.%X%X%X%X*X%X%X%X!.%X%X!.!.!.!.Y.Y.Y.Y.!.!.!.%X%X*X:X,X,X:X*X%XY.L.m.Y.Y.L.n.u.y.y.7.a.L.^.%X%X%X%X%X*X:X,X3XyXdXfXfXfXfXfXdXdXeXeXdXeXeXyX5X3X3X3X:X4XdXeXyX4X4X5X3X:X^.I.f.t.t.t.f.H.Q.I.t.4.8.7.9.4.' ( ( ( ( 8.d.d.4.H W W H H H U H U ) ) 7.^.>X(.' ` ' 8.7.6.6.5.5.6.6.5.;.=.4./ U ^ / ^ / ^ U U U U U U U U U Q Q U U U W ! / *.^ P P U / :.;.! P G U =.4.4.4.4.7.7.7.6.6.4.=.*.-.0.n.Y.m.w.v f a f f f a f f f f f f f f f a f f f v W / / ;.p.I.Q.(.Q.Q.Q.).Q.Q.Q.Q.Q.U.P.L.H.d.f.f.p.p.p.7.p.p.G.U.Q._._./._._._._./.U.H.t.G.U._.`.`.`.`.`._._.`.`./.U.L.U.Q./.Q.~.I.p.4.4.7.f.L.U./._._._._._._.'.'._._./.Q./././.Q.Q._._._._._._././.U.U.G.' L J V 9 d G ^ q.n.a.6.! g a p p y t 3 t t t t t t t t t t t r t t ",
"p.p.p.p.p.p.p.p.7.7.7.7.7.7.p.p.f.d.L.L.I.I.I.I.L.L.L.I.I.I.I.I.I.I.I.I.I.I.I.L.I.L.d.d.L.L.I.I.L.n.d.d.d.L.L.L.L.L.I.I.I.I.I.I.L.L.L.L.L.L.L.L.L.L.L.L.n.n.L.L.L.L.L.L.L.L.L.I.I.I.L.I.P.(./.>XxXDXPXDXAXvXxXcXdX2XQ.H.f.H.L.P._.5XZXZXpX].(.I.d.y.7.7.6.5.6.6.5.6.5.5.;.;.5.5.q.a.n.m.n.s.s.n.Y.P.Y.~.^.~.!.!.!.^.^.^.^./.!.Y.Y.Y.Y.Y.Y.Y.Y.Y.Y.!.!.%X*X*X*X:X:X,X,X,X,X,X*X!.!.!.!.Y.n.s.a.a.a.s.Y.%X:X:X:X,X,X3X5X4XeXdXfXfXdXdXtXtXtXtXtXtXfXdXdXeXyX4X3X5X3X4XeXeXyX4X4X4X4X3X`.I.f.t.t.t.f.H.H.H.p.p.p.p.9.4.' ' ' ( ( 7.I.I.4.J H H J H J H H W W W 4.g.H.f.t.t.t.7.p.7.6.5.6.6.6.;.=.=.=.( / =.=./ ^ U U U U U Q Q Q U U Q Q U U W ! ! ! *.*.! W ^ =.6.;.^ H G U =.4.5.6.7.7.7.7.7.8.4.;.*.;.6.n.!.!.C.! f p f g g f f f f f f f g g g h h f a a h P Q ) 4.d.U.Q.Q.Q.Q.Q.Q.Q.U.U.U.I.L.f.p.9.7.8.8.7.7.7.p.f.L.U._._._././._._._.Q.U.H.G.G.U._.`.`.`.`.].`._.`._.U.f.8.G.U.Q.U.I.I.L.p.e.8.' 8.G.U._._._._.'._._.'.'._._.Q.Q././.Q./._././.).Q.Q./././.U.L.9.' U J D d s G =.y.a.y.;.P d p p p t t t t t t t t t t t t r r r r ",
"y.y.y.y.p.p.p.p.7.7.7.7.7.p.f.d.G.L.L.I.I.I.I.I.I.L.L.I.I.I.I.I.I.I.I.I.I.I.I.I.I.I.L.G.L.L.I.I.I.L.L.L.L.L.L.L.L.L.L.L.I.I.I.I.L.L.L.L.L.L.L.L.L.L.L.L.L.L.L.L.L.L.L.L.L.L.L.I.I.I.I.P.P.~.^.4XZXDXDXDXZXcXdXpXpX4X(.G.f.G.L.P.`.4XZXZXpX].~.L.d.y.7.7.6.6.7.q.e.6.5.5.;.5.5.6.q.a.n.L.L.I.I.Y.Y.Y.!.~.~.!.T.!.!.!.~.~./.~.Y.Y.Y.Y.Y.Y.I.I.Y.Y.!.!.*X:X,X,X,X,X,X,X,X3X3X3X:X%X%X*X%XI.m.m.m.m.n.m.Y.*X3X3X3X3X4X4XyXeXdXdXdXdXtXtXtXtXtXtXtXtXfXfXfXdXeXyX4X4X5X4XyXyX4X4X4X4X4X4X>X/.H.f.f.t.f.G.H.f.d.G.d.p.9.8.4.' ' ( ' 7.I.L.7.W H W H H G G U U H W ) ( 4.f.Q.U.H.p.p.p.y.q.q.6.5.=./ =.( / / *./ ^ ^ U W W Q ! Q Q Q Q Q ! Q U Q ^ ^ ! ! / *.=.;.5.6.y.7.;./ W / 4.4.6.7.f.p.p.p.p.6.4.;.;.;.6.u.I.Y.m.-.g a g g f f f f f f f g g g g a g h f a h G P H =.f.P.Q.Q.Q.Q.U.U.U.P.P.I.L.d.p.7.4.4.4.4.4.8.7.p.H.U.Q._._.Q././._._./.Q.Q.U.U.U._.`.`.`.`.`.].`.`.`._.H.8.` 8.H.H.f.p.d.I.I.L.f.8.8.G.U._.Q.U._._._._._._.)._.U.U.U./././.Q.U.U.Q.Q.Q.Q.Q._./.U.H.p.8.( ) U J H / 6.u.u.6.*.P s p p p y y t t t t t t t t t r r r r ",
"p.y.y.p.p.p.p.p.7.7.p.p.p.f.d.L.L.L.I.I.I.I.I.I.I.I.I.I.I.I.I.I.I.I.I.I.I.I.I.I.I.I.L.L.L.L.L.I.I.L.L.L.L.L.L.L.L.L.L.L.I.I.I.I.L.L.L.L.L.L.L.L.L.L.L.L.L.L.L.L.L.L.L.L.L.L.L.L.L.I.I.P.~.~.`.pXZXDXDXDXvXdX4X2XpXpX].I.f.H.H.U.:XdXDXZXeX`.I.d.g.q.7.7.6.6.q.q.q.5.5.5.5.5.6.5.q.a.n.I.Y.Y.!.Y.~.!.~.~.!.Y.P.Y.Y.Y.Y.!.~.!.Y.Y.Y.Y.Y.Y.L.I.Y.Y.!.%X:X,X,X3X3X3X3X3X3X4X3X,X*X%X*X:X%XY.L.I.I.Y.Y.Y.^.,X4X4XyXyXeXeXeXdXdXdXdXdXtXtXtXtXfXtXtXtXfXfXeXeXeXeXeXeXeX4X4X4X4XeX4X4X4X4X4X:X/.H.G.f.U.Q.U.H.H.I.L.G.t.7.' ( ) ( 8.p.d.p.7.4.) U U G J d G G U H H ( L.:X2XQ.H.d.p.p.a.p.y.6.;./ / =.=.*.;.5.;./ ! ^ ^ ! ! ! Q ! ! ! ! ! ! ! ^ -.=.*.! ! ! *.5.6.q.p.p.y.7.4.6.7.7.p.d.~.L.d.f.p.6.4.;.;.6.6.6.u.n.u.-.G d g g f f f f f f f f f f f a f g g g h v P W 5.L.T.~.Q.Q.U.H.I.I.I.I.L.d.p.7.4.' ( ( ( =.4.7.p.L.U._.'._._._._._._././././._._.`.].`.`.`.`.`.`.`.`._.I.t.9.G.I.G.8.` ' p.L.P.U.I.L.U./.U.H.I.U._._.)._.).U.U.L.G.L.U./.Q.U.U.U.Q.Q.U.U.Q.Q./.Q.T.L.d.p.7.5.4.;.5.y.a.u.0.:./ G p p p p y t t t t t t r r r r r r r ",
"y.y.y.y.p.p.p.p.p.p.p.f.d.G.L.L.I.I.I.I.I.I.I.I.I.I.I.I.I.I.I.I.I.I.I.I.I.I.I.P.I.I.L.L.d.d.d.G.L.L.G.L.L.L.L.L.L.L.L.L.I.I.I.I.L.L.L.L.L.I.I.L.L.L.L.L.L.L.L.L.L.L.L.L.L.L.L.L.L.I.P.~.~./.`.pXZXDXDXAXcX5X>X>XpXfX2XU.H.H.H.~.2XxXDXZX5X^.L.d.p.q.7.7.6.6.q.q.q.6.5.5.6.6.6.q.q.a.m.I.Y.Y.Y.Y.~.~.~.~.T.P.P.Y.T.Y.T.!.!.T.P.I.L.I.Y.Y.Y.P.!.~.%X*X,X3X3X4XyXyXyXyXyXyX3X:X%X!.*X:X%X!.I.I.Y.!.%X,X3XeXeXeXeXeXdXdXfXfXfXfXfXfXzXhXfXfXfXfXfXfXfXdXeXeXdXdXdXdXdXdXdXdXdXdXpXpXpX4X4X2X>X/.U.H.]._.Q.H.d.d.G.d.p.4.( ` p.P.^./.d.7.5.4.H J H J G d G G H J D 8.`.pX4XU.L.G.d.a.s.p.q.:.*.^ / =.=.=.u.Y.m.5.! *.*./ ! ! ! ! ! ! ! ! ! ! *.;.:.:./ W P U =.5.6.q.p.d.L.d.G.d.d.L.].pX<XI.p.7.4.4.6.y.a.y.5.6.0.6.=.U G g h f f f f f f f f f f f f f g g g g P P *.y.P.~.~.(.Q.U.H.I.I.I.L.L.p.7.4.' ( ( ( ( ( 4.7.d.U.Q._._.'._._._././.Q./.`.`.`.'.`.`.`.`.`.`.`.`.`.`._.Q.U.U.U.Q.G.8.E H ( 8.I.(._././.Q.U.G.G.U.).).).).U.U.G.8.' 9.H.U.Q.U.Q.Q.Q.Q.U.U.U.U.U.U.U.L.L.d.a.p.p.q.7.q.q.6.5.:.:.W h p 7 p p t t t t t t r r r t t r r ",
"p.p.y.y.y.p.p.p.f.f.d.G.L.L.I.I.I.I.I.I.I.I.I.I.I.I.P.P.I.I.I.I.L.L.L.L.L.I.I.P.I.I.I.L.d.d.d.L.L.L.L.L.L.L.L.L.L.L.L.L.I.I.I.I.L.L.L.L.L.I.I.I.L.L.L.L.L.L.L.L.L.L.I.I.I.I.I.I.I.T.U.~././.`.dXZXDXDXxXpX>X].>XdXxXpXQ.H.H.G.Q.5XvXDXZX2X~.d.g.y.q.7.7.6.6.7.q.0.6.6.6.6.6.q.q.q.a.m.Y.Y.Y.Y.!.~././.~.Y.Y.P.T.T.T.T.T.T.Y.P.I.I.I.P.Y.T.!./.%X:X,X3X5X3X4XyXyXyXyXyX3X,X:X%X%X*X:X*X%X!.!.%X*X4XeXdXfXeXeXeXfXfXfXfXfXfXzXzXzXzXzXfXfXfXfXfXfXfXdXeXdXdXdXdXdXdXdXdXpXpXpX4X4X4X5X2X2X2X>X]./.]._.Q.H.G.d.f.7.4.' ( p./.4XeX:Xd.5.( ) J D J H U G G G G D J 4.I.^.`.P.G.d.d.a.a.7.;.*./ ^ / =.=.=.n.!.Y.0.! *.*.*./ ! ^ ^ ^ ^ ! ! ! ! ! *.=.:.=./ P G W =.5.7.d.L.I.I.I.I.I.~.4XxX2XP.p.8.( 4.a.d.n.s.7.6.6.:.;./ W g a f a f f f f f f f f f g g g g g g v P / q.I.~.~.Q.U.U.U.U.I.I.L.d.p.6.4.( ( ( ( ( ' 8.p.L.U./._.'.'._._.Q./././._._._._._.'.`.`.`.].`.`.`.`.`.`._._._.`._.U.f.' L L ' d.U././.Q.U.U.J.L.U.Q.Q.Q.Q.U.U.9.` ' p.H.U.U.U.Q.Q.Q.Q.U.U.U.U.I.L.H.G.f.p.q.q.7.4.=.;.=.=.:.:.=.^ P d p 8 p 3 t t t t t r r r t t t t ",
"p.y.y.y.y.p.p.p.d.d.L.L.I.I.I.P.I.I.I.I.I.P.I.I.I.I.P.P.I.I.I.L.L.G.d.d.d.L.I.I.I.I.I.I.L.G.L.I.L.L.L.L.L.L.L.I.I.L.L.L.I.P.I.I.L.L.L.L.L.I.I.L.L.L.L.L.L.L.L.L.I.I.I.I.I.I.I.I.U.Q.Q.~././.].pXvXAXxXdX2X/._.>XlXvXpX/.d.H.d.~.4XZXDXxX:XP.d.g.y.q.7.7.6.5.6.6.6.6.6.6.6.q.q.q.y.a.n.Y.Y.Y.~.~.~././.!.Y.Y.!.!.!.!.!.T.T.Y.P.Y.P.Y.T.~.~./.%X:X,X,X3X4X4X3X3X3X3X4X3X,X,X,X,X*X,X,X*X,X,X,X3XyXdXdXdXdXeXfXfXfXfXfXzXzXzXzXzXzXzXzXfXfXfXfXfXfXdXdXdXfXfXdXdXdXdXpXpX4X5X2X>X>X2X>X].>X2X5X2X].>X]./.Q././.L.p.4.8.7.G.Q.^./.L.7.( W U U H H H G U U U U U W W ' 9.d.H.f.p.p.p.y.4./ ! ^ / ( =.=.=.u.n.u.;.! *.*.*./ / ^ ^ ^ ^ ^ / ^ ! Q W ^ *.:.:./ W ^ 4.6.7.d.I.P.P.P.P.U._.4XcX<XH.7.6.;.6.d.m.L.n.s.p.q.6.6.:.^ g f g a f f f f f f f f a g g f f g f g g P :.n.~.~.Q.U.U.U.P.I.I.L.d.p.6.' ( ( ( ( ( ' 8.d.I.Q._._._._._./.Q.Q././._._._.'.'.`.].`.].].`._._._.`.`._._._.`._.Q.I.f.8.( ' 7.L.U.Q.Q.U.U.U.U.Q.Q.Q.Q.Q.U.H.G.9.9.L.U.U.U.P.U.U.U.U.U.U.U.I.L.H.G.f.p.6.5.6.5.=.( =.=./ / / ^ ^ ! P d p y 3 t t t t t r r r t t t t ",
"a.p.p.p.p.p.d.d.L.L.L.I.I.I.P.P.I.I.P.P.P.P.I.I.I.P.I.I.I.I.I.L.L.d.d.d.d.L.I.P.P.~.~.I.L.L.I.I.I.I.I.I.I.I.I.I.I.I.I.I.I.I.I.I.I.I.L.L.I.I.I.I.I.I.I.L.I.I.I.P.I.I.P.P.P.P.P.P.U./.(././.^.].4XcXcXpX2X_.U./.>XlXvXpXQ.H.H.d.~.4XxXZXfX<XL.d.p.7.q.q.7.7.6.6.6.5.5.6.0.q.q.q.q.y.n.L.P.T.~.~.~.~./.~.~.!.~.~.~.~.!.T.~.~.!.P.Y.Y.T.~.^.^.%X:X:X3X3X4X5X3X3X3X3X3X3X3X3X,X3X3X3X3X3X3X4XyXeXeXfXzXfXfXfXdXdXdXfXfXfXfXzXfXfXfXfXfXfXfXfXfXfXdXeXdXdXfXxXcXfXdXpXpX2X2X>X:X].].].].].>X>XiXiX2X>X>X>X:X2XeX4X^.d.q.q.p.p.p.q.4.;.' ( ) W W W W W U U W U P U ^ W H ) 7.p.p.7.y.q.4./ ! W ! ^ *.*.*.=.:.:.*.^ ! / / ^ ^ *.*./ *.*.*.^ ! ! W P P Q =.:.:.=.=.;.4.7.p.L.I.I.P.P.U.~.<X:X/.d.p.6.4.7.d.m.L.n.n.n.a.q.7.6./ P d a a f f f f f f f f f g g f f f f f f G ! q.I.~.~.T.P.I.H.G.d.d.d.p.4.=./ ^ ^ ( ( 4.p.G.U.Q._./._._._.Q.Q.Q.Q./._._._.`._.`.].`.`._.Q.U.U.Q._._._./._._._._.Q.I.d.7.8.8.p.I.Q.I.I.U.U.Q.Q.(./.Q.U.U.U.L.L.L.I.U.U.P.I.H.H.I.P.P.P.P.I.L.G.p.7.7.5.4.;.=.=.=.=./ ^ ) ! ! ! W P g s p y y y t t t t t t r r r t ",
"p.p.p.p.f.d.L.P.I.I.P.P.P.P.P.P.P.P.P.P.P.P.I.I.U.P.P.P.I.I.I.I.d.f.f.d.d.L.I.P./.^./.T.I.I.I.I.I.I.I.I.I.P.I.I.I.I.I.I.I.I.I.I.I.I.I.I.I.I.I.I.I.I.I.I.I.I.P.T.P.P.T.T.T.T.T.T.U./._./.(.(.`.>X5X2X].Q.U.H.Q.].pXaX2X_.Q.U.G.U.>XdXdX4X~.d.p.p.q.q.q.7.7.6.6.6.5.5.q.q.q.q.q.q.a.m.Y.T.~.~.~.~./.^.^.~./.^.%X*X^.^./././.~.!.!./.^.%X:X:X:X:X,X3X4XyX4X4X3X3X3X3X4XyX3X3XyXyXyXyXyXeXfXfXfXzXzXfXfXeXeXeXeXeXdXeXfXfXfXfXfXtXtXfXfXfXfXdXdXdXdXfXfXxXxXxXdX4X4X5X:X_.`.:X2X2X].].2XpXpXpXpX4X>X>X>X>XpXxXxX3X!.f.p.4.' ' 4.6.7.y.7.;.( / / ^ ) ! W W Q U ! W H ^ =.p.p.7.4.4.=./ U P P P ! *.*.*.=.=.*.^ ! ! *./ *.=.;.;.;.;.:.;.*.! U P P P P P ! =.;.4.=.( ( p.d.L.L.I.I.I.P.G.L.d.7.7.6.6.p.a.n.m.m.L.L.a.q.7.6.=.! P h f g f f f f f f f f g f f f f f g g g P =.s.I.~.T.P.f.p.7.q.y.y.7.4./ / ^ ( ( ( 8.f.I.U.Q././._._.Q.Q.Q.Q./._._._._._._._.`.`._.U.L.f.G.G.U._._././._._._.Q.U.~.L.7.` ` 7.G.G.f.H.U.U.U.Q./.Q.U.U.U.I.L.L.L.L.L.H.G.G.G.G.H.G.L.L.L.G.f.p.8.4.=./ / ^ ^ ^ ^ W W U U W W U P G h a p y y t t t t t t r r r r ",
"f.a.p.p.p.f.G.L.P.P.P.P.T.T.T.P.P.P.P.P.P.P.P.P.P.P.P.P.I.I.I.I.I.I.I.I.I.I.P.~./.^.^.~.P.I.I.I.I.I.I.I.P.P.P.P.I.I.I.I.I.I.I.I.I.I.I.I.I.I.I.I.I.I.I.I.I.P.P.T.P.T.T.T.~.~.~.~.~._.`.~.U.Q.^.].^.~.P.H.G.G.U.].iXpX2X2X2X].P.~.:X,X<X^.I.a.7.p.q.q.7.7.7.6.6.6.6.0.q.0.q.q.q.q.n.I.Y.!.~.~.~.~.^.^.^.^.^.*X,X,X,X:X:X:X*X%X^.^.^.%X*X:X:X:X:X,X,X3X4XyX4X4X3X3X4XyXyXyXyXyXeXeXyXeXfXzXzXzXzXzXfXfXeXeXeXeXeXeXtXfXfXfXfXfXtXtXfXfXfXfXdXdXfXfXfXfXfXzXdX4X:X:X:X^./.^.:X2X2X].].].pXpXiX2X2X>X<X:X`.<X5X,X/.L.d.g.p.p.p.g.d.d.n.s.y.6.5.;.=.*./ ^ ! ! ! ! U J U =.p.p.7.4.5.=.^ P G G P W / *.*.*.*.! ! / *.=.=.:.5.5.5.6.6.6.;.( W G G G P g G U ^ =.;.( / ( 7.f.d.G.L.I.I.L.d.p.7.6.6.4.5.q.y.s.m.Y.P.L.a.7.5.5.;.*.W g f g h h f f f g h g f f f f g g g g h g U ;.s.I.I.L.7.4.4.4.;.;.=.=./ / / ^ ( ( 7.L.U.Q./._._._._.Q././././._._._.'._._._.`.`.`.U.G.8.8.t.I.U.Q.U.Q.Q._./.Q./.^.P.p.( U ) 8.f.G.I.Q.U.U.U.U.U.U.I.I.L.L.d.f.f.f.f.f.f.f.p.p.p.f.f.d.f.p.7.4.( ^ W ! U U P P P P P P P U P P G d h a p y t t t t t t r r r r ",
"a.a.a.a.f.d.L.I.I.I.U.T.T.T.U.T.U.T.T.U.U.U.U.U.P.P.P.P.I.I.I.I.I.I.I.I.I.L.L.L.I.I.P.P.I.I.I.I.I.I.I.I.P.P.P.P.P.I.I.L.I.I.I.I.P.P.P.P.P.P.I.P.P.I.I.I.P.P.T.T.P.P.T.T.~.~././.Q.^.`.T.U./.>X>X/.I.H.H.G.H.Q.].>X2XpXfXfX:XL.Q.^./.I.P.L.p.5.7.q.q.q.q.7.6.6.6.0.0.0.q.q.q.a.s.L.Y.~././.~./.%X:X,X3X,X,X4XyXdXdXdXeX4X5X,X:X:X*X:X:X,X4X4X3X,X3X,X3X5X4X4X5X3X4XeXdXeXyXyXeXdXeXfXzXxXxXzXzXzXfXfXeXeXeXeXeXdXfXfXfXfXfXfXfXfXzXzXzXfXfXfXfXfXdXeXyXyX4X,X:X:X:X:X<X].:X>X:X`./.].2X2X>X:X>X:X].`./.~.~.P.I.I.d.d.d.L.L.I.P.P.I.n.p.y.y.q.5.:.=./ ^ ^ ^ ! U J U 4.d.d.p.5.4.^ ! U G g g P / *.*.*./ ^ / =.;.5.6.0.q.6.7.y.y.7.;.) J G G G G g P W ! / =.( 4.q.d.d.d.G.I.I.L.d.a.q.5.4.;.=.5.6.y.u.n.L.P.n.q.5.4.4.5.:./ g a g h h f f f g h h f f f g g c c c c G P / q.L.I.I.d.p.6.4./ / / ^ ^ ^ / / ( 4.p.I.~./._._._._._._._././._._._.`.`.`._._.`.].]._.U.G.t.f.H.U.U.U.Q./.Q.Q.Q.~.T.I.d.7.4.) ( p.L.U.U.U.T.U.U.I.L.H.G.f.p.p.q.p.p.p.p.p.7.7.6.6.7.p.p.p.q.5.=./ ! W W P P P G g g G P P P P G g h f a a y t t t t t t r r r r ",
"p.p.f.d.L.L.I.P.I.I.P.T.U.U.Q.Q.Q.U.U.T.U.U.U.U.U.P.P.P.P.P.P.I.I.I.I.I.L.L.d.d.f.d.L.I.I.I.I.I.I.I.I.I.P.P.P.P.P.I.I.I.I.I.I.I.P.P.P.P.P.P.P.T.P.P.P.P.P.P.T.T.T.T.T.~.~././././././.P./.:XdXdX>XQ.I.I.H.H.Q.`.].>XiXfXdX/.f.H.I.L.d.I.d.p.5.q.7.7.7.7.7.7.7.6.q.q.q.q.q.p.s.n.I.~.^.^.^.^.:X,X4XdXdXdXdXdXzXCXCXCXxXzXfXdX4X,X,X3X4XyXdXdXeX4X5X,X:X,X3X3X,X,X4XdXdXdXdXdXdXdXfXzXxXxXCXxXzXzXzXfXfXfXfXfXfXzXzXzXzXzXzXzXzXzXzXzXzXzXzXfXdXeXdXyX4X5X4X4X4X5X5X5X:X:X`.].].].^.^.:X:X`.].>X<X~.U.P.P.P.I.I.I.L.I.I.I.I.I.(.~.P.L.d.s.a.y.0.:.=.*.*.*.^ U U G ^ 8.d.d.p.8.;.! U P G g g U *.=.*./ / / ;.5.6.6.y.p.a.p.d.n.d.y.( H D G G G g g G W / =.;.;.7.d.I.L.d.d.L.L.d.p.6.;.=.=./ / :.5.6.q.a.m.m.a.5.=.=.4.q.y.:.P a v h h f f f f f f f g f g g c c c g c G U ;.a.I.P.I.L.s.5./ ^ / / ^ ^ ^ / ( 8.d.P.~./._._._._._._._._._._._.`.`.`.`._._._._.].`./.U.I.H.U.U.Q.Q.Q._.U.U.U.T.P.P.P.L.d.p.7.f.L.L.I.P.I.I.L.L.d.f.p.p.q.e.e.e.7.7.6.7.6.4.4.4.5.5.7.7.5.;.=.^ ! W U P P G g h h g g G G G g g h a a a y t t t t t t t t t t ",
"a.d.n.L.I.I.I.P.P.P.T.T.U.U.U.U.~.Q.T.T.T.U.U.U.U.P.I.P.P.P.P.I.I.L.L.L.L.L.d.d.d.d.L.I.I.I.I.I.I.I.P.P.P.P.P.P.P.P.P.I.P.P.P.P.P.P.P.P.T.T.T.T.T.T.P.P.T.T.T.T.~.~.~.~.~./././.^.^./.(.<X4XcXxX4X:X/.U.H.G.U.'.>X>X2XdXpX~.t.f.f.d.p.L.d.y.6.q.6.7.7.7.7.7.q.q.q.q.q.q.y.s.m.Y.~.^.*X:X:X:X5XeXfXxXxXxXxXxXZXZXAXZXZXZXCXxXfXdXeXeXdXzXxXCXzXfX4X,X:X:X:X:X:X:X,XyXfXfXdXdXdXfXfXzXxXxXxXxXzXzXzXzXzXzXzXzXzXxXxXxXxXxXxXzXzXzXzXzXzXxXxXzXfXdXyXeXyX4XyXyXyX4X4X4X3X:X^.^.^.`.^.^.].`.`.`.]./.P.I.P.P.P.P.P.P.P.P.P.P.P.P.!.^.~.P.L.m.n.a.q.6.:.=.-.*.! U U U / 4.a.p.6.5.5.^ G G G G P Q *.;.*./ / =.6.y.p.p.s.n.L.L.I.P.I.p.( H J H W G g G P ! *.:.5.5.q.n.L.n.s.a.n.d.y.5.;.=.=.*.^ *.=.;.5.6.y.s.s.q.=.=.4.7.s.n.q.Q h v g h f f f f f f g g f g g g c c f g g G ! 5.s.L.I.L.s.;.Q W ! ! ^ ! ! / ;.q.L.P.~././._._._._._._._._._.`.`.`.`.`.`._._._._.'._._.Q.U.U.Q.U.U.U.U.U.U.I.P.T.P.I.d.d.d.d.p.p.p.G.L.d.d.d.d.f.q.7.5.5.4.:.5.5.5.5.5.4.;.=.=.=.;.4.4.=.=./ ! ! Q I P P P g h f h g g g g g g h f f a y t t r t t t t t t t ",
"n.L.L.I.P.P.P.P.P.P.T.T.U.U.U.U.U.U.T.T.T.T.U.U.P.P.I.L.I.I.I.I.P.I.I.L.I.I.I.L.L.L.I.P.P.P.P.P.P.P.P.P.T.T.T.T.T.T.P.P.P.P.P.P.P.P.P.P.T.T.U.U.T.T.T.T.T.T.~.~.~.~.~.~././././.`.<X<X>XdXfXcXxXfXpX:XU.f.t.H.(.<X].2XpXpXQ.7.p.p.p.7.p.y.e.5.6.0.0.q.7.q.q.q.q.q.y.q.q.n.P.^.:X,X3X4X4X4XeXdXzXZXZXAXZXZXZXZXAXAXAXAXZXZXZXZXCXxXCXCXZXZXZXZXxXeX3X:X%X%X^.^.%X:X4XdXfXfXfXfXfXcXxXxXxXxXxXxXzXzXzXzXzXzXzXxXxXxXxXxXxXxXzXzXzXfXfXfXzXzXfXdXdXeXdXeXyXyXyX4X4X4X4X3X:X:X^./.^.^.^.].^.^./.^.~.I.I.I.P.P.(.~.~.!.P.I.L.n.L.(.%X^.~.P.L.n.u.q.0.6.:.-.*.^ ! ^ ^ =.4.p.7.6.7.6.*.P P G G P ! :.6.:.;.;.7.a.d.d.s.d.L.P.(.~.~.P.L.p.4.4.4.=.^ U U ! *.;.:.;.;.5.q.q.q.q.q.y.y.6.;.^ ^ ^ ^ ^ *.-.;.:.6.y.a.a.6.( ( 4.p.I.Y.a.^ h g g h g f f f f f f f f c g c c c c v c g P / 7.p.d.s.q.*.P P U Q ! ! ^ *.4.p.L.T./././._._._._._._._._.'.`.`.`.`.`._._.`._._._._._._._.Q.U.U.U.U.H.H.L.L.L.L.d.p.5.4.q.f.7.=.4.q.p.8.4.4.7.7.e.4.=.=.*.*.*.=.=.=.=.=.( ( =.=.=.=.*./ ^ ! ! ! Q P P P v v g g g g g g g g g g f f a p t t r r t t t t t t ",
"L.L.I.I.L.L.L.L.P.P.T.T.T.U.U.Q.T.T.T.T.U.U.U.T.U.P.I.L.L.L.I.P.P.I.I.L.I.P.P.P.I.I.I.P.P.P.I.I.P.P.T.T.T.T.T.T.~.~.T.T.T.T.P.P.P.P.P.P.T.T.U.U.T.T.T.T.T.T.~.~.~.~.~././.^.^.^.`.:X4XfXZXZXxXxXxXdX:XH.f.t.f.L././.>XpXpXQ.t.p.p.p.7.7.q.e.q.q.0.q.q.q.q.q.q.q.q.q.q.a.I.*X4XdXdXdXfXzXxXxXxXZXZXZXAXZXZXZXZXZXZXZXZXZXZXZXZXZXZXZXZXZXAXAXZXCXfX4X,X:X^././.^.:X4XfXcXcXfXcXzXxXxXxXxXxXxXxXxXzXfXfXfXfXfXzXzXzXzXzXzXfXfXdXdXdXdXdXfXfXdXdXyXyXyXyXyX4X3X4XyXyX4X:X:X,X:X/.Q./././.Q.Q.U.~.P.P.I.P.P.P.(.~.P.(.P.L.d.d.n.!.%X^.!.Y.m.a.q.0.0.0.:.*.@.! ! @.*.=.q.d.d.d.m.n.q.U P g g G *.0.y.y.6.7.s.n.d.g.p.s.L.(.~.~././.~.U.I.G.d.y.;./ ! ^ =.:.;.=./ / / =.;.:.:.5.:.*.*.*./ ^ ! *.*.*.:.:.6.y.a.a.6.( =.8.d.T.!.n.*.v g g g g f f f f f f f f c c c c c c c g g G ^ ;.7.7.6.:.*.U P Q ! ! ! ^ =.5.p.L.T.~././._.'.'._._._._.'.'.`.`._._._._._.`._._._._./._._.U.U.U.U.L.H.G.G.d.f.f.p.7.( ( 4.p.5.( 4.4.4.^ U ) ( =.=.=./ / ^ ^ ^ ^ ^ ^ ^ ^ ^ ^ ^ ^ ^ ^ ! U P P U Q P I v v v c g h h f g g g g g f f f a p t t r t t t t t t t ",
"I.P.P.I.I.I.I.L.P.U.U.Q.Q.Q.U.T.U.U.U.Q.~.~.U.T.U.P.I.I.L.I.I.P.P.I.I.I.L.I.P.P.I.P.P.I.L.L.I.I.P.P.P.T.T.~.~.T.T.~.~.~.T.T.T.P.T.P.P.T.T.T.T.T.~.T.T.T.T.~.~.~.~././.^.<X<X<X<X,XpXcXZXDXAXZXxXlX4X/.d.d.f.f.f.I.U.>XpXpXU.p.7.q.7.6.7.q.q.q.e.0.q.q.q.q.q.q.q.q.a.y.n.~.4XxXCXxXxXxXZXZXZXZXZXZXZXZXZXZXZXZXZXZXZXZXZXZXZXZXVXZXZXZXZXZXZXZXZXxXcXdX4X:X^.^.<X3XdXlXcXcXcXcXcXxXxXxXxXxXxXxXzXzXfXdXdXeXdXdXfXfXfXfXdXeX4X4X4XpXpXpXdXpX4XpXpXpX4X4X4X3X3X5X4XeX4X,X:X:X<X^./././.~.P.P.I.I.I.I.I.P.(.~./.(.!.P.I.n.d.s.n.!.:X~.Y.m.n.u.0.6.5.:.;.*.! ! ! *.:.q.n.Y.P.Y.Y.n.5.P P G G P *.q.n.d.s.s.d.L.d.p.7.g.I././.(.(.(.(.Q.P.G.d.y.5.:.=.=.=.=.=.*./ ! P ! ^ -.=.-.*./ / *.! ! *.*.*.-.:.:.0.i.u.y.:.( ;.7.L.T.!.n.=.v g g g h f f a f h f f f f f c g g c f g h d G ^ 5.;.=./ / ^ ! ! ! ! ! ! ^ =.p.I.~./.(./._._._.'.'._._._._._._._._._._._._._._._._._._.Q.U.U.U.L.L.G.G.t.p.7.7.7.q.6.5.6.q.q.6.5.5.;.^ G G ^ =.=.*.! ! U U U W W W W ! ! ! ! W U U U U P P I I v v c v c c c c c x g g f f f f f f a y t t t t r t t r t t ",
"T.~.~.~.T.P.P.P.T.U.~.Q.~.~.~.Q.U.Q.Q.Q.Q.Q.Q.Q.P.I.I.I.I.P.P.I.I.I.I.I.I.I.P.P.P.P.P.I.I.I.P.T.T.T.T.~.~.~.~.T.T.~.T.T.T.T.~.~.T.T.T.T.T.T.T.~.~.T.T.T.T.T.~.~././.^.^.<X<X>X4XdXxXDXDXDXDXAXvXdX^.I.p.f.d.G.f.G.U.2XpX>XG.p.p.7.6.6.7.q.q.q.q.0.q.q.q.q.q.y.q.y.a.a.L.*XeXCXAXZXZXZXZXZXZXZXZXZXZXZXZXAXZXZXZXZXZXZXZXZXZXVXZXZXZXZXZXZXAXZXZXZXZXxXdX4X<X<X,XdXfXxXcXfXfXcXcXcXxXxXzXxXxXxXxXzXfXdXdXeXeXdXdXdXeXeX4X4X4X4X3X2XpXpXpX2X5XpXdXdXdXyX4X,X:X,X3X4X5X:X:X`.^././.^.^./.~.P.I.L.d.n.I.P.(.^.^./.(.I.n.d.s.d.L.~.:X^.Y.m.n.u.0.6.:.=.=.*.*.-.=.:.0.a.L.Y.Y.!.Y.a.*.P P P G P *.y.n.n.d.d.d.n.s.p.7.d.I././.~.~.~.Q.P.G.f.p.q.6.5.;.;.=.*.*.*./ W G P ! *.*.*.^ ^ / / ! ! ^ *.*.-.:.:.6.0.0.6.=./ ( 7.L.~.~.m.:.P v g g h g f f f h f f f g c c c c c c g g d g U =.=.*.^ ^ ^ ! +.+.! Q ! ! ( 7.L.T.(.Q.(./._._.)._._._._._././././._._._._._._._._.Q.Q.Q.U.U.I.L.H.G.G.p.e.4.=.4.6.7.5.5.5.6.5.5.5.;.^ P P ^ / / ^ ! Q U P U U U U W W W W W U P P P P P I I I v v c c v c c c c c g f f f f f f a p y y t t t t t r r r r ",
"~.~.~.~.P.I.P.T.~.~.~.~.~.~.~.~.~.~.~.~.T.U.T.T.T.P.P.P.T.P.I.I.L.L.I.P.P.P.T.T.Q.T.U.P.P.T.~.~.U.U.U.T.T.T.T.T.~.~.Y.T.T.T.T.T.T.T.T.T.P.P.T.~.~.~.T.~.~.~.~.~.~./.^.^.:X3XeXfXxXDXDXPXDXDXDXxX>XP.G.f.f.f.G.d.G.I.].>X^.f.p.q.6.6.6.7.q.q.7.7.q.q.q.q.p.s.s.a.a.a.s.T.,XfXZXAXZXZXZXZXZXZXZXZXZXZXZXZXZXZXZXZXZXZXZXZXZXZXZXZXZXZXZXZXZXZXZXAXAXZXZXxXdX4X3X4XfXcXzXfXdXdXdXfXzXzXzXzXzXxXcXzXfXdXdXdX4X4X4X4X4X4X2X2X3X>X>X:X>XpXpX2X>X2XpXpXpXpX4X:X<X^.^.<X:X:X^.^./.~././.^.^.~.!.T.I.n.d.s.L.!.^.^.%X^.(.L.d.s.d.L.P.^.*X^.Y.m.a.q.0.5.=.*.-.:.:.0.0.0.0.s.m.Y.Y.Y.m.6.Q P P U P P *.i.m.m.d.s.s.p.p.y.y.d.I.!.P.P.~.~.P.I.d.p.p.y.q.0.5.:.=.*.*.*./ U g P W / *.! ! ! / / ! ! ! *.*.:.:.0.0.6.5.:.=.( ( 7.L.~.~.L.5.P g g g h g g g f f h g g g g g c c c c c g g g P ! @.^ ^ ^ ! ! ! +.! ! U ) ( 7.H.U.Q.Q.Q././._._._._._./././.(.Q.Q./././././././.(.Q.Q.Q.U.U.I.L.H.G.t.9.8.( U ) =.5.=./ =.;.:.:.5.=.! P P U ! ! ! U U P P P P P P P P P P P P P P P P P I P I I v v v v c c c h h f f f f f a a p y y t t t r t t r r 2 2 ",
"T.P.P.I.L.d.L.I.T.~.~.~.~.~.~.~.~././.~.T.P.I.I.I.I.P.~.T.P.I.d.f.f.L.P.T.P.T.T.~.~.Q.T.T.~.~.~././.~.P.I.L.I.T.Y.Y.T.P.T.T.T.T.~.T.~.T.T.P.T.T.~.~.T.~.~.~.Q.~.^.`.].:X5XfXxXZXAXDXDXDXDXDXDXcX5X^.I.f.f.f.d.f.f.d.U.~.P.d.p.q.7.7.7.7.7.7.7.7.q.q.q.y.s.n.n.s.s.a.n.^.4XxXZXAXZXZXZXZXZXZXZXZXZXZXZXZXZXZXZXZXZXZXZXZXZXZXZXZXZXZXZXZXZXZXZXZXZXZXZXxXcXdXdXfXzXcXzXfXdXdXdXfXzXzXzXfXfXfXdXdXdX4X4X4X4X4X4X2X>X>X>X>X>X]._._.].iX2X].'.>XiX2X>X].`./.~.~.T.~.!.!.~.~.(.!.(.~.!.~.P.P.L.m.s.y.a.m.!.^.^.^.(.!.I.n.d.n.L.Y.(.^.!.Y.n.y.5.:.=.*./ ;.0.q.i.q.6.5.0.q.a.a.a.0.-.P U Q ! W P *.u.m.d.s.y.y.y.7.y.p.s.m.L.n.L.P.!.P.m.d.a.p.q.q.q.q.5.;.=.*.*./ ! G W ~ / / / ! ^ *.*.^ ! ^ / -.:.0.0.0.5.:.:.=.( ( 7.L.~.T.L.6.U G g g g g g g g h h g g g g g g g g g g g g g P U +.+.+.! U U U U @.^ ^ ^ 4.t.H.Q.Q.Q.Q././._._._.).Q.Q.Q.Q.Q.U.Q.Q.Q.Q.Q.(.Q.Q.Q.Q.Q.Q.U.U.I.H.G.f.t.7.8.( W W ^ ^ W W ^ *.*.*.*./ ! P G P U U U P P P P P P P P P P P P P P I I P P I I I I P I v v c c g g h h f f f f f p u y y y t t r r t t r r r r ",
"I.L.L.L.G.d.d.I.P.U.Q.~./././.~.T.~.~.~.Q.P.I.L.d.f.d.I.P.I.G.p.7.8.p.L.P.P.P.P.U.T.Q.Q.Q.~.~.~.T.T.I.d.q.7.p.L.P.T.T.T.T.Y.U.Y.~.T.T.T.T.T.T.T.T.P.~.~.~.~./././.].5XlXZXDXDXDXDXAXvXxXcXvXAXvXcX4XT.7.f.f.p.p.p.f.L.I.L.p.y.y.q.q.7.7.7.7.6.7.q.7.7.q.a.n.d.a.s.s.I.:XfXZXZXZXZXZXZXZXZXZXZXZXZXZXZXZXZXZXZXZXZXZXZXZXZXZXZXZXZXZXZXZXZXZXZXZXZXxXxXxXxXfXfXcXxXxXxXzXfXdXfXfXfXfXdXdXdXpX4X5X4X2X>X:X>X>X>X>X>X>X>X>X]._.Q.U.).[.[.U.U.].2X>X_.Q.U.P.P.I.L.L.L.L.I.I.I.L.L.L.L.L.m.m.n.u.q.6.a.m.~.~.(.(.!.m.m.n.n.n.n.m.m.m.m.m.a.6.;.*.*.*.-.6.i.u.i.0.:.:.:.:.:.:.:.-.! Q ! @./ ! ! =.y.n.s.y.q.y.y.y.y.y.y.s.a.y.s.L.Y.Y.m.n.a.q.5.=.5.0.0.5.=.=.*.*.^ ! ~ ! / ^ ^ / *.-.*./ ! ^ / -.:.0.0.5.;.*.*./ ( 4.p.I.~.T.I.q.! P G g g c c c g g h h h g h h h g g d g g g g I I ! +.+.I U P P U *.*.=.=.8.f.U.Q.Q.Q.Q.Q./.Q.Q./.Q.Q.Q.Q.Q.U.U.U.U.U.U.Q.Q.Q.U.U.U.U.U.U.P.I.H.G.f.t.7.6.4.( ^ W U P G U U U P P ! U P P P P P g G G P P P P P P P P P I I v v v v v g g c P P P c c c c g g g g f f f f f p u y y y t r r r t y y r r r ",
"L.L.L.I.I.I.I.I.T.~./.^.^.^.~.P.I.I.P.~.~.~.I.I.f.p.p.d.I.I.d.7.4.( 8.d.I.P.P.I.I.P.~.~.~.~.~.~.~.Y.T.n.p.7.a.L.T.T.T.T.Y.~.~.Y.T.T.T.T.T.~.~.~.T.~.~.~.~././.^.].2XpXcXDXPXDXDXDXZXcXpX4XpXcXlXlX4X(.7.f.p.7.p.d.d.L.I.d.7.7.q.q.q.7.7.7.7.6.7.q.7.7.q.p.d.a.p.a.d.~.4XxXZXZXZXZXZXZXZXZXZXZXZXZXZXZXZXZXZXZXZXZXZXZXZXZXZXZXZXZXZXZXZXZXZXZXZXZXxXxXxXxXxXcXcXxXxXxXxXxXzXfXfXdXdXdXpX4X4X2X>X>X].`.`.].].].>X2X2X2X>X].Q.U.J.Q.'._.J.J.).>X>X/.U.H.G.G.d.d.d.n.n.d.d.d.d.d.d.d.s.a.a.u.q.q.q.s.m.P.!.!.P.L.n.s.s.s.s.a.a.a.u.y.u.0.:.;.-.=.:.0.u.n.u.0.5.:.5.0.0.:.-.@.Q Q Q *.-.-.*./ :.y.n.a.u.a.s.s.s.p.y.q.q.q.6.y.m.Y.Y.L.n.a.0.=.*.5.q.y.q.5.=.=.*.*./ ~ ~ ! ^ *.-.;.:.=.*.! ^ *.-.:.0.6.:.*.! ! W ( 4.f.I.~.P.L.6.U G G g c c c c g g g g g g g g g g g g g g d g G P U I ! U P P U U *.*.=.4.7.G.U.Q.Q.Q.Q.Q.Q.Q.Q.Q.Q.Q.U.U.U.P.P.U.P.P.U.U.U.U.U.U.P.P.P.I.I.H.G.d.t.9.7.6.6.5.=.! U G d G G G G P ! Q Q Q U P g h g G P P P P P P P P P P P I v v v c g g c P v c c c g g g g g g f f f f f p u y t t r r r r t y y t r r ",
"I.I.I.P.P.P.P.P././.^.^.^.~.I.L.d.L.I.P.~.~.P.I.L.d.d.L.P.I.n.q.4.4.7.L.P.T.P.I.P.T.~././././.~.~.U.T.I.L.d.L.P.~.~.~.~.~.~.T.T.T.T.T.~.~.~.~.~.T.T.~.~.~.~./.^.>XpXxXDXPXPXDXZXZXxX4X>X:X2XpXpX4X>X~.f.f.p.p.d.I.I.I.I.d.p.6.4.5.5.5.6.7.7.7.7.q.q.7.q.p.a.a.p.a.m.:XeXxXZXZXZXZXZXZXZXZXZXZXZXZXZXZXZXZXZXZXZXZXZXCXCXZXZXZXZXZXZXZXZXZXZXZXxXxXcXxXxXxXxXxXcXcXcXcXcXcXcXfXdXdXdXpX4X4X2X>X:X].`._./._._.].>X2X2X2X>X'.U.U.U.Q.).U.H.H.U._.].Q.H.f.f.d.s.s.s.d.s.p.p.p.p.y.y.q.q.q.q.q.q.y.a.s.L.L.L.n.n.d.s.a.y.p.y.q.6.6.6.5.6.5.:.5.5.0.i.n.m.m.u.0.5.6.0.y.0.:.@.! P P P ! *.;.:.;.6.s.m.m.m.m.L.L.n.a.y.y.y.q.q.a.m.Y.Y.Y.m.s.u.6.5.q.q.u.q.6.:.=.=.*./ ! ! ! / -.:.:.:.;.*.^ ! *.-.:.0.:.=.^ ! W U / 5.d.I.P.I.d.5.U G G G v v c g g g g c g g v v v g v v g g g g G I I I ! Q U U U ! ^ *.=.6.p.L.P.U.U.Q.Q.Q.Q.U.U.Q.U.U.U.U.U.U.I.U.U.P.U.U.U.U.U.I.I.I.I.H.H.H.G.d.t.9.7.7.7.5.=./ U G d J G G P U ! ! ! Q Q U P g G P U W Q W U U P P P P P P I I I v v c c v v c c c g g g g g f f f f f f p p u t r r r y y y y y y r 5 ",
"I.I.P.T.P.P.P.T././.^.^./.P.I.d.d.d.L.I.P.T.P.P.I.L.I.I.P.T.I.n.p.p.f.I.T./.~.T.P.T.~./././.~.T.~.~.~.~.T.T.U./.~.~.~.~.T.~.~.T.~.~././.~.~.~.~.~.T.~.~.~.~./.^.5XcXZXDXPXDXZXxXdX4X].Q./.].2X2X4X].U.f.p.p.f.G.T.T.~.~.L.p.6.4.=.=.4.5.7.7.7.7.7.7.7.q.y.a.a.p.s.Y.,XfXCXZXZXCXZXZXZXZXZXZXZXZXZXZXZXZXZXZXZXZXZXZXZXCXCXCXZXZXZXCXxXCXZXZXZXxXdXdXfXxXxXxXxXdXdXfXfXfXfXfXfXdXdXdX4X4X2X>X:X].]._./././._.].[.2X>X>X].Q.U.U.Q.Q.Q.H.G.G.G.U.U.H.f.p.p.p.p.p.s.a.a.y.y.q.7.6.6.5.5.5.5.5.6.q.y.a.d.d.s.p.p.p.p.y.y.7.6.4.5.;.;.:.:.:.6.q.y.i.n.m.I.m.n.y.0.0.u.q.6.-.@.Q P P P Q @.:.:.5.y.m.Y.!.Y.Y.Y.L.n.s.a.s.a.a.s.n.L.Y.!.Y.m.n.s.a.a.a.a.q.q.6.:.;.=.*./ ! ! / *.;.:.:.:.;.*.! ! @.-.:.:.;.*./ ! Q U ) 4.d.I.I.I.n.5.U G P P v v g h g g c c v v v v v v g g G v G g G P P U ! ! ! Q Q ! / *.;.7.d.I.P.P.P.U.Q.Q.U.U.U.U.U.U.P.I.I.I.I.I.P.P.U.U.U.U.I.H.I.L.H.H.H.G.d.f.p.7.7.7.7.5.=.=.! P G G G P P Q ^ ! W P P U P P P P W ! ! ! W W P P P P I I P P I I I I v c c c c c g g g g g g f p p p p p p u y y y u f f f f y y t r ",
"I.I.I.I.P.P.I.I.I.I.T.~.~.I.n.d.d.L.I.T.T.P.I.I.I.I.P.~.Y.!.~.Y.I.L.P.~./.~.~.T.~././././././.~.~.T.~.U.~./././.T.I.L.I.P.P.T.~.~.U.~.U.T.T.~.T.~.~.~.~.~./.^.<X4XxXDXPXDXxXdX2X^.~.P.U.Q./.].:X>X].P.p.7.p.d.L.I.T.^.^.P.a.7.5.;.4.4.4.6.7.q.y.y.q.q.y.p.a.a.a.n.~.3XfXxXxXCXCXZXZXZXZXCXZXZXZXZXZXZXZXZXZXZXZXZXCXCXCXCXxXxXCXxXxXxXxXxXZXZXcXpX4XdXxXxXxXfXdXdXdXdXdXdXdXdXdXdXdX4X2X>X<X]._._./.Q.Q.Q.).'.].].'.Q.U.H.H.U.Q.Q.U.H.H.H.G.f.f.t.8.7.q.7.7.q.y.y.y.6.6.6.5.5.4.5.=.=.=.4.5.7.7.y.p.p.7.6.8.6.7.7.5.;.=.=.=.=.5.;.5.y.a.n.n.n.m.Y.Y.Y.n.u.y.y.y.q.:.@.U P P P P Q ! *.:.0.a.Y.~.%X^.!.Y.L.n.s.a.n.L.Y.T.!.Y.Y.Y.Y.n.n.n.m.m.n.a.q.q.0.6.:.=./ ^ / *.;.6.6.6.:.:.-.*.! ! *.*.-.:.-.*.^ ! W G ^ 4.d.I.I.I.n.5.P G G g g c g g g g c c v v v G G G v v G G v g g v P I Q ! ! ! ^ *.*.-.5.a.L.H.H.H.I.U.P.U.U.U.U.U.U.U.H.H.H.H.H.I.P.U.U.U.P.P.P.I.I.H.G.G.G.G.f.f.t.9.7.6.5.5.=.=.^ U G G G G P P U W Q P P P U U P P Q Q ! Q U P P P P P I P P I I I I I I I v c c g g c c g g g f a p p p p u u u u f x v v v x f u y r ",
"I.L.d.L.I.I.L.L.d.d.I.P.~.P.I.L.L.n.L.I.P.P.P.I.I.I.T.T.I.Y.!.Y.P.P.P.~././.~.T./.%X%X^.~.~.^.^./.T.~.~.P.P.I.P.L.d.d.L.L.I.P.T.~.~.T.T.T.T.T.T.T.T.T.~.~./.~.~.^.4XcXxXcX5X^.L.f.d.H.U.Q.Q./.^.>X].U.f.p.p.f.f.p.d.I.T.I.p.7.7.6.6.5.6.q.q.7.q.y.y.y.y.y.p.a.d.n.~.,XeXzXxXCXCXZXZXCXCXCXCXCXZXZXZXZXZXZXZXZXZXCXCXxXxXxXxXxXxXxXfXfXfXcXxXxXcXdXfXxXxXxXfXdXpX4X4XdXdXdXdXdXpX4X4X>X<X].]._._.Q.Q.Q.Q.Q.).].].'.Q.J.J.H.H.U.Q.Q.U.H.H.I.H.f.f.p.7.6.7.7.6.7.6.6.6.:.:.:.:.=.=.*./ *.=.=.=.4.4.e.7.7.6.8.6.8.8.5.4.=.=.=.;.5.q.0.u.n.I.Y.Y.L.m.Y.!.!.m.n.u.0.0.5.=.^ Q Q P P P P ! *.:.0.a.L.!.!.!.Y.I.m.a.u.a.m.Y.^.%X^.!.Y.L.m.n.n.n.n.n.n.u.y.q.q.0.5.;.*./ ;.:.6.0.0.6.:.:.*.^ ! @.@.@.*.-.*.! ! ! W U ^ 4.d.L.L.L.n.5.U G G g g c g g g g v v v v v G G P G P P P v v v G I I ! ! ! ! ^ ^ / *.5.p.d.L.H.H.G.H.I.P.P.P.I.I.H.H.H.H.H.H.H.I.U.U.U.U.P.P.I.H.L.H.G.G.G.d.f.p.t.t.p.q.7.5.5.=.=.^ U G G G G P U ! ! Q U U Q Q U U U Q Q U P P P P P P I I P I Q Q Q Q Q P I P v c c c c v v v c h f f f a u u u u a f x c x f u y t r ",
"I.n.d.d.n.L.n.n.a.s.n.I.P.P.I.L.L.d.a.d.L.I.I.I.T.T.~.T.L.L.Y.Y.I.L.Y.P.T.~.T.I.P.<X2X>X:X%X<X%X^.T.~.~.I.L.d.I.I.L.L.I.I.I.I.I.P.I.P.P.I.P.T.Y.T.~.T.T.T.P.I.G.d.~.<X2X:X~.L.f.7.p.H.I.(.Q./.^.:X`.~.d.p.a.f.f.p.7.p.L.L.p.6.7.q.7.7.7.q.q.7.7.q.y.p.y.y.p.s.n.L.T.%X4XfXxXZXZXZXZXCXxXCXCXZXZXZXZXZXZXZXZXZXZXCXxXxXzXzXfXfXfXdXdXyXyXdXfXcXcXxXxXZXxXdXdXdXdX4X4X4XpXdXdX4X4X4X4X>X<X>X].'._.).'._.).).'.].'.).J.J.J.H.H.U.Q.U.H.f.G.H.H.d.d.p.q.6.6.4.4.5.5.:.:.;.;.;.=.*.*.^ ^ ^ / *.*.;.5.4.4.4.4.4.6.6.5.5.5.4.;.5.6.q.a.a.m.Y.!.%X!.!.!.!.%X%XY.m.a.q.0.5.=.^ ! Q P P Q Q ! -.:.0.a.m.Y.Y.Y.Y.m.m.n.n.m.Y.%X:X:X*X!.L.n.s.a.s.n.n.a.a.u.u.u.u.q.0.:.;.=.:.0.y.y.0.:.;.*.^ ! ^ *./ ^ / *.*./ / / / / =.7.d.L.L.L.n.q.! P P G v c v c c v v v v v v P P P P P W P P G G P P P U Q Q ! ! ! ! / 5.p.d.G.G.G.f.f.G.H.H.H.H.H.H.G.G.G.H.H.H.I.U.U.U.U.P.U.I.H.L.H.H.G.G.f.p.p.p.p.p.p.p.7.5.5.=./ U P G G U U ! ! ! Q U Q ! Q ! Q U U U P P G v v g g v v P P I Q Q Q Q I P P P P P v v I ! +.Q v g h f f u u y y y u u u u u y t r r ",
"L.n.a.a.d.n.n.L.L.L.L.L.I.P.P.I.m.n.d.d.n.m.L.L.P.P.Y.Y.n.s.n.n.a.s.n.L.I.Y.P.I.I.<X4X4X4X,X>X<X^.T.T.T.I.d.d.I.I.I.L.L.L.d.d.p.d.f.d.L.L.I.P.T.T.T.T.P.P.I.L.f.d.L.P.T.I.G.G.d.f.d.G.H.H.H.Q./././.I.d.a.p.p.p.p.7.7.p.p.q.5.6.7.7.6.7.q.7.7.q.y.y.p.y.y.p.d.d.L.P./.,XfXCXZXZXZXZXCXxXxXCXZXZXZXZXZXZXZXZXZXCXxXxXzXfXfXdXdXdXdXpX4X4X4XdXdXcXxXxXxXcXdXdXdXdXpX4X>X4X4X4X4X2X>X2X>X2X2X>X].'.'.'.'.].[.{.{._.).J.J.U.U.H.H.U.U.H.p.t.p.f.d.L.d.y.6.6.4.;.:.;.:.-.-.*.*.*./ ! U U U ^ ^ =.;.:.=.=.( ( =.4.5.5.6.7.q.q.y.y.a.n.m.Y.!.%X%X*X*X*X%X*X*X!.Y.n.y.q.0.:.@.Q Q P Q ! Q ! -.:.6.y.n.m.I.L.m.L.L.L.I.!.%X*X,X,X%XY.m.n.u.y.u.a.u.u.u.u.u.u.u.u.i.0.:.;.5.0.y.0.:.*./ ^ ! ^ *.*.*.^ ^ / *.=.5.6.7.7.p.f.L.I.I.I.L.y.*.P P P P P v v v v v v v v P P P P P P W P P P P P P P P P P P W ! Q ^ 5.a.L.L.d.f.f.p.p.f.d.G.G.G.d.f.f.f.d.G.L.I.U.U.U.P.P.I.H.H.G.G.G.G.G.f.p.p.p.p.p.p.p.q.7.6.=./ ^ U U U ^ ^ ! ! U P P P U U ! Q Q Q P P G G P v g g c v I P P I I Q Q Q I P I P P v P ! @.-.+.Q v g h f u u y y t t t y t t r r r r ",
"n.s.p.y.p.s.n.m.Y.L.m.m.m.L.L.m.n.n.s.n.n.s.s.s.n.n.n.n.a.u.u.a.a.a.a.a.a.n.n.s.n.%X4XfXdXyX4X>X^.P.I.I.I.L.L.I.P.I.L.d.d.d.d.7.4.4.q.d.d.n.L.I.I.T.I.I.L.L.d.d.d.L.G.d.f.p.d.G.L.G.L.L.G.G.H.I.P.P.I.f.p.7.q.y.p.7.6.7.q.7.6.4.4.5.6.7.7.7.y.s.d.a.p.p.p.a.d.n.I./.:X4XfXCXZXCXZXCXxXxXxXxXxXCXCXCXZXZXZXZXZXCXxXzXfXfXdXdXyX4XpX4X2X:X>X4XdXfXcXcXfXdXpXpXdXfXpX5X2X2X2X2X>X>X>X>X2X5XsX2X>X].].].{.[.{._.).).Q.J.J.Q.U.H.G.H.P.G.t.7.7.7.p.d.p.q.6.5.4.;.:.=.-.*.*./ ^ / ^ ! ! U U ^ ^ *.=.=.^ ^ ^ ^ ( ;.4.4.6.q.q.y.s.s.n.L.!.!.%X*X*X*X,X,X,X,X*X%XY.n.u.y.0.:.*.Q Q Q ! @.! *.-.:.:.q.a.m.L.L.L.Y.!.!.%X*X,X3X3X:X!.I.n.a.y.q.0.q.q.y.y.y.y.y.u.a.a.y.6.;.:.0.q.6.=./ ^ ^ ^ / *.=.*./ ^ / ( 4.y.d.n.L.L.I.P.P.I.I.L.a.=.U P P P P v v v v v v v P P P P P P P P P P P P P P P P P P P P P U ! =.y.d.G.d.f.p.7.4.7.p.d.d.f.p.p.p.f.f.d.L.I.U.U.P.U.H.H.H.G.G.G.G.G.d.f.f.p.t.9.7.7.p.q.7.6.5.=./ / ^ ^ ^ / ^ ! U P G G P P U ! ! ! W P g d v c g g c c I P I P I Q Q Q Q I P I P v P Q @.-.! I c f f u u y y y y t r r r r r r r r ",
"a.a.a.u.u.a.n.m.L.L.m.m.m.m.n.n.a.u.u.a.a.u.y.0.5.5.:.:.:.:.5.0.q.q.0.5.;.5.0.6.a./.4XfXdX4X,X:X/.P.L.L.I.I.I.I.d.d.d.d.d.n.d.q.( ( 5.p.d.n.n.n.L.L.L.n.d.a.f.f.a.p.7.6.4.8.p.d.d.G.L.G.d.d.f.f.L.L.d.p.7.5.e.q.p.p.q.q.q.q.7.4.4.5.7.q.q.q.a.m.I.d.p.y.p.s.n.L.~.,XdXxXCXZXZXZXCXxXxXxXzXxXxXxXCXCXZXZXZXZXCXCXxXcXfXdXdXpXyX4X4X4X>X<X<X>XdXlXcXfXdX4X>X>X>X4XdXdXdXpX5X>X].].].>X2XpXpXiX[._._.Q.J.Q.Q.).Q.Q.Q.Q.Q.Q.J.G.t.G.f.t.9.7.7.8.6.q.7.4.4.;.;.=.=./ / / ^ ^ ^ ^ ^ ! U U ^ ( / =.( / U W ^ ( =.;.;.=.5.6.q.y.s.m.L.Y.%X*X:X:X*X:X,X,X,X,X*X!.m.a.y.y.0.6.;.*.+.! ! ! *.-.-.;.:.q.a.m.L.Y.!.!.*X,X,X3X4X4X3X*X!.m.a.u.q.6.5.6.0.0.q.0.0.0.y.a.a.u.6.;.:.0.0.5.=./ / / *.*.=.=.=./ ^ / ' 7.d.I.P.P.T.T.~.T.P.I.L.a.:.! P P c c v v v v v v v P P P P P P P P P P P P P P P P P P P P G P U / 5.p.d.d.f.7.4.) ) 4.7.p.p.p.p.p.p.f.d.I.I.U.U.P.I.H.G.f.f.G.G.G.G.d.f.p.p.9.9.7.7.7.7.7.5.4.=.=./ / / / / ^ ! W U P G G G P ! ^ ^ Q P h a g g g g c v I P I P I Q ! ! ! Q Q I I v I I Q ! P v f p y t t t y y y t r r r r r r r r ",
"0.y.i.y.0.y.y.y.0.6.:.:.:.:.:.:.*.*./ *.-.*.^ ! ! ! W W Q U U ! ^ -.:.5.5.5.q.q.a.L.Y.~.Y.P.I.L.n.y.q.a.s.n.n.n.m.L.L.m.m.L.L.n.:.=.;.y.d.d.a.a.a.y.p.p.a.p.p.a.p.p.6.4.( ' 6.p.p.p.p.p.p.p.p.p.p.p.p.7.4.4.4.e.p.a.a.p.p.p.q.5.6.7.q.y.y.q.a.m.L.s.y.p.p.a.n.I.%XyXxXZXZXZXZXZXxXxXxXzXfXfXzXzXxXCXCXCXZXZXZXxXxXcXdXdXpXyX4X4X4X4X4X2X:X4XdXcXdXpX4X4X4X:X^.].2XpXpX4X<XQ.Q.Q./.].>X5X2X].U.J.H.G.t.F.J.Q.).).).).Q.J.H.F.t.9.8.8.8.8.8.8.8.8.8.4.4.4.( ( =.( ( ( ^ ) ^ ( ( ^ ) ) ^ ^ ) ) ) W H U ^ *.=.;.=.=.;.5.5.q.a.n.L.Y.%X*X,X:X*X*X*X*X*X*X!.Y.m.n.a.a.u.i.0.:.-.*.-.-.-.-.=.;.6.y.n.m.Y.!.*X,X3X3X4XyX4X4X,X%XY.n.u.q.0.:.:.:.:.6.6.5.6.0.y.u.u.q.5.;.5.0.y.0.:.=.*.*.;.;.;.;.( ^ ( =.7.d.I.T.T.T.T.T.U.U.I.L.n.u.:.! P G c c v v v v v v P P P P P P P W W P P P U W P P W W ! W U P P U U / 5.p.p.p.7.4.) W ) ' 6.q.7.7.7.7.p.d.L.I.U.U.U.U.H.G.f.f.d.d.d.f.f.f.p.p.9.9.7.7.7.6.8.5.;.=.=.=.=.=.( / ^ ^ ! ! W W P P W Q ! ! P G d s h g P P I P I I P P Q ! ! ! ! Q Q P I v v I v v g f f p y t t t y y y y r r r r r r r r ",
"*.-.;.;.;.;.*.*.^ ! Q ! ! ! ! ! ! ! Q ! ! ! ! ! W W W Q ! U P U ! :.u.n.n.n.n.n.m.L.L.Y.Y.P.P.L.n.q.q.s.L.Y.L.Y.Y.Y.L.s.y.a.m.n.q.5.5.q.a.y.q.5.5.4.5.q.a.a.f.d.p.p.p.6.4.4.7.p.p.p.p.p.p.p.7.7.7.7.q.7.e.e.e.y.p.f.d.a.p.p.p.q.q.q.y.p.y.q.p.d.d.y.q.p.p.p.d.Y.:XeXxXCXCXZXCXxXxXxXzXfXfXfXfXzXxXxXxXCXCXZXxXxXxXfXdXpX4X4X4X4X4X4X4X4X>X4XdXdXdX4X4X4XdX4X^.`.>X2X2X>X`.Q.U.U./.].2X>X].U.H.J.J.H.F.F.J.'.[.].].).U.H.F.t.9.8.8.8.8.9.9.9.9.7.8.8.8.8.4.4.4.4.' ' ( ( ( ( ( ( 4.=.4.( W W W W U U W ^ / *.=.=.=.=.;.5.q.a.n.L.!.*X:X*X%X%X%X%X%X%X!.Y.m.m.m.m.n.u.w.0.:.:.:.:.0.0.0.0.i.n.m.Y.!.:X3X3XyXyX4X4X4X3X,X!.m.n.i.0.0.:.:.:.:.:.:.:.:.6.y.i.q.6.:.;.0.u.a.u.0.5.:.:.:.:.:.;./ ^ ( 4.p.G.P.U.U.U.P.I.I.L.L.d.a.q.:.! P P c P I v v v v v P P P P P P W Q Q W W U Q ! P P W ! ^ ^ ! ! U U U ! =.6.7.7.7.6.;.( / ( 4.6.6.5.6.6.7.p.d.L.I.U.U.U.H.G.f.f.f.f.f.f.f.f.f.p.t.9.7.7.7.6.8.5.4.;.=.( ( ( / / / ^ ! ! ! ! ! ! ^ ! P P P G G g h g P P I I I I P I Q ! ! ! ! ! I P I v v v c g h f f f p u t u y y y y y y r r r r r r ",
"P P U W U U P P P P P U P P P P U W W W U U W Q ! ! Q Q ! Q U P Q 6.m.!.Y.m.m.L.!.%X%X*X:X,X:X%XY.n.n.m.Y.L.n.a.a.n.a.u.i.u.a.n.0.6.:.6.5.5.5.5.=.*.=.5.p.d.d.a.a.p.p.q.7.7.p.p.p.p.p.f.d.p.y.7.6.7.q.y.q.q.q.q.p.a.a.a.a.p.y.q.q.q.y.q.q.q.a.a.p.q.y.p.a.a.d.!.,XdXxXCXCXxXxXxXxXxXzXfXfXfXfXfXzXxXxXxXxXxXxXxXzXfXdX4X4X4X4X4X4X4X4X4X:X<X:X4X4X4X4XpXpX4X>X>X>X>X:X].`.'.).).'.].].).).Q.Q.Q.).).H.F.J.'.>X].'.).U.H.t.9.] ] 9.F.t.G.G.t.G.G.f.t.t.8.8.9.t.9.t.8.4.' ' 4.4.' t.t.f.t.` ) E W W H U U U ! *.=.=.=./ =.;.q.a.n.Y.!.%X%X%X%X%X%X%X%X!.!.!.Y.I.L.m.n.u.u.i.i.u.n.n.n.m.m.L.Y.!.%X,X3XyXyXyXyXyXyX4X,X*X!.m.a.q.6.6.:.=.=.;.;.;.;.:.6.0.y.q.0.6.5.y.a.a.q.q.q.q.0.0.0.:.=./ ^ ( 7.d.I.T.U.U.I.H.G.G.G.f.p.p.6.;./ W P P P P P v c v P P P P W W U Q P P W W / / / / / / / / / ^ ^ U ^ ^ ^ / 4.6.7.7.7.6.4.4.4.4.4.;.4.4.6.7.y.g.d.H.I.Q.U.U.H.f.t.f.f.f.f.f.d.f.f.p.p.7.7.7.7.6.8.4.4.' ( ( ( / / ^ ) ) / / *./ *.*./ W P P P P P g P P P Q ! ! ! Q I I Q I I I P P P c c g g f f f f f f f p u y y y y y t t r t t r r r ",
"h g g g g g g g P P P W Q P P P P P P P P P Q Q ! ! ! Q Q ! ! Q ^ 6.m.!.!.m.n.Y.^.,X4XyXyXyX4X,X%XY.m.n.n.u.5.-.*.=.:.:.0.0.6.:.=.-.*.*.*.*.=.:.5.5.5.6.q.a.a.a.p.a.a.a.p.p.p.p.p.p.f.d.d.f.p.7.8.7.q.a.p.y.y.a.a.a.d.f.a.p.y.q.q.q.q.q.q.q.y.p.q.q.p.a.a.a.n.~.4XfXxXCXCXxXxXxXxXxXfXfXdXdXdXdXfXzXxXxXxXxXxXxXfXdXpX4X4X4X4X3X,X2X4X>X<X^.^.<X:X2X4XdXdX5X>X>X<X]./.'.].'.'.].'.'.Q.Q.).[.).).'.].U.F.J.'.].).Q.U.H.G.9.' ] t.H.J.J.J.J.G.H.H.H.H.G.t.t.G.G.G.G.t.t.t.t.t.t.t.H.U.Q.Q.f.' ) E E W W W U U ! *.*./ / / =.;.0.y.n.L.!.!.!.%X*X*X:X*X%X!.!.!.!.!.Y.m.m.m.V.Y.Y.!.!.!.!.%X%X%X*X,X4XyXeXeXyXyXyXyX4X,X*X!.n.u.0.0.:.:.:.-.-.;.-.;.:.6.0.q.q.0.0.0.q.u.a.u.u.a.a.u.0.6.:.*./ / 4.7.G.I.U.U.I.H.d.f.f.f.t.7.5.5.=.*.! Q P I I v v v v v P P P W W W Q W ! ! / ;.7.6.7.6.4.;.;.;.( / / / / / ^ =.4.6.4.6.6.6.6.6.4.;.' ;.4.4.6.7.p.d.H.U.Q.Q.U.H.f.t.f.f.f.f.G.G.H.G.d.f.f.p.p.7.7.6.4.4.4.;.' ( ( ( / / ( ;.5.5.6.6.6.5.-.! ! ! U P P P P Q Q +.+.+.! P P P I I I P c g g f f f a a f f f f f a p u y y y y y t r r t r r r ",
"h h h g g g P P P P P W Q Q W P P P P P P P Q ! ! *.*.! ! +.*.+.P *.i.Y.%X!.Y.L.%X:X,X*X%X*X:X:X!.m.y.0.:.-.! W G v v P Q ~ W G g g g P P Q *.:.6.q.q.u.a.a.p.a.p.p.a.a.p.p.p.p.p.p.p.p.f.f.p.7.5.7.q.a.p.p.a.a.a.s.d.d.a.a.p.p.y.q.q.q.y.y.y.y.q.q.a.a.s.s.L.^.4XzXxXxXxXxXxXfXfXfXfXdXdXpXdXdXdXfXzXxXxXxXxXzXfXdXyX4X4X4X4X>X:X:X,X:X]././.].,X4X4XpXpX>X].]./.U.U.Q.].].'.'.Q.U.H.Q.[.iX].)._._.H.9.H.U.Q.U.G.t.9.9.` ' t.J.{.[.[.].).J.J.Q.).Q.J.H.G.H.U.U.J.J.J.J.J.J.J.W.).}.[.].Q.H.9.( ) E U U W ! ! ! / / / / / / =.;.0.u.m.Y.!.%X*X*X,X,X*X%X!.%X%X%X%X%X%X*X,X,X,X,X,X,X,X,X,X3X3X4XeXeXeXyXyXyXyXyX3X*X%XY.n.u.q.0.;.;.;.-.*.*.*.;.:.:.6.0.0.0.q.q.q.y.u.a.a.u.q.q.:.;.*./ / ( 8.p.L.I.P.I.H.f.p.7.9.7.6.4.=.=.*.*./ ! Q P v v v v v P P P Q W Q Q ! ! / / ;.q.d.L.L.m.d.p.q.6.;.( ( ( ( ( ( ( ;.5.6.6.4.4.4.4.4.;.' ;.;.4.4.6.y.g.G.I.Q.(.Q.U.G.f.f.f.G.G.H.I.I.P.I.I.L.G.f.f.p.7.7.8.4.4.4.;.;.' ;.;.4.7.y.y.a.a.n.a.0.:.*.^ W P U P P P ! +.-.-.! P v v v I I P g g h f f f f a f f f f f f p p y y y y y y r r t t r r ",
"g g g g c G I P P P P P I Q Q I Q I I I I Q Q Q ! +.+.! ! *.*.+.! -.0.m.%X*X%XY.m.m.a.0.:.0.u.u.i.:.*.*.@.! ! ! ! ~ Q Q P Q W W Q Q P P P G P P =.5.y.a.s.a.q.q.y.a.a.a.p.p.p.p.p.p.p.p.p.p.p.p.7.7.q.p.p.p.p.p.p.a.s.d.d.d.d.p.p.y.q.y.p.a.p.y.q.p.s.s.d.d.I.%X4XfXxXzXzXfXfXdXdXdXdXdXyXyXyXdXdXfXfXfXfXcXfXfXdXdX4X4X4X4X4X>X:X:X:X:X:X].:X2X4X4X>X2X>X]./.Q.U.H.G.U._.'.Q.U.J.G.H.).2XiX).Q._.U.F.' G.G.G.f.8.' ` ` ` t.Q.[.iXsXsXiX[.}.{.{.[.{.).J.J.J.).).).).}.{.}.).).{.{.}.}.}.).Q.H.t.' ) H H U ^ ! ! ^ ^ ^ / / ^ ^ ^ *.:.0.a.m.Y.%X*X*X,X:X*X*X*X,X,X,X,X3XyXeXeXyXyXyXyXyXyXyXyXyXyXyXeXeXyXyXyXeXyX,X*X!.Y.m.a.y.0.;.-.-.-.*.*.-.:.6.:.:.:.6.0.0.0.q.q.q.a.q.5.=.=.^ ! U U ^ ;.y.L.I.I.I.H.G.f.7.7.7.6.8.=./ ^ ^ ^ ! ! Q P v v v v I P P W Q ~ ~ Q W W ^ ( 4.y.m.(./.~.(.I.G.f.7.4.( ^ ^ ( ( ( ;.5.7.7.5.4.4.5.4.;.;.;.;.4.4.4.7.p.d.H.U.Q.U.U.H.H.G.H.L.I.U.~././.^.^./.T.P.L.G.d.g.p.p.7.7.7.6.4.4.4.7.p.d.n.m.m.Y.m.a.:.*.! P P Q Q P I Q +.@.@.! P v v c v I P g g g g g g f f f f f f f a p p u u y y y y y r t r r r ",
"h h h g g c I P P I v P I Q ! ! Q I I I Q ! Q Q Q Q +.@.-.-.@.+.*.>.:.0.i.n.n.i.0.5.:.=.=.;.=.*.@.! ! *.*.! ! ! Q ~ ~ Q W P P P P P I P P P P P P ! =.6.0.6.:.:.6.q.y.a.p.y.p.a.a.a.p.p.p.p.p.p.p.p.y.a.a.a.a.a.p.p.a.d.n.n.d.a.p.p.q.y.a.a.a.p.p.a.s.s.d.n.I.^.4XdXfXfXfXfXdXdXdXdXdXpX4X4X4XyXdXdXfXfXdXdXdXdXdX4X4X4X3X3X3X,X>X<X<X<X>X:X2X4X4X,X:X<X:X`.Q.Q.U.I.H.U.).'.U.H.G.G.Q.{.[.).J.J.Q.U.F.' 8.9.' ' ' ' ` ' t.Q.[.sXaXkXkXaXiX|.[.[.|.[.{.).W.).{.}.).).{.[.{.{.{.W.W.W.W.W.W.Q.H.G.t.' ) H U U ! ! ^ ^ ^ ^ ^ / ^ U W ! *.:.0.n.Y.!.%X*X*X%X%X:X,X,X,X3X3XyXeXeXeXyXeXeXeXyXyXyXyXyXyXyXeXyXyXyXyXyX3X*X%XY.m.n.u.0.:.=.=.:.:.-.:.0.0.:.-.-.:.6.5.:.5.5.0.q.0.=.U U P P G G ! 5.a.L.I.I.L.G.f.p.7.8.4.4.4.=.^ U W Q U U I I P v v P v P P Q W ~ ~ ! W ^ / ( 4.p.L.~./.^.^.Q.~.I.d.7.4.=.( ( ' / ;.7.7.7.7.6.6.5.4.;.;.;.;.4.4.4.6.q.p.f.H.I.I.U.U.P.P.U.Q.(.`.<X<X:X:X:X:X].^.(.~.P.I.L.H.d.d.f.p.p.q.y.s.m.P.!.~.~.!.!.n.:./ Q P P U P P P I Q ! Q I v v v c c P P c g g g g f a p a a a f a f a p u u y y y y y t t r r r ",
"g g g g g c P I I v v I I Q ! +.Q Q Q ! +.@.+.! +.+.+.-.>.-.-.-.:.:.:.0.:.:.:.:.-.*.-.:.:.:.=.*.-.-.-.-.@.! ! Q ! ! ! ! ! I I v v c c v P P P P P P U Q ! ! ! ! *.=.5.0.0.q.q.a.a.a.y.q.q.p.p.p.p.p.p.a.s.s.a.a.p.a.f.d.L.L.d.p.p.p.p.p.p.a.a.p.p.a.d.a.d.d.I.^.,XyXdXdXdXdXdXdXyX4XyXyX4X4X4X4XpXdXdXdXdXdXpX4X4X4X3X,X,X,X:X:X:X<X<X:X:X:X:X>X,X,X:X<X`.(.U.P.U.U.U.).].].U.H.F.J.'.[.{.J.J.).Q.U.H.8.' ' ' ` ' 9.t.G.Q.[.sXsXaXaXkXgXaXiX|.|.iX|.[.{.{.[. X[.).).{.{.{.{.W.W.W.W.W.W.J.K.H.H.G.f.8.) H G U U W W ! ! ^ ^ ! U U W ! / :.0.n.m.Y.Y.!.!.!.%X,X,X,X,X3X4XyXyXeXeXeXeXeXeXyXyXyXyXyXyXyX4X3X3X3XyX3X,X%X!.Y.m.a.0.:.:.:.:.:.:.:.0.6.;./ / *.;.*./ ^ / 5.q.5.^ U P P G g G ! 5.a.I.I.L.d.f.p.6.4.4.=.;.;./ ! U P P G P P I P P v P P P P W ~ ~ ! ! ) ( ( 4.6.p.d.(.`.].].`.^./.P.L.d.p.6.6.7.6.6.4.7.7.6.4.4.4.4.4.4.4.;.4.4.4.4.7.p.t.f.G.H.I.P.~./.^.].:X:X4X4X4X4X4X2X>X:X:X].`./.~.Q.U.I.I.L.d.d.d.I.~.^.:X:X:X:X^.m.6./ Q P P P P P P P I I I v c v v g g c c g g g g g f a p p a a a a f f f u u y y y y y t t r r r ",
"a a h g g c v P I I P I I Q ! +.! ! ! +.@.@.@.@.@.@.-.>.:.:.:.:.:.:.0.w.w.0.:.:.:.:.:.:.5.5.:.:.>.>.:.:.-.@.+.! ! Q Q Q I I c g c c c c v P P P P P P P P P P P Q ! *.*.-.:.0.y.u.u.q.q.q.y.p.p.p.q.q.a.d.d.a.p.p.p.d.G.L.L.d.p.p.p.p.p.p.p.p.p.p.d.d.a.d.L.I.^.>X4X4X4XdXpX4X4X4X4X4X4X4X4X4X4X4XyXdXdXdX4X4X4X4X3X,X:X:X:X:X<X<X%X%X<X<X<X<X<X:X>X>X:X`./.U.U.Q.Q.Q.`.[.'.U.H.K.J.).'.'._.[.{.).J.H.9.' ' ' ' 9.H.Q.).[.aXaXsXiXaXgXgXsXsX|.|.iX|.[.{.{.|.|.[.W.W.).{.).W.W.W.W.W.W.W.J.F.G.G.G.f.t.4.) J G U P Q Q ! ! ! W P P P U ! *.:.0.i.n.n.m.m.Y.!.%X*X*X:X,X,X3XyXyXyXeXeXdXdXeXyXyXyXyXyXyXyX3X3X3X4X3X:X%X%XY.n.y.0.0.i.a.i.0.i.y.y.0.;.! ! *.*.! P U / :.0.:.! P P P P g G ^ 6.d.I.L.L.d.p.6.4.4.=.;.;.=.^ W P P G G G P P v P P P P P P W W ~ W ^ / 4.4.6.q.p.H./.:X:X:X:X].^./.~.L.d.d.d.L.d.7.;.4.6.6.4.4.4.4.4.4.4.4.4.4.4.7.q.p.p.f.H.I.U.~.^.].:X>X2X4X4XpXpXpX4X4X4X4X2X2X>X:X].^.~.~.~.P.I.I.P.(.^.:X2X4X4X3X:XP.y.;.^ U P P U P P P P P P I v v v g g c g g g g f f f a p a a a f f f f f u y t t t t t r r r r r ",
"h h h g g v P P P P P I Q Q Q Q Q ! ! ! ! ! @.*.@.-.-.-.-.:.:.:.0.w.w.w.w.0.:.>.:.:.0.0.0.0.:.-.-.>.2.w.w.:.-.@.! Q Q Q I I c c g c c c g g g P I I P P P P P P P P P P P U *.:.u.u.u.y.y.y.p.p.p.q.p.a.d.d.a.p.p.p.d.L.L.n.d.a.p.p.p.p.p.p.p.p.p.d.d.d.d.L.P.<X:X3X3X4X4X4X4X4X4X4X4X4X4X2X,X:X3X4XdXdXpX4X4X4X3X,X:X<X:X<X`.^./.~.~.^.`.%X^.^.%X:X:X:X:X`.`.`._.Q.Q._._.U.H.G.J.U.J.Q.).iXaX[.Q.t.t.9.9.] 9.t.J._.[.iXsXkXkXsXiXsXgXgXsXiX|.iXsX|.[.).{.|.|.{.J.J.W.).).W.W.W.W.J.K.J.K.F.F.F.t.t.f.7.( U G G P U Q W W U P P P P P U Q ^ -.:.;.:.0.a.m.Y.Y.!.!.^.%X*X,X3X3X4XyXeXdXfXeXyXyXeXyXeXeXeXyXyXyXyX3X:X*X*X!.u.:.=.u.m.Y.m.n.n.n.a.i.:./ / *.-.! P ! ;.0.q.:.! P G P G g G / q.d.I.L.n.p.7.4.4.;.4.4.;.=.! U P P G G G G P P P P P P P P W W W W / ;.y.p.f.d.d.P.<X2X2X2X2X:X^./.~.(.P.~.^.^./.d.6.( 4.6.7.6.4.4.4.4.4.4.4.4.6.7.y.p.f.G.I.Q./.`.:X>X2X4X4X4XpXdXdXdXpXpXpX4X4X5X4X2X:X].^././.~.Q.~.~.^.:X2X5X4X4X4X,X~.a.4.^ H J U U U P P P P P I v v v c g g g h f a a a a a a f f f f f a a a u y t r t t t r r r 2 2 ",
"a h h g P P P P P I I Q Q Q Q ! ! ! ! ! +.@.-.-.-.-.>.>.>.:.:.2.w.w.w.i.i.i.i.w.w.w.i.i.i.w.2.:.:.0.w.i.w.2.>.@.+.+.+.Q I I v c c c v v v v v v I I P P P P P I I I I P P Q @.:.0.i.u.y.u.a.a.a.q.p.p.p.d.d.d.f.t.f.H.L.L.d.d.f.p.p.p.p.p.p.p.a.d.d.d.d.d.I./.:X:X,X,X,X3X3X3X2X3X,X,X3X,X:X^.^.:X,X4XdXpX4X4X2X:X%X~.~.^.^./.~.T.T.T./.^.^.^.^.^.^.^.%X<X:X`.`._./.U.U.U.G.F.G.J.).'.[.sXaX2XQ.F.t.G.t.8.8.t.Q.{.{.[.iXsXaXkXaXiXsXgXsXsXiX[.sXsX|.[.{.).[.|.W.J.J.).).).J.J.Q.J.J.J.J.G.F.F.F.t.t.9.8.' W G G P P W Q Q Q Q P P P P P Q Q *.*.*.:.0.u.n.m.L.Y.Y.!.!.!.*X,X5XyXyXyXeXeXeXyXyXeXeXeXyXyXyX3XyX4X3X,X,X%Xm.5.-.:.n.!.!.Y.Y.I.m.n.i.0.:.:.:.:.;.*.;.0.u.y.:.! P G G d g P *.q.d.L.n.s.p.7.4.=.;.:.;.=.*./ W P P P P P P G G G G P P P W W W ! / ;.7.p.d.G.P.^.>X>X4X5X4X4X2X:X:X<X<X<X:X:X:X^.L.q.4.4.4.7.6.4.4.4.4.6.6.7.7.q.p.g.d.G.I.~./.].>X2X4X4X4XpXpXdXdXdXdXdXpXpXpXpX4X5X2X>X].`._.^.^._._.].>X2X5X4X4X4X4X,X^.L.7.;.^ ) / ^ ! W P P U U I I I P v v g f h f a p y y p f f f f f f f f a f a a a y y y y y y r 2 ",
"h h g g P I P P I Q Q Q Q Q ! ! ! ! +.@.@.@.-.-.-.>.>.:.:.:.:.2.w.w.w.i.i.i.u.u.i.i.i.u.u.i.w.2.w.w.i.i.w.2.-.@.+.+.Q Q I I I v v v v v v v v v I I I P P I I I I I I I P Q @.>.0.0.y.y.u.a.y.y.p.a.p.a.d.d.d.f.p.d.L.I.L.d.f.p.p.p.p.p.p.p.p.a.d.d.d.d.L.P.^.:X:X:X:X,X,X,X,X,X:X:X:X,X:X<X^.^.:X,X4X4X4X4X2X:X%X/.P.P.~.~.P.P.~.T.~./././.^.^.^./.T.T.U.(.U.U.Q.U.H.G.G.t.9.F.J.).[.iXaXsX).F.9.t.G.t.' 9.J.>XiX[.|.iXsXaXaXaX|.iXsXgXsX|.[.|.sXiX[._.J.{.).).K.R.).W.J.J.J.J.J.J.F.K.F.F.t.t.t.9.' ' ' ) G G P P P W Q ! ! Q P P P P P P Q ! ! -.5.i.n.m.m.I.Y.Y.!.!.*X,X5XyX4XyXyXyXyXyXyXeXeXyXyXyXyXyX4X3X3X3X,X*XY.n.a.n.Y.%X%X!.Y.Y.m.n.u.y.0.6.6.6.:.:.:.0.u.u.0.:./ Q P G G ! ;.y.n.n.n.a.q.5.4.;.;.5.:.=.*.*.! Q W U P P P P G G G P G P P W / *.5.y.d.d.d.L.~.:X4XeX4X4X4XeX4X2X,X2X>X:X`.^.^.!.d.7.;.4.4.7.6.6.6.7.7.7.q.y.p.g.d.n.I.P.Q./.].>X2X4X4X4XpXdXdXdXdXdXdXdXdXdXdXpXpX4X2X2X>X:X:X:X:X:X:X>X2X5X4X4X4X5X4X>X/.L.p.7.4.=./ ^ W W P P U P I I I P P v g f h h a p p y p a f f f f f f f f f f f f f a u u u y t r ",
"h h g P I P P P Q Q Q Q ! ! ! ! ! +.@.@.@.-.-.-.>.>.:.:.:.:.2.2.w.w.w.i.i.u.u.b.i.i.i.u.u.i.i.w.w.i.w.w.2.:.-.+.+.! Q Q I I I I I I I I I I v v v I I I P P I I P I I I I Q ^ -.:.:.0.0.y.q.q.y.a.a.a.d.d.d.d.p.f.G.I.I.L.d.f.p.p.p.p.p.p.p.p.d.d.d.L.I.~.^.^.<X:X:X:X:X:X:X:X:X:X:X:X:X:X<X%X<X:X,X4X4X4X3X,X<X^.~.P.T.~.P.P.P.~.~.~./././.^.^.^.~.I.I.P.U.I.I.Q.U.H.G.G.t.t.F.J.'.[.iXiX'.G.] 9.t.G.t.' t.Q.sXsXiXiXiXiXsXaXsX|.{.iXgXiX X{.[.|.|.{.J.J.W.).W.J.J.).).J.K.J.J.J.J.G.F.F.F.t.t.' ' ' ' ' / W P P P P P Q ! *.! P P P P P P P P Q @.:.q.a.n.m.L.Y.Y.!.!.*X,X3X4X3X3X3X3XyXyXyXeXeXyX4XyXyXyX3X,X3X,X,X,X*X%X!.!.!.!.!.!.Y.m.m.n.u.i.0.0.6.:.:.:.6.0.y.i.u.y.6.-.! W ! =.0.s.n.n.s.y.6.4.4.5.6.6.5.;.*.*./ ! ! ! W U P P P P P P G P P W *.5.a.m.P.I.d.d.~.>XeXeX4X4XpXdXpX4X4X4X5X`.(.L.L.d.q.;.( ' 4.7.7.7.q.y.y.p.p.g.d.d.L.I.T.~.^.<X>X2X4X4XpXpXdXdXdXdXdXdXdXdXdXdXdXdXpXpX4X2X2X2X2X2X2X2X2X5XpXpXpXpX5X2X4X:X~.G.p.p.7.6.=.^ W W P P P c P P I P P P v g g g h f p p p p f f f f f f f f f f h h h f f a f u y y ",
"g g g P P P I I Q Q ! ! ! ! ! ! ! +.@.@.@.-.-.-.>.>.:.:.:.:.:.2.0.0.w.w.w.i.i.i.w.w.w.w.i.i.i.w.0.2.2.:.>.-.@.+.+.! Q Q Q Q Q Q Q Q Q Q I P P I v v I I P P P P P I Q Q Q Q ! @.*.*.-.:.:.:.4.6.y.a.a.s.d.d.d.f.p.d.L.I.L.d.d.p.p.p.p.p.d.p.p.d.d.n.P./.<X:X<X%X<X<X<X<X<X<X<X<X<X<X:X:X:X<X:X:X:X>X2X,X,X,X:X<X^./.~.~.~.P.I.I.~.~./././.^.^.`.^.~.P.T.Q.(.I.I.Q.U.H.G.G.G.G.J.).[.[.[.).F.] t.F.G.f.] ' F._.sXaXsXiX|.|.sXsXsX|. X|.|.sX|.}.].3 8 G ;.H 6 7 U ^.d.dXxX8.f.>X~.G.G.t.F.t.t.9.9.' ` ( ` ' / ! W P P P P Q *.*.! P P P P P P P P P ! :.0.u.n.m.m.Y.Y.!.!.*X,X3X3X,X,X,X3X3X3XyXyXyX4X4XyXyX3X,X,X,X3X3X3X,X*X!.m.u.a.m.Y.m.n.n.a.u.y.0.6.:.:.:.:.6.0.0.y.i.u.0.:.*.*.=.6.u.n.n.d.a.q.5.4.5.7.q.q.0.;.*.*.*./ / ! ! ! U P P P P P P P W / ;.y.m.^.^.^.I.I.^.5XdXdX4XeXdXfXdXdXpXpX5X^.d.q.7.7.4.( ( ;.6.y.p.p.g.g.s.d.d.n.L.I.P.~.^.^.<X>X4X4X4XpXpXdXdXdXdXdXfXfXdXdXdXdXdXdXpXpXpX4X5X4X4X4X4X4X4XpXpXpXpX4X4X2X>X<X~.L.d.d.p.7.;./ ) W P P P g G P P P P P g g g g g f a p p p f f f f f f f f f f f f f f f u a u y y ",
"g g g P P P P P Q Q ! ! ! ! ! ! ! ! +.+.@.@.-.-.-.-.>.>.:.:.:.:.:.2.2.0.w.w.w.w.2.2.2.0.0.0.w.w.:.:.>.-.-.@.+.+.+.+.! Q ! +.+.+.+.+.! Q Q I I P I I I I I P I P P I Q ! ! ! ! ^ ! ! ! ! ^ ^ / ;.q.p.s.d.n.d.f.f.p.d.I.I.L.d.d.p.p.p.p.a.d.p.p.d.I.P.^.<X:X:X<X^.<X%X%X%X%X<X%X^.^.^.<X<X:X:X:X:X<X:X:X:X:X:X:X<X^././.~.P.L.d.L.P.P.T.~./.^.%X%X^./.T.~.(.Q.H.H.U.U.H.F.t.F.G.J.[.sXsX{.J.] 9.G.H.G.9.` ] K.'.iXiXiXiX|. X|.|.iX|.{.{.|.|._.0 W W W g.g.y.y.4.8 G (.dXPXxX^.I.Y.U.G.f.t.9.9.t.' ' ` ( ( ;.( ^ W P P G P W ! *.! P P P P P P P P P Q -.6.y.u.a.n.L.Y.Y.!.%X*X,X,X*X*X*X,X3X3X3X4X3X3X4X3X,X*X!.%X,X,X3X3X,X*XY.y.! ! 0.n.u.y.u.u.u.0.6.:.:.:.:.6.0.0.0.0.0.0.6.;.;.;.5.y.a.n.d.s.p.q.5.5.7.p.a.u.0.:.*.*.^ ! ^ ^ ^ ! Q P P P P P W ! / ;.5.y.L.%X3X5X<X^.:X4XdXdXpXdXfXzXfXdXdXdX4X/.f.8.4.;.( ( ' 4.y.s.d.n.n.n.L.L.I.P.(.~.^.^.:X:X>X4X4XpXdXdXdXdXdXdXdXfXfXlXlXlXfXfXdXdXpXpXpXpXpXpXdXpXpXpXpXpXpXpXpX4X4X2X:X`./.P.L.d.d.7.;./ ^ ^ W U U P P P P P P P g g g g g h a p p a f f f h h f f f a f f f f f u u u y y y ",
"g g v v P P P P Q Q ! ! ! ! ! ! Q Q Q ! ! +.+.@.@.@.-.-.>.>.>.>.>.:.:.2.2.2.2.2.2.2.:.:.:.:.:.:.>.-.-.@.@.@.+.+.+.+.! ! +.+.@.@.+.+.+.+.! Q Q Q I I P P P P P P P Q ! +.@.@.@.@.@.! Q Q ! W ^ =.6.p.s.n.n.d.f.p.d.G.I.I.L.d.d.p.p.p.a.d.d.d.d.I.^.<X:X:X:X:X<X%X%X^.^.^.^.^.^.^.^.^.^.^.^.^.%X%X^.<X:X:X<X^.^.^././.~.T.I.d.p.p.d.G.L.P./.^.`.%X%X^.T.U.U.H.G.H.'.].].U.G.t.G.U.iXaXsX_.G.9.G.H.U.f.' ` 9.J.'.|.|.iXiX X[.[.[.|.|.}.).A 0 F ) ( ( ` 8.G.4XfX9.8.^.:XxXG.P./.G.( 7.,XG.t.9.8.' ' ' ( ( ( ( / ^ Q P P G P P ! ! Q P P P P P P P P P Q *.:.0.q.u.a.m.L.m.L.!.%X*X*X%X!.%X*X,X3X3X3X3X3X4X,X%Xm.u.m.%X*X,X,X,X*X!.n.-.Q ! :.6.0.u.u.u.0.:.:.6.6.6.6.:.6.6.6.6.6.:.;.:.:.0.u.a.s.a.p.q.q.7.7.p.s.s.a.0.;.*.*.^ ! ! / ^ ^ ! W U U U W / =.5.y.y.a.L.^.5XeX3X<X:X4X4X5X5X4XdXlXzXfXdXdX4X^.d.8.4.;.;.4.8.p.d.L.I.P.(.(.~.~./.^.^.<X:X,X2X4X4X4XpXdXdXdXdXdXdXdXfXlXlXcXcXlXlXfXdXdXpXpXpXpXpXdXfXdXpXpXpXpXpXpXpXpX4X2X:X].].`.~.P.I.d.7.4.=./ ^ W W U U U U U P v g g g P P g f p p a f f f h h h f f a f f f f a y t t t r r ",
"c c v v I P P P I I Q Q Q Q Q Q Q I I I Q Q ! ! +.+.@.-.-.-.-.-.-.-.>.:.:.:.:.:.:.:.:.:.>.>.-.-.-.@.+.@.@.+.+.@.+.+.! +.+.@.-.-.-.@.+.+.+.+.+.! ! ! ! Q Q I I I I ! @.-.-.-.-.-.*.@.! W Q W ! / ;.q.a.d.d.d.p.p.d.L.I.I.L.d.d.a.a.d.d.d.d.L.I.^.:X,X,X:X:X<X%X%X^.^.^.^.^.^.^.^.^./.~.P.~.^.^.^.^.^.^.%X^.~.P.P.T.~./.~.P.L.f.p.p.p.d.P./.^.^.^.^.^.U.L.G.G.G.Q.iXlXlX2XQ.t.F.U.iXaXiX_.H.t.H.H.G.t.' ' F.J.{.|.|.|.|.|.[.{.{.[.>X( E G././.I.9.( f.>XlXpX:X4XI.4XcXpXdXpXf.E K W / `.8.8.9.8.( ( ( ( / / ^ ! Q P P P P P Q Q P P P P c v P P P P P ! ;.:.0.y.a.n.n.n.n.m.!.!.!.!.!.!.%X*X*X,X3X3X3X3X:X!.a.5.n.!.*X,X,X,X,X*X!.n.:.*.;.6.u.a.a.u.0.:.6.0.0.0.:.:.:.:.:.:.:.;.;.:.:.0.u.u.a.p.y.q.y.y.p.a.s.a.y.5.=.*.*.^ ! ^ *./ *./ ^ ! ! ^ / ;.6.y.a.a.a.L.^.>X4X3X`.:X:X:X:X:X4XdXlXlXfXdX4X2X/.d.q.7.7.q.p.d.G.I.(.~.^.^.^.:X:X<X:X:X>X5X4XpXpXpXpXdXdXdXdXdXdXdXdXfXfXlXlXlXlXfXfXdXpXaXdXdXdXdXdXaXdXaXdXdXdXpXpXpXpX4X2X2X2X4X4X:X:X^.P.d.q.;.=.( ^ ! ! ! Q Q Q P P g g P P P P g a a a f f f x c c h f f f c c f u r 2 2 2 2 2 ",
"v v v v v I I I v P P I P P P P I P P P P I Q Q ! ! +.@.-.-.-.-.-.-.-.-.-.>.:.:.:.:.>.-.-.-.-.-.@.+.+.+.+.+.+.+.+.+.! +.@.@.-.-.-.-.@.@.@.@.@.@.@.+.! ! Q Q Q Q Q +.-.-.>.>.>.-.@.! ! U W W U ! / 5.q.p.a.p.p.p.f.d.I.I.L.d.d.a.d.d.d.d.L.I./.:X,X3X,X:X<X%X^.^.^.^.^.^.^././././.T.I.I.P.~.^.^.^.^.^.^.~.I.d.a.I.~./.^./.P.n.p.p.p.f.P.^.^.^./././.I.G.f.t.H.[.lXvXAXfX).t.F.J.2XsXiX[.U.G.H.f.9.' ` 9.H.).[.|.|.|.|.|.[.).).{.U J ( ' ].].vXpX/.dXdXL.pXfXdX2X:XlXxXZX:XH.8.E g G 6.f.8.' ( ( ( ( / / ^ ! Q W P P P P P P Q P P P g g P P P P P P Q *.;.:.6.y.a.a.u.i.u.m.m.V.m.m.m.!.%X*X,X,X3X3X3X*X!.n.u.Y.*X,X3X,X,X,X*X%XY.n.y.y.u.n.n.a.u.0.6.0.0.y.0.6.6.:.:.:.:.*.*.*.:.5.q.u.u.y.p.y.p.a.a.a.s.a.y.0.:.*.*.=.*.! / *.*.=.=.=.*./ =.;.6.y.a.s.a.y.n./.,XeX5X`.<X:X>X:X2X4XdXzXfXfXdXeX>X~.d.p.p.g.d.I.(.~./.^.^.:X:X>X>X2X5X5X5X4XpXdXpXpXdXdXfXfXdXdXdXdXdXdXdXfXfXfXfXfXfXfXdXdXfXfXfXfXdXdXaXaXdXdXdXpXpXpXpXpXpX4X4X4X4X4X3X:X<X~.L.y.;.=.=.*.*.^ ! Q Q Q U P P P P Q Q Q v f a a f f x c c c c c c v v v c a r 2 & & & & ",
"v v v v v v v v I I I I v v v v P I v v I I Q Q ! ! ! @.-.-.@.+.+.@.@.-.-.-.-.-.-.-.-.-.-.-.@.@.+.+.+.+.! ! +.+.+.! ! +.+.@.-.-.>.>.>.-.-.-.-.-.-.-.@.+.+.! ! ! @.-.-.>.:.:.:.-./ Q P W Q U U W W / 5.y.a.a.p.p.p.d.I.I.L.d.p.a.d.d.d.d.I.^.:X:X,X,X:X:X:X<X^.^.^.^.^././././././.P.L.n.I.~.^.^.^./.~.~.P.n.d.d.P.~.^.^.~.~.I.d.p.p.d.P.^.^./.~.P.P.I.G.t.G.G.>XlXDXDXlXQ.t.t.U.iXsXpX2X_.H.f.p.8.` ` t.Q.[.[.[.[. X X|.{.J.).8.) ` R.F.E Q.>X[.]._.Q.2X5X>XfXfX>Xt.t.dX>Xf.` L H d p *.5.( ( ) / / / ) W U U ! Q U P P P P I P P P P P P P P P P P P ! / ;.5.y.a.a.0.:.0.u.u.n.y.u.n.Y.!.%X*X,X3X,X*X*X%X!.!.*X3X3X3X3X,X*X*X%X!.Y.m.n.n.m.m.n.u.0.6.0.0.6.0.0.0.6.:.;.;.*.*.*.:.5.0.y.y.y.q.y.p.p.a.s.a.p.q.6.=.=.=.=.*./ / =.=.:.5.5.:.:.5.6.y.y.y.a.y.y.m.^.>X4X5X2X4X4X4X4XdXdXfXfXfXdXdXdX5X(.d.f.d.P.~./.`.<X<X:X>X4X4X4X4X4X4X4X4XpXdXdXdXdXdXdXdXdXdXdXdXdXdXdXfXfXfXfXfXfXfXfXfXfXlXlXlXlXlXaXaXaXdXdXdXpXpX5XpXpX4X4X4X4XpXpX>X^.~.L.p.7.6.4.4.:.:.;.*.! ! Q U P P P P Q Q Q I g a a f f f f c c c c v I I v v c a 5 & * * & ",
"v v v v v v v v I I I v v v v I P P I I P I Q ! +.! +.@.-.-.@.+.! ! +.@.@.@.@.-.-.-.-.-.@.@.@.+.+.+.+.! Q ! +.+.+.+.+.+.@.-.>.>.:.:.:.:.:.:.:.>.>.-.-.-.@.@.@.-.-.>.:.:.:.:.:.-.! Q P Q Q Q W ! W ! =.6.y.a.p.p.p.L.I.L.n.d.d.d.d.d.L.T.%X,X>X:X:X:X<X<X<X<X^.^.^.^.^././.~.~.~./.T.P.P.P.~.~././.~.!.T.P.L.L.I.T././.~.~.~.P.I.G.L.I.T.~./.~.~.~.I.G.G.G.G.G.'.pXvXAXlXQ.t.F.Q.[.2XiX2X'.H.7.4.' ( ' G.].>X[.{.{.{.{.{.{.[.G.' ( H 9.fXaX[.pXiXpXpXaX>X>X>XiX'.U.' 8.H.H.G.t.( H J d G ;.=./ W ) ) ) W ! W U ! ! ! P P P P P P P P P P P P P I P P P U ! / :.y.s.n.i.;.-.:.:.:.:.:.u.m.!.^.*X,X,X*X!.*X,X,X3X3X3X3X3X3X,X:X*X%X%X!.Y.m.I.Y.Y.m.u.6.;.;.:.:.:.6.0.6.:.;.*.*.*.-.:.5.0.0.0.q.q.q.y.p.a.a.y.7.5.:.;.=.=.;.*.*.*.;.5.0.q.y.0.6.6.0.6.y.y.y.y.y.m.^.>XeXeX4XdXfXlXcXzXfXfXfXfXfXfXfX4X^.I.I.~.^.:X:X>X>X,X>X4X4XdXdXdXdXdXpXeXpXdXdXdXfXfXdXdXdXdXdXdXdXdXfXfXfXfXfXfXfXdXdXdXfXlXlXcXlXlXaXaXfXfXfXfXpX4XiXpXpX4X2X5XpXdX4X<XI.p.4.7.6.q.p.s.n.n.u.6.=.^ Q Q Q ! ! Q Q Q W v f a p f f f f c c c c m I Q I I I c a r 2 & & ",
"v v v I I I I I P P I I I I I I I I P P I Q ! ! +.+.+.@.-.-.@.+.+.@.@.-.-.-.-.-.-.-.-.-.@.@.+.! @.+.! Q Q Q ! +.+.+.+.@.-.-.>.:.:.2.2.2.:.:.:.:.:.>.>.>.>.-.>.:.2.0.2.2.2.2.:.-.+.Q Q Q ! ! ! ! W ! ^ =.5.y.a.p.p.L.L.n.d.d.d.d.d.L.T.<X>X4X3X:X:X<X<X<X<X<X^.^./././././.~.~.T.P.I.I.I.I.L.L.I.T.T.T.T.P.I.P.T.~.^.^.~.~././.~.I.T.~.~.~.~./.`.(.P.f.G.U.Q.).].pXvXvX2XG.' ' t.H.G.G.9.9.8.4.4.( ` 8.H.].2X[.{.).).W.).).U.` E A ( LXDXvXvXDXDXDXvXvXfX[.[.'.).'.'.F.E G.U.9.9.E E J 9 4.m.) ) ) ) W U U ! ! ! @.! Q P P g P P P P P P P P P P P P G P U U / 6.n.m.n.:.! *.-.-.*.;.y.m.I.!.^.:X,X%X!.*X,X3X,X*X!.Y.Y.%X*X:X*X*X%X!.Y.I.Y.!.Y.m.i.;.! / *.*.;.:.6.:.;.*.*.*.;.:.:.5.5.5.5.6.7.7.q.q.y.y.7.5.;.=.=.=.=.=.*.*.=.5.0.y.a.a.y.0.6.6.5.5.6.6.7.5.a.(.:X5X4X4XpXdXfXfXlXfXfXfXdXfXfXdX5X^.P.~.^.:X>X2X5X4X5X5X4XdXdXfXfXdXdXdXdXdXdXdXfXfXfXfXdXdXdXdXdXdXfXlXlXlXfXfXfXfXdXdXdXdXfXfXfXfXpXpXpXfXfXdXpXpXpXpX2X>X2XpXfXlXpX].Q.I.H.I.P.I.P.P.!.!.Y.m.a.0.=.^ ! *.-.-.-.*.! Q P c f a f f f f c c c c v I I I Q Q I v f y r 2 ",
"v v m m I I I I P P P P I P P P Q Q Q Q Q ! +.+.@.@.@.@.-.-.@.@.-.-.-.-.-.-.-.@.-.-.-.-.-.@.@.@.@.+.Q I I I Q +.+.+.@.-.-.>.:.:.2.0.w.w.2.2.:.:.:.:.:.:.:.:.2.w.w.w.w.w.0.2.:.>.-.+.! ! ! ! ! ! ! ! ! ^ =.7.a.a.d.L.L.L.d.d.d.d.L.P.%X,X4X4X3X,X:X:X:X<X<X%X^././././././.~.P.I.I.L.n.n.d.d.d.L.I.I.P.P.P.I.P.T.~./.^././.^./.T.P.~././.~./.>X4X4X>XH.t.H.>XlXbXvXvXlX].t.' ' 8.' 8.8.8.7.8.' ( ( ' 9.G.Q.[.[.{.'.J.K.J.U.~.Q.' I.dXKXLXDXDXAXAXDXDXDXDXaXgXsXiXiXiXiXU.F.F.9.9.' ( ( ( / a.0.Q ! W U P U ! ! ! ! Q P P P P P P P P P P P P P P P P P P P P ! *.u.m.m.w.@.^ *.*./ ;.q.d.L.P.~./.!.L.Y.%X,X,X%XY.n.0.0.n.!.%X%X%X!.Y.Y.Y.Y.!.!.m.0.*.W ! / / / *.;.:.;.*./ -.:.:.:.:.:.:.:.5.5.6.6.7.q.7.5.4.;.=.*.*.*.=.=.=.5.6.q.p.a.a.q.6.5.;.;.;.4.4.4.;.7.m.^.<X<X:X5X4XdXfXfXdXdXdXdXdXdX4X2X^./.^.:X>X2X4X4X4X4X4XpXdXdXdXdXdXdXpXpXdXdXdXfXfXfXfXaXaXaXpXpXaXfXlXlXlXlXlXlXfXfXdXaXpXaXdXdXdXpXpXpXaXaXdXpXpXaXfXpX5XpXaXfXpX:X/./.^.`.:X].^.^.^.^.^.!.Y.n.y.:.-.*.;.:.-.:.*.! Q Q P c f f f f h c c c c c c c v I Q Q I v f y r ",
"P P I I I I Q Q I I I I I I I Q Q Q Q Q ! +.@.@.-.-.-.-.-.-.-.-.>.>.>.-.-.-.@.@.-.-.-.-.-.-.-.@.-.@.+.I I I Q +.@.-.-.>.:.:.2.0.w.w.w.w.w.w.w.w.2.2.2.:.:.:.0.w.i.i.i.w.w.2.:.>.-.-.^ ! ! ! ! ^ ^ ^ ! ^ =.6.p.d.d.n.L.I.L.a.p.d.P.^.:X3X4X4X,X:X:X:X:X:X%X^.^.^.^././././.~.I.L.d.p.d.d.n.d.d.I.L.L.I.I.P.P.P.T.T.~././.^./.~.P.P.P.Q.(./.:XpXlXlX5XU.G.Q.sXvXAXvXlXiXQ.t.8.8.' ' 8.e.p.p.8.( ( ' 8.t.G.J.).).).).).K.H.f.DX`.2XPXKXKXKXLXPXLXPXPXPXDXDXAXvXvXbXbXbXgXiX>XU.G.G.t.9.` ' 4.! u.*.W W W W U ! ! ! P P P P P c P P P P I P P P P P P P P G P P W Q :.i.n.u.-.Q Q ! ! / 6.d.I.Q.T.P.s.q.u.Y.%X%X!.Y.i.-.^ 0.Y.!.!.!.!.Y.Y.Y.!.!.Y.m.y.*.W ! ! ! ! ! *.-.-.*.*.;.:.:.;.:.:.;.;.;.4.5.6.6.6.5.4.;.;.=.=.=.=.:.:.5.5.6.y.y.y.q.6.;.( / / ( ;.4.4./ 4.g.L.P.P.~.:X4XdXfXdXdXdXdXfXdXpX5X:X^.`.:X>X2X4X4X4X4X4XpXdXfXdXdXdXdXdXpXdXdXdXdXdXdXdXaXaXdXdXpXpXpXdXfXlXlXlXlXlXlXlXfXdXdXdXdXdXdXdXpXpXdXdXpXiXpXfXlXfXpXpXpX>X_./.].2X2X2X].<X:X<X<X^.^.!.Y.n.y.5.:.:.:.:.-.*.Q P Q ! ! I g h h h x x h c c f f f h c c v c x f y t ",
"I I I I Q Q Q Q I I I I I Q Q Q Q Q Q ! ! +.@.@.-.-.-.-.-.-.>.>.:.>.>.>.-.-.@.@.@.-.-.-.-.-.-.-.-.@.+.Q I Q +.+.-.-.>.:.2.2.w.w.i.i.b.i.b.i.i.i.w.w.2.2.:.:.2.w.i.i.w.w.w.2.:.>.-.-.@.! ! ! ^ / / ^ ^ ^ ( 5.q.s.d.d.L.I.L.d.d.I.%X:X<X<X:X3X,X:X:X:X:X:X%X^.^.^.^.^././.~.P.L.d.7.p.d.L.I.I.I.I.I.L.n.L.I.I.P.P.P.T.~./././.~.T.P.I.U.Q.^.2XfXcXfX<XG.G._.iXvXvXlXsX].H.t.7.7.4.4.q.f.f.p.8.4.( 4.7.t.G.H.J.Q.).).).J.f.6.dXdXAXKXLXKXKXKXKXLXKXKXLXPXDXDXvXvXAXvXAXvXgXgX>X]._./.G.9.7.;.;.u.i.W P W ! Q ! Q U P P P P P g g g P P P P P P P P P P P g G U Q W Q -.u.b.:.! P Q U / 6.d.U.Q.U.H.y.4.5.n.Y.Y.Y.I.i.-.! 5.m.Y.!.!.I.m.m.L.Y.Y.I.m.u.:./ / ! ! ^ / / *.-.;.;.;.;.;.=.=.=.=.=.;.;.4.5.5.5.4.;.=.;.=.;.:.:.:.5.5.5.6.6.6.5.5.;.( / ^ ) / ' 4.4.;.4.q.g.g.d.I.~.:XeXdXdXdXdXdXdXdXeX4X:X^.<X2X2X2X4X4X4X4X4XpXdXfXfXdXdXdXdXdXdXdXdXdXdXdXdXaXaXaXdXdXpXpXdXfXfXfXfXfXlXlXlXlXfXdXaXaXfXfXaXpXpXpXdXdXpXdXlXcXlXaX2X].Q.Q.].4X4X2X2X:X>X:X:X:X^.~.Y.L.n.u.0.:.:.5.0.:.*.Q Q ~ +.! P g c c h f f f f f f f a a a a a u u y r r ",
"Q Q Q Q Q Q Q Q Q Q Q Q Q Q Q Q Q Q ! ! +.@.-.-.-.-.-.-.-.>.>.:.>.>.-.-.-.-.-.@.-.-.>.:.:.:.:.:.>.-.@.+.+.@.@.-.>.:.2.w.w.w.i.b.b.b.b.b.b.b.u.i.i.w.2.:.:.:.:.2.w.0.2.2.2.:.:.>.-.-.@.@.! @.^ ^ ^ ^ / / / =.5.p.d.d.d.L.n.d.I./.,X,X^.~.`.,X,X:X:X:X:X<X^.^.^.^.^.^./.~.~.P.L.a.p.a.L.I.I.I.I.P.P.I.L.L.I.I.P.P.P.T.~./././.~.~.U.I.Q./.].4XdXpX<XH.t.H.].5XfXpX5X_.H.t.6.4.8.4.5.q.q.5.4.( ' 4.7.t.f.G.G.H.J.U.).).U.P.>X2XI.:XKXKXKXKXKXLXKXKXKXKXKXLXPXDXDXDXAXDXDXAXvXgXpX>X>X<X_.I.7.n.*.b.*.W W ! Q W W G P P P P g g g g P P P P P P P P P P P G P P P P P Q :.i.:.! U ! W ( p.I.Q./.U.G.q.6.6.i.n.m.m.m.n.0.5.u.m.Y.Y.L.m.n.m.m.m.m.m.m.u.0.;.*./ / *.*.*.*.;.:.:.;.-.-.*.=.=.=.;.;.;.;.5.4.4.;.;.=.;.;.:.:.5.6.6.6.6.5.5.4.;.4.;.;.( ( ( ;.4.6.7.6.7.q.q.p.f.L.~.:XeXdXdXdXdXdXdXdX4X5X:X^.>X4X4X4X4X4X4X4X4XpXdXdXdXdXdXdXdXdXfXfXfXdXpXpXdXdXaXfXaXdXdXdXdXfXfXfXfXfXlXlXlXfXfXfXfXfXlXfXfXaXaXdXpXdXpXpXdXaXpX2X/.H.H._.5XpX5X2X2X2X:X:X<X<X^.~.!.Y.m.s.y.6.:.5.0.:.-.*.! ^ +.Q v g c c x f f f a a a a y y y t t t r r r r ",
"! Q Q Q Q Q Q Q Q Q ! ! ! ! ! ! ! ! +.@.@.-.-.>.>.>.>.>.>.>.:.:.:.:.:.>.>.>.>.>.:.:.2.0.w.w.w.w.2.:.>.-.-.>.:.2.2.w.i.i.b.b.b.b.b.n.n.n.m.m.n.u.i.w.:.:.>.>.>.:.2.:.:.:.:.:.>.-.-.-.-.@.@.@.! ! ! ! / / ^ ^ =.7.p.d.d.d.d.d.T.:X3X3X<X/.<X3X,X:X:X<X^.^.^.^.^.^.^././.~.~.T.I.d.p.d.L.L.d.d.L.I.T.I.I.I.I.P.P.~.~.~.~.^.^././.Q.P.Q./.].>XpXpX>XU.8.' 9.U.].iX2X/.G.t.8.6.4.4.=.=.5.5.=.^ ( 4.8.7.f.I.U.G.F.F.G.J.U.I.p.].>XG.AXKXKXKXLXKXKXKXKXKXKXKXLXLXLXPXDXDXDXAXAXAXvXxXfXpXpX4X<Xn.n.P h 6.^ W ! W P P G P P P P g g g v g c P P P P P P P P P P P P P P P I +.:.-.Q U U U 4.d.U._._.U.H.d.s.y.0.0.u.n.m.a.q.q.n.m.Y.m.m.m.n.n.m.n.a.u.u.i.0.:.;.*.*.;.;.;.;.:.:.:.:.-.*.=.=.=.=.;.;.4.4.5.4.4.;.;.;.;.:.5.0.0.0.q.q.7.7.6.6.6.6.7.7.7.6.7.y.y.y.y.q.q.q.p.g.d.L.(.`.4XdXfXdXdXdXdXdX4X4X<X`.>X4X4X4X4X4X4X4XpXpXdXdXdXdXdXdXdXfXfXfXdXdXpXpXpXdXfXfXfXfXfXaXfXfXlXlXlXfXfXlXfXfXdXaXaXaXfXaXaXaXpXpXpXiXiXiX>X_.U.G.G.U./.2XiX2X2X2X>X2X<X].<X^.^./.!.Y.m.n.y.6.:.:.:.-.! ! ! ! ! I v g c c f f a a a a a a u y y t t t r r t y ",
"@.+.+.+.Q Q Q Q +.+.+.+.@.@.@.@.+.@.@.-.-.>.:.:.:.:.:.:.>.>.:.2.2.2.2.0.w.w.0.w.w.i.i.u.b.b.b.b.i.w.0.2.0.w.i.i.b.b.b.b.n.n.n.m.n.m.m.n.n.n.b.b.w.0.:.>.-.-.>.:.:.:.:.:.:.>.-.-.@.@.@.@.! *.@.! ! ! ^ / ^ ^ =.6.a.s.a.d.L.I./.:X5X4X,X:X:X,X,X:X%X^./.^.%X^.^.^.^./././.~.P.n.d.d.d.L.d.d.p.d.L.I.I.L.L.I.I.P.~.~.P.~.^./././.(.U.Q.^.].2XpX2XQ.f.' ' ' f._.pX5XQ.t.9.7.4.=.=.=.=.=.=.=.*.=.( ( 8.f.P.U.H.G.F.F.G.H.p.2X].9.G.LXKXLXKXKXKXKXKXKXKXKXKXKXKXKXLXPXDXDXDXAXAXAXAXvXfXfXdXdXd.y.P I :.:.~ h P G G G P P P v g g g g g g g P P P P P P P P P P P I I I I Q +.+.U U U U 7.L.Q._.).U.G.f.a.0.:.:.5.q.n.u.0.0.n.m.L.m.n.m.n.n.n.u.y.y.u.i.6.:.;.;.:.:.6.:.6.6.6.:.;.;.-.=.;.;.;.;.4.4.5.5.5.4.4.4.5.6.6.y.y.u.u.a.a.a.y.y.7.7.y.p.p.g.g.g.s.g.g.y.y.q.7.q.p.g.G.I.(.:X5XdXdXdXdXdXdXpX4X:X:X>X4X4X4X4XpX4XpXpXpXpXdXdXdXpXpXpXdXfXfXdXdXpXpXpXdXfXfXfXfXlXlXfXfXlXlXlXfXfXfXfXfXfXfXaXpXaXpXpXaXpXpX4X].].]./.G.9.t.H._.>X2X2X2X2X>X].`.].`.^.^./.~.I.n.d.p.6.6.:.;.^ P g P W ~ ! I v g g h f f a u y y y y y y y y t t y r r r ",
"@.@.+.+.+.+.+.+.+.+.@.@.-.-.-.-.-.-.-.-.>.:.:.:.2.2.0.2.2.:.2.w.i.i.i.i.b.b.b.b.b.b.n.n.n.n.n.b.b.b.i.i.i.b.b.b.b.b.b.n.n.m.m.m.m.m.m.m.n.n.b.b.w.0.:.>.-.-.>.:.:.:.:.:.>.>.-.@.@.@.*.! ! *.@.! ! Q ! / ^ ^ =.q.d.d.a.s.L.I./.:X,X:X:X<X:X:X:X:X^./.~.^.^.^.^.^.^./././.~.I.d.d.L.I.I.I.G.d.d.L.L.L.d.d.L.I.P.~.~.T.~.^././.~.Q.Q.Q.].].>X2X].I.7.' ' ' t.U.]._.d.7.4.4.;.=.=.*.=.=.=.=.=./ ( ( ' 9.G.G.H.G.G.F.t.9.e.P.' L.U.LXKXKXKXKXKXKXKXKXKXKXKXKXKXKXKXLXLXPXDXAXAXAXAXAXAXZXxXxX<X( ! -.! Q P ~ G g P G P P P v g g g g g g g g P P P P P P P v P P P I I I I I I P U U ^ p.L.U.U.U.H.G.7.7.;.*.*.:.q.a.i.0.0.n.m.m.n.n.n.u.a.n.u.y.y.y.0.:.;.:.6.6.6.6.6.6.0.0.6.:.;.;.;.:.;.;.5.4.4.5.6.6.6.6.7.7.y.y.a.a.a.s.s.n.d.d.p.p.p.p.s.s.s.s.d.d.d.g.p.y.y.y.q.q.g.f.d.L./.>XeXdXdXdXdXdXdX4X>X:X>X2X4X4X4X4XpXpXpXpXpXpX4X4X5X5X4XpXdXdXpXpXpXpXpXdXfXlXlXlXlXlXlXlXlXlXlXfXlXlXlXlXfXaXaXpXpXpXpXpXpXpX2X_.U.Q.U.G.G.U._.>X2X2X2X2X>X<X`.`.`.^.^./.~.P.L.d.7.6.6.6.:.*.Q g g P P P I I c g g f f a a u y y y y y y y t t r t t r r ",
"%.@.&.&.+.+.+.&.@.-.-.-.-.-.>.-.-.>.>.:.:.2.2.2.0.w.w.i.w.i.u.b.b.b.n.n.n.m.m.m.m.m.m.m.m.m.m.m.m.n.n.b.n.n.m.m.m.m.m.m.m.m.m.V.V.V.m.m.m.n.b.b.w.2.:.>.>.-.>.>.>.:.:.>.-.-.-.*.-.*.@.+.^ *./ ^ ! ! ! ^ ^ / ;.q.m.L.m.L.I.~.^.:X:X%X/./.^.:X:X:X/.P.I.P./.^.^.^.^.^.^./.~.I.L.n.I.I.P.P.I.L.d.n.L.d.d.p.d.L.I.P.P.P.~.~.~.~.P.I.~.(.`.].:X].P.p.4.4.4.4.6.p.d.f.4.( ( =.*.^ *.*.*.*.*.*.=.*.^ ( 8.8.t.G.G.H.G.F.9.' T.W ) H.fXKXKXKXKXKXKXKXKXKXLXLXKXKXKXKXKXKXKXLXPXPXDXDXAXAXZXZXZXZXdX) U :.! P W g h P g P P P P v g g g g g g g g P P G G c P v v v v P I v I I I I P U U ( f.P.U.H.G.t.9.8.4.*.! ^ =.0.0.0.q.u.n.u.u.i.0.:.:.6.0.0.0.i.u.q.:.;.:.6.0.0.0.0.y.i.y.0.:.;.:.;.5.5.5.5.6.6.q.q.q.y.y.p.s.s.s.s.s.n.n.n.n.n.m.d.d.g.g.d.d.d.d.d.d.g.p.q.q.p.p.p.p.p.g.f.d.I.~.^.<X2X4X4XdXdXpX4X:X>X2X4X4X4X4XpXpXpXpXpX4X2X>X:X>X2XpXpXpXpXpXdXpXpXaXlXlXlXlXvXvXlXlXlXlXlXlXlXlXlXlXfXaXaXaXpXpXpXpXpXiX>XU.G.H.U.Q._.].>X>X2X2X2X2X>X].`.<X:X`./.(.H.d.d.p.p.q.7.5.*.! P P P P P v v c g g h f f a a u y y y y y y y t r r r r r r ",
"-.%.@.@.&.&.&.@.-.-.>.:.:.:.:.:.:.:.:.:.2.0.w.w.w.i.i.u.b.b.n.m.m.m.m.m.m.m.m.V.m.m.m.V.m.m.m.m.m.m.m.m.m.m.m.m.m.m.m.m.m.m.m.V.V.m.m.m.m.m.b.i.w.0.:.:.>.-.-.-.*.*.*.*.*.*.*.*.-.*.! ! ^ *./ / ^ ! ^ ^ ^ *.6.a.Y.Y.Y.!./.%X:X:X:X^.T.~.^.<X<X<XT.L.d.L.P././.^.^./././.~.P.I.I.P.P.P.P.I.L.n.n.L.L.d.p.d.L.I.I.P.P.P.P.I.I.L.G.P.~.^.`.`.~.d.4.=.=.( / ( ( ( / ( / / *.^ @.*.*.*.@.@.*.@.^ / =.9.f.G.F.F.G.G.t.7.4.n.) W f.PXKXKXKXKXKXKXKXKXKXKXKXKXKXKXKXKXKXKXKXLXLXLXPXPXDXAXAXZXAXxXp.U :.w.3 I v h g v P v v v v v v v v v v v v v v v v v v v c c c v v I I v v I P U ! =.a.L.G.9.' 8.8.4.=.=.*.=.:.5.:.:.0.u.y.:.*.*.@./ ^ *.-.:.6.u.n.n.q.:.;.5.0.q.q.y.u.a.u.0.:.:.5.5.6.6.5.6.6.7.p.y.p.s.d.n.m.L.L.m.m.n.n.n.n.m.L.m.d.g.g.g.d.d.L.d.d.s.p.q.p.p.g.g.g.p.g.g.f.g.f.f.d.I./.:X4XpXpX4X:X<X:X2X4X4X4X4XpXpXdXpX4X>X_._.].>X4XpXpXdXfXfXfXfXfXlXvXvXvXvXvXvXvXvXvXvXbXbXbXbXlXlXaXaXaXpXpXpXpXpXpX>XH.9.f.U./.:X>X>X>X>X>X2X>X<X^./././.P.I.d.p.p.g.g.f.g.p.5./ W ! +.! Q P v g f f f f f a a a u y y y y y y y t r r r r 2 2 ",
">.-.%.%.@.@.@.%.>.>.:.:.:.:.:.2.2.2.0.w.w.i.i.i.i.u.b.b.n.n.m.m.m.V.V.m.m.m.V.V.V.V.V.V.V.V.V.V.V.m.m.m.m.m.m.V.V.m.m.m.m.V.V.V.V.V.m.m.m.n.b.i.0.:.:.:.>.-.*.-.*.*.*./ *.*.*.*.*./ ! ! ! ^ / / / / / / / :.y.m.Y.Y.~.^.:X:X:X:X:X^./.^.:X<X^.^.P.n.p.d.I.~./.^./././././.~.T.~.T.P.P.I.I.L.L.n.L.L.d.d.d.L.I.I.I.P.I.I.L.d.d.f.L.I.~././.I.7.=.=.=.=.=.=.*.^ *.*.*.*.@.@.@.*.@./ ! @.@.! / ;.6.t.G.t.9.9.9.t.e.4.=.=.W 7.` LXKXLXLXKXKXKXLXKXKXKXKXKXKXKXKXKXKXKXKXKXKXKXKXLXPXDXAXZXZXxX:X( 6.b.v Q v v v v g v v v c v c c c c v v v v v v v v v c c c c v v v v c v I P U U =.a.I.P.G.9.8.8.7.4.4.5.5.5.6.:.;.y.n.i.*.Q ~ ! ! ~ ^ *.*.6.a.m.m.a.0.6.0.y.u.a.a.a.a.g.y.5.;.5.6.q.q.7.6.6.y.s.a.s.m.I.~.!.!.!.!.I.L.L.L.L.L.I.L.d.g.g.g.d.d.d.d.d.d.d.d.d.d.d.g.p.y.p.g.g.p.7.7.7.7.p.I.:X4XpX4X^.~.^.:X4X4X4X4XpXdXdXpXpX>X_._.].>X2XiXpXaXlXlXlXlXlXbXvXvXvXvXvXvXvXvXbXbXbXbXlXlXlXaXaXpXpXsXpXpXpXpXpX>XH.' ' t.H.U.Q./.`.].`./.~.P.I.L.d.p.p.q.p.q.p.g.g.p.p.p.q.:.-.>.:.-.! P v f f f f f f a a a u y y y y y t t t r r 2 r 2 2 ",
">.>.-.-.-.%.>.>.:.:.2.2.2.2.2.w.w.w.i.i.i.u.b.b.b.b.n.n.m.m.m.m.V.V.V.V.V.V.V.V.V.V.Y.Y.V.V.V.V.V.V.V.V.V.V.V.V.V.V.V.V.V.V.V.V.V.m.m.n.b.b.i.0.:.:.:.-.-.*.*.*.*.*.*./ ^ ^ ^ ^ *.! W W Q ! ! ^ / / *.*.=.0.n.Y.!.!.~.:X:X,X3X,X,X:X<X:X:X:X^.^.~.I.d.d.I.T./.^././.~././.~.~.T.P.P.I.I.I.L.L.m.L.L.n.d.L.I.I.I.I.I.I.n.d.p.q.p.d.L.I.P.P.d.6.=./ =.*.*./ / ^ / *.*.*.@.@.@.@.@.*./ @.@./ =.6.p.f.f.9.9.9.e.e.4.( ^ =./ 8.E KXKXKXKXKXKXKXKXKXKXKXKXKXKXKXKXKXKXKXKXKXKXKXKXKXKXPXAXZXZXZXdX5.0.u.m.! h P P g v v v v v v c c c c c v v v v v v v v c c c c v v v c c I I P U U =.7.f.f.9.8.f.G.L.p.6.5.5.6.5.5.5.a.Y.m.y.;.*.^ ~ ~ / *.;.q.m.Y.Y.L.m.n.n.n.d.n.s.a.y.y.6.5.5.6.y.y.y.7.7.q.g.d.m.I.(./.^.^.^.^.(.(.!.P.P.P.P.I.L.L.d.d.d.d.d.d.d.d.d.d.d.d.d.d.g.p.p.p.g.g.p.7.t.7.8.8.p.~.:X2X].I.H.I.`.2X2X2X4XpXpXdXpXpXiX>X].].[.2XiXsXaXlXvXbXbXvXvXvXvXvXvXvXvXvXbXkXkXkXaXaXaXaXaXsXsXiXiXiXiXiX2X2X].H.' ` 8.t.t.f.U.Q.Q.H.f.f.f.G.n.p.7.6.5.4.4.7.p.p.6.6.q.y.0.0.2.:.-.! P g f f f f f f a a u u y y t r r r r r r r 2 2 2 2 ",
"2.2.>.>.>.>.2.2.2.0.0.2.2.0.w.i.i.i.u.b.b.b.n.n.m.m.m.m.m.m.m.V.V.Y.Y.Y.V.V.Y.Y.V.Y.Y.Y.Y.Y.V.V.Y.V.V.V.V.Y.Y.V.V.V.V.V.V.V.V.m.m.m.n.b.i.i.0.:.:.:.-.-.*.@.@.*.*./ ^ ^ ! ! ! ! ^ ! U U W Q ! ^ / *.*.*.:.u.Y.^.^.~.^.:X3X5X4X5X3X:X:X<X:X<X^.^.^.~.I.I.I.P.~./././././.~.P.I.I.I.I.I.I.L.n.L.L.L.L.n.n.L.I.I.I.I.I.n.a.p.7.6.7.p.d.d.L.L.a.5.=.*.=.=.=.*.*.^ / *.*.^ ^ ^ @./ / *.@.@./ *.4.p.d.G.G.t.9.t.p.8.=.W =.5.U ( ' LXKXKXKXKXKXKXLXLXLXLXLXLXKXKXKXKXKXKXLXKXKXKXLXLXLXPXAXAXZXZXxX=.5.m.n.P W v h G G v v v v v c c c g c c v v v v v v v v v c c v I I v c v I P U U / =.8.9.8.9.H.Q.^.I.7.4.5.5.4.5.5.a.Y.I.s.6.;./ ! / =.5.q.n.Y.!.~.~.~.~.!.Y.L.n.s.y.7.7.7.6.7.y.p.g.p.y.y.g.d.I.(.(.^.:X:X:X%X^.^.(.(.(.~.~.~.(.P.I.I.I.I.I.L.L.L.L.I.I.L.L.d.d.g.g.g.g.g.g.g.p.7.t.7.7.7.d.P.~.I.t.7.f.U.`.>X2XpXpXdXpXdXaXpXiX2X>X[.2XiXsXaXlXvXvXvXvXvXvXvXvXvXvXvXbXbXkXkXaXaXaXsXsXsXiXiX2XiXiXiXiX2X[._.H.' ` t.H.G.U.].2X_.G.9.8.t.d.L.n.d.p.6.4.( ;.4.7.6.4.6.q.0.0.0.:.*.! P g f f f f f a a u u y y y r t r r 2 2 2 B 2 2 2 2 ",
"2.2.2.2.2.2.:.2.w.w.w.w.0.w.i.i.u.u.b.b.b.n.n.m.m.m.m.m.m.V.Y.Y.V.Y.Y.Y.Y.Y.Y.Y.Y.Y.Y.Y.Y.Y.Y.Y.Y.Y.Y.V.V.Y.Y.Y.V.V.V.V.V.V.m.m.m.m.n.u.w.0.:.:.-.-.-.*.@.! ! ^ ^ ^ ! ! ! ! ~ ~ ! Q U U W Q ! / *.-.=.=.5.a.Y.%X:X^.%X,X5X4X4X4X3X:X<X^.^.^.^.:X:X^.~.P.P.P.~./././.~.~.P.L.L.L.L.I.I.I.L.n.L.L.L.L.n.n.L.L.L.L.I.L.s.q.7.5.4.6.7.p.d.d.d.q.=./ ^ / / =.^ *.^ ! / / ^ ^ ^ / ^ *.^ ^ ! ^ =.4.p.f.f.f.G.G.G.p.6.=./ =./ ! L f.KXKXLXLXLXPXxX<XQ.'.fXAXLXLXKXKXKXKXPXPXAXAXxXpXpXdXfXxXZXZXZXZXJ ! i.:.v g v G g g v v v v v c c c c c v v v v v v v v v v c c v I v c c v I I G G U ^ ( ' ' 8.I.].>XP.7.4.6.8.4.5.5.q.a.s.u.0.6.:.*.-.5.u.n.Y.!.~.^.%X*X*X^.~.I.L.p.7.4.6.6.7.y.p.g.d.g.g.g.d.I.(.^.^.:X:X:X:X:X:X^./.~././.^././.~.P.I.I.P.P.P.P.P.P.(.P.P.I.L.d.g.g.g.g.d.d.g.p.p.p.p.7.8.9.f.f.p.8.8.t.f.U.`.2XpXpXdXpXaXaXpXsXiX2X>X2XiXsXaXkXbXvXvXvXvXvXvXvXvXvXbXbXkXkXaXaXsXsXsXiXiXiXiXiXiXiXsXsXiX2X[.).] ' t.U.H.Q.4XpX2XU.t.7.7.p.d.n.d.p.7.4.( ( 4.4.4.4.5.6.5.:.:.-.@.Q v h a a a a f a a u y y y y r r r 2 2 & : : : : : : ",
"2.2.:.:.:.2.2.2.2.w.i.i.w.w.i.u.b.b.b.b.n.n.m.m.m.m.m.m.V.V.Y.Y.Y.Y.Y.Y.Y.Y.Y.Y.Y.V.Y.V.V.V.Y.Y.Y.V.V.Y.Y.Y.Y.Y.V.V.V.V.V.m.m.n.b.b.u.i.w.:.:.:.-.-.-.-.*.@.@.^ ^ ! ! ! ! ! ! ! ! Q W Q ! ! ^ *.*.=.;.;.;.y.Y.%X:X:X,X3X4X4X2X>X:X<X^./.~.~./.<X:X%X^.^./.~.~././.~.~.T.I.d.p.p.d.L.I.L.n.n.n.L.L.L.L.L.L.I.L.L.L.n.y.6.4.4.4.6.7.7.p.p.7.4./ ^ ^ ^ *.*.^ / / ! ^ ^ ^ ^ ! ! ^ @.! ^ ^ / ( 4.6.p.9.t.d.G.d.p.6.=./ =.=.! A eXKXLXLXZXAXDXDXAXAXlXbXgXvXPXKXKXKXPXvXfX>XU.'.U.pXdXpXpX4XAXAXZX) V ! 0.c I P g g v v v v v v c g c c c v v v v v v P v v c c c v I v v v v I P P U G U ) ' 8.8.H.U.T.f.8.4.4.4.4.4.4.4.;.4.7.y.y.y.y.y.a.n.P.~.~.!.^.^.:X:X^.~.P.I.d.7.4.6.7.q.p.g.d.d.d.d.G.P./.].:X:X:X:X>X>X:X<X<X^././.^.^.^.^././.~.(.(.!.(.!.(.(.(.(.(.I.L.d.d.g.g.d.G.H.d.g.7.7.7.7.8.4.4.8.8.8.t.t.f.f.U.].5XpXpXpXpXsXiXiXiX[.[.|.iXsXaXkXbXvXvXvXvXvXvXvXvXvXbXkXkXkXaXaXaXsXsXsXiX|.|.|.iXsXkXbXlXaXsX2XG.' 9.G.t.G.'.2X>X_.H.f.7.7.7.y.y.y.y.7.4.( =.5.5.=.=.=.=.-.*.! W P g g g f f f f a p u y y y t r r 2 2 2 & & & & & : 2 ",
"2.2.2.2.2.2.2.2.2.w.i.w.w.i.i.b.b.b.b.n.n.n.m.m.m.m.m.V.V.V.V.V.V.V.Y.Y.Y.Y.V.Y.Y.Y.Y.V.Y.V.Y.V.V.V.V.V.Y.Y.V.V.m.m.m.m.m.n.b.b.b.u.i.w.:.:.:.>.>.>.-.-.*.*.@.*.^ ! ! ! ! ! ! ! ! ! ! ! / *.*.*.=.;.:.:.;.5.n.~.:X,X3X4X4X4X:X<X<X<X<X^.^./.^.^.<X^.^.^.^./././.~.~.~.T.I.d.p.p.d.L.I.n.n.m.n.n.n.n.L.L.L.L.L.L.d.a.e.5.e.e.7.7.p.q.7.q.6.=.^ ^ / ^ / *./ ^ ^ ! ^ ^ ^ ^ ^ ^ @.@.*.^ ^ / ( 4.4.8.8.8.7.7.q.6.:.-.=.;.4X) S PXLXKXDXDXAXvX[.[.J.U.vXAXvXDXKXKXKXPXlXfXlXgXgXgXvXAXAXxXdXxXZXZXy.s ! :.+.c g v g h v v v v c c g c c c v v v v v v v v v c c c v P P v v v I P P U U ^ ) ( ` t.I.P.p.8.4.p.7.4.4.4.4.6.7.7.q.y.s.d.n.m.L.P.!.~.~.~.~.^.:X^.Y.I.I.P.L.g.q.q.y.g.d.G.H.L.I.P.(./.:X:X>X:X:X:X>X>X>X:X:X`.^.^.`.:X%X%X^.^./.~.~.P.P.P.I.U.(.~.(.I.H.d.g.g.g.d.H.L.H.d.g.g.p.f.f.p.p.p.t.t.p.f.t.f.H./.>X4XsXsXiXiXiX2X[.[.[.|.iXsXaXaXbXvXvXvXvXvXvXvXvXvXbXkXkXkXaXaXaXsXsXsXiXiXiXiXaXaXvXvXkXiX[.).H.9.t.f.9.9.H._._.Q.U.H.p.4.4.4.y.y.p.p.p.7.7.q.5.=.=.=./ ! ! ! Q P g h g f a p f a p u y y t t r r 2 2 2 & & & & & : 2 ",
"2.2.2.2.2.2.2.2.w.w.i.i.i.i.b.b.b.b.b.n.n.m.m.m.m.m.V.V.V.V.V.V.V.V.V.V.V.V.V.V.Y.Y.Y.Y.Y.V.V.V.V.V.V.V.V.V.V.V.m.m.m.b.b.u.i.i.w.2.2.:.>.-.-.-.-.-.-.-.*.@.^ ^ ^ ! ! ! ! ! ! ! ! ! ! / *.*.*.*.*.=.:.;./ ;.a.Y.,X3X4X5X4X5X:X<X%X<X:X:X:X<X%X^.^.^.^.^.^.^././.~.~.~.T.I.d.d.d.L.I.L.n.n.L.L.n.s.n.n.L.L.L.n.n.a.7.5.q.a.a.q.q.y.7.7.7.4.( ^ / / ^ ^ *./ ! ! ^ ^ ^ ^ ^ ^ @.@.@.*.^ ^ / ( ;.( ( ( ( ( 4.( =.*./ / m.dX' ' LXKXKXPXAX[.sX>Xp.G.iX).gXaXPXLXKXKXPXaX>XJ.'.>XfXdX>X'.xXvXfXCXZXyXp @.I c I m c v P c v v c c c c c c c v v v v c c v v v v c v v P I v c v I P P P G ^ ) ( 8.I.<X>X_.U.d.f.p.8.8.7.7.q.p.p.p.g.d.L.P.!.!.~.~.^.^.%X:X:X:XI.p.p.d.P.(.L.d.g.f.d.H.L.U.U.Q./.`.>X2X2X2X:X:X:X>X2X2X2X>X:X:X:X<X:X:X:X:X:X`./.(.P.I.I.I.I.P.(.(.I.H.d.g.d.d.I.U.Q.Q.(.I.H.H.H.H.H.H.H.f.f.f.f.G.H.U.Q.].2XiXiXiXiXiXiX|.|.|.iXsXsXaXaXkXkXbXbXbXbXbXvXvXbXkXkXkXkXkXaXaXaXaXsXsXsXsXgXkXkXbXkXiX{.W.K.H.t.t.t.8.' f.H.Q.U.P.L.f.7.4.;.q.y.s.d.d.p.6.5.4.=.=.=.^ ! Q ! Q P v g g f f p a a u y y y t t r r r r 2 : & & & : : 2 ",
"2.2.2.2.2.2.2.2.w.w.i.i.i.b.b.b.b.b.b.n.n.m.m.m.m.m.V.V.V.V.V.V.V.V.V.V.V.V.V.V.Y.Y.Y.Y.Y.V.V.V.V.V.V.V.V.V.m.m.m.n.b.u.i.i.w.2.:.:.>.>.-.-.-.-.-.-.-.@.! ! ! ^ ^ ^ ! ! ! ! ! ! ! ! ! *.-.=.-.*.*.*.*.*./ =.a.Y.,X4X4X5X3X3X:X<X:X:X:X:X:X:X:X<X^.^.^.^.^.^./././.~.~.T.P.I.L.L.L.L.m.n.m.L.m.n.a.s.n.m.L.n.s.s.q.5.5.u.n.s.q.5.6.6.5.5.;./ ^ / ^ / *.^ ^ ! ! ! ^ ^ ^ ^ ^ @.@.@.@.^ ^ / =.=.( / ( ( / ^ / / / *.=.LX].] Q.KXKXKXPXdXaXiXT.m.L.fXiX>XiXPXKXKXKXDX].>X[.>Xp.  ^ I.iX'.fXvXxXAXAXU :.*.P I v c v h c c v v v c c c c c v v v c c c v v v v c v v v I v v v I P P P G ) ^ 4.9./.4XdXpX>XQ.G.t.7.7.7.p.p.p.p.f.H.P.~.~.!.!.~./.^.:X3X4X4X:XL.6.4.p.I.(.U.I.H.d.L.Q.Q.Q.Q./.].:X2X5X5X>X:X].].>X2X2X2X2X2X:X:X:X:X>X>X2X2X:X`./.(.(.(.(.Q.(.(.~.I.I.H.H.H.U.Q././././.(.(.U.I.I.H.H.H.H.H.H.H.U.U.Q._.>X2XiXiXiXiXiXiXiXiX|.sXaXaXaXaXaXaXgXgXgXkXbXbXbXkXkXkXkXgXgXaXaXaXaXgXgXaXgXgXkXbXkXsXiX[.).J.F.t.t.t.9.9.t.H.H.G.f.f.g.y.4.;.4.6.p.d.d.p.6.4.4.4.=.( ^ ! Q ! P P g h f a a a p a u y y y t t r r 2 r 2 : & & & & : : ",
"2.2.2.2.2.2.2.2.w.w.w.i.i.b.b.b.b.b.n.n.b.n.m.C.m.m.V.V.V.V.V.m.V.V.m.m.V.V.V.V.V.V.Y.Y.Y.Y.V.V.V.V.m.m.m.m.m.m.n.b.u.i.w.2.:.:.>.>.>.-.-.-.*.*.*.*.+.+.! ! ! @./ / / ^ ^ ^ ! ! ! ! ^ *.=.;.;.-.*.*.*./ / ;.s.Y.:X3X5X4X4X4X3X>X,X:X:X<X<X<X:X:X%X^.^.^.^.^./././.~.T.!.P.P.I.L.d.d.n.m.L.n.s.a.q.y.a.n.n.s.y.6.:.=.5.q.n.a.5.=.;.4.4.5.=.^ ! ^ / ;.;./ ^ ^ ! ^ ! ! ! ! ^ ^ ^ ^ ^ ^ ^ *.=.=.=.( ( ( ( / / / / =.!.DXgXF.H.KXLXKXLXPXDXAXZXY.T.4X{.iX>XLXKXKXKXDXpXU.U.4XG.:X6.dXU.U.pXvXxXAXPX*.2.=.^ h m v c g c v v v c c c c c c c c c c c v v v v v v v v v I v v I I I U P W ^ ^ 4.G.4XfXcXlX4XQ.f.9.8.9.f.G.G.G.G.H.P./.^.`.^.~.~.^.:X5X4XdXpX,XL.8.4.t.I.Q.Q.Q.U.I.Q./._.(.(./.].>X2X2X2X:X]._.`.].>X2X2X2X2X>X>X2X2X2X2X2X2X:X<X`.^./.^.^./././././.~.(.Q./.^.].:X:X].]./.Q.(.I.I.H.I.I.I.I.I.U.Q.Q.'.].2XiXsXiXiXiXiXsXsXsXsXaXkXkXkXaXaXaXgXaXaXaXkXkXkXkXkXkXgXgXkXkXaXaXgXaXkXkXaXaXaXkXkXaXsXsX[.{.).Q.J.J.J.H.G.f.f.f.p.p.p.y.6.;.=.4.7.p.p.7.6.7.8.4.;./ ^ ! Q P P v g p y y p a p a u y y y y t r r 2 2 2 : : : & & & & ",
"w.w.2.2.w.w.w.w.w.w.i.i.i.b.b.b.b.n.n.n.b.b.b.n.C.C.V.V.V.m.m.m.m.m.m.m.m.V.V.V.V.V.V.Y.Y.Y.V.V.V.m.m.m.m.m.n.n.b.b.i.2.2.:.>.>.>.>.-.-.-.@.*.*.+.+.+.! ! ! ! @.*.*.*.*.@.^ ^ ^ *.*.*.*.-.;.;.=.*.*.*.*.*.5.n.Y.%X:X,X4X4X4X4X4X3X,X:X:X<X<X:X<X<X<X^.%X^.^././.~.~.T.P.T.P.L.d.7.y.s.L.m.a.q.0.6.0.y.a.a.y.5.;.*.*.-.:.0.6.=.*.;.5.5.;.*.! Q ! *.5.:./ / *.^ ! ! ! ! ! ! ! ! ! ! @./ *.*.*.=.=.;.;.;.*./ ^ ^ / PXdXgX/.t.KXKXKXKXKXLXPXPXDXbXgXsXpX4XKXKXLXKXDXsXsXiX>XiXvXpX>X>XpXpXfXAXAXPX*.;.%X2XP M m I v c v v v c c c v v c c c c c c v v v v v v v v v v I I I P I U U ! ! W 4.~.lXvXxXdX2XQ.G.9.' 9.H.I.U.P.I.I.Q.^.:X2X:X`.^.:X2X4XdXdXpX>XI.7.7.f.Q./.Q.Q.Q./.].].]././.].].>X2X2X:X:X]._.^.`.].>X2X2X2X2X2X4X4X5X5X5X2X2X2X>X>X:X:X:X:X:X:X:X<X<X<X:X>X2X2X2X2X2X>X].^.~.U.U.U.P.I.I.U.Q.Q./._.].>X2XsXpXpXsXsXsXsXsXsXaXaXkXkXkXkXaXaXaXaXgXgXgXaXkXkXkXkXgXgXkXkXaXaXaXkXkXkXaXsXsXaXaXkXkXaXsXaXlXlXaXsXiX].H.t.8.7.7.7.7.5./ W U W ( ' 7.f.G.L.L.t.4.( / / ! P g g f y t t y a p a u u y y y t r r 2 2 2 : & : & & & & ",
"i.w.w.2.2.2.w.w.2.2.w.i.i.i.b.b.b.b.b.b.b.b.b.b.C.C.C.C.m.m.m.m.m.m.m.m.m.m.V.V.V.V.Y.Y.Y.Y.V.V.V.m.m.m.n.n.b.b.b.i.2.:.:.:.>.-.-.-.-.-.@.*.@.@.+.+.+.! ! ! ! @./ *.*.*.@.@.^ ^ *.*.-.*.*.*.*.*./ *.*.*.=.y.Y.%X:X3X5X4X4X3X,X3X3X,X,X:X<X:X:X%X<X<X%X%X^.^./.~.~.T.P.P.P.I.d.p.q.y.s.n.s.q.0.q.q.q.y.u.y.:.*./ *.*.*.*.=.;.-.*.5.6.6.;./ ! ! ! *.:.=.^ *.*.^ ^ ! ! ! ! ! ! ! ! ! ^ @.*.*.*.*.*.=.;.;.*./ ! ^ ) PXCXPXPXU.KXLXKXKXKXKXDXAXvXAXvXxXfXLXKXKXKXKXZXfXgXpXiXgXgXvXlXlXfXxXxXxXDXPXU U 2X2XH m I c f v v v v v v v v v v c c c c v v v v v v v v v v v I I P I P U Q ! ! W ( d.pXfXdX2X>X^.I.f.t.f.H.Q.Q.Q.U.P.Q.].2X5X4X>X:X2X4XdXdX4X4X>X~.H.H.U.Q.Q.Q./.].2XiX2X2X].].].>X2X2X2X:X].].`.`.].:X>X2X2X2X5X5XpXpXpXpX4X5X5X5X5X5X5X5X5X5X2X2X2X2X2X2X2X2X2X5X5X5X2X2X>X:X^.Q.Q.Q.Q.Q.U.Q._.].].>X2XiXsXpXaXaXaXsXsXsXaXaXaXkXkXbXkXkXaXaXaXaXaXaXgXgXaXgXgXgXaXaXaXaXaXaXkXkXkXgXsXsXiXsXsXaXkXaXkXvXDXDXvXlXsX[.J.t.9.9.7.7.e.5./ W H W ) 4.I.>XdXdX>XH.8.4./ ! ! P g h p y t t y p u y y y y y t t r 2 : : : : & & & & & & ",
"2.2.2.2.2.2.2.2.2.2.2.2.w.i.i.b.b.b.b.b.b.b.b.b.n.n.b.m.n.n.b.b.n.m.m.m.m.V.V.V.V.V.Y.Y.Y.Y.V.V.V.m.m.n.n.b.b.u.i.w.:.>.>.>.-.-.-.-.-.-.@.*.@.@.+.+.! ! Q ! ! ! ^ ^ *.@.^ ^ ^ ^ *.*.-.*./ / ^ ! ^ ^ / / ;.n.^.,X4X4X5X3X,X,X,X4X,X,X:X:X:X:X:X<X<X<X%X%X^.^./.~.P.T.P.P.I.I.d.s.s.n.n.s.q.0.y.a.n.a.u.y.6.*.! / *.*.*.^ *.;.;.;.:.6.6.*.! ! / *.*.=.^ ! *.*.^ ^ ^ ! ! ! ! ! ! ! ! ! ^ @.^ ^ ^ *./ *.*.*.^ ^ ^ / CXAXKXLXgXLXKXKXLXKXKXLXPXDXZXLXLXKXLXKXKXKXKXAXAXxXZXfXlXlXvXxXxXvXvXZXAXDXZX*.6 gX>X/ v M I v v v v v v v v P v v v c c v v v v v v v v v v v v I P P I P P Q Q ! W ) 4.^.2X5XpXpX:XU.H.H.U.Q././.Q.Q.Q./.:X2X5X5X4X2X4XdXdXpX>X:X>X<X^.^.Q.U.G.H./.2XaXlXaXiX2X>X>X>X2X5X5X2X].].:X>X>X>X2X2X5X5XpXpXdXfXfXdXdXdXpXpXpXpXpXpXpXpX5X4X4X4X5X4X5X5X5X5X4X4X5X5X2X2X:X`././.Q.Q./.].>X2X2X2XsXsXpXaXaXkXaXaXaXaXaXaXaXkXbXbXbXkXaXaXaXkXkXkXgXgXaXaXgXaXaXsXsXsXsXsXkXbXkXgXiXiX|.|.|.iXsXaXaXbXDXvXlXiX[.).H.t.9.8.4.=.=.=.^ U W W W ' ~.fXZXvXdXU.4.;.) P P v h a p 3 t t t t y y y y y t t r r 2 : : : & & & & & : : ",
"2.2.2.>.>.>.>.>.>.>.>.2.2.2.2.2.2.2.i.b.i.i.i.b.b.b.b.b.n.n.n.b.b.n.m.m.V.V.V.V.V.V.V.V.V.V.V.m.V.m.m.b.b.b.i.i.2.:.>.-.-.-.-.@.-.-.-.-.-.*.+.+.! ! ! ! ! Q ! ! ! ^ / *.*./ ^ ! *.*.*./ ! Q Q Q W ^ / =.6.m.*X5XyX4X3X,X>X,X2X,X2X>X>X:X<X<X<X<X<X<X%X^.^.^./.~.~.P.I.I.L.n.n.n.m.n.a.q.5.0.a.n.m.n.y.5.-./ / / *.-.*.^ ^ *.*.*.;.5.:./ ! ! *.! ^ ! U / :.6.^ ! ! ! ! ! ! ! ! ! ^ ^ @.@.^ ! ! ! @.@.@.^ ! W ) / %XLXKXKXPXLXLXKXKXKXKXKXKXKXKXKXKXKXKXKXKXKXKXPXAXPXPXDXZXZXxXlXxXvXvXAXAXAX4X4.L gXU.^ P g v g v v v v v v v v v v v v v v v v v v v P G v v v P P I I P P U W ! W W ) ;.p.I.>XpXvX5X/.Q./././././.Q.Q.Q.`.:X2XpX5X2X4X4XpXdX4X:X^.].2X4X2X].H.F.H.).2XlXlXaXpX5X2X2X2X2X4X4X2X:X>X>X2X2X2X5X5XpXpXpXdXfXfXlXfXdXdXdXpXdXdXpXpXpXpXpXpXpXpXpXpXpX4X5X5X5X5X5X5X5X2X>X].]._././.`.>X2XpXpXpXaXaXaXaXlXbXbXlXkXkXkXaXaXaXaXkXkXkXkXkXkXkXkXkXkXkXgXaXaXsXsXiXsXsXsXsXaXaXaXaXsX|.[.{.[.|.iXiXsXkXvXaXiX'.).).J.F.9.8.' ( ( ^ W W W ) L ( P.fXxXdX].H.f.6.^ P P g f p 3 3 3 3 3 3 t 3 3 3 3 3 2 2 : : : : & & & & & & & & ",
"@.@.@.@.&.&.&.&.&.&.%.%.%.>.>.>.>.2.2.:.:.2.2.i.b.b.b.b.n.n.n.n.n.n.n.m.m.m.V.V.V.V.V.V.V.V.V.m.m.m.n.b.b.i.i.w.2.:.>.-.-.-.@.@.-.@.-.*.@.+.+.+.! ! ! ! Q ! ! +.! / *.*.*.*./ ^ *.*.*.^ ! W W Q ! / *.=.6.L.*X4XyX3X,X,X:X,X,X3X3X3X,X:X:X:X:X<X:X<X%X^.^.^./.~.~.I.L.n.n.n.n.n.s.s.y.6.5.q.a.m.m.u.6.;.*.*./ / *.*.*.! ! ^ ! ^ ;.:.:./ Q ! ! ! ! W ! :.0.0.*.! ^ ! ! ! ! ! ! ! ^ ^ @.@.! ! ! ! ! ! ! ! ! ! ) / ;.LXKXLXPXLXKXKXKXKXKXKXKXKXKXKXKXKXKXKXKXLXKXKXvXPXLXLXKXLXKXPXPXAXZXAXAXAX<X` vXlX>Xh v v c v v v v v v v v v v v v v v v v v v v v G G v v v P P I I I P P U W W / / ' 4.p./.dXAXxX4X:X`.:X]._./.Q.Q.Q.].2X4XpX4X5X5X4X5X4X4X>X].].4XpXpX2XQ.H.J.).2XaXlXaXsXpX5X2X2X2X4X5X5X>X2X2X2X5X4X4X4XpXpXdXdXfXfXlXfXdXdXdXpXdXdXpXpXpXpXpXpXpXpXpXpXpXpX5X4X5X5X5X5X5X5X2X:X]._._._.:X2XpXpXaXaXlXlXlXlXbXbXvXbXbXbXkXkXaXaXaXaXkXkXbXbXbXbXbXbXbXbXkXaXsXiX|.|.iXsXsXsXsXsXsXaXsX|.{.{.}.[.|.|.iXsXsXiX[.}.).'.).J.G.9.8.( 4.( ) W H L L L t.2XpX].t.U.`.P.5.G P P g p 3 3 3 2 3 3 3 5 2 2 2 2 2 2 : : & & & & & & & & & & ",
"Q Q O.Q Q Q Q Q O.O.O.O.O.+.&.&.&.&.&.@.&.%.2.2.i.b.b.b.b.n.n.m.b.b.n.n.m.m.m.m.m.m.V.V.V.V.m.m.m.n.b.b.u.i.w.2.:.>.-.-.@.-.-.@.@.@.@.@.@.+.+.+.+.! ! ! Q ! ! ! ^ / *.*.*.*.*.*.*.*.*.^ ! Q Q ! / *.=.=.6.L.*X5X5X:X:X:X:X:X,X2X3X3X,X,X:X:X:X:X:X<X<X%X^.^./.~.~.I.n.d.d.n.n.d.q.6.5.;.6.a.n.m.n.0.;./ *.*.*./ *.*.@.@.^ ! ! *.;.:.:.^ Q ! ! Q Q W *.y.a.u.*./ ! ! ! ! ! ! ! ! @.^ ^ ! ! ! ! Q Q Q ! ! ~ ! ! / / LXKXKXHXLXKXKXKXKXKXKXKXKXKXKXKXKXKXLXKXKXLXLXfXCXLXLXKXKXKXKXLXLXAXAXZXZX<X>XvXlXlXP I v I v v v v v v v v v v v v v v v v v m I P P P P P P P P P I I P P P P ! / ;.4.' 7.P.2XvXDXvXdX5XpX5X:X/./.Q./.>X5XpXdXpX4X5X4X2X2X4X4X4XpXfXfXaXiX'.Q.Q.).[.pXaXsXiX5X4X5X2X>X2X2X5X2X2X4X5X4X4XpXpXpXdXdXdXfXfXfXfXdXdXdXdXdXdXpXpXdXpXdXdXdXdXdXpXpXpXpX5X5X5X5X5X5X5X2X:X].`.].].>X5XpXaXlXlXlXlXbXbXvXvXvXvXvXvXvXbXaXsXsXaXkXkXvXvXvXvXvXvXvXbXkXaX|.|.|.|.iXsXaXaXaXaXaXaXsX[.).).).).).).[.[.iXiXiX[.{.'.).J.U.G.t.8.4.( ( H W ) ( H ` Q.'.H.t.2XcX5Xd.W P v h p 3 3 3 3 2 2 2 2 2 2 2 : : : : & & & & & & & & & & & ",
"Q Q Q Q Q Q Q Q Q Q Q Q Q Q O.O.O.O.Q Q Q O.%.>.2.2.i.i.b.b.n.m.n.b.b.b.n.m.m.m.m.m.m.m.m.m.m.m.n.b.b.u.i.w.2.:.>.>.-.-.-.-.-.-.@.-.@.@.+.+.+.+.+.! ! ! Q ! ! +.^ *.*.-.*.*.*.*./ *.*.*./ ! ^ / *.;.:.:.q.L.*X,X,X*X%X*X:X:X:X3X3X3X,X,X,X,X:X:X:X:X<X%X^.^./.~.~.P.L.n.m.L.n.a.5.;.=.5.y.n.n.a.0.:.*.! / *.*./ ! ! ! ^ @.! *.;.6.6.:.*.! ! ! ! ! / 5.u.a.q.*.^ Q ! ! ! ! ! ! ! ! ! ! ^ ! ! ! Q Q Q Q Q ~ ! ! / / CXKXLXKXKXKXKXKXKXKXKXKXKXKXKXLXKXLXKXKXLXKXKXLXKXCXKXKXKXKXKXKXLXAXAXDXZXdXiXvXlXxXh v c m c v v v v v v v v v v v v v v v P m P P P P P P P v P P P I I P P P W ^ ;.4.;.7.I.2XxXDXDXvXcXvXvXpX]././.`.2X4XpXaXdXpXpX4X2X>X2XpXdXlXlXlXaXpX>X'.)._.[.iXsXiX2X5X4X5X2X>X>X2X5X2X2X4X5X5X4XpXpXpXdXpXdXdXdXdXdXdXdXdXpXpXdXdXdXdXdXdXdXdXdXdXdXdXpXpX4X5X2X2X2X2X2X2X:X].].].>X2XpXpXaXlXlXvXvXvXvXvXvXvXvXvXvXvXbXkXaXaXaXkXvXbXvXvXvXvXvXvXbXkXiX|.|.iXiXsXaXlXlXlXlXlXaX2X{.}.{.{.}.).{.[.iX|.[.[.[.).).).W.J.H.f.7.4.( ) H J ( ` E E t.H.G.U.fXcX<X4.a p a p 3 3 3 3 3 2 2 2 2 : : : : : : & & & & & & & & & & & & ",
"Q Q Q Q I I m m Q Q Q Q Q Q Q Q O.Q Q Q Q Q O.@.-.>.>.:.w.i.b.b.n.b.n.b.n.m.m.m.m.m.m.m.m.m.m.n.b.b.u.i.i.w.2.:.>.>.-.-.-.-.-.-.-.@.@.@.+.+.+.+.! ! ! Q Q ~ ! ! ! / *.*.*.*.*.*./ *.-.-.*./ ^ / *.:.5.5.y.Y.*X,X,X%X%X:X:X:X,X,X3X3X2X,X,X,X:X:X:X:X:X<X^.^.~.~.!.T.P.P.Y.L.d.y.5.;.:.0.a.n.u.6.;.=.*.^ ^ ^ ^ / ! ! Q ! *.@.*.:.q.:.-.*.^ ! ! *.*.;.q.y.0.:./ ! ! ! ! ! ! ! ! ! ! ! ! ^ @.+.! ! W Q Q Q ! ~ ! ! ! ! KXKXKXKXLXKXKXKXKXKXKXLXLXKXKXKXKXKXKXKXKXLXLXLXZXPXLXLXLXKXLXPXPXAXZXZX<XiXvXgXpXP I I c P v v v v v v v v v v v v v v P P P P P P P P P P v P P P P I Q I Q W ! / ( ( 4.I.4XvXAXAXDXDXDXDXcX2X/./.].2X5XpXpXaXdXdXdXpX4XpXpXfXfXlXlXlXaXsX2X2X[.[.iXsXiX2X2XpX5X5X4X2X2X2X4X5X4X5X5X4XpXdXpXpXdXpXdXdXdXdXdXdXdXpXpXdXdXdXdXdXdXdXdXdXdXdXdXpXpX4X2X2X2X>X>X>X>X>X:X:X2X2XpXpXpXaXlXcXvXvXvXvXvXvXvXvXvXvXvXvXvXbXkXkXbXbXbXbXbXvXvXvXvXbXkXaXsXiXsXsXaXaXvXvXbXlXaXiX[.).Q.).).).}.[.[.[.[.{.{.{.).W.).).U.H.G.t.8.' ( ( ) 4.8.` E ` ' t._.aX4XL.U 7 y y 3 3 3 3 t 3 2 2 2 2 : : & & & & & & & & & & & & & & & & ",
"m m m m m m m m I I I Q Q Q Q Q Q Q Q Q Q Q Q O.&.&.&.-.:.w.u.b.n.b.n.n.n.n.n.n.m.m.m.m.m.m.n.b.b.b.i.i.w.w.2.:.>.>.-.-.-.-.>.-.@.@.@.@.+.+.+.! ! ! ! ! Q Q ! ! ! ! / *.*.*.*.*./ *.*.*.*.! ! ! *.=.:.5.u.Y.:X,X:X*X*X:X:X:X:X,X3X3X2X>X,X,X,X:X:X:X:X<X^./.~.!.P.T.T.Y.Y.m.a.6.6.0.q.u.n.n.0.=.*.-.-.*.@.! @.@.+.! ! ^ *.*.-.:.0.;.*.*./ ! *.:.5.0.a.y.:.*.^ ! ! ! ! ! ! ! Q Q ! ! ! ^ @.+.! ! Q I Q Q ! ~ Q ! W *.-XKXKXKXKXKXKXKXKXKXPXPXPXLXKXKXLXLXLXKXPXDXAXDXAXDXDXLXLXLXLXDXAXAXAXfXfXiXvXgX*.U g c I c v v v v v v v v v v v v v v v m I m v P P P P P G P P P P P I I ~ ! ! ^ / ( 6.I.2XcXvXvXAXDXDXDXvX5X].^.].>X2XiXpXpXpXdXdXpXpXpXfXlXfXaXaXaXlXaXpXpXsXiXsXaXaXiX5XpXpX4X4X4X2X2X4X2X4X4X4X4X4XpXpXpXpXpXpXdXdXdXdXdXpXpXpXdXdXdXpXdXdXdXdXdXdXdXpXpXpX5X2X2X:X:X].:X>X>X2X2X4XpXpXpXpXaXlXvXvXvXvXvXvXvXvXvXvXvXvXvXvXvXvXbXbXkXkXkXkXkXbXvXbXbXkXkXaXsXiXiXsXlXvXAXvXkXaXiX|.[.).W.J.W.).{.}.).{.{.[.{.}.).W.W.Q.U.G.G.f.t.t.t.d.G.f.' E F L 8.L.(.d.^ s p t > 3 3 3 3 2 : : 2 2 2 : : & & & & & & & & & & & & & & & & ",
"m m v v v v m m I I I I m m m m m I I I m m m Q O.+.&.@.-.:.i.b.b.b.b.b.b.b.b.b.n.n.m.n.n.b.b.b.u.u.i.i.w.0.:.:.>.>.>.>.>.>.-.-.@.@.@.@.@.-.@.+.! ! ! ! ! ! ! ! ~ ! ! ^ *.*.*.*.^ ^ / / ^ ! ~ Q / *.:.0.n.!.*X,X,X:X:X:X:X:X:X,X2X2X2X,X,X,X,X:X:X:X:X%X%X^.~.~.Y.Y.Y.P.m.s.q.0.0.i.a.a.n.w.:.-.*.-.-.-.@.! ! ! +.@.! ^ *.^ @.*.-.*.! ! ! *.:.0.i.u.m.u.:.! ! ! ^ ! ! ! ! ! Q Q ! ! ! ! ! ! ! ! Q Q Q ! ! Q Q Q ! ^ Q PXKXKXKXKXLXLXLXPXDXDXPXKXKXPX2XvXDXAXDXfX[.iXvXDXDXAXPXPXDXAXAXAXAXZXvXlXpXAXQ P c I v g P P v v v v I P v v v v v v m m I m m m P P P P G U U P P P Q Q Q ! ! ! / ( 4.d.].lXvXcXvXZXDXPXZXcX5X]._.].[.2X2X4XpXpXpXdXdXpXpXsXsXpXaXaXaXaXpXpXpXsXpXaXlXaXpXpXpXpX4X4X5X2X2X2X2X4X4X4X4X4XpXpXpXpXpXdXdXdXpXpXpXpXpXpXdXdXpXpXpXdXdXdXdXpXpXpX5X5X2X>X:X].].].>X2X2X4XpXpXdXpXpXpXfXcXvXvXvXvXvXvXAXvXAXAXvXvXvXvXvXbXkXkXkXkXkXkXkXkXkXaXgXsXsXiX[.[.sXlXvXAXvXkXaXaXsXsX[.).W.W.W.).).).[.iX|.{.).Q.J.J.U.J.G.H./.^.Q._.>X2X`.f.( J J ( 8.4.Y s 3 p y t t 5 2 2 : : : 2 2 2 2 & & & & & & & & & & & & & & & & & ",
"v v M M M v v v Q Q Q I m m m m m m m m m v v m Q O.&.&.@.>.2.i.b.b.b.b.b.b.b.b.b.n.b.b.b.b.b.b.u.i.i.i.w.0.:.>.>.>.>.:.:.>.>.-.@.@.@.-.-.-.-.*.+.+.+.+.*.*.! ! ~ ~ ~ ^ *.-.*.*.! ! ! ! ! ! ! ! / *.5.a.L.!.:X,X,X:X:X,X:X:X,X3X2X2X2X,X,X,X,X:X:X:X*X%X%X^./.~.!.!.~.Y.n.a.q.q.i.a.n.n.w.5.;.*.*.-.-.*.! ! ! ! ! ! ! ! ! ! Q Q Q ! ! ! ! -.0.u.u.n.Y.n.:.U U ! ^ ! ! ! ! ! ! ! ^ ! ! ! Q Q ! Q ! ! Q ! ! Q Q Q ! *.Q @.NXKXKXLXPXPXPXDXDXDXPXKXKXPXgXkXvXAXvXgXiXlXvXDXPXDXAXDXDXAXAXAXZXAXAXvXAXL l I M c c v P P v v v v I P v v v v v v m m I m m m P P P P G U W P P P ~ ! Q ! ! W / ' ;.q.H.pXvXcXlXlXvXZXDXZXdX:X)._.].[.].>XpXdXdXfXaXiX].'.'.2XaXaXaXiX2X2XiXiXsXaXlXaXpXpXpXpX4X4XpX4X>X>X>X2X2X4X4X4X4X4X4X4X4XpXpXpXpXpXpXpXpXpXpXpXpXpXpXpXpXpXpXpXpXpXpX5X5X2X>X].].].>X2X2XpXpXpXpXpXpXpXdXlXvXvXvXvXvXvXvXvXAXDXvXvXvXvXvXbXkXaXaXgXgXkXkXsX|. X|.[.[.{.[.2XaXbXvXbXsX|. X X|.iXiX[.{.).W.W.).[.aXbXsX).Q.Q.J.J.J.J.J._.iXdXpXdXZXAXxX<X7.H 9 9 6 7 7 s y y 2 r t 2 2 2 : : : 2 2 2 : & & & & & & & & & & & & & & & & & ",
"v M x M v m m m I I m m m m m v v m m m v m m I Q O.&.+.+.@.>.2.i.i.i.i.i.b.i.i.b.b.b.b.b.b.b.b.i.i.i.i.w.2.:.:.:.:.:.:.:.:.:.>.>.>.>.>.>.:.-.-.-.-.*.*.*.*.@.! ! ! Q ! *.-.-.@.! ! ! ! ! ~ ~ ~ *.:.u.m.(.%X:X,X:X:X,X,X3X3X3X,X3X,X,X,X,X,X,X:X:X*X%X%X^.^.^.^.~.~.Y.L.n.a.q.q.u.a.a.u.0.:.-.-.*.*.*.@.! ! ! ! ^ ! ! ! ! ! ! ! Q ! *.*.! ! *.;.:.0.n.i.-.Q Q Q ! ! ! ! ! ! ! ! ! ! ! Q ! ! ! ! ! ! ! ! ! ! ! ! Q ! ! ! +.VXKXKXDXDXDXDXAXAXKXKXKXLXCXvXAXAXAXZXZXxXxXZXDXDXAXDXDXAXAXAXZXZXAXAXI v v v P v v P v v v v v v v v v v v v v v v m I P P m m I P P H W ( W W ! ! +.^ ! ~ ! / =.4.7.H.pXvXvXvXvXDXAXDXDXAXlX[.).}.{.[.2XpXdXfXlXdX5X>X].[.2XaXaXpX2X[.].>X2X5XpXaXpXpXpXpX4X2X2X2X2X2X>X2X2X2X2X4X4X4X4X4X4X4X4XeXpX4XpXeX4XpXpXdXdXpXpXpXpXpXpXpXpXpXpX5X2X2X>X:X].].].:X>X2X5XpXpXpXpXpXsXpXaXlXbXvXvXvXvXvXvXvXvXbXaXaXaXkXaXaXaXaXaX|.|.|.{.).{.[.iXaXlXlXvXvXDXvXbXsX|.[.[.|.iXiX|.[.{.).).}.|.bXaX2XQ.Q.H.H.H.H.J.Q.>XdXcXcXxXvXfX<Xa.^ J d d p p y p y t r t r 2 2 : 2 2 2 2 2 2 : : & & & & & & & & & & & & & & & & ",
"M M x M v m m m m m v v v v v v v v v v v v m m Q O.O.O.Q +.@.-.:.2.2.2.2.w.i.i.i.u.b.b.b.b.b.b.i.i.i.i.w.0.2.:.2.2.:.:.:.:.:.:.:.:.:.:.:.:.:.-.-.-.-.-.-.-.*.^ ! Q Q Q ! *.*.! ! ! ! ! ~ ~ ! ! -.y.m.!.%X*X:X:X,X,X,X3X3X3X3X,X,X,X,X,X,X,X:X:X:X%X%X^.^.^.^.^./.!.Y.m.s.a.u.u.a.a.u.q.5.:.-.-.-.*.*.@.! ! ! ! ! ! ! ! ! ! ! ! Q ! @.^ ! ! @.*.-.-.0.:.@.P Q Q Q Q Q ! ! ! ! ! ! ! ! Q ! ! ! ! ! ! ! ! ! ! ! ! ! Q ! ! +.w.LXLXLXLXLXDXDXDXLXKXLXLXPXZXvXvXAXDXAXAXAXxXvXAXAXDXDXAXAXAXZX5.! G v Q v Q g v Q g v v v v v v v v v v v v v v v m I v P m I I P P W / 4./ / / ^ @.^ ! ~ ! / ( 4.7.H.[.aXpXlXZXDXDXDXDXDXxX2X}.}.].[.pXfXcXcXlXlXaXpXiXsXpXaXaXiX2X].].].2X2XpXpXiXiXiXiX5X2X2X2X>X].].>X2X2X2X4X4X4X4X4X4X4X4XeXpXpXpXpXpXpXdXdXdXpXpXpXpXpXpXpXpXpX5X5X2X2X:X:X].].].:X:X2X5XpXpXpXpXpXiXsXpXaXbXvXvXvXvXvXvXbXaXiX|.iXaXaXaXaXaXsXiX{.{.W.J.W.[.sXkXvXAXDXDXDXDXvXbXaXaXsXsXsXaXsXsXaXsX[.}.{.iXsX|.[.[.].Q.Q.].2XpXaXlXvXvXdX2X^.L.8.) G s s s p y t t t t r t 2 2 2 : 2 2 2 2 2 : : & & & & & & & & & & & & & & & & & ",
"c x x M v m m v v v v v v v v v v v v v v v v m Q Q O.Q Q Q Q Q @.-.:.:.:.2.2.2.w.i.i.i.i.i.i.i.i.i.w.w.0.0.2.2.0.2.:.2.2.2.2.2.2.:.2.2.:.:.:.-.-.-.-.-.-.-.*.*.! Q P P Q *.*.! ! ! ! ! ! ! ! / ;.a.!.*X*X*X*X*X*X:X:X3X3X3X,X,X:X:X,X:X:X:X:X:X:X%X^.^.^.^.^.^./.!.Y.m.n.s.a.a.a.u.y.0.:.:.=.=.-.-.*.*.^ ! ! ! ! ! ! ! ! ! ! ! U ^ -.*.@.@.*.*.*.! :.*.Q P Q Q Q Q Q Q ! ! ! ! ! ! ~ ~ ! ! ! ! ! ! ! ! ! ! +.! ! Q -.! P *.PXLXLXKXKXPXDXAXlXPXPXPXPXAXAXvXAXvXAXAXAXvXvXvXAXAXDXDXAXAXfXKXKXqXv v Q c v m c I v v v v v v v v v v v v v v v m I v P m I I P G ) 4.6.( / / ^ ! ~ ~ ~ ! / ( 4.7.f.Q._.].pXZXDXDXDXPXPXAXlXiX2X2XiXlXvXZXxXcXlXlXlXaXlXlXaXsX2X].].].].2X2X5XiX2X2X2X2X4X2X2X>X_.Q./.].2X2X2X2X2X2X2X4X4X4X4XpXpXpXpXpXpXpXdXdXpXpXpX4X5X4X4X5X5X5X5X2X>X:X].].].].].].:X2X5X4XpXpXpXiX5XiXsXkXbXvXvXvXvXbXkXaX|. X|.sXsXsXsXaXaXiX{.W.J.K.R.{.sXbXvXDXDXDXDXZXvXvXvXvXvXvXvXlXlXbXvXvXvXaX[.}.|.[.}.[.sXaX[.2XpXcXcXfXpX5X2X/.H.' W D d d d s s p t 3 t t r r r r 2 2 & 2 2 2 2 : : : & & $ $ $ & & & & & & & & & & & & ",
"c x x x M v v v c c x x c c c c x x x c v v m m I Q Q Q Q Q I m Q +.-.>.:.2.:.:.2.2.w.w.w.w.w.i.w.w.0.0.2.2.2.2.0.0.2.2.2.2.:.:.:.:.:.:.:.:.>.-.*.*.*.*.-.*.*.^ ! Q P P Q ! *.! ! ! ! ! ! ! / *.:.n.!.*X*X*X%X*X*X*X:X,X,X,X,X:X:X:X:X:X%X%X%X:X%X%X^.^.%X%X^.^./.!.Y.m.n.n.n.n.a.u.q.6.5.:.:.:.;.-.*.*.^ ! ! ! ! ! Q ! ! Q U U ! ;.5.:.-.*.*.@.*.! -.! W P Q Q Q Q Q Q ! Q Q Q ~ ! Q Q ! ! ! ! ! ! ! ! ! ! +.+.! P ! ! *./ ZXLXLXLXKXKXDXaXAXDXDXPXAXxX<X>XJ.F.F.F.F.] U.gXAXAXDXAXDXZXLXLXKXKXKXqXv m v P v v v v v v v v v v v v v v v v v P I v P P Q I P H ( 8.p.;./ ! ~ Q ~ ~ ! / / =.4.6.t.f.H.).pXvXDXDXDXDXPXDXDXvXcXlXlXZXDXDXDXZXxXlXlXlXlXlXpXiX2X>X].>X2X2X5X5X5X2X].>X2X5X2X2X>XQ.Q./.>X2X2X2X2X2X2X2X2X4X5XeXpXpXpXpXpXdXdXdXdXpX5X4X4X5X2X2X2X2X2X2X>X:X:X].].].].].].].:X2X2X2X2X2X2X2XiXsXkXbXvXvXvXbXkXkXaXsXsXaXkXaXaXkXbXsX{.J.J.J.J.).|.kXvXDXDXDXDXAXZXvXZXAXDXDXAXZXvXvXDXDXDXDXlX[.Q.W.).W.[.sXaX2XpXcXvXpX].U.G.t.( E H D d d d s p p t t r 3 r r 2 2 2 2 2 & 2 2 2 2 : & & & & $ $ $ & & & & & & & & & & & & ",
"c x h h x x x x x x x x x x x x x x x v v m m m Q Q Q Q Q Q I v v I ! -.>.:.2.>.:.:.2.2.:.2.2.2.w.0.2.:.:.2.2.0.w.2.2.:.:.:.:.:.>.>.>.:.:.:.-.-.! ! ! @.*.*.*.! ! Q P P P Q ! ! ! ! ~ Q ~ ! / *.:.a.!.%X%X%X%X%X%X%X*X:X:X:X:X:X:X:X:X%X^.^.%X:X%X%X%X%X%X%X^.^.~.!.P.L.L.m.n.s.u.u.q.0.0.0.6.:.:.;.-.*.^ ! ! ! ! ! Q ! ! U U Q :.0.w.0.;.*.*.@.-.! *.Q P P U Q Q Q Q Q ! ! Q Q ~ Q Q Q ! ! ! ! ! ! ! ! ! +.+.+.Q @.! Q P ! -.PXPXLXKXKXPXZXLXLXLXKXLXLXPXfXxXlXpXpXgXlXlXfXAXDXAXAXAXAXCXZXLXLXKXKXLXI v c v I v v v v v v v v v v v v v v v P P v v P P P U W ' p.d.4.) W ~ W ~ ~ ! / / ;.4.6.7.t.G.].lXvXZXAXDXDXDXDXDXDXAXlXlXvXDXDXPXDXDXxXlXlXaXaXsX2X2X2X5X5X5X5X4XpXiX2X2X2X5X5X2X2X>X].].:X5X5X5X5X2X2X2X2X4X5X4XpXpXdXpXpXdXdXpXdXpXpX4X5X2X2X2X2X2X2X].].:X:X>X>X:X:X>X].].].].].].[.2X2X2X2X2XiXaXbXvXvXvXvXkXkXbXvXvXvXvXbXvXvXkX[.J.K.W.{.{.|.sXvXvXvXAXAXAXDXAXZXZXDXDXDXDXAXDXDXPXPXPXDXvX2XJ.t.F.F.W.}.[.[.2X2X2XH.` F Z 9 9 9 d D D d s p y t y y t 3 r r r 2 2 2 2 2 2 : : & : & & & & & & $ * * * * & & & & * * * * ",
"M h f f f x f f f f f x x x x x c x c v v m m Q Q I m I I I v v v v I +.-.>.>.-.>.:.>.:.>.2.:.2.2.2.:.:.2.0.w.w.w.2.:.:.:.:.:.>.>.>.>.:.:.:.>.-.^ ^ ^ @.@.@.@.! ! ~ W P P Q ! ! Q W W W Q ! *.*.;.i.m.!.!.^.^.!.^.%X%X*X*X%X%X%X:X:X:X%X^.^.%X%X%X%X%X%X%X%X^./.!.T.P.Y.L.L.n.d.a.a.y.u.y.y.0.6.:.:.=.*.^ ! ! ! ! ! Q ! ! Q Q ! :.5.0.:.*.*.*.*.*.^ @.W W P W ~ ~ ~ ~ ~ Q ! Q Q ~ ~ Q Q Q Q ! ! Q Q Q Q ! ! +.+.Q ! +.Q ! Q -.CXDXPXPXLXLXKXLXKXLXKXKXLXKXPXAXAXAXvXAXlXxXvXDXDXAXAXAXfXn.eXCXZXzXPXVXNXI Q c v v v v v v v v v v v v v v v v m P v v P P P W ) 8.d.L.8.) W W ~ ! ! / / / ( 4.4.8.t.H.5XZXDXDXDXDXAXZXZXZXZXvXaXpXcXZXDXDXDXDXvXlXlXaXaXsX5X5X5XpXpX4X5X4X4X2X2X2XiX5X].]././.Q.].2XpX4X4X4X5X5X2X2X4X5X4XpXpXpXpXpXpXpXpXpXpX4X5X2X2X>X>X2X>X>X].].>X>X>X2X>X>X].].]._.].].[.2X2X2X2XiXiXiXsXaXbXvXvXvXbXbXvXvXkXkXkXbXvXvXaX[.W.J.{.|.|.sXkXvXvXvXvXAXAXDXZXvXZXDXDXDXDXDXDXDXPXPXPXPXDXlX_.F.] { K.Q.[.2X2XQ.f.' E F J H J D d d s p 8 p p t y y t r r r r 2 2 2 2 2 2 2 : & & & & & & * $ $ * * * * * & & & * * * * ",
"f f N f f x f f f f f x x x x x c x x v v m m m m v v c v v v v v v v Q &.%.-.>.>.>.>.>.-.>.>.>.:.:.:.:.2.w.i.i.w.0.:.:.:.:.:.:.:.:.:.:.2.:.:.-.@.@.@.@.-.-.@.@.+.! Q I P Q ! ! Q W P W Q ! *.*.-.0.n.Y.!.!.^.~.~.^.%X%X%X^.%X%X:X:X:X*X%X%X%X%X%X%X%X%X%X^./.~.!.T.P.I.L.L.m.n.n.n.s.a.a.i.0.0.:.:.;.*.^ ! ! ! ! ! ! ! ! ! ! +.-.-.-.@.! ! *.-.@.! ! P Q I I ! Q Q Q Q Q ! ! ! ! ~ ~ Q Q ! ! ! Q ! Q Q ! ! ! ! Q Q -.Q Q Q PXKXLXPXDXPXKXLXKXKXKXKXKXLXPXDXAXAXAXAXvXvXvXvXDXDXAXAXAXY =.%XfXCXdX,X*X,XCXv c Q v v v v v v v v v v v v v v v m P v v P P P ) ( p.I.~.7.) U W ~ ! ! / / / ( ;.4.8.7.f.2XvXPXPXPXDXDXZXxXlXlXlXiX2XpXxXZXxXvXAXZXcXlXaXpXsX5XiXpXpX4X5X5X2X>X].].].2X>XQ.I.H.G.H./.2X5X5X4X4X5X5X2X5X5X4X4XpXpXpXpXpXpXpXpXpX4X4X2X>X>X:X:X>X>X:X>X>X>X>X2X2X2X>X2X[.[.[.[.2XiXsXsXsXsXsXiX[.iXiXaXkXbXbXbXbXkXaX|.|.|.sXaX|.{.{.}.[.|.iXiXsXbXAXDXAXvXAXAXAXvXvXDXDXPXDXDXDXDXPXDXPXPXPXDXcX[.J.F.t.H.].aXlX5XU.` E D q q d d d 8 8 7 3 3 3 3 3 t y t r r r 2 2 2 2 2 2 2 2 : : : & & $ $ * $ * * * * * * * * * * * * * ",
"N N u N f x x x f f f f f f f f x x x x v v v v v x x f h c c v c c c v Q +.@.-.>.-.-.-.-.-.-.>.:.:.:.:.w.w.i.i.i.0.:.:.:.:.:.:.:.:.:.2.2.:.:.-.-.@.@.@.-.-.@.@.@.+.! Q I Q Q Q ~ W P W ~ / *.-.-.0.n.I.(.~.!.^.!.~.^.%X%X^.%X%X%X%X*X:X:X:X:X%X%X%X%X%X%X^.~.~.!.Y.P.I.L.L.L.L.m.m.n.n.a.u.y.0.6.:.;.*.^ ! ! ! ! ! Q ! ! Q ! +.! ! ! ! Q Q ! +.! Q Q v Q Q I I Q Q Q Q ! ! Q Q ! ! ~ Q Q Q ! ! Q Q Q Q ! ! ! ! ! ! ! Q +.KXKXKXKXPXDXDXLXKXLXKXKXKXPXPXDXDXAXAXAXAXvXvXvXvXAXAXAXAXZX=.Y.yXCXCXxXyX%X,XCXSXQ c v v v v v v v v v v v v v v v m m m v P P P / ' d.~.^.p.( W W ^ ! / / / / / ( ;.4.7.f.].lXDXPXPXDXDXAXvXlXaXsX2X[.sXxXZXcXcXZXAXvXlXaXpXsXiXpXpXpXpX4X4X5X:X/./.].2X].Q.H.H.G.H./.2X5X5X4X4X5X2X2X5X5X4X4X4XeXpXeX4X4X4X4X4X5X4X>X:X].].].:X].].>X>X>X>X2X2X2X2XiX2X2X2X2XiXsXaXaXaXaXsXiX[.[.|.iXsXaXkXkXbXkXsX X{.W.{. X[.{.{.[.|.|.[.[.iXbXvXvXvXvXvXvXvXxXvXAXDXPXPXPXPXPXPXPXPXPXDXDXdX].J.F.t.H._.2X].U.' W Z Z J d d d d 8 7 8 p p 3 3 t r r r 2 2 2 2 & 2 2 2 2 2 2 : : & & & $ $ * * * * * * * * * * * * * # # ",
"y u N N f f f f f f f f f f f x f f x x x x x x x f f f f h c c c c c c v I O.@.-.-.-.-.@.@.@.@.-.-.>.:.:.0.w.w.w.2.:.:.:.2.2.2.0.0.2.2.:.:.:.>.>.-.-.@.-.-.@.@.@.+.! Q Q W Q Q P P W Q ^ *.-.-.;.6.a.I.!.!.(.^.!.!.~.~.^.%X%X%X^.%X%X:X:X:X*X%X%X%X%X%X^./.~.!.!.P.I.I.m.m.L.I.m.m.m.n.y.y.y.y.q.6.;.*.! Q Q ! ! ! ! ! Q Q Q Q Q Q Q Q Q Q Q Q Q I I I Q Q Q Q Q Q Q Q ! ! ! ! +.! ! ! Q Q Q Q ! Q Q Q Q ! ! ! ! ! Q O.KXKXKXKXKXPXPXDXLXKXKXKXKXLXPXDXDXAXAXAXAXAXAXAXAXvXvXAXAXxXZXa.*XyXCXCXVXCXyX,XeXSXLXA.v v P v c m m P P P v v v v m P P v P v P W ) ' H./.`.I.4.H W ! / / / ) ) / ( ;.6.7.p.Q.4XZXPXPXDXDXDXZXcXaXsX2X[.5XvXZXxXlXvXAXvXcXaXpXpXpXpXpXpX4XpX4X4X2X`.`.>X2X>X]./.Q.J.Q.].2X5X2X2X2X2X2X>X2X5X4X4X4X5X5X4X4X4X4X5X5X2X2X:X].`.^.`.].].].[.[.[.>X2XiX2XiXiXiXiXiXiXsXsXaXaXaXsXiX[.[.[.[.[.[.sXaXaXaXaXaX|.{.W.{.[.[.[.{.[.sX[.).}.|.sXbXbXbXbXcXvXvXvXvXvXZXAXDXDXDXDXDXDXDXDXDXvXpX_.H.G.t.t.G.f.7.) D d d d d d s p p 4 4 4 4 3 3 t 5 r 2 2 2 2 2 2 2 2 2 2 2 : & & & $ $ $ $ $ $ * * * * * * * * * * * * # # ",
"y y y u N N N N u u u u u a f f f f f f x f f f f f f f f h x c c c c c c v I O.@.-.-.@.@.@.@.@.+.+.+.@.-.>.:.:.2.2.2.2.2.0.0.w.0.w.w.2.2.:.:.>.:.>.-.-.-.-.@.@.@.+.! Q Q Q Q Q P P W ~ ^ / *.*.;.6.a.m.Y.Y.Y.!.!.!.Y.!.~.^.%X*X^.^.^.%X*X*X%X^.^./.^.^.^.~.~.!.~.(.I.L.m.L.I.P.L.m.n.s.y.0.0.y.u.0.:.*.! ! ! ! ! ! ! ! Q Q Q Q ! Q Q Q Q Q Q Q Q I I I Q Q Q Q Q Q Q ! ! ! ! ! ! ! ! ! Q Q Q Q Q Q ! ! Q Q Q Q ! Q +.KXKXKXKXKXKXLXPXDXPXKXKXKXKXKXKXKXKXLXPXAXAXAXAXAXAXvXAXAXZXxXZXT.%X,XdXZXVXZXfX,XdXVXHXCXv g v P P P v v P P v v v v P P P v P v P W ) 8.G./.].Q.7.W G W ! ! / / ) ) ( ( ;.6.7.H.:XcXDXPXLXPXDXAXcXlXaXsX2XpXvXDXAXvXvXvXvXvXlXpXsX5X5X4XpX5X4X5X4XpX4X4X5XpX5X5X2X2X].:X2X2X>X:X:X2X2X>X:X>X2X5X4X4X4X5X5X4X4X5X2X2X2X>X].]./././.].].>X>X[.[.2XiX2X2X[.2X2XiXiXiXiXsXsXsXsXiX[.[.{.).).).}.[.|.|.iXaXkXaXsXsXsXsX X{.).[.aX[.J.Q.[.|.iXaXlXlXlXvXvXAXAXvXlXlXlXcXvXDXDXDXDXvXvXvXlX>XH.9.` E E F D d d d d d d s p p 8 y 4 4 3 t 3 t 5 2 2 2 2 2 2 2 2 2 & : 2 : & & $ $ $ $ $ $ $ * * * & * * * * & & * * # # ",
"y y u N u u N N u u u a a a a u f f f f f f u u f f f f f f f f h h h c c c v I +.@.@.@.+.+.+.+.+.+.@.@.-.-.>.:.>.:.2.2.w.w.w.w.w.w.w.w.2.2.:.:.:.:.:.>.-.-.@.@.@.@.+.! Q Q Q ~ P W W ~ ^ / *.*.*.:.u.m.I.Y.Y.Y.Y.Y.I.I.Y.~.^.%X^.^.%X%X%X%X%X^.^.^.^.^.^.^.^.~./.~.I.n.n.I.Y.!.P.m.n.a.q.6.0.y.i.0.;.*.! Q ! ! ! ! ! ! ! Q ! Q ! ! Q Q Q Q Q Q Q I I I Q Q Q Q Q Q Q ! ! ! ! ! ! ! ! ! Q Q Q Q Q ! ! Q Q Q ! Q +.+.HXLXKXKXKXKXKXPXLXPXPXKXLXKXKXKXKXKXKXKXLXAXAXAXAXAXAXZXvXvXfXxXxX%XT.T.yXCXVXCXCX3XfXCXHXHXP Q P v v v P v P m v v v v m m P v P P W W ) 7.U._.].Q.p.W G W W ! ! W ) / / ( ;.4.7.f./.5XZXPXPXPXDXAXcXpXpXaXaXlXvXDXDXDXDXAXDXvXbXpX2X2X2X5X4X5X5X5X5XpXpX4X4X5X5XpXpX5X5X2X2X>X].].:X>X:X<X`.].:X>X>X5X2X2X2X2X>X>X2X>X:X]._./.Q.Q./.].>X>X>X[.[.>X[.[.[.{.[.[.iXaXaXsXsXsXiXiXiX[.[.).Q.Q.Q.Q.}.[.[.sXkXvXaXsX|.|.[.}.}.[.|.sX{.J.J.).{.iXbXbXlXaXlXvXDXDXvXaXiXsXaXlXcXvXlXlXlXvXvXlX].f.' ( E L J d g g d s s p p p 8 4 y t 3 t t t t r 2 2 2 2 2 2 2 2 : & & & & & $ * $ $ $ $ & & * * & & * * * * * & * * # # ",
"y u u u u u u u u f f f f f u u u a a f f a u u a a f f f f f f f f f f f h c v Q Q O.+.+.+.+.+.@.+.+.+.@.@.-.-.-.>.:.0.w.w.0.w.w.w.w.w.w.w.w.w.2.2.:.:.>.-.@.@.@.@.+.! Q Q ! ! Q Q ~ ! ^ *.*.*.*.:.y.m.m.L.L.L.I.m.L.L.Y.P.~.^.%X%X%X%X%X%X%X^.^././.^.~.~.~.~.~.T.I.n.n.L.Y.!.I.m.n.a.q.6.6.0.y.5.*.! ! ! ! ! +.! ! Q ! Q Q Q Q Q Q Q Q Q Q Q Q I I I Q Q Q Q Q Q Q Q Q Q Q Q Q Q ! Q Q Q Q Q Q ! ! Q Q ! ! ! Q @.KXKXLXKXKXKXLXZXLXPXLXLXLXKXKXKXKXKXKXKXLXDXZXZXAXAXAXZXxXfXxXxXdXL.y.q.,XCXSXSXZX,XzXCXHXFXP m v v I v I v m m v v v v m m P P P P W W ( p.Q.]._.U.7.W G ~ ~ ~ W ! ) / / / ;.;.8.f.Q.>XcXAXDXPXPXDXxXpXpXaXbXvXZXDXDXDXDXDXDXAXvXsX[.].2X4XpX5XpXpX4XpX4X2X]./.].2X2X2X2X:X].^.Q.Q.(.^.].].^.^.^.`.:X:X2X>X>X>X:X:X:X].`._./.Q.Q.Q./.].].:X[.[.[.[.[.{.}._.).[.iXaXaXiXiXiXiXiXiX2X'.J.J.Q.Q.[.sXaXlXbXaX|.W.W.W.).).).W.).W.).J.H.F.F.W.iXvXvXDXvXvXDXDXvXbXsX[.|.[.|.[.[.].].>XiXpX2XU.8.E H J D d s f f a a p p p y y 4 t t t t t t r 2 2 2 2 2 2 2 2 2 : & & & & & * * $ $ $ $ & & * * & & & * * * & & & & * * ",
"y y u u u y y u f f f f f u u u y u u u u u u u u a a u a a a a a a f f f f h c v m I I Q +.+.@.+.! ! ! +.+.@.@.@.-.:.0.w.w.w.w.w.w.w.0.w.w.i.i.w.w.2.:.>.-.@.@.@.@.@.+.! ! @.@.@./ *.*.*.*.*.*.*.:.y.m.m.m.m.L.L.m.m.m.L.I.P.~.^.^.^.^.^.^.^./.~.!.!.T.P.P.Y.Y.Y.I.L.n.n.m.L.L.m.n.n.s.y.6.0.0.0.:.*.@.+.+.+.+.+.+.! ! ! Q Q I Q Q I I I I I I I I I I I I I I Q Q Q Q Q Q Q Q O.Q O.Q Q Q Q Q Q Q Q Q Q ! ! Q +.:.KXKXKXKXKXKXLXCXLXPXPXLXLXLXLXKXKXLXKXLXPXDXvXvXvXZXZXxXfXfXfXfX2XD s U *XfXCXZXAXCXCXVXHXFX>.P c m Q v P m m m v v v v m m v v v P W W ( p.Q.]./.H.8.W W Q W ~ ~ ~ / / / / / / 4.t.H./.5XxXDXPXLXPXvXpXiXsXaXbXvXDXDXDXDXDXDXvXlX[.).'.].5XpX4XpXpX4X4X5X].U.G.H./.].>X2X:X/.I.f.t.d.(./.^./././.^.^.].:X:X:X:X:X:X`._././.Q.Q.Q.Q.Q._.].].[.[.[.[.[.{.}.}.).'.[.iX2X[.].[.[.2X2X[.U.t.G.Q.2XaXvXvXbXlX[.Q.F.F.K.Q.).).J.F.t.F.F.F.F.K.}.aXvXDXDXAXvXvXbXbXaXiX|.[.[.}.Q.J.G.G.G.U.U.f.' H H D d d d a f a p p y y y 4 4 3 3 3 5 r r r r 2 2 2 2 2 : & : : 2 & & & & & $ $ $ $ $ $ & $ $ $ * * * * * * * * & & & & ",
"y y u u y y y y f f f a u u y y y y y y y y u u u u u u y u a a a a a a a a f f c c c v v Q +.@.+.! ! ! ! +.@.@.@.-.:.2.w.w.w.w.w.w.w.i.w.i.i.i.i.w.2.2.>.-.-.@.@.@.@.&.+.@.@.@.-.-.-.-.-.-.-.*.*.:.y.n.m.m.m.m.m.n.n.d.n.L.I.T.!.~.~.~.~.~.~.Y.Y.I.I.L.m.I.Y.L.n.m.n.n.s.s.s.s.a.u.a.a.y.0.0.0.0.:.*.! +.+.+.+.+.+.! Q ! Q Q I I I I I I I I I I I I I I I I I Q Q Q Q Q Q Q Q O.O.O.Q Q Q Q Q Q Q Q Q Q Q Q Q +.:.LXKXKXKXKXKXKX*XKXPXDXPXPXPXDXPXPXDXPXDXAXAXZXvXvXvXxXfXfXdXfXfX<XO o o n.fXfXCXAXzXCXVXHXHX>.m Q v v v Q m m m v v v v m m v v v v W W ) g./.].Q.t.' W W Q Q W ~ ~ / / / / / ;.4.8.t.H.].lXDXPXPXPXZXlXsXsXaXaXlXvXZXDXDXDXDXvXiX'.).}.].2XpXpXpXpX4X4X2X^.H.t.f.I./.:X2X:XQ.H.7.8.p.d.L.I.!.!.~.~./.^.].].:X<X].^././.Q.Q.Q.Q.U.U.Q./.].].[.[.>X[.[.[.{.}.).).'.'.).Q.Q./.]._._.Q.G.t.H.].pXcXvXlXiX].J.t.F.F.J.Q.[.}.F.] ' ] t.F.F.J.}.aXbXvXvXlXaXsXsXiX2XiXiX[.).H.t.' ` ' ' ' ( H J F D d G G g f p y y y y 4 4 4 3 3 3 3 5 r r r 5 2 2 2 2 2 : & : : : : & : : & $ $ $ $ $ $ & & $ $ * * * * & * * * * * * & ",
"y u N u y y y y a a u u u y y y y y y y y y y y u u u y y y y u a u u a a a a f h h h h c I Q +.Q Q I I Q ! +.+.@.-.>.:.:.:.2.2.w.w.w.w.w.w.i.i.i.i.w.2.:.>.-.-.-.-.@.@.@.@.-.-.;.-.;.-.*.*.*.*.*.:.y.n.m.n.n.n.n.n.n.s.d.n.L.I.L.I.Y.P.T.T.Y.L.s.d.s.a.d.P.Y.I.n.n.n.s.a.u.q.q.q.0.y.y.0.5.:.:.:.-.@.+.! +.+.+.+.+.Q +.Q Q I I I I I I I I I I I I I I I I I I Q Q Q Q O.O.Q Q ! +.+.Q Q Q Q Q Q Q Q ! Q Q ! @.CXKXKXKXKXKXLXLXLXy.KXPXDXDXPXPXDXDXDXAXDXDXAXAXvXvXvXvXfXfXdXfXfXfX'.=..   O fXfXSXSXeXVXHXHXHX:.f P m v m Q v P P v v v v P P v P v v W W ) g./.].U.8.) W W Q Q W ~ ~ / / ^ / *.;.4.' 8.t.Q.5XZXDXPXPXDXZXvXbXaXsXsXsXaXvXDXDXAXlX2X).).).].[.4XpXpXpXpXpX2X/.H.t.t.f.~.`.>X:X^.I.g.7.7.q.p.p.d.L.P.!.(.~./.^.`.^.^./.(.U.Q.(.Q.U.I.U.Q./._.].].].].[.[.[.].).Q.Q.Q.U.H.H.U.Q._.U.H.f.t.t.f.(.].]._.H.t.' ' 9.G.J./.2XpX2XH.] ] ' t.J.Q.W.W.[.2XpXsX].Q.Q.Q._.[.2X>X).G.' E H E W H D 9 9 D H J D D d a a p y 4 y 4 4 3 3 3 3 3 3 5 5 5 5 2 2 2 2 2 2 2 & & & 2 : : : & & $ $ & & $ $ $ $ $ $ * * & & & & * * * * * * ",
"y y u u i t t y u u u y y y y y t t r t y y u u u u u u y y y y u u u a a a a f f f f f c v I Q ! Q Q Q Q ! ! +.@.@.-.-.-.>.:.:.2.2.2.2.w.w.i.i.i.i.i.2.:.>.>.>.-.-.-.@.@.@.-.-.;.-.-.*.*./ / / / ;.0.n.m.n.n.n.n.m.m.d.d.d.n.n.d.n.m.L.I.Y.L.s.a.s.a.a.L./.^.!.n.s.a.a.u.q.6.6.6.6.0.0.:.:.:.;.-.*.! ! ! +.+.+.+.+.Q Q Q Q I I I I I I I I I I I I I I I I I I Q Q Q O.+.+.Q ! ! +.+.Q Q I Q Q Q Q Q Q Q Q @.>.KXKXKXKXKXKXKXKXLX!.LXPXDXDXDXDXPXDXDXDXDXDXDXvXvXvXvXvXfXpXpXfXfXpX_.q.y     eXfXAXAXCXSXHXHXHX-XQ v m P v v P m P v v v v P P P P P P W W ) f./.].I.4./ W Q P Q Q W ~ ! / / / / / ( ` ' t.H.].dXZXDXDXDXZXvXbXaXsX[.{.[.aXvXZXvXaX[.Q.Q.Q./.].>XiX4X4XpXiX2X].U.f.f.f.(.^.:X<X].^.~.P.d.y.6.4.7.s.L.I.P.(.~./././.~.(.I.H.H.I.H.H.H.U.Q.Q././.).).).).'.].).Q.Q.Q.Q.H.H.H.Q./.Q.H.t.8.7.7.8.8.' ' ' ( ` ' t.t.G.G.H.Q.].Q.t.] ' ' G.).}.Q.F.K.{.sXaX2XQ.G.f.t.f.H.H.t.` F D H J H J J J J J q q 9 8 8 8 p p 3 4 y y 4 3 3 3 3 3 3 5 5 5 5 2 2 2 2 2 2 2 & & & 2 : & & & & $ $ & & $ $ $ $ $ $ * * * & & & * * * * * * ",
"y u N u y r t y y y y y y y y t r r r r y y y u u u u y y y y y y y u a u a a f x c f a f c v I Q ! Q I I Q Q ! +.! ! ! +.@.-.>.:.:.:.2.2.2.w.i.u.i.i.2.2.:.:.:.:.>.>.-.%.%.-.>.>.-.*./ ! ! ! ! ! ;.i.a.n.s.s.n.n.n.n.n.d.d.d.s.a.a.n.L.n.d.a.7.7.g.a.p.d.Y.!.L.q.q.q.q.q.0.0.0.:.:.:.:.:.:.-.-.-.*.+.+.! +.Q Q ! ! Q Q Q I I I I I I I I I I I m m m I I I I I Q Q Q Q Q Q Q Q ! ! Q Q Q Q Q Q Q Q Q ! ! Q Q Q Q Q Q Q P P P P m v v v v m m m I P P P P P v v c c c c v v v c v m P P P m v v P P P P P P P P v v v v v P P P v v v v v v v v P v P P W ~ ) g.Q.`.I.' ) W P v v P W ~ ~ ! ! / ) / ( ( ' 8.G.J.].4XcXvXlXlXaXaXiX|.}.W.Q.[.pXpXsXsX2X).).J.Q.J.Q.Q.].>X2X4X5X>X/.(.H.L.P.~.(.(.^.:X%X^.P.L.g.7.y.s.L.I.I.I.P.Q.~.~.(.H.f.g.d.H.H.H.H.H.Q././._.]._.Q.Q./.Q.Q.H.H.H.H.H.d.d.H.H.G.p.4.( ( ' ( ) ( ( ' 8.7.9.t.f.f.f.t.f.t.' ` ( E _ ] H.J.F.F.F.[.aXlX].G.' ( E ( ( ) H H H H G G d d D G d d d 9 8 8 8 p p p y t t 3 3 t t t 3 3 3 3 5 5 5 2 2 2 2 2 2 2 & : : : : : : : & & $ & $ * * $ $ $ * * * * * * * * * * # # * ",
"y u N y t r r r y y y y y t r r r r t r y y y u u u u y y y y y y u u u u a f f h h f a f h c I Q ! Q I I Q Q Q Q Q I Q ! +.@.-.>.:.:.:.:.2.w.i.u.i.i.w.2.2.:.:.:.:.>.>.-.-.-.-.-.-.*.*.! ! ! ! ! -.0.a.n.a.s.n.n.n.n.m.n.d.d.a.q.a.n.L.a.y.7.4.4.y.p.y.y.s.s.q.5.5.5.5.6.6.5.:.:.:.:.:.:.;.-.-.-.@.! ! ! +.Q +.Q Q Q Q Q I I I I I I I I I m I I I I I I I I I Q Q Q Q Q Q +.O.O.O.Q Q Q Q Q Q Q Q Q Q Q Q Q Q Q Q Q I P P P P m m v v v m m m I I P P P P v v v v v v v v v v v m P P P m m m m m P m m m m m m v m m v v P P m v v v v v v v P v P P W W ( g.Q.^.L.' W G P v P Q W ~ ~ ! ^ ^ / / / ( ' ' t.f.P.`.5XdX5X2XiXiX[.[.).J.J.Q.].[.2XsXiX[.}.U.H.G.G.G.U./.>X2X2X>X]./.P.I.I.L.d.d.P.~.^.^.~.P.L.n.n.m.L.L.L.L.I.(.(.(.I.H.f.p.f.f.f.G.G.H.U.Q./.].]._.Q.J.U.H.f.9.9.7.9.7.8.8.7.7.4.( ) ) ) ( ( ) ( 4.p.p.7.8.7.t.t.9.t.t.8.` ( E E E ` 8.t.9.t.t.J.].>XI.` E E E J F H J G G G G g d s d d d 9 9 8 8 8 8 8 4 4 4 t t 3 3 t t t 3 3 3 5 2 2 2 2 2 2 2 2 : : : & & : & & & & & $ $ & & * * $ $ $ * & & * * * * & * * # * * ",
"y y y y r r r r t r r r r r r r r r r t y y y y y y y y t t y y u u u y u u f f f f u u a a h m Q ~ Q W Q Q P Q P P P P Q Q +.@.-.-.>.>.:.6.0.i.y.i.i.0.w.2.:.:.:.:.>.-.@.@.+.+.+.+.+.! ! ! ! ! ! =.0.a.a.s.s.n.n.n.n.m.n.n.d.p.p.p.d.d.p.y.6.;.;.7.a.a.y.q.5.;.=.=.=.;.:.5.5.:.:.;.:.:.:.-.-.*.*.+.! ! ! +.Q O.Q Q Q Q I I I I I I I I I P m m I I I I I I I I Q Q Q Q +.+.+.Q Q Q Q Q Q Q Q Q Q Q Q ! Q Q Q Q Q Q Q I P m P P m m m m m m m m I I P P P P v c v v M M v v v v v m P P P P m m m m m m m m m m P P P m v v m m m m v v v v v P P P P P W W ' d.~.^.L.;.W G P P v P Q ~ ~ ^ ^ / / / / ( ;.' 8.7.f.U.].pX5X[.].[.[.}.Q.J.H.J.Q.[.sXlXlX2X|.).J.t.t.t.t.U.:X2X>X].^./.(.I.d.g.p.y.L.!.^.^.^.!.I.L.L.m.m.d.d.d.L.I.I.I.I.H.f.t.t.p.f.f.G.H.U.Q./.].].].Q.H.f.9.' ( ( ( ( ( / / / ) W W ) ) ) ( ( ( ' p.d.d.t.7.8.7.8.7.t.t.8.' ( ( E E ( ` 8.7.7.8.9.f.p.( J D J J D J D d d d g d s a s h d p p 8 8 8 8 8 4 4 4 3 t t t 3 t 3 3 3 5 2 2 2 2 2 2 2 2 : : : & & & & & & $ $ $ $ $ $ $ $ * * $ $ $ * & * * * & & & & * # * * ",
"t t i t r r r r r r r r r r 2 2 2 r r r t y y y y y y t t t y y a u y u u f f f u u y y a u f v Q ! ! Q Q Q Q Q Q P P P Q Q ! +.@.@.*.*.;.:.0.y.q.0.i.0.0.:.:.:.>.>.-.@.@.! Q Q I I Q Q +.+.+.! ! ;.q.a.s.a.a.s.n.d.n.n.d.d.s.s.s.7.6.y.s.n.n.a.6.y.a.a.y.6.:.:.;.=.=.;.:.0.0.5.:.-.-.-.=.-.*.-.+.! ! Q Q Q Q Q Q Q Q Q I I I I I I I I I P P P P P I I I I I I Q Q Q Q +.+.+.Q Q Q O.Q Q Q Q Q Q Q Q Q Q Q Q Q Q Q Q I I I I I m m m m m m m m I I I P P m c v v n M M v v v v v m P P I I I I I I I I I I I I I I P P m m m m m m m v v v P P P P P P U ) 7.L.^./.d.( H G P m v P Q ~ ~ ! / *.*.*./ / ;.;.' 8.t.I.].lXlX5X].].].).).Q.J.J.Q.sXvXDXvXaXaXiX).F.t.t.t.J.].].^.(.(.P.L.L.n.n.d.n.!.(.^.^.(.I.m.n.n.s.d.d.d.d.d.d.d.G.L.L.f.p.p.p.f.G.H.U.U.U.Q._.]._.I.f.7.' ) ) W W ) ) ^ ) ) W ) ) ^ / / ( 4.4.8.p.d.d.f.p.p.7.4.4.8.7.4.( ) W W ) ( ' 4.6.4.( ) ) H J J J J g J J G d d d a a a a a a a p p p p 4 4 4 4 4 4 4 t t t t r r r r 2 2 2 2 2 2 2 2 2 : : & & & & & & & $ & $ $ $ $ & $ * * $ $ $ * & & * & & & & & * * # * ",
"t t t t t t r r r r 5 r r 2 2 2 2 2 r r t t r r t t y t t t y y y t y u f x f f u y y u a u f v Q / / ! Q W U Q ! Q Q Q Q Q Q ! @.@.^ *.*.;.:.6.0.0.0.0.6.:.:.-.-.*.*.@.! Q W P I I Q +.+.+.+.! @.:.u.n.n.d.d.s.a.a.d.n.s.s.g.p.7.p.I.%X,X:X!.m.0.0.y.y.6.;.;.:.5.:.:.:.5.0.6.5.;.-.*.-.-.*.@.+.! ! Q Q Q Q Q Q I I I I I I P m I I P P I I I I P P P I I I I I Q Q Q Q +.Q Q Q Q Q Q Q Q Q Q Q Q Q +.+.Q Q Q Q Q Q Q Q Q I I I m m m m m I I I m I Q m m v v v v v v v v v v v v m m m m m m I m m m m m m m m m m m m m m m m m m v v v v P P P P P P W ( f.Q.^.~.p.) U P P I v P Q Q ~ ~ ! ! ! / / *.*.( ' 4.t.H.].cXZXcXpX5X[.[.|.2X[.Q.).sXvXDXDXvXbXaX[.Q.H.F.G.H./.Q.I.I.L.n.n.d.n.m.I.!.!.!.!.!.I.m.n.s.u.u.y.g.d.d.d.d.g.d.d.d.d.t.p.p.f.H.U.U.U.H.H.U.Q.I.d.7.8.' ) ) ) W W ^ ^ ^ ^ ^ / / ( / ( 4.7.7.6.6.7.7.p.d.n.d.4.( ( ' ( ) W W W W ) ^ / / ^ W G G d G g g g g d g d d a a a p p p p p p y y p 4 4 4 y y y 4 4 t t t t 5 5 2 2 2 2 2 2 2 2 2 2 2 : : : : & & & & & $ $ $ $ & & & $ $ $ $ $ * * * * & & & & & & * * * # ",
"t t t t t t r r r r r r r r r r r r r r r t r r r r t t y y y t t t y u h x f a u y t y u u a c P ! / ^ ! Q U W Q W ! ! ! ! ! ! @.*.*./ / *.;.:.:.:.:.:.:.:.;.*.*.@.^ ! ! Q Q P I I Q +.! ! ! ! / 6.a.n.n.d.d.d.a.p.d.n.d.s.g.p.a.L.%X3X,X^.m.u.:.:.;.-.-.*.-.:.5.6.0.5.:.:.:.:.-.*.+.@.+.+.! ! ! Q Q Q Q I I m I I m v v v v P m m P m m m m m m m P P I I I I Q Q Q +.+.Q Q Q Q Q Q Q Q Q Q Q Q ! +.+.Q Q Q Q Q Q Q Q Q Q Q I m m m m I I I m I I m m m v v v v v v v v v m m m m m m m m m I I I m m m m m m m m m m m m m m m m v v v v P P I P P P ) 4.G.Q.~.I.4.W G P Q P P P Q Q Q W W W W ! ^ *./ / ' 4.t.f.Q.lXDXDXAXvXaXsXaXbXaX[._.2XlXDXDXZXbXaXiX}.Q.J.H.H.Q.I.I.I.L.n.s.d.n.m.I.I.m.n.s.a.a.y.y.y.y.y.y.y.g.g.u.u.y.y.p.g.p.7.7.7.f.d.H.I.U.H.G.G.d.g.p.q.7.4.( ( / ^ ^ ^ ^ / =.=.:.=.=.( ( 4.6.7.4.;.;.;.4.p.L.L.6./ ) / / ) ) ) W W P P G G G G g d d g g h d g d d d d a p p p p p p p p y y p y y y y 4 4 3 3 t t t t t 5 2 2 2 2 2 2 2 2 2 : 2 : : : : : & & & & $ $ $ & & & & $ $ $ $ $ * * * * & & & & * * * * # * ",
"r r t t t t t r 2 2 2 r r r r r r r t t r t r r r r r t y u y r t t u f f f u u y y t y u y y a g P Q ! / ! W W P U W ! / / ! ! *.*./ / / / *.;.:.;.;.;.;.-.*.*.^ ! ! Q Q P P v P P I I I I I W ! :.a.m.L.I.I.I.I.n.d.s.s.s.d.n.m.Y.%X*XY.a.:.*.^ ^ ^ ! / *.-.-.;.6.0.6.;.-.-.*.-.! Q Q ! ! Q Q Q I I I I I m I m v v v v v v m m m m m m m m m m m m I I I I I I Q Q +.+.Q Q Q Q Q Q Q Q Q Q Q Q Q Q Q Q Q Q Q Q Q Q Q Q Q I I m m m m I I m m I I m m m v v v v v v v v m m m m m m m m m m m I I I m m m I m m m m m m m m m m P P P v v v v I P P W / 6.L.Q.I.d.( H G P W v v P Q W W P P P W ! ^ ^ / / ' 7.t.f.Q.pXcXAXDXDXvXaXaXlXlXaX[.[.aXvXDXDXvXlXaX|.Q.J.J.J.Q.H.I.I.m.n.s.s.d.n.n.n.a.y.5.:.;.:.;.:.6.0.y.y.y.7.7.7.6.6.7.7.7.6.6.7.p.p.f.H.I.H.f.t.7.7.7.7.q.7.4.4.;.=.=.=.=.=.5.6.0.5.;.=./ =.;.;.( / ( / ) ;.y.y.( ) H W U H U W P G G g d d d d d d s s d d d d s s d d p p p p p p p y y y y 4 y y y 4 3 3 3 3 t t t t 2 2 2 2 2 2 2 2 2 2 : : : : : : : : & & & & & $ & & & & & $ $ $ $ * * * * * * & * * * * # # * * ",
"r r r t t t t i 2 2 2 2 r r r r t y y y y t t r t r r t y u y r y u f f u y y y u y t y u y y y p g P ! *.*.! W P P W ! / *.*./ *./ / / ^ / *.-.;.-.*.*.*.*.^ ! ! ! Q W P P v v v v v v I P P P ^ 6.m.(./.^.:X:X^.I.s.y.y.a.m.I.I.n.a.q.=.^ ! W W ~ ~ Q ! *.*.! *.:.0.0.=.*.^ ^ *.! Q I I I I I I I I I P I m m v v v v v v v m v v v v v v v v m m m m I I I I I Q Q +.+.Q Q Q I Q I I Q +.+.Q Q Q Q Q Q Q Q Q Q Q Q Q I I I I m m m I I I m m Q m m m m m v v v v v v m m m m m m m I m m m m I I I m m m I I m m m m m m m m P P v P v v v v m P v W / 6.L.P.L.p.( H G G P g g v P P Q P P P W ! ! ! ^ ( 4.t.t.H./.2X5XlXvXDXAXaXsXlXvXvXaX[.pXcXDXDXDXvXbXiX).Q.Q.Q.Q.H.H.H.d.n.d.s.s.s.u.y.y.5.;./ / / / =.-.:.6.y.7.6.5.5.5.:.5.6.6.6.7.p.p.p.p.f.H.H.f.8.8.4.4.8.7.7.4.7.:.;.=.=.=.=.5.q.6.5.;.( ^ ^ / ) ) W ) ) W W / ) W H H H J G G J G G s s s s d d d d d s s s s s p p p p p p p p y y y y y y 4 3 3 3 3 3 3 3 3 3 t 5 5 5 2 2 2 2 2 2 2 2 2 2 : : : : : : : & & & & & $ $ & & & $ & & $ $ * * * * * * * * * * * * * * * * ",
"r r r r t i i y r r r r r r t y y y y y y y y y t r y y y y t t a x c f t 2 t u a u y u u u y u s h g P ^ =.=./ P P G W ! / / / / ! ! ! / *.*.*.*.*./ ! ! ! ~ ~ ~ Q Q P P v v v v v c v v v v P / u.^.yXzXcXcXxXeX%Xd.6.5.y.u.s.i.:.! P P P W ~ Q Q Q ^ *.-.*.~ *.:.0.:.*.*.*.*.*.! I P P I P m P P P P m v v v v v v v v v m m v v v v v v v v v v v m m I I I I I Q Q +.Q Q Q Q I I I Q Q Q Q Q Q Q Q Q Q Q Q Q Q Q I I I I I m m m m I I m m I m m m m v v v c v v m m m m m I I I I I I m m m m m m m m I I m m m m m v v m m v P I P P v P v P P W ( 7.d.L.d.7.( U G P g g g v I P P P P U W U P P W ) 8.g.f.H._.].].].pXcXvXsX[.2XkXvXvX2X[.sXvXDXDXDXvXaX}.Q.Q.Q.U.I.d.p.y.y.y.y.y.y.y.y.u.7.;./ / ! ! ! / ;.6.6.6.:.:.:.;.:.:.:.6.0.y.y.p.y.7.6.p.p.7.' ' ' ' 4.6.6.6.6.5.=.=.=.=.=.:.5.5.;.*.! W W W ! W W U U U U P G G P U U G G g G d s s s s s s s s s s s s p p p p p p p p p y y y y y y y 4 t t 3 3 3 3 3 3 3 3 5 5 2 2 2 2 2 2 2 2 2 2 2 2 : : : : : : $ & & & & & & $ & & & & & & $ $ $ $ $ $ * * * & * * * # * * * * ",
"r r r r t i y u t r r r r r t y r t y y y y y y t r r t y t t t a f h u t 5 t u f u y u a u u a h g g G W / *.*.P G G P W ^ / / W W W ! / *.*.*./ ! ! Q Q Q Q Q Q Q P v v v v v P P v v P v v P =.Y.yXZXDXPXPXDXZX5Xm.6.:.:.:.:.-./ ! ! ! ! ~ Q W W ! *.:.:.:.-.*.=.:.-.*.-.-.-.@.! P P P P P P P P P P m v v v v v v v v v v v v v v v v v v v v v v m m m I I I I Q Q Q Q Q Q Q Q I Q Q Q Q Q Q Q Q Q Q Q Q Q Q Q I I I I I I m m m m I I m m m m m m m v v v v v v m m m m m I I I I I I m m I I m m m m I I m m m m m v v m m v P P v v v P P P W W =.7.p.f.p.7.4.W U U P g g g v v P P P W P P P U W ( 8.f.f.f.G.G.f.f.Q.].2X[.'.}.[.sXlXiX2XsXbXvXDXAXvXaX].J.H.J.H.H.g.p.q.q.7.6.7.y.y.y.y.6.;./ / ! / ^ *.:.6.:.:.:.:.:.;.:.:.:.:.0.0.0.;.=.( / ' 7.p.7.8.4.4.4.4.5.6.6.:.=./ ^ / ^ / *./ / ! W U U W W P P W W W P P P P P P P G d d d s s s p p p a s p p p a p p p p p p p p p p y 4 y y 4 4 3 3 3 3 3 3 3 3 3 3 3 3 2 2 2 2 2 2 2 : 2 2 2 2 2 : : : : : : : $ & & & & & $ $ & & & & & & $ * $ $ $ $ * * * & * * * # * * * * ",
"r r r r t y u u y y t r r r r t r r y y y y y t r r r r t t t t u u u y t t y a f u y y a u u p g g G G P W W ! P G P P W ^ ^ ^ W W W / / ^ ! / ! ! W U W Q W W W P v v v v v v P P v v v v v P / L.5XxXDXDXDXCXeX(.q.;.:.:.:.0.;.*.! ! ! Q W Q W Q ! *.:.2.:.-.^ *.*.-.-.-.-.*.-.@.Q I P P P P P P P m v v v v v v v v v v v v v v v v v v v v v v v v m m P P I I Q Q Q Q Q Q Q Q Q Q Q Q Q Q Q Q Q Q Q Q Q Q Q Q Q Q I I I I m m m m I m m m m m m m v v v v v v v m m m m m m I I I Q I m m I I I I m m m I m m m m m m m m m v P I P P P P P P W ^ 4.7.p.f.d.d.7.;./ / W G g g c c v P P W P P U W ( ' 7.f.f.t.' ' ' t.G.U.[._.2X[.].[.pXiXsXlXvXDXDXvXbXaX].H.F.H.H.f.p.p.q.7.7.6.6.6.6.0.5.:.;.=.^ / ^ / -.:.:.-./ ^ *.*.=.=.*.=.:.6.5.;.;.;.;./ 4.p.d.d.y.q.4.;.;.;.5.6.:.*.! ! ! ! ! ! ! ! ! Q W W P P P P W U P G G g g G G G g d p p a a p p p p a a p p p p p p p p 8 p p y p y y y 4 4 3 3 3 3 3 3 3 3 3 3 3 3 2 2 2 2 2 2 : : : : : : : : : : : : : : : : & & & & & & $ $ $ $ & & & $ $ * $ $ $ $ * * & & * * * # # # # # ",
"r r r r t y u u y y y y t r r r r r y y y y r r r 2 r r t t r t y y y y y y u a u u t t u u y y a g P P G G g g G U W W W ) ^ ^ W ) / =./ ! W ! ! W W U P W W W P P v v g g g v v v g g g g g v / u.(.5XcXcXdX3X!.y.;.-.-.-.>.:.:.-.^ ~ Q P Q ~ ! @.@.! ^ @.! Q Q / :.w.0.:.-.-.:.-.+.I I I P I I I m v v v c c v v v v v v v v v v v v v v v v v v v v v m m P I I I I Q Q Q Q Q Q Q Q Q Q Q Q Q Q Q Q Q Q Q Q Q Q Q Q Q Q I I m m m m m I m m m m m m v v v v v v m m m m m m m I I I Q I m m m m m m m m m m m m m m m m v v m P Q @.~ Q P P P P W / 6.p.f.d.d.d.f.7.=.*.! P v v c c v G P W W U W ( 4.' 7.f.f.t.' ' t.t.t.H.Q.Q.[.2X].Q.).].sXbXAXDXAXvXbXaX[.J.F.f.f.f.g.p.y.y.y.y.y.y.6.:.;.:.;.-.*.^ ^ / *.-.*.! W W ~ ! / / / / -.;.;.*.;.5.6.6.6.p.d.d.u.q.5.;.;.;.:.5.=.*.! ! ! ! ! ! Q ! ! ! ! Q W P P P P P G g g g h g g g h a a p p p p p p p a a p p p p p p p p y y y 7 p p y y 3 3 3 3 3 3 3 3 3 3 3 3 3 2 2 2 2 2 2 : : : : : : : : : : : : : : : : : & & & & & & $ $ $ $ & $ $ $ $ * $ * * * $ $ & & * * * # # # # # ",
"r r r r r t i y y y u y y r r 2 r y y y y r r r r 2 r t y t r 5 r r t y u u u u u u y y u t 3 3 8 d P W P g d p G U W W W ) ) / ) ) ( ;.=.! U W P W W U P P P P W P v v g g g g g g g g g g g v ^ :.s.^.3X3X^.n.;./ / *.*.-.-.>.-.@.! ~ Q Q Q ~ :.:.-.^ W P P P P ! :.0.2.-.-.:.2.>.! I I I I v I m v v v c c c v v v v v v v v v v v v v v v v v v v v v m P P I I I I I I Q Q Q Q Q Q Q Q Q Q Q Q Q Q Q Q Q Q Q Q Q Q I I I I m m m m m m m m m m m m v v v v v m m m m I m I m I I I Q Q m m m m m m m m m m m m m m m m v v v P -.b.2.Q v P W W ! ;.7.p.p.f.d.d.a.7.=.*./ Q v v c c v v P W ^ ) ^ ;.4.' t.H.H.G.t.9.t.t.t.t.t.t.J.Q.Q.F.H.Q.2XlXvXAXDXvXbXaX).J.G.t.t.g.f.p.u.u.u.y.y.y.6.:.:.:.:.:.=.*./ ^ ^ ^ ! Q W W W ~ ~ ~ ~ ! ^ / / ^ -.:.0.6.6.6.6.5.6.:.:.=.=.*.*.*.^ ! U U Q Q ! ! ! ! ! ! ! Q W P G v g g g g v v v g g h a p p p p p p p p p p a a a p p p p y y y y 7 7 7 3 y y 3 3 3 3 3 3 3 3 3 5 3 3 3 3 2 2 2 2 2 2 : : : : : : : : : : : : : : : : & & & & & $ $ $ $ $ $ $ $ $ $ * * * * * * $ & & * * * * * * * * ",
"2 2 2 2 r r r t y y u u y t r 2 r y y y y r r r r r t y y t 5 2 2 r t y u u u u u f f N u t 3 3 8 a G W P g d s d G U W W ) / ( / / ( =./ W P P P P P P P P P P W W P v g g g g g g g g c g c P ~ / :.s.m.n.6./ / / *.@.~ ! ! Q Q Q Q Q ~ ! @.@.2.2.:.*.Q P P Q ! :.0.w.:.*.:.0.>.@.Q I m I m v m v v v v v v c v v v v v v v v v v v v v v v v v v v v v m m m I I I I P I I I I Q Q Q I I I Q Q Q Q Q I I I I I I I I I I I I m m m m m m m m m m m m m m m m m m m m m m Q Q m I I I Q m m m m m m m m m m m m m m m m m v v h I i.-XY.@.g W P W / 5.q.7.p.p.p.p.7.;.W P W P v v g c v v P W ) / =.;.4.4.f./.Q.H.f.9.9.t.t.t.' ' 9.t.t.t.' G._.2XaXvXDXvXlX[.J.G.G.t.8.p.p.p.y.y.y.y.y.0.6.6.0.6.:.:.-.*.^ ! ! ! ~ W Q ~ ~ ~ ~ ~ ! ~ ~ ~ ~ ~ ~ ^ *./ / ! ) ) / / ^ / ^ ! Q Q Q P P P Q Q ! ! ! ! ~ Q W Q P P v g g g v v g g g g f f p p p p p p p p p p a p p p p p p p t t y y y 7 3 4 y y 3 3 3 3 3 3 3 3 3 5 3 3 3 3 2 2 2 2 2 2 2 2 : : : : : : : : : : : : $ : & & & & & $ $ $ $ $ $ $ $ $ $ * * * * * $ $ & & & * * * * * * * ",
"r 2 & & 2 r r r y y u u y t r 2 r r y y t r r r r r y y u y r 2 5 r t y y y y y y f x f f y t y p p h P P g h d d G G G G U ^ ( ( ( / / ^ P G G P P G G P P P P W Q W P v v g v g c c c c c v I Q ~ ^ ;.:./ / ~ ! ^ @.! Q ! ! ~ Q Q P m Q -.>.>.-.-.-.@.W G P ^ :.0.0.:.>.:.:.:.+.Q Q m v v v v v v v v c v v v v v c c v v v v v v v v v v v v v v v v v m I m m m I I P I I I I I Q I I I I I I I I I I I I I I I I I I I I I m m m m m m m m m m m m m m m m m m m m m m I I m m I I m m m m m m m m m m m m m m m m m m v v f Q u.,X!.@.v P v W *.5.q.7.p.p.f.p.d.p.;./ / ! P v c c v v P ! / 5.q.4.;.7.d.(.Q.I.H.t.8.8.7.7.7.t.t.f.G.H.t.t.G.Q.].lXvXvXaX_.H.t.f.t.7.7.q.y.y.6.:.:.:.:.:.:.:.:.:.-.*.^ ~ W Q Q ~ Q W Q ~ ~ ~ ~ ~ Q Q Q Q W ~ ~ ~ ~ ~ ~ ~ ~ W W W W P P P P P P P P Q Q ! ! ~ Q W W P P v v g g g g g g h f h f a p p p p p p p p p p p p p p p p p p p t t y y t y 3 4 4 3 3 3 3 3 3 3 5 5 3 2 2 2 3 3 3 2 2 2 2 2 2 2 2 : : 2 2 : : : : : : : : : $ & & & & $ $ $ $ $ $ $ & * $ * * * * * * * & & & & * * * * * * ",
"r r 2 2 r r r t y y u u y t r r 2 r t y t r t y r r y u u y r r r t y y t t t y y f x h f t t u a a f g G g d d g d d d g G ) =.' / ) / ^ W P W P G g h g P P P W Q Q P v v v v c v c c c c v I Q ~ ~ ~ W W ~ ~ ! ! @.+.Q Q ! ~ Q Q Q m Q >.:.:.~ ~ ~ ~ P g P ! -.:.:.! @.:.:.Q Q Q I P v v v v v v x x c c c c c c c c c v v v v v v v v v v v v v v v m m P m m m m I P I I I I I Q I I I I I I I I I I I I I I I I I I I I I m m m m m m m m m m m m m m m m m m m m m m I I m m m I m m m m m m m m m m m m m m m m m m v v c Q :.Y.i.Q v v v ~ -.5.6.6.7.p.p.p.n.n.0.;.*./ Q P v v v G P ! 5.s.s.5.( 4.g.d.I.I.I.f.8.' 8.7.t.t.G.Q.Q.].H.f.t.f.Q.pXvXAXvXpXQ.G.f.f.7.7.6.5.:.:.:.-.*.*.*./ / / *.^ ~ ~ W W Q W Q Q W W W ~ Q Q Q Q Q Q Q Q ~ ~ ~ ~ ~ W Q Q Q W P v P P P P I I P P W Q W Q W W P P v v g g g g g g g g g g g f f a a p p y p p p p p p p p p p p p p p t 3 t t t t t 3 3 3 3 3 3 3 3 5 5 5 3 5 2 2 3 3 3 2 2 2 2 2 2 2 2 : 2 2 2 : : : : : : : : : $ & & & & $ $ $ $ $ $ & & * * * * * * * * * & & * & * * # # # # ",
"2 2 & 2 r r r t r y u u y y r 2 2 2 2 r r t y y y y y t y y r r r t y y y y t r y a f f y r t y y y y f h g g G G g g d d g U ^ ( ( ) / / / ~ W P g d a d g P P P Q W P P P v v v v v c c c v I Q ~ ~ ~ W ~ ~ ~ +.+.+.+.! Q Q Q Q Q m P +.:.2.>.P P P P P G P U ! Q Q Q ! +.Q v v v v v v v v v c c x x x c c v c c c c c c v v v v v v v v v v v v v v v v v v I m v v v m m m I I I I I I I I I I I I I I I I I I I I I I I I m m m m m m m m m m m m v v m m m m m m m m m m m m m m m m m m m m m m m m m m m m m m m m m v v c Q >.-.v g P v ~ ;.5.6.7.7.7.7.p.d.d.u.6.;.-.! I P v v P P W ;.y.y.5./ 4.4.q.f.I.U.G.7.4.7.p.d.d.d.U.:X5X/.f.9.t.H.2XvXAXZXcX2XH.t.p.q.5.5.:.:.-.-.*.@.@.! ! ~ ~ ! ! ~ Q I I I I W W W Q Q Q Q Q Q Q Q Q Q Q Q Q Q Q ~ W Q Q P P P P P P P P Q Q Q Q Q Q Q I P P v v g g g g g g g g g g h h h f f a p p p p p p p p p p p p p p p p p p y y 3 3 3 y 3 3 3 3 3 3 3 3 3 3 3 3 3 3 3 3 2 2 2 2 2 2 2 2 2 2 2 2 2 : : : : : : : : : : : & & & $ $ $ $ $ $ & & & $ $ $ * * * * * & & * * * * * * * * # # ",
"2 2 2 2 r r r r r y y y y y r 2 2 2 2 r r r y y y y y r y t r r r y u u u u u y t y u u y r r t t t y p f h g g G G P G g d G U / / / / *./ W G g d p p a g G P P P P P P P v v v I I v v c v I I ~ ~ ^ ^ *.^ ^ Q ! +.! Q I P I m Q Q Q @.:.>.^ P v G W W P P P P v v Q ! v g h c v v v c x x c c c x x x c v c c c c c c c v v v v v v v v v v v v v v v v m m I P v v v m m P m m I I P I I I I I I I I m I I I I I I I I I I m m m m m m m m m m m m m m m m m m m v v m m m m m m m m m m m m m m m m m m m m m m m m m m v v g c m v g P Q Q ^ -.:.5.6.7.p.7.p.p.p.y.6.:.-.+.Q P v v P P W / 6.;./ ^ ( ( ' 7.g.L.d.7.6.7.p.d.p.p.H.^.:XQ.f.9.8.f./.pXcXvXvXdX/.t.7.q.7.:.-.-.-.*.@.^ ~ ! ! Q ~ ! ! ! Q Q Q I Q Q W Q Q Q Q Q Q Q Q Q Q Q Q Q Q ~ ~ ~ W Q Q Q Q Q W Q Q Q Q Q Q Q Q Q I P P v v g h h h h g h g g g h h h h f f a p p p p y p p p p p p y y p p p y p 4 4 y 3 3 3 3 3 3 3 3 3 3 3 2 3 3 3 3 2 3 3 3 2 2 3 2 2 2 2 2 2 2 2 2 2 : : : : : : : : : : : & & & & $ $ $ $ $ & $ & $ $ $ * * * * * & & * * * * * * * # * * ",
"r r r 2 r r r t r y y y y t r 2 2 2 2 r r r r y u u y r r r 5 5 r y u u u a f f y y y y y t r t r t y p a h h a g G W W G d d G H W ) / / W g p p p p p d g P P W Q W W W W P v I I I I I v I I v Q W ~ / *.@.^ ! Q Q Q I m v P P P Q ~ -.:.*.P W ~ / / / ! W P P c c Q Q g f g c c c c h x x c c c x x x c c c c c c c c c v v v v v v v v v v v v v v v v m I m v v v v v m v v v m m m P P I I I I I I I I I I I I I I I I I m m m m m m m m m m m m m m m m m m m v v v v v v v v v v v m m m m m m m m m m m m v v m m m m v c c h g P ~ ~ ! @.-.;.4.6.7.p.p.7.7.7.6.:.=.^ ! Q v g v v g W W / G G ) ) ) ( 8.p.g.p.6.4.7.p.p.p.8.p.d.H.f.' 8.8.8.f.Q.].5XlXlX].g.4.7.6.:.*.*./ ^ ! ~ Q Q W Q Q Q Q ! ! Q I Q Q Q P P P Q Q Q Q Q P P Q Q Q Q Q ~ ~ ~ ~ ~ W W W ~ ~ ! ! ! ! Q I I P P I v c g h h f f a f h g g g g h h f f f a p p p y y y 4 4 8 8 8 4 4 4 p 4 8 8 3 3 4 3 3 3 3 3 3 3 3 3 3 3 2 2 3 3 3 3 2 2 3 3 3 3 3 3 2 2 2 2 2 2 2 2 2 2 : : : : : : : : : : & & & & $ $ $ $ $ $ $ & $ $ $ $ * * * * * * * * * * * * # * * * ",
"r r 2 B r r r t y y y y r r r 2 r 2 2 r r 5 r y a a y r r 2 2 2 r y u u u f f h y y y y y t y y u u u u a h f p d g W ! U g d d D G W / / P p 3 3 8 p d h g P P P P W Q ~ Q W P I I I I I I I I v P P P ~ ~ ~ ~ +.Q Q P v v v m v P P ~ -.:.*.P ~ -.:.:.*.! ! W P P I I I v v v c c c x h x x c M c x x x c c c c c c c c c v v v v v v v v v v v v v v v v m P I v v v v v v v v v v m m I I I I I I I I I I I I I I I I I I I m m m m m m m m m m m m m m m m m m m m v v v v v v v v v v m m m m m m m m m m m m m v m m m m v m P v v ~ ^ ~ ! -.:.:.6.7.7.7.7.8.4.4.4.;.^ W Q v g h v g h Q 5.0.P P ! ^ / ' ' 4.7.4.;.=.5.6.6.4.4.4.7.d.p.7.8.8.8.' 9.t.f./.5X^.g.4.;.:.=.*.^ ^ ! Q Q W W W Q Q ! ! ! ! ! ! Q Q Q P P P P Q Q Q P P P P Q Q Q Q Q ~ ~ ~ ~ ~ W W W ~ ! ! ! Q I I I v v c c g g g h h f h h h g g g h h f a a a a p p y y y y 4 4 4 8 8 8 4 4 4 4 8 3 3 3 3 3 3 3 3 3 3 3 3 3 3 3 2 2 2 2 2 2 2 2 3 3 3 3 3 3 2 2 2 2 2 2 2 2 2 2 : : : : : : : : : : & & & & $ $ $ $ $ $ $ $ $ $ $ * * * * * * * * * * * * * # * * * ",
"r r 2 2 r r r t u u y r 2 2 r 2 r r 2 2 2 2 r r f f u r r 2 2 2 r y u u u u a f y y y y t r t y f f u t p f f p p d P ! ! G d s d G U ^ / W d 8 p d g g g g g g h v P Q Q Q Q Q Q Q Q Q I I I v P P P P Q ~ ~ ~ Q Q I P v v c v v v v W -.:.*.W ^ :.0.:./ W W P v P v g h c v v c c c x x x c c v c c x x x c c c c c c c c v v v v v v v v v v v v v v v v v P I v v v v v v v v v v v m m I I I I I I I I I I I I I I I I I I m m m m m m m m m m m v v v v m m m m v v v v v v v v v v v m m m m m m m m m m m m v v m m m m P P P m v Q ! ! +.:.0.6.6.7.7.8.4.' ( 4.:.-.! P P v g h G g g ! u.m.:.! ! / / / ( / ;./ ( ;.:.5.;.4.;.6.g.I.g.7.' 4.8.' ' ` ' f./.(.g.;.;.-./ ^ ^ ~ ~ ~ ~ Q Q ~ ! ! ! ! +.+.! Q Q Q Q I P P P P P P v v P P P P P P Q W Q ~ ~ ~ ~ ~ ~ ! ! Q I I v v c c c g g g h h h h h h h h g g g h f f a a p p p p y y 4 4 4 8 8 8 8 8 8 8 3 3 3 3 3 3 3 3 3 3 3 3 3 3 3 3 3 3 2 2 2 2 2 2 2 2 2 2 3 3 3 3 2 2 2 2 2 : : : 2 2 : : : : : : & : : : & & $ $ & $ & & $ $ $ $ $ * * * * * * * * * * * * * + * # * * # ",
"r B B 2 r r r r y u y r 2 2 2 2 r 2 2 2 r r r r u a u y r 2 2 r r y y y y y y u y y y t r r t u f a y t y f h h a a g P Q U g d s d G ! / ! G g g G U P G v h d a a g P W Q Q Q Q Q Q Q I I I I P P Q Q Q Q Q Q v v v m m v c c v v g v @.-.^ W -.:.:.-.! W P g v v c c x c c v c c x x x x M c v c c x x x c c c c c c c c c v v v v v v v v v v v P P v v v v I v v v v v v v v v v v v v m m m m m v m m P m I I I I I I I I m m m m m m m m m m m m v m m m m m v v v v v v v v v v v v m m m m m m m m m m m v v v m m m m I m m P P Q ! @.-.2.0.6.5.6.6.4.( ( ;.5.:.*.W P v v v g G v g Q 6.m.i./ / 6.5.( / / / / ;.:.:.:.;.;.;.6.g.m.7.( / ;.;.' ' ( ' y.m.d.y.:.-.-.^ ^ ! ! ! ~ ! ! ! Q +.+.+.+.+.+.Q Q Q Q I P P P P v v v v v v m v v v m m P Q Q ~ ~ ! ~ Q Q Q I I v c c h h h h h h h h h h h h h g h h h h d a d a a a p p p 8 4 4 4 4 4 4 4 4 4 4 4 4 4 3 4 3 3 3 3 3 3 3 3 3 3 5 3 3 2 2 2 2 2 2 2 2 2 2 3 2 3 2 2 2 2 2 : : : : 2 : : : : : : : $ : : : & & $ $ $ $ $ $ * * * * * * * * * * * * * * * * * * * * # * # # ",
"r 2 B B & 2 r r i u i t r r r 2 2 2 2 r r r r r y u y t r 5 5 r r t y t t t r 5 r r r r r 5 t y u u u y y p g v g a a G W W G G d g G W ^ W P G G P W W P P g a 8 4 p f P Q Q Q Q Q Q Q Q I I P P P Q P P P Q m c c c v v c c c c v c c ~ ! Q ~ -.:.-.^ W P v h c c c v v c c v c c x x x M M M c c x x c c c c x x x x x x c c c c c c v c v c v v P P v v v v v v v c v v v v v v v v v v m P m m v v v m P I I I I I I I I I m m m I I I I m m m m m m m m m m m m v v v v v v v v m m m m m m m m m m m m m v v m m m m m m P v P Q Q ~ ^ @.-.:.0.5.;.;.;.;.;.;.;.:.;.! P G v h G G G P G P *.0.6.;.:.0.;./ / / / / :.0.6.6.;./ / 4.q.y.' / / ;./ / / / ;.7.y.q.6.:.;.*.^ ! Q Q Q Q Q Q Q Q O.Q Q Q Q Q Q Q I I m P P P P v v v v v m m v v v v v m v P P Q I I I P I v v c c h f f f f f f f f h h h h h h h h h d a a a a p p p p p 8 8 4 y y y y y y y y 4 4 3 3 3 3 3 3 3 3 3 3 3 3 3 3 3 2 2 2 2 2 3 3 2 2 2 2 2 2 2 2 2 2 2 2 2 2 : : 2 : : : : : : : $ $ $ $ $ & $ $ $ $ $ $ $ * * * * * * * * * + + * * * * * * * * * * @ @ ",
"2 2 B & & & 2 2 t t t t r r 2 & 2 B 2 2 r 2 r r 2 y y r r 5 5 r r t t t r r 5 2 2 2 2 2 2 2 r y t u p y 4 p h P G d p h P W U P G G G P W U G G d G P U W P v a 3 < < y g P Q W W W Q Q Q Q Q P Q Q Q v v m m m v c c c c g h g h m c c P P v W @.*.@.Q v g g g g c v c c c c c c c x x M M M c x x x c c x c c x x x x x x c c c c c c x c c c c v P P v v v v v v c c v v I I m m m m m m m P P m m m m P I I I I I I I I I I m m m m I I m m m m m m m m m m m m m m m m m m m m m m m m m m m m m I I I I I v v v v m I I m P v m P Q ~ ! ! *.-.:.:.=.*.*.;.;.;.;.:.-.Q P P P h g P P P P P P P W -.:.:./ / / W W / :.y.y.q.:.;./ ;.;./ W / / ;./ / / ) / ;.;.;.;.;.=.^ ~ ~ Q Q Q Q Q Q Q Q Q Q I m m m m m m m m P I P P v v v v m P P m v v v v v v v v P v v v v c c g g c h f f f f f f f f f a a a a a d a a a a a p p p p p p p 8 8 8 y y y y y 4 4 4 4 4 3 3 3 3 3 3 3 3 3 3 3 3 3 3 3 2 2 2 3 3 3 3 2 2 2 2 2 2 : : 2 2 2 2 2 2 2 2 : : : : : : : $ $ $ $ $ $ & $ $ $ $ $ $ * * * * * * * * * * * * * * * * * + * * * @ @ @ ",
"& B B B & & & 2 t t t t r r 2 B & & 2 2 r r r r r t i r r 2 2 r t y y y y y t r r r 5 2 5 r y y y p a p 4 4 a v v d a h G G G P G G G U H J D d G P U P P P g d 8 3 3 p h v P I Q Q Q Q Q Q Q Q Q Q Q I I m m v c h f f x c c c c c v v v v v P ! Q P c g h h h c c c c c c c c c x x x c c x x x x x x x x x x x c c c x x c c c c c x c c c c c v P P v v v P v v c c v I P I I I I m m v P P m m m m m m I I I I I I I I I I I I I I I I I I I I I I I I I I I I I I m m m m m m m m I I I I m I I m m m m m c c c m m m m m m P I Q Q ! +.@.-.>.:.:./ ~ ^ -.:.:.:.:./ W P P P P P P P P W W P P P P W W ! ;.*.! W / :.0.y.0.6.:.:.5.;./ / / / =.;./ / ~ / =.=.=.-.-.*.@.~ ~ Q Q Q Q Q Q Q Q m m m m m m m m I m m I Q Q Q P m m m P P P m v v v v v v v v v v v v c c c c g g f f a f f f f f f f f f f f f f f a f a a p p p p p y y 4 4 4 y y y y 4 4 4 4 y 4 4 4 4 3 3 3 3 3 3 3 t t 3 3 3 3 2 2 2 2 2 2 2 2 2 3 2 2 2 2 2 2 2 2 2 2 2 : : : : : : : : $ : : : : $ & $ $ $ * $ $ $ * * * * * * * * * + + + * * * + * * * * # @ O ",
"r r r r 2 2 2 r t t t r r r 2 & & & 2 2 r r r r r t t r r 2 2 r t t y u u u y y y t r r t y y u p a f p 3 4 p h h a p d g g g g G G P U U J D G G U W P G G G g d p p h v P W I P P P P P P Q Q Q Q Q I I I m v x h f f h g h c g c c c v v v m P m c g h h h c c c c c c c c c c c x c c x x x c x x x x x x x c c c c x c c c c c c x c c c c c v I P v v v I v v v c v P I P I I I m v v m m m m m m m m I I I I I I I I I I I I I I I I I I I I P P I I m m I I I I m m m m m m m m I I I I I I I m m I m m c c v m m m I m P P Q Q Q ! ! +.@.-.-.*.~ W ! *.:.:.:.;.^ W P P P W W W P P W Q Q W P P P P ! ;.*.! W ! *.:.:.6.:.:.:.:.=./ / / / *.*.;.=./ / *./ / *.*.@.^ ! ~ Q Q Q Q Q m m m m m m m m m m m m m m m I Q P P m m m m P m v v c c c c c c c v c c c g c g g g f f a a a a a a a a a a f f f f f a a a a a p p p p p y y 4 4 4 y y y y 4 4 4 4 y 4 4 4 4 3 3 3 3 3 3 3 t t 3 3 3 3 2 3 2 2 2 : 2 2 2 2 2 2 2 2 2 2 2 2 2 2 2 : : : : : : : : $ : : : : $ $ $ $ $ * $ * $ * * * * * * * * * + + + * * * * * * * * * @ O ",
"r r r r r r r r t t t t r r 2 2 2 2 2 r r r r r r t t r r 2 2 5 r t y u u u u y y y y t t y u u a f f p 3 3 4 p p p p p d d d h G G U U P G J G G W W P G g G G g d g P P Q Q W P I P P P P P I P I P v v v v v x x h x g h g g g g g g c v v v c g h h h c c c c c c c c c c v c x c c c c x x c c x x x x c c x x c c c c c c c c x x c c c c g v I P I I P P P v v v I P P I P P P v v v v v P P m m m m I I I I I I I I I I I I I I I I I I I I P P P I m m I I m m m m m m m I m m I m m I m m m m I I m m v v v m m m m m P I Q Q Q Q ! ! @.@.! Q P P Q *.;.:.:.-.! P P P Q ~ ! ~ Q Q ~ ! / ! W P P P ! ;./ W P W ! ^ *.-.;.-.;.:.*./ / / / / *.:.6.:.*./ ~ ~ / ^ ^ ^ ! Q Q Q Q I m m m m v v m m m m m m m m m m I P m v v v v v v v c c g g g g g g g g g g g g f f f f f a p p p p p p p p p p p a a a a a p p p p p p p y y y y 4 4 4 y y y y 4 4 4 4 y 4 4 4 y 3 3 3 3 3 3 3 t t 3 3 3 3 3 3 3 3 2 2 2 2 2 2 2 2 2 2 : : 2 2 2 2 2 2 2 : : : : : : $ : : $ $ $ & $ $ $ * * * * * * * * * * * * * * + + * * * * * * * * @ @ @ ",
"r r r r r r r r r r r r r r r 2 r r 2 r r r r r r t t y r r r r r t y y u u u u u y y y y y u a f h f p 4 3 4 y p 8 8 p d h d d d g P U P G G P P W W U G g G G G G P P P P P P g g g g g P P P I v c f f c v v c x x c g g g c g g g g g c v v c c g g c c c c M c c c c M M M c c c c c c x x c x x x x x x c x c c c c c c c c c x x c c c c g v v I P P I Q I P I I P P P P P P P v v v v v m P P P m m m I I I I I I I I I I I I I I I I I I I P P P I m m m m m m m m m m m I m m m m m m m m m m I I m m m m m m m m m P P I Q Q Q I Q ! +.! Q P P P W ! *.-.-.*.! P P P ! ! ^ ! ! Q ! ^ / *./ ! ! ! ^ *.Q P G P P P W / *./ *.*./ ! / / / / ;.0.u.0.-.~ ~ ~ ~ ~ ~ ! Q ~ Q Q I m m m v v v v v m m m m m m v v m P m v v v v v v c c g h h h h h f f f f f f f f f a a a a a p p p p p p p p p p p p p p p p p p p p y y y y y y y y y y y y y y 4 4 4 4 4 4 4 4 y 3 3 3 3 3 3 3 t t 3 3 3 3 3 3 3 2 2 2 2 2 2 2 2 2 2 2 : : : : 2 2 2 2 2 : : : : : : $ : : $ $ & & $ $ $ * * $ $ * * * * * * * * * * * * * * * + * * * * @ @ @ ",
"r r r r r r r r r r r r r r r r r r r r r r r r r t i y y y t t t t t t y y u u u u y y y y u u f f f p y 3 3 4 8 8 p h G G g a p d G P P P P U U W W P P P P P P P P P G v g g d d d g g g P P v g a y y f c c c c c c c g g g g g g g g g g g g c v v v c c g c c c c c c c c c c x c x x x x c c x x x x c c c x c x x c c c x x x x x M M M c v v P P I Q ! Q I P I P I I P I I I v m m m m P P m m m m P I I I I I I I I I I I I I I I I I I I I I I I I I I I I I m m m m m I I I m m m m m m m m m m I m m m m m m P P P I Q Q Q Q Q Q ! ! Q P P P P W ~ ^ / *.*.! W P P ! ! ! ! ! Q ! / / *./ / *./ ! / Q P P W W P W ! / ! ! ! ! W / / / / -.0.y.0.-.~ W W W W ~ ~ ~ Q Q Q I m m v v v c c v m m m m v m m m m I m v v v v v v v c g g g g h h h f f f a a a a a p p p p p p p y y y y y y y p p p p p p p p p y y y y y y y y y y y y y y y y 4 4 4 4 4 4 y y y 3 3 3 3 3 3 3 t t t 3 3 3 3 3 3 3 2 2 2 3 3 2 3 2 2 2 : : 2 2 2 2 : 2 2 : : : : : : $ $ $ $ $ & & & $ $ $ $ $ $ * * * * * * * * * * * + * * * * * * * * * @ O ",
"r r r r r r r r r r r r r r r r r r r r r r r r t t i y y y y t r r r r t y u u u u y y y y u u u p f f p y 4 3 3 4 a g P W G a p a h g G P P P U U U P W W W W Q W P v g h h h d d d d g g g g g f p t t p h c c c g c c g g g v g g g v g g g f g v v v c g g c c c c c c c c c c c c M c M M c c x x x x c c x x c c x x c c x x x c M M c c c v v P I ! ! @.+.Q I P P I I P I I I v m m m m m P m m P m P I I I I I I I I I I I I I I I I I I I I I I I I I P P I I m m m m m I m m m m m m m m I I m m I m I m m m m P P Q Q Q Q Q Q Q Q Q I P I P P P P Q ~ ~ ^ ^ ~ W P W Q Q ~ Q Q Q ! ! ! ^ ^ ! ^ ! Q Q ! ! ! ! ! ! Q ! *./ ! ! ! ! / / / / *.:.:.-.@.^ ~ W Q P Q Q Q Q I I m m m m v v v c v m m m m v m m m m m v v v c v c c v c g g g g c h h f f f p p p p p p p p p p p p y y y y y y p p p p p p p p p y y y 4 y y y y y y y y y y y y y 4 4 4 4 4 y y y y 3 3 3 3 3 3 3 t t 3 3 3 3 3 3 3 3 2 2 2 2 2 2 2 2 2 2 : : 2 2 2 2 : : 2 : : : : : : $ $ $ $ $ & & $ $ $ $ $ $ $ * * * * * * * * * * * * * * * * * * * * * @ @ ",
"r r r r r r r r r r r r r r r r r r r r r r r r t t i y y y t r r 5 5 5 r t y u u u y t t y y u y u f f p y 4 3 3 y y a g P G h a h d d g G P U U G G G P P P P P P P G d d g g h d d d g g g g g h p p p g v v v c g c c c g g v c v v v v g g f g v v g g g g c c c c c c c c c c g g g g g g c c c x x c c c x x x x x x x x c c c c c c c c v v I P Q ! @.-.@.! I P I I I P I I I P m m m m m m m m P P P I I I I I I I I I I I I I I I I I I I P P m m I I P P P P m m m m m m m m m m I I I I I I m m m m I I I m m P P Q Q Q Q Q Q Q I P m v v v P P P W W Q ~ ~ W P P W W W W W W W ~ ~ ! ! Q W W W P W ! ! ! ^ ^ / *.*.*.! ~ ! ! ^ / / ^ / ^ *.*.^ ! ^ ~ W P P Q Q Q P m m m m m m m m m m m m m m m m m m v v v g g g g h h h h g h h f h h f f f a p p p p p p y y y p y y y y y y y y y y y p p y y y y y 4 4 4 4 4 4 4 y y y y y y y y y y 4 4 4 4 4 4 y y 4 3 3 3 3 3 3 3 t 3 3 3 3 3 2 2 2 2 2 : 2 2 2 2 2 2 2 2 2 2 2 2 2 2 2 : 2 : : : : : : $ : $ $ $ $ & $ $ $ * $ $ $ * * * * * * + + + * * * * * * * * * * * * @ @ ",
"r 2 2 r r r r 2 r r r r r r r r r r r r r r r r r t t y y y t 5 2 2 5 5 r t y u u y t t r t y y t y f f f p y 4 3 4 3 3 p g v g g g h d d g P W P G g g G G g g v G G d d d g g g g g g g g g g g g f f g v P P v c g c v v v v v c c v v v v g g v v v g h g v c c c c c c c c c c g g g g g g c c x x x x c c h h h x x x x x c c c c c c c c v I P I Q ! @.-.@.! Q I I I I P I I I P P P m m m m m m P P P I I I I I I I I I I I I I I I I I I I P P m m I I P P P P m m m m m m m m m m I I I I I I m m m m I I I P m P P Q Q P P Q Q I P v v c c v v v P P Q Q Q Q Q P P Q Q P P P W Q ~ ~ ~ ! Q P P P W ~ ! ! ! ! ! *.*.*./ ~ W ~ / / *./ ~ ~ ~ / ^ ~ ~ ^ ~ Q P m P Q P m m m m m m m m m m m m m m m m m v v v c g f f f f p p p f f f f f f f f a p y y y y y y y y y y y y y y y y y y y y y y y y y y y y y 4 4 4 4 4 4 4 4 y y 4 4 4 y y y y 4 4 4 4 4 4 y 4 4 3 3 3 3 3 3 3 3 3 3 3 3 2 2 2 2 2 : : 2 2 : 2 2 2 : : : : : : : : : : 2 : : : : : : $ : $ $ $ $ & $ $ $ * $ $ * * * * * * * + + + * * * * * * * * * * * * @ @ ",
"2 2 r r r r r r r r r r r r r r r r t t r r 2 r r r t i t r r 5 5 r t t t t y u y y t r t t t y y y u f f f u y 3 3 3 3 4 a g P P g h d d d G W U P g d d d d s d d d d d d h g g g g g g d d d h h h g c P I I P v g g v v v g v v g g g v v v v v v P v v v g g c v v g g v v v v c g g g g g g c c c x x x x x x h h f h x x h x x x x x x c v v v v P ! +.@.+.Q I P I I I P I v v m I I I I I I I m m m m I I I I I I I I I I I I I I I I I I I I I I I I I I I I I m m m m m m m m m m m m m I I I m m m m v m m I I P P P P P P P Q P m v c c c v v P P P P Q Q Q P P P P P P P P P Q Q Q ! Q W P P P Q Q Q W P W ~ ^ *.*.^ ~ W ~ / *.*./ Q Q ~ ~ ~ ~ ~ ~ Q Q Q I P m m m m m m v c v m m m m m m m m v c c c h f f p p u y p p p u y y y p u u y y y y y y y y y y y y y y y y y y y y y y y y y y y 4 y y y y y y y y y 4 4 y y 4 4 4 4 4 4 4 4 4 4 4 4 4 3 3 3 3 3 3 3 3 3 5 5 2 2 2 2 3 3 3 2 2 : : : : : : : 2 2 : : : 2 : : $ $ : : : : : : : : : $ : : : : $ $ $ & & $ * $ * * * * * * * * * * * * * * * * * * * * * * @ O ",
"2 2 2 r r r r r r r r r r r r r r r t t r r r r r t i i r 2 2 2 r t t t y y u u y y t t t t y y u u u p f f p y 4 4 3 3 y a v P P g h h d d G P P P g d s a a d d d p p p p d h G g g d d h h s s s a h g P I I v g g g v g h f f h h h g g g h f g v W Q W P v v v v v c c v P P m v c c c c g g g g c x x x x x x x f f f x x h h x x x x x c c c c c v I P P P P P P I Q I I I I P I I Q I I I I I I P I I I I I I I I I I I I I I I I I I I I I I I I I m I I I I I m m m m m m m m m m m m m m m m m m m m v m P I I P P P m v m P P P v c c v v v v P P P P P Q Q P P P P W Q Q P P P P Q W W P P P P W W P P P P ~ ^ *.*.! ~ Q ! *.-.*./ ! ! ~ Q W P P P P P m m m m I I m m m v c v m m m m m m I m c c f f u u u y y y y y y y y y y y y y y y y y y y y y y y p p y y y y y y y y y y y y y y 4 y 4 4 y y y y y y y y 4 4 y y y 4 4 4 4 4 4 y 4 4 4 4 4 3 3 3 3 3 3 3 3 3 3 5 2 2 2 2 2 2 2 2 : : : $ ; ; ; : : : : : : : : $ $ $ $ $ : : : : : : : : : : : : $ $ & & & $ * $ * * * * * * * * * * * * * * + + * * * * * * @ @ ",
"2 2 2 r r r r r r r r r r r r r r r t t r r r r t y y y r 2 2 5 r r r r t y y y y y y t t y u u u u u u p p u y 3 3 4 4 4 p h v g h h h g g g G G g d d d d h g g g g g g g g G G G g g h s a a p p p p a a g h f a a f f a p y y p a f h g g h f g P Q ! ~ P v v v v v v v v P I P v v v v c c c c c g x h h h f f f f f f f f f f h h h x x x c v v v v P P P v P Q +.@.-.-.-.@.+.! Q Q Q I I I I I I P P I I I I I I I I I I I I I I I I I I I I I I P P m m m I m m m m m m m m m m m m m m m m m m m m m m v m m I P P P P v v v m P m v c c v v m v v P P v P P P P P P P P P P P v v P Q Q W W P P W W W P P P P W ! ! ! ~ Q Q ! *.-.-.*.^ ! ~ Q P P v v v m m m m m m Q m m m v v v m m m m m m m c c f u u y y y y y u y y y y y y y y y y y y y y y y p y y y p p p p y y y y t y t t y y t t 4 4 4 4 4 4 y y y y 4 4 4 4 y y y y 4 4 4 4 4 4 4 4 4 y y 3 3 3 3 3 3 3 3 3 3 5 3 3 2 2 2 2 2 2 : : ; $ $ $ $ ; : : : : : : : $ $ $ $ $ : : : : : : : : : : : : $ $ $ $ & $ * $ $ * * * * * * * * * * * + + + + * * * * * * @ @ ",
"& & 2 2 2 2 r r r r r r r r r r r r r r r r t t y u y y r 5 r t r r r r t t t t y y y y y u u u u u y y u u y y 3 3 4 4 4 4 y f h h h g g g g v h d g g G G G g g g g g g G G P G G g d d s a p p p p y p p p p y p p a p y 4 4 8 p a d g g G G v G P W Q W P G v v v v v v P P I P I v v v v v v v c c c h h h f f f f f f f f f f h h h h h x g c c c v v I I v I Q @.-.>.>.>.-.-.+.Q Q I I m m m m m v m I I I I I I I I I I I I I I I I I I I I I I I P m m m m m m m m m m m m m m m m m m m m m m m m m m I I P P I P P P m m m P P m v c c v m m v v v v v v v P v v v v v v v c g v P Q Q Q Q Q W Q Q Q Q W P P Q Q Q Q Q Q ! ^ -.-.*.@.! ~ Q P P P P P m m I m m m m m I m m m m m m m m m m m c h f u a u u u y y y y y y y y y y y y y y y y y y y y y y y y y y y y y t y y t y t t t t t t 4 4 4 4 4 4 y y y y y 4 4 4 y y y y 4 4 4 4 4 4 4 4 4 4 y 3 3 3 3 3 3 3 3 3 3 3 3 3 3 3 2 2 2 2 2 : ; $ $ $ ; : : : : : 2 2 : : $ $ : : : : : : : : : : : : : : $ $ & $ & $ * $ $ * * * * * * * * * * * * * * * * * # @ * # @ @ ",
"& & & 2 2 2 r r r r r r r r r r r r r r r r t t i i y y y y y y t t r r t t t t t t y y u u u u u u y y y y t t 3 3 t y y 4 y y h f h g g g g g h h g G G G G g g g g g g G G G G G g d d s p p p p p 7 p p a a p p a f p p p p a h g g v P P P G G P P W W P P g v v v v v v P P P P v v v v v v v v c g x x x x h f f f f f f f f f f f f f f g g g g g c c c c c v Q ! @.-.-.@.! Q I m m v v v v v v v v m I I I I I I I I I I I I I I I I I I I I I P I I I P I I I m m m m m m m m m m m m m m m m v v m m I I I P P P P P I m P P m m v c c c v v v v v v v v v m m m v v v v c c v v m P P P P P W ! ! ! ! Q P P P P W W Q Q ! ^ @.@.@.! ! Q Q P m m m I I m m m m I I I Q I m m m m m m m m v c x f u y u u u u y y y y y y y y y y y t y y y t y y y y y y y y y y y y y y t t t y y y y y y y 4 y y y 4 4 y y y y 4 4 4 4 4 y y y y 4 4 4 4 y 4 4 4 4 y 3 3 3 3 3 3 3 3 3 3 3 3 3 3 3 2 2 2 2 2 2 : : ; ; ; : : : : : 2 2 : : $ $ : : 2 2 2 : : : : : : : : $ $ & & & & $ * $ $ * * * * * * * * * + + * * * * @ @ @ @ @ @ @ @ ",
"& & B B r r 2 r r r r r r r r r r r r r r r r t t r r t y y y r t r r r r r r r r t y y u u u u y y t y y y t t 3 2 3 y p y y p h h h f d d a a d d d h g g G G G G G G G G G H G G G g d d s p p 8 7 7 p f g g h h h h a a a h g G P P G g g h h h g G P P P v v v v v v v v P P P P P P P P P v v v v c c x x x x f f f f h f f f f f f h x x f f f g g g c v c c c v I I I I v v c c c v v v v v v v v v m I I I I I I I I I I I I I I I I I I I I P I I I I P P I I m m m m m m m m m m m m m m m m m v m m I I I I I I I I I I v v m v v c c c c c v v v v v v v v m v v v v v c c v P P P Q Q Q Q Q ! ! ! ! Q P v v P W Q Q Q Q ~ ~ ! Q Q I I P m m m m I m m m I I Q Q Q Q I I I m I m m m v c x f u u y t y y y y y y y y y y y y y t t y y t t t t y t t t t t t t t t t t t t y y y y y y y y 4 y y y 4 4 y y y y 4 4 4 4 y y y y y 4 4 4 4 y 4 4 4 4 y 4 3 3 3 3 3 3 3 3 3 3 3 3 3 3 2 2 2 2 2 2 : : : : : : 2 : : : 2 2 : : : : : : 2 2 2 : : : : : : : : $ $ & & & & $ * $ $ * * * * * * * * * * * * * * * @ @ @ @ @ @ @ @ ",
"2 B B B B 2 2 2 r r 2 2 r r r r r r r r r r r r r r 2 r y y t r 5 2 2 2 2 2 5 5 r r y y u u u u u y t t y y y t 3 2 5 y p y y p h h f a p p p a a a h g g g G P P P G G G G U H U P P G G G d d a p 8 7 a g P P v g g h d a h h G P P P g g h d a h g g G G G v v P P P P v P P P P P P P v v v v v v v g h x h f f f f f f x x h x f f h x c x f a f g g g c c g g g g g g g g g g g c c v v v v v v v v v m I I I I I P I P P I I I I I I I I I I P P m m I I P P P P m m m m m m m m m m m m m m m m v v v v I P I v v v v v I v v c g h h h c h h c c v v v v v v v v v v v c c c v v P P Q ~ ! ! ! ! ! ~ Q W P P v v P Q ~ Q W W I P P P P v I m m I I I I m m m I Q Q Q Q Q I m I I I m m m v x f u u y y t y y y y y y y y y y y y y t t t t t t t t t t t t t t 3 t t t 3 t t t y y y y y y y y 4 4 y y 4 4 4 y y 4 4 4 y y y y y y y 4 4 4 4 4 4 4 y y y 3 3 3 3 4 3 3 3 3 3 3 3 3 3 3 3 2 2 2 2 2 2 : : : : : 2 2 2 : : 2 2 2 2 2 2 2 : : : : : : : : : : : $ $ & & & & $ * $ * * * * * * * * * * * * * * * * @ @ = X @ @ @ @ ",
"2 & 2 B B 2 2 2 r r 2 2 r r r r r r r r r r r r r r 2 r i y t 5 2 2 2 : 2 2 5 r t t y u u u u u N u t t y y y y t 5 t u p y y a h h f p y p p a h v P P P G P U W W W W W W W ) W W U U P P G G G d a p d G P P P P g g h d h g P P P G g g g g g g v v G P P P P W Q Q P P P P P P P P v v v v v v v g g x f f f f f f f h x c c x x x x c v v P I P I I I v P v v I I v c c v v c c c v v v c v v v v v v m I I I I I P P P P I I I I I I I I I I P m m m m I P P P P m m m m m m m m m m m m m m m m v v v v I I I v v v v v P v c g f f f f h f f f c c v c v v v v v v v v c c v v v v P P ~ ! ! ! ! ! Q P P P v v P W Q ! W W P I v v v v I I I I I I I I m m I Q Q Q Q Q Q I I I I I m m v c f u y y y t y y y t t t t y y y y y y y t t t t t t t t t t t t t t 3 3 t t t 3 t y y y y y y y y y 4 4 y y 4 4 y y y 4 4 4 y y y y y y y 4 4 4 4 4 4 4 4 4 y 3 3 3 4 4 3 3 3 3 3 3 3 3 3 3 3 3 2 2 3 3 2 2 : : : : 3 3 2 2 : : : 2 2 2 : : : : : : : : : : : : $ $ $ & & & & $ * $ * * * * * * * * * * * * * * * * @ @ @ X @ @ @ @ ",
"& & & & 2 2 2 2 2 2 2 2 2 2 B B 2 2 B B 2 2 r r r t y y y y y r r 2 2 2 2 5 r r t t u u u u u u N u y t t y y y t t t y y y y a h a a a p p a h P P W W P P W ! W W W W W W W ^ ^ ^ ^ ! U U U U P P P G g G P P G I P P g h h g P P P P P P P P P P P P P P P P Q Q Q Q P v P P P v v g g g g g h h h f f f f f f a u u a f f f f f f f f h x c P I Q Q I P v v v v v v c c g g g g g c c v v v v v v v v v m P P P P P P m m m m m I I P P P P P m P P P P m m P P P P m m m m m m m m m v v m P m P P m I I v I I P v v v v v m v c h f u N f f f N f M v v v v v v v m m v v v v v P Q Q P m P W Q ! ! ! Q Q Q Q P P P W Q ~ Q P v v v I I I m I I m P P I I m m m } Q Q Q Q Q I m m m m m v v x a y y y y y y y y y y y y y t t t t t t t t t t t t t t t t 3 3 t t 3 3 3 3 3 3 t t y y t t y y y t y y y y 4 4 y y y 4 4 4 y y 4 y y y y 4 4 4 4 4 y 4 4 4 4 4 3 3 3 3 3 3 3 3 3 3 3 3 3 3 3 2 2 2 2 2 2 2 2 2 2 2 2 2 2 > : : : : : : : : : : : : : : : : $ : : : & $ & $ $ $ $ $ * * * * * * * * * * * * * * * * * @ @ @ = X @ @ ",
"& & & & & : & 2 2 B 2 2 2 2 B B 2 2 2 & B 2 2 r t u u u u u y r r 5 2 2 r r r r t t y u u u u y u u y y y u y y t t t y y y y p a a p f f a h g v P P G G G G P W W W W W W W ) ^ / / ^ ^ ^ ^ W W W U P P G g g g P P P P G G G P P W Q W W P P P P P P P P P P P P Q P v v v v v g g h h h f f f f f f f a a a a u u u u u u a u u u u u a f f g c v v v v v v v v c c c c c c g g g c c c v v v v v v v v m m m m m P m m m m m m I I P P P P m m P P P m m m P m m m m m m m v m m m m v m Q m v P P m P I m P P I I v v v v m v g h f f f f f f f f c v v v v v v m P P v v v v P Q Q Q Q P P P W Q ~ ~ Q Q ~ Q Q P P W W Q Q P v v v P P P P P I I m I I I m m m m Q Q } } I I m m I m v v x f u y y y y y y y y y t t t t t t t t t t t t t t t t t t t t 3 t t t 3 3 3 3 3 3 t t t t t t y t y t 4 4 y 4 4 4 4 y y 4 4 4 4 4 4 4 y y y 4 4 4 4 4 4 4 4 4 4 4 3 3 3 3 3 3 3 3 3 3 3 3 3 3 3 3 2 2 2 2 2 3 2 2 2 2 2 2 2 : : : : : : : : : : : : : : : : : $ : : : $ $ & $ $ $ $ * $ * * * * * * * * * * * * * * * * # @ @ X X @ @ ",
"& & & & & & & & & & & & & & & & 2 2 & & & & 2 2 r r y u f x f y t 5 2 2 2 5 5 r r t y u u y y y y y y u u u u y t t t y t t t u p p a f h g G G P G G G G G G W W W W W W ) ) ) / / / / / / ^ W W W U U P P G G g G P P P P P P P P W Q Q W P P P P P P P P P P I I I v c g g g g g f f f f a a p p p p a a u u u u y y y y y y y y y y y y u u y u a f g g c c c c g g g g g g h h h f f x c c v m m v v v v v m m m m m m m m P P I I P P P P m m m m m m P m I m m m m v v v m m P P v v g v P P W Q ~ ! ~ P P P P P m v v v m v g h f f h h f h h h c c c v v v m m m m v c c c m Q Q Q Q Q P P I Q Q Q Q Q Q Q Q P P P P Q P P v v m I I I m m m m m m I Q m } Q Q Q Q } } m m Q Q Q m c x f a y y y y y y y y y t t t t t 3 3 3 3 t t t t t t t t t t t t t t t t t t 3 3 3 3 t t t t t t y t t t 4 4 4 4 4 4 y y y y 4 4 4 4 4 4 4 4 y 4 4 4 4 4 4 4 4 4 t 3 3 3 3 3 3 3 3 3 3 3 3 3 3 3 3 3 3 2 2 3 2 3 2 2 2 2 2 2 2 : 2 2 2 : : : : : : : : : : : : : $ : : : $ $ $ $ * $ * $ $ * * * * * * * * * * * * * * * * * # # O @ @ @ ",
"& & & & & & B & & & & & & & & & B 2 & & & & & & & & 2 i f c x u r 2 & * $ & 2 2 r r y y y y y y t t y u f f a u y t t t t 3 t y y u a h g v G G P W W W H W W W ) / / / ) / / / / / / / *.=./ / P P G G G G G G G G P G P P P P P P W W P P P P P P P P P P P P v v c c c g g f f f f a a a a a p p p p a u u u u y y y t t y y y y y y y y y y t t y u f x c x x f f f f f f f f f u u u f h c v m P P v v v v v v v m m m m m Q P P P P P P P P P P P P P P P P P P P m m v v P P P P v g g v P G G P W ! / ! Q Q I P m v v v m v x h h x x x x x c c x x c v c v m m m m v v c c v m Q Q I m Q I m m m m m I Q Q I m m m m m m m m m m m m m m m m m m m I Q Q Q Q Q Q Q m m m I Q Q Q m x f a u y y y y y y y y y t t t t t t t t t t t t t t t t t t t t t t t t t t t 3 4 3 3 t t y y y y y t t t 4 4 4 4 4 4 y y y y 4 4 4 4 4 4 4 y y 4 4 4 4 4 4 4 4 4 t 3 3 3 3 3 3 3 3 3 3 3 3 3 3 3 3 3 3 3 3 3 2 2 2 2 2 2 2 2 2 2 2 2 2 2 2 : : : : : : : : : : : $ : : : $ $ $ $ * $ * $ $ $ $ * * * * * $ $ $ $ * * * * * * * * @ @ @ @ ",
"% & & & & w r r : : 2 B B & & : & & & & & & & & & 2 2 r y u y r : & * * * & 2 2 2 5 r y y y t r r t y a f f a a y y y y t t t y u p f h g G G G G W W W W W W W / / / / / ' ;./ :.;./ / *.;.*.*./ ^ ! W U W ! ! W W W W P P P Q Q W P P P P P P P P P v v v v v c c c c c g g f f f f f f a a a a p p a a a u u y y y y y y y y y y y y y y y y t t t y f f h h f f u u u a a u N u u u u N f c v v v v v v v v v v v m m I m m Q Q P P P P P P P P P P P P P P P P P P P I m v v P P P P P P P G g g g g P ! *.Q Q m v v v c c v c x h h h x x h c c c x f h c c c v v v v v v x x v m m m I m Q I m m m m m m I m m m m m m m m m m m m m m m m I I I m m m Q Q Q Q Q Q Q I m I I Q Q I v f a u y y y y y y y y y y t t t t t t t t t t t t t t t t t t t t t t t t t t t t t t t t t y y y y y t t t 4 4 4 4 4 4 y y y y y 4 4 4 4 4 4 4 y 4 4 4 4 4 4 4 y y t 3 3 3 3 3 3 3 3 3 3 3 3 3 3 3 3 3 3 3 3 3 3 3 3 2 2 2 3 2 2 < 2 2 2 2 2 : : : : : : : : : : : $ : : $ $ $ $ $ $ $ $ * $ $ $ $ $ $ $ * $ $ * * $ $ + + + * + * # # # # ",
"# # # % & & r r 2 2 2 B B & & 2 & & B & & & & 2 2 r 2 2 r r 5 2 * * * * & 2 2 2 2 2 r r t t r r t t y y a a a a a u y y y y y y a a f h g G G G G G G W W W W W W / / / / ;.;./ ;./ ! W ! ! ! ! ! W W W W Q Q Q / / / ^ Q W P P P P v v v v v v v v g g g g g g c c g g g g g f f f a f f f a a a a a a a a u u y y y y y y y y y y y y y y y y y y y y u f f f f u u u u u u u u u u u u a f h h g g g h h v v v v v v m I m m Q Q P P P P P P P P P P P P P P P P P P P P P P P P P P P P P P P ! *.! G g P ! Q m c c c c x h c x h f f f f f f h h h f f f f f h x c c c x c x x c v v m m m m m m m m m m m m m m m m m m m m m m m m m m m m m I I m m m Q Q Q Q Q Q Q m m I I I m v h a u u y y y y y y y y y y t t t t t t t t t t t t t t t t t t t t t t t t t t t t t t t t t y y t y y t t t 4 4 4 4 4 4 y y y y 4 4 4 4 4 4 4 4 y 4 4 4 4 4 4 4 4 y t 3 3 3 3 3 3 3 3 3 3 3 3 3 3 3 3 3 3 3 3 3 3 3 3 2 2 2 2 2 2 2 2 2 2 2 2 : : : : : : 2 : : : : $ : : $ $ $ $ $ $ $ $ * $ $ $ $ $ * $ * * $ * * $ $ $ + + + + * + + # # ",
"# # # # & & & B 2 2 & & B & 2 2 & & B B & & B 2 2 r r 2 2 r 5 2 $ & & & 2 r r 2 2 2 5 r r r r r t t t y y y y p p u y y y y y y u a a f h g g g G G G G G G G G W W ) ) ) / / ) W P G g g g g g G G P P P P U U W Q Q W P v v g g g g g v g g g g g h h h h h h c c c f f f f f f a a f f f a a a a a a a p p u y y y y y y y y y y y y y y y y y y y y y u u u u y y y y u u u u u u u u u a f f h h h h h g G v v v v m I I Q P P P P P P P P P P P P P P P P P P P P P P P P P P P P P G G P ! :.a.i.*.G G P m c f f f f f f f f f f u u u u u a f f a u u a a f f f f h h x f h x c v v v v v v v v m m m m m m m m m m m m m m m m m m m I I I m m m m m Q Q Q Q Q Q Q Q I I I v c f a a y y y y y t t y y y y t t t t t t t t t t t t t t t t t t t t t t 3 3 t t t t t t t t 3 3 t t t t y t t t 4 4 4 4 y y y y y y y y 4 4 y 4 y y y 4 4 4 4 4 4 4 y y y 4 3 3 3 3 3 3 3 3 3 3 3 3 3 3 3 3 3 3 3 3 3 3 2 2 2 2 2 2 2 2 2 2 2 2 2 : : : : : 2 2 : : : : $ : : : $ $ $ $ $ $ * * * * $ * $ $ $ * * * * $ : : $ * + + + + + + + # ",
"# # # # # & & & 2 B & & & & 2 2 & & & B & & B B r r r 2 r r r 2 2 2 2 2 2 r r r 2 2 2 r r r r r t t t t t t t y p y y t t y y y y p p p a h h h h h g g G G G G G W W G G G G G g d p p p p p a a d h h h g g g G P P v g g h h f f f f g g g g g g h h f f f f f c c f f a a f f f a f f f a a a a a a a a p p a u u u y y y y y y y y y y y y t t y y y y y u t t t t y y u u u u u u y y y u p a h a a h g G v v v v v m m m P P P P P P P P P P Q Q Q P P P P P P P P P P P P P P P G P P P *.0.n.a.;.P G G c f f f f u a a a f f u y y t t y y u u u u u u u u f f f f f h h x x c c v v v c v v v v v v v v v v v v v v v v v v m m m I I m m m m m m m Q Q Q Q Q Q Q Q Q I m c f a u y y y y y t t t t y y t t t t t t t t t t t t t t t t t t t t t t t 3 3 t t t t t t t t 3 3 3 3 3 t y t t t y y 4 y y y y y y y y y 4 4 y y y y y 4 4 4 4 4 4 4 y 4 4 4 3 3 3 3 3 3 3 3 3 3 3 3 3 3 2 3 3 3 3 3 2 2 2 2 2 2 2 2 2 2 2 2 2 2 2 : : : : 2 2 2 : : : : $ : : : $ $ $ $ $ $ $ * * * * $ $ $ $ $ * $ $ $ 2 : $ * + @ + + + + # # ",
"# # # # # # # * & & & B & B B B : : & & & & 2 2 r r r r r t r r r r r 2 r y t r 5 2 2 2 r r r r t t t r t 5 t t t t t t t t y y y y y y p p p p a p a d g G P P P v h a s s a d p p 8 8 8 p p p 8 p p p p p a a f f f a a p p p p a a h h h g h g h h h h h h h h h f f f f f f f f a a f f a a a a a a a a a a u u u u u y y y y y y y y y y y y y t t t y y y t y y y y u u u p a u u u y u p p a a a d h h g g v v P v v P v P P P P P P P P P P P P P P P P Q P P P P P P v v v P v v g P P Q *.:.;.! G g d f f u u u u u u u u u u y t t r t y y y y u u u u u u u a f f h h x x c x x c c v v v v m v v v v v v v v v v v v v v v m m m m m m I I m m I Q Q I I Q Q Q Q m m v h a u y y y y y t t t y t t y y t t t t t t t t t t t t t t t t t t t t t t t t t 3 3 3 t t t 3 3 3 t t t t y t t y y y y y 4 y 4 4 4 y y y y y y 4 4 4 y 4 4 4 4 4 4 4 4 4 y y 3 3 3 3 3 3 3 3 3 3 3 3 3 3 3 3 3 3 3 3 3 2 2 2 3 3 2 2 2 2 < 2 2 < < : : : : : < < < : : ; : : $ $ $ $ $ * $ * * * $ $ * * * $ $ $ * * * $ : : $ * + @ @ + + # # @ ",
"# # # # # # * % & & B 2 2 B 2 2 2 2 & & & & 2 2 2 r r r r r r r 2 r r 2 r y t r 2 2 2 2 r r r 2 t t t 5 5 r 5 r 2 2 t t t y y y y y y y y p p p a a a a h h g v h a p 8 4 8 p p p y 4 y y y y y p p p p p p p p a p a a p p p p a a a f f h h g h h h h h h f f h h f f f f f f f f a f f f f a f a a a a a a a p p p u u y y y y y y y y y y y y y t t t y y y t t y y y u u u f a f u u u p p p p s s a h g v g g g v v v v v G G P P P P P P P P P P P P P P P P P P P P v v v v v h h g v P h h g v d a s p f f u u u u u u u a a u u u y y y y y u u u u u u u u a a f f h x x x x x x c v v v v v m v v v v v v v v v v v v v v v m m m m m m I I m m I Q Q Q I Q Q Q Q m m v h a y y y y y y t t t t t t t t t t t t t t t t t t t t t t t t t t t t t t t t t t t 3 t t t t t 4 t t t t t t t y 4 y y y y y 4 4 4 4 y y y y y y 4 4 y 4 4 4 4 4 4 4 4 4 4 4 3 3 3 3 3 3 3 3 3 3 3 3 3 3 3 3 3 3 3 3 2 2 2 2 3 3 2 2 2 2 < < 2 < < : : : : : < < : : : $ : ; : $ $ $ $ $ $ $ * $ $ $ * $ * * $ $ * * * $ : $ $ + @ @ @ @ @ @ @ @ ",
"* # # # # * % & & & & & & & B & 2 & & & & & & & 2 r r r r r r r 2 5 5 2 r r r r 2 2 2 2 r r r 2 2 2 5 5 t t t t 2 2 t t t y y y y y y t y y p a a a a h h h h p p p y 4 4 4 y p y y y y y y y u p p f f f f f f p p p p p a a a f a a p a a h h h f f f h f f f f f f f f f f f g f f g g f f a f f f a a a a a p p p p u y y y y y y y y y y y y t t t t t y y y y y y y u u u a a a u u u p p p p s a d h h g d g g g g v v v v v v v v v P P P P v v P P P P P P G P v v v h h g g h a d g v h a p a p d d a u u u u u u u u a a f f f a a u u u u u u u u u u u u f f f f x c c x x h x c v v v m m m m m m v v v v v v v v v v v v m m m m m I I I m m I Q Q Q I Q Q Q Q m m c f a y y y y y t t t y y t t t t t t t t t t t t t t t t t t t t t t t t t t t t t t t t t t t t t t t t t t t t t y 4 4 y y y 4 4 4 y y y y y y y 4 4 4 4 4 4 4 4 4 4 4 4 4 4 3 3 3 3 3 3 3 3 3 3 3 3 3 3 3 3 3 3 3 3 3 2 2 2 2 2 2 2 2 2 2 2 2 2 < < < : : < < : : : : : : : ; $ $ : $ $ $ $ $ $ $ $ $ $ $ $ $ $ $ $ $ $ $ $ $ + + * @ @ @ O O O O ",
"% % % % & & & & & & & & & & & & & & & & & & & & B r r r 2 r 2 2 2 5 2 2 2 r r 2 : : : : 2 2 2 2 2 2 2 5 t t t t t t t t y y y u u u y y y p p f h h h h f f a y y y 4 4 4 4 y y y u u u y u u u u f f f f f f f a p p p p a f f f a p p p a a f f f f f h a a a f f f f f f f f g f f f g g f f f f a a a a a a p p p p u y y y y y y y y y y y t t t t r t t y y y y y y y u u u u u u u u p p p p d h h d d d g d d g v v v v G G G G G G G G G G G G G G G G G G G v v v g h h h h f a f h h h f f a p a a a u u u u u u u u a a f f f f f f u u u u u a a a u f f f f f h x c v c x x x c v v m m m m m m m v v v v v v v v v v v v m m m m m m I I m m I Q Q I I I m m m m v c f a y y y y y t t t t t t t t t t t t t t t t t t t t t t t t t t t t t t 3 t t t t t t t t t t t t t t t t 4 t t t 3 4 4 y y 4 4 4 y y y y y y y 4 4 4 4 4 4 4 4 4 4 4 4 y 4 3 3 3 3 3 3 3 3 3 3 3 3 3 3 3 3 3 3 3 3 3 2 2 2 2 2 2 2 2 2 < 2 2 2 < < < : : < : : : : : : : ; ; $ $ : $ $ $ $ $ $ $ $ $ $ $ $ $ $ $ $ $ $ $ $ * + + + * @ @ X O O O ",
"& & & & & & & & & & & & & & & & & & & & & & & & 2 2 r r 2 2 2 2 2 2 2 2 2 2 2 : & & & : 2 2 : & : : 2 2 5 5 t t t t y u u u u u u p p p p p p f h h h h f p a y u y y y t 4 4 4 t y y u y y u u a f f f f f f f f f f a a f f h f f a a a a a a f f f f a a a a f f f f f f f f f f a a f f f f f a a a p p p p p p u u y y y y y y y y y y y y t t t t t t t t t r t t t y y u u u u u u a p p p a a h d G G P G J g g g g g G G G G G G G G G G G G G G G G G G G G G v v h h f f f f a a a a p p p p y p p p u u u u u u u u u a f f f f f f u u u u u u a a f f f f f h x x c c c c c c v v v v v v m m m m v v v v v v v v v v v v v v v m m m m m m m m m I m m m m m m m v c f u y y y y t t t t t t t t t t t t t t t t t t t t t t t t t t t t t t t 3 t 3 3 t 3 3 t t t t t t t t 3 t 3 t t t 4 4 4 4 4 4 4 4 4 4 4 4 4 4 4 4 y y 4 4 4 4 y y 4 4 4 4 t 3 3 3 3 3 3 3 3 3 3 3 3 3 3 3 3 3 3 3 3 5 2 2 2 2 2 2 2 2 < < 2 2 < < < : : : : : : : ; ; ; ; ; : ; ; : : : : $ $ $ $ + $ $ ; : : : $ $ * * * + + @ @ * @ @ O X O O O ",
"& & & & & & & & & & & & & & & & & & & & & & & & & 2 r B 2 2 2 & 2 : : & & & & & & & & & & & & & : : : 2 2 2 2 2 2 t y a a a y y y u p p p a f f f f f h f p a y a u u y t t t t t t y u y u u u a f f u a a f f f f f f f f f h h h f f f a a a f f a a a a a a f f f f f f f f f f a a a a a f f a a p p p p p p p u u u y y y y y y y y y y y t t t t t t t t r r r r r t y y u y u u u u p p p s s d d G ^ ( / W G G d d G G G G G G G G G G G G G G W W W W G G G G v v h h f f f a a p p p p p u p p a f p u u u u u p u a u u u u u u u u u u u u u u f f f f f f h h x c c c v v v v v v v v v v v v v v v v v v v v v v v v v v v v v v m m m m m m m I I I m m m m m m c h a y y y t y t t t t t t t t t t t t t t t t t t t t t t t t t t t t t t t 3 t t 4 4 t 3 3 t t t t t t t 3 3 3 3 t t 4 y 4 4 4 4 4 4 4 4 4 4 4 4 4 4 y y 4 4 4 4 4 4 4 4 4 4 4 3 3 3 3 3 3 3 3 3 3 3 3 3 3 3 3 3 3 3 3 2 2 2 2 2 2 2 2 2 2 2 < < < < : : ; ; ; ; ; ; ; ; ; ; : : < < < : : : $ $ ; $ $ $ $ ; 2 2 2 : * + + + @ @ @ @ @ @ O O O O O O ",
"& & & & & & & & & & & & & & & & & & & & & & & & & 2 B & : 2 : & : : & & & & $ $ & & & & & & & & : : : : 2 2 2 2 2 t y y y y t t t y u u u u f f f f f f f f a u u u u y y y y y t t t t u u u u u a a u a a f f f f f f f f h h h h h h h f f a f a a a a a a a f f f h h h g g g f f a a a f f f f f a a p p p p u u u y p y y y y y y y 4 y y t t t t t t t t r r r r r t t t t y u u a a p p p a d d d G / 4.;.( W W G G G G W W G G G G G G W G W W G G G G G G G G P v v g h f a p p f p p p p p p u p a u u u u u u p a a a u u u u a u u u u u u u f f f f f h h h x c c c c v v v v v v v v v v c c c c v v v v v v v v v v v v v v v v v m m m m m m I m m m m m m m m c f a y t t t t y t t t t t t t t t t t t t t t t t t t t t t t t t t t t t t 3 t t t t t t t t t 3 3 t t t t 3 3 t t t 3 4 4 4 4 4 4 4 4 4 4 4 4 4 y y y y 4 4 4 4 4 4 4 4 4 4 4 3 4 3 4 4 3 3 3 3 3 3 3 3 3 3 3 3 3 3 3 2 2 2 2 2 2 2 2 2 2 < > > ; ; > ; ; ; ; ; ; ; ; ; - - ; > < < < : : ; $ ; ; $ $ $ $ $ 2 2 : $ + @ @ @ @ @ @ @ @ = O O O O O O ",
"& & & & & & & & & & & & & & & & & & & & & & & & & & & & & : : & & : & & & & & & & & & : : : & & : : : 2 2 2 2 2 2 t t 3 5 2 5 t t t u u u u f f f f f f f f f a p u u y y y y y y y y y p p a u p p a a a a f f f f f f f h h h f f h h f f f f f f a a a a a a h h h h g g v v v g g f a f f g f f f f a f p f p p p u p p y p y y y y 4 4 4 4 t t t t t t r r r r r r r t t t y y y u a a p p p a d d J H ) ;.;.( ) ) W G J J W W G G G G G G W W W G G G G G G G G G P v v v g h f a p p p p u u f f u y u u u u u u u u a a a u u u f f f a f u u a a f f f f f h h x x c c c c c c c v v v v v v v v v v v v v v v v v v v v m m v v v v v v m m m m m m I I m m m m m m v c f a y t t t t y t t t t t t t t t t t t t t t t t t t t t t t t t t t t t t 3 t t t t t t t t t t 3 4 t t t t 3 t t t 3 4 4 y y y y y y 4 4 4 4 y y y y y 4 4 4 4 4 4 4 4 4 4 t t 4 4 4 y 4 3 3 3 3 3 3 3 3 3 3 3 3 3 3 2 2 2 < < 2 2 < < < < > ; ; ; ; ; ; ; ; ; ; ; ; ; - - ; > > < : ; ; $ $ $ $ $ $ $ $ $ $ $ $ $ + @ @ @ * * @ @ @ = = = O O O O ",
"& & & & & & & & & & & & & & & & & & & & & & & & & & : & & $ $ $ & & & & & & & & & & & : & & & & 2 2 2 2 2 2 2 5 t t t t t t t t y y y p p p p p f f p p p p p p p u u u y y y y y y y p u u u u a a a a a a f f f f f f f f f f f h h h h h f f a a a a f a a a f f f f h h h h g g h f f f h g h f f f f p p p f f p p p p u p p y y 4 4 4 4 4 r t t t t r r r 5 5 5 5 r r r t y t y u p p p p a a d g G J W ( ' ( ) W W W W H W W G W W G W W W W G J G G G G W W G G P v v g h f f p p p u u u u u y y y u u y y y u u u u u u u u f f f f f f f f f f f f f f f x x x x c c v v v v v v v v v v v v v v v v v v v v v v v v m m v v m m v v v v v v v m m m m m m m m m v v c f u y t t t t t t t t t t t t t t t t t t t t t t t t t t t t t t t t t t t t t t t t t t t t t t 3 3 t t t t t t t t t 4 y y 4 4 4 4 3 3 4 y 4 4 4 4 4 4 y 4 4 4 4 4 4 4 4 4 y y 3 3 3 3 3 3 y y 3 3 3 3 3 3 3 3 3 3 3 3 2 < < < 2 2 2 2 2 < ; ; ; ; ; ; ; ; - - ; ; ; ; > < < > ; ; ; ; ; $ $ $ ; $ $ $ $ $ : : ; $ + @ @ @ * * @ @ @ @ O O O O O O ",
"& % % % & & & & * & & & & & & & & & & & & & & & & & & & & $ $ $ & & & & & & & & & : : : & 2 2 2 2 2 2 2 2 2 r t t t t t t t y y u p p a p p p p p p p p p p y y p u u u y y y y y y y p u u u u a p p u p p a f f f f f f f f f f f h h h h f f a a a a a f f f f f f f f f f f f f f f f h h h h h h f f f a a f f p p p p p p p y y y 4 3 3 3 t t t t t r r t 5 5 5 r r r r t t t t u p p p p a d d g G H W ( ( ( ) ) ) ) ) W W W W W W W W W W W G G W W W W W G G G G v g g h f a p p u u u u u u y y y y y y y y y y u u u u u u f f f f f f f f f f f f f f h x x x x c c c c v v v v v v v v v v v v v v v v v v v v v v m v v v v v v v v v v v v m m m m m m v v v v c h a y t t t t t t t t t t t t t t t t t t t t t t t t t t t t t t t t t t t t t t t t t 3 t t t t t t 3 t t t t t t t t 3 4 4 y 4 4 4 4 3 3 4 y 4 4 4 4 y 4 y 4 4 4 4 4 4 4 4 4 3 3 3 3 3 3 3 3 3 3 4 3 3 3 3 2 3 3 3 3 3 3 2 < < < < < < < < < ; ; ; ; ; ; - - - - ; ; ; ; 1 3 3 1 ; ; - $ $ $ $ ; ; ; $ $ ; ; : : ; $ + + @ @ + * @ @ @ @ @ O O O O O ",
"% % % % % % % % * * * * * * * * * * & & & & & & & & & & $ $ $ $ $ $ & & & & & & : : 2 2 2 2 2 2 2 2 2 2 2 5 t t t t t t t y y u a p f f p p p p p p p p p p y y u u u u y y y y y y y p u p p p p p p p p p p a f f f f f f f f f f f f h f f f f f f f f f f f h f h f a a p p p p f f h h h h h h h h f f f a f p p p p p p p y y y y 4 4 3 3 t y t t t r r r 5 5 r r r r r t t t t u p p p p a h g G G H ) ( ( ( ( ) ) ) ) ) W W W W W W W W W W W W ) ) W W W G J d g h h h f a p y y y y u u u u y y y t y y y y y y u u u u a u u a u f f f a a f f f f f f h x x x x c v c c c v v v v v v v v v v v v v v v v v v v m m v v v v v v m v c c c c v v v v m m v v c c c x f a y t t t t t t t t t t t t t t t t t t t t t t t t t t t t t t t t t t t t t t t t t 3 t t t t t 3 3 t t t t t t t t 3 4 4 y 4 4 y 4 4 4 4 y 4 4 y y y y y 4 4 4 4 4 4 4 4 4 4 4 3 3 4 3 3 4 3 3 4 3 3 3 3 3 3 3 3 3 3 2 < < > : < < < < < < ; ; ; ; ; - - - - ; ; ; $ ; 1 3 p 4 3 < > : : ; ; ; ; ; $ $ $ $ $ $ $ $ + + + + + + * @ @ @ @ @ O O O O ",
"% % * * % % % & * * * * * * * * * * * * * & * * & & $ & & $ & & $ $ $ & & & & & & : 2 2 2 2 2 2 2 2 2 2 5 t t t t t t t t y u a a a f p p p p p p p p p p p u u u u u u u y y y y y u u p p p p p p p p p p p p f f f f f f f f f f f f h f f f f f f h f h h h h h h h f f p p p p f f h h h h h h h f f f a p f f p p p p p y y y y y y 4 4 3 t y t t t r r r r r r r r r t t t t t u u p p a h h g G J H ) ( ( ( ) ) ) ) ) ) W W W W W W W W W ) / / / / ) W G g d d d d f a a p p y y y y y u u y y t t t t y y y y y u u u u u u u u u f u a u u a u f f f f f h x x x c c c c c v v v v v v v v v v v v v v v v v m m m m v v v v v v m m c c c c c c v v v c c c c c x h a u t t t t t t 5 t t t y t t t t t t t t t t t t t t t t t t t t t t t t t t t t t t t 3 3 t t t t t t t t t t t t t 3 3 4 4 y 4 4 y 4 4 4 y y y y y y y y y 4 y 4 y y y y y y 4 4 3 3 4 4 3 4 3 4 4 3 3 3 3 3 3 3 3 3 3 3 2 < < < < < < < < < ; ; ; ; ; - - - ; ; ; - + - ; 3 a p p 4 3 2 < : : : : ; ; $ $ $ + + + + + + + + + + + @ @ @ @ @ @ @ O O ",
"* * * * * * * * * * * * * * * * * * * * * * $ $ * * $ & & & & & $ $ & & & : & & & & : : 2 2 2 2 2 2 2 2 5 3 t t t t t y y y a a a a a p p p p a p p p y y y y y y y u u u u u u p y y y p p p p p p p p p p p p a a p f f h h f h h h f f f f f h h h h h h h h f h h h f a a p a a a f f h h h h h a a a p p p f p p p p p y y y y y y y y y 4 t t t t r r r r r r r r r t t t y y y u u p p a h g g G J H W ) ( ( ( ) ) ) ) W W W W W W W W W W ) / ;./ ) W G g d d s s a p p a p p y y y y y y y y y t t t r y y y y y u u u u u u u u u u u u u u u u u f f f f f x h x M c c c c c v v v v v v v v v v v v v v v v v m v v v v v v m v m m c c c c c c c c c c x c c x x f a y t t t t t t t t t t t t t t t t t t t t t t t t t t t t t t t t t t t t t t 3 3 3 3 4 4 3 3 t t t t t t t t t 3 4 4 3 4 4 4 4 4 4 4 4 4 y 4 y y y y y y y 4 4 4 4 4 4 4 4 4 4 4 3 3 3 3 4 4 3 3 3 3 3 3 3 3 3 3 3 3 3 2 < < < < < < < < < < ; ; ; ; ; ; - - - - $ $ $ - ; ; 3 3 8 8 8 3 5 2 2 2 < : : $ $ $ + + + + + + @ @ + + + + * @ @ @ @ @ O O ",
"# * # # # # # # * * * * * * * * * * * * * * * $ & * $ $ & & & & & & & : : : : : : : : 2 2 2 2 2 5 5 5 3 3 3 3 3 t t y y u p a f f f f f p p p p p p p p p p y y p p y p p p a a p p p p p p p p y y y p p p p p p p a a f h f f h h f f f f f h h h h h a a a a a a a a a a a a a a a a a a f f h h a a a p p p p p p p p p p y 4 4 y y y y y y t t t r t t r r r r r r t t t y y u u p p p p a h g G G J H H H ) ) ( ( ( ( ) ) W W W W W W W W ) / / / ) W G h d d s s a p p p p p p y y y y y y y t t t t t t y y y y y y u u u u u p a p a a u u u u u u u f f f f f f x x c c c c c v v v v v v v v v v v v v c c c v m m m v v m v v v v v v v v v c c x x x x x x x x f f p y t 3 t 3 3 3 3 3 t t t 3 3 3 t t t t 3 3 3 3 3 3 3 3 t t t t 3 t t t 3 3 3 3 3 3 3 3 4 4 4 3 t t 3 t t t t t 3 3 3 3 3 3 4 4 3 4 4 4 3 4 4 4 4 4 4 4 4 4 4 4 3 3 3 3 3 3 3 3 3 3 3 3 3 3 3 3 3 3 3 3 3 3 2 2 3 2 2 2 2 < < : < < ; ; : : : : ; ; ; ; ; ; ; - - + + $ - ; ; ; ; > 3 3 8 y 3 3 3 3 2 < : : $ $ + + + + + @ + @ + + + + @ @ @ @ @ @ @ O ",
"# # # # # # # # * * * * * * * * * * * * * * $ $ & & $ & & & $ $ & & : : : : 2 2 2 2 2 2 2 2 r 2 t t t t t t t y y y y p p a f f f f f f f f p y y y y y p p p y p p p p p p p p a a p a p p p p y p y p p p p a a a a f f h h h h h f f f f f h a a h a a a a a p a p p p p a a p a a a a a a a d a a p p p p p p p p p p p y y 4 4 4 4 y y y y i t t r r r r 5 t t t t t t t y y y u p p p a d g G G G J G H H E ) ) ) ) ) ) ) W W W W ) ) ) ) W W W W W G h s s s s p p p p p p p y y y y y y t t t t t t t t y y y y u u a p u u u u p p u u a a a a a a a a f f f h f x c c v v c c c v v v x x x c v c v v c c c c c v v m m m m m c c c c v v v v c c g g g g g g h f f a y t 3 3 t t t t t t t 3 3 3 3 3 3 t t t 3 3 3 3 5 5 3 3 5 5 3 3 3 3 5 5 5 5 3 3 3 3 3 4 4 4 3 3 3 3 3 3 3 3 3 3 3 3 3 3 3 3 3 3 4 4 3 3 3 3 4 4 4 4 4 4 4 4 4 4 3 3 3 3 3 3 3 3 4 3 3 3 3 3 3 3 3 3 3 3 3 3 3 3 3 3 2 2 3 2 < < < < < ; ; ; : : ; ; ; ; ; ; ; ; ; - $ $ - ; ; ; - ; > 1 3 3 3 3 2 2 < < : : $ $ + + + + + + @ @ @ @ + + @ @ @ @ @ @ @ @ ",
"# # # # # # # # * * * * * * * * * * * * * * $ $ & & $ & & & $ $ & & : : : 2 2 2 2 2 2 2 r r r r t t t t y y y y y u p a f f a a f f h h h f y t : 2 2 3 p p p y p p p p p p p p a a a p p p p p y y p p p p a a f f f g h g g g h h f f f f f h d d d d d d a a a p p p p p a a p p p s a a a p a a p p p p p p y y y 4 y y y y 4 4 4 4 4 4 y y t t r r r r 5 5 t t t t t t y y y y u p p p a h G G P U H G H H H H H H H H H H H W W ) ) ) ) ) W G g d h h a s p p p p y y y y y y y y t t t r t t t t t t t t y y u u a a a a u u u u u p p u p p a a a a a a f f f f h c c v c c c c c c c c h h h M c c c c c c c c c c v v c v v c c g g g v v v v v g g g g g g h f f p y y t 3 3 t t t t t t t 3 3 3 3 5 3 3 t t 3 3 3 3 5 5 3 3 5 5 5 3 3 3 5 5 5 5 3 3 3 3 3 4 4 4 3 3 3 3 3 3 3 3 3 3 3 3 3 3 3 3 3 3 3 4 3 3 3 3 4 4 4 4 4 4 4 4 4 4 4 4 4 4 4 4 4 4 4 4 3 3 3 3 3 3 4 3 3 3 3 3 3 3 3 3 3 3 3 3 < < 1 1 < < < ; ; ; : : : ; ; ; ; : ; ; ; $ - ; ; ; ; ; ; ; > < : : > : > > : ; ; ; $ + + + + + @ @ @ @ + + @ @ @ @ @ @ @ @ ",
"* # * * # # # # * * * * * * * * * * * * * * $ $ $ $ $ $ & & $ & & & & & & : 2 2 2 2 2 2 2 2 r r y y y y y y u u y p a f f f f h h g f p y 5 : $ * + $ : 2 t y y p p p p p a a a a a a p p p p p p p p p p a a a a a f f g g g g h f f f f f h h h d d d d a p p a a p p p p f f f p a p p p p p s s s s p p p y p p y y y y y y y y y y t t y y t t t t t r r r r t t y y y 4 4 4 y p p p p s d G G G U W ) / / ) ) ) W U H H H H F F F W W W W G G d d d a p p p y p y y y y t t t t t t t t t t t t t t t t t y y y y y u p p p p u u p p p p a a a a a a p p f f h h h g c v v v v v c c c v c c c c c c c v v c M c c c c c c c c c g g g v v v v g g g g h g g h h f p y y t 3 3 t t t t t t t t 3 3 3 5 2 2 3 t t t 5 3 3 5 5 3 3 3 3 3 5 5 5 5 5 5 5 3 5 3 3 3 3 3 3 3 3 3 3 3 3 3 3 3 3 3 3 3 3 3 3 3 3 3 3 3 3 3 3 4 4 4 4 4 4 4 4 4 4 4 4 4 4 4 4 4 4 4 4 4 4 3 3 3 3 3 3 3 3 3 3 3 3 3 3 3 3 3 3 < < < < < < < < ; ; ; ; : : : : : : : ; ; $ $ $ $ $ ; ; : : : : > > > > ; ; ; ; ; $ $ $ + + + + + + + + @ @ @ @ @ @ @ @ @ @ ",
"* # * * * # # # * + * * + * * * * * * * * $ $ $ $ $ $ & & & & & & & & & : 2 2 2 2 2 2 2 2 r r r y y y y u u p p p p f f a a f f f p y 3 2 $ + @ @ @ @ + : 3 y p p p p p a a a a a a a a p p p p p p p a a a a a h f f g g g g g h h f f a f h h h h a a a a a p a p p p p p a a p p p p a p p p s s a s p p y p p p y y y y y y y y y y y 4 4 4 t t t t t t t t t t y y y y y y 3 p p p p p d G G G J U W / ;.4.4.4.( ( ) ) U H H F F J H H W H G G d d a p p p y y y y y y t t t t t t t t t t t t t t t t t t y y y y y y y y y p u u p p p p a a f f f f f f f f h h g g c c c c c c c c c c c c c c c c c c v c c h c c c g h c c g g g c v c c g g g g h h g f f p p y y 4 3 3 3 3 t t t t t t 3 3 3 5 2 2 2 2 5 t 5 3 3 3 5 5 3 3 3 3 5 5 5 5 5 5 3 3 3 3 3 3 3 3 3 3 3 3 3 3 3 3 3 3 3 3 3 3 3 3 3 4 3 3 4 4 4 4 4 4 4 4 4 4 4 4 4 4 4 4 4 4 4 4 4 4 4 4 4 4 4 4 3 3 3 3 3 3 3 3 3 3 3 3 3 3 3 3 3 3 1 < 1 < < < < < ; ; ; ; : : < < : : : ; ; $ $ $ ; ; ; ; : : : > > > ; ; ; ; ; ; ; ; $ $ + + + + + + + + @ @ @ @ @ @ @ @ @ @ ",
"* * * * * * # # + * * * * * * * * * * * $ $ $ $ $ $ $ & & & & : & & & & 2 2 2 r 2 r r r r r t y y y u u p p p p f f p p p p f f p y 2 $ * @ @ O O O O @ + 2 y a a p p p p a a d a a a a a a a a a a a a a a d h g f f g g v g g h g h f d h h h h h a a a a a p p p p p p a f f p a p p p p a a s s s s s p p p p p p 8 8 8 8 8 p 8 p p 8 8 3 3 4 t y y y y y y 3 4 y y 4 8 8 p p a a p p s d G G G G J W / ' 4.4.4.4.( ( ) W W H H F J H W W W G g d p p p 4 y 4 4 t t t t t t t t 3 3 3 t t t t 3 3 t t t t t t t t t t t t t y y y y u p p p a a f f f f f f f f f h h g g c g c g g g h g g c c c c c c c c c c M h h c h h c c c c g g g g g g g h h h f f f f p p y y 4 3 3 3 3 3 3 3 t t t 3 3 3 5 2 2 2 2 2 5 5 5 5 3 3 5 5 5 3 5 5 5 5 5 5 3 3 3 3 3 3 3 3 3 3 3 3 3 3 3 3 3 3 2 2 3 3 3 3 3 3 3 4 4 3 4 4 4 4 4 4 4 4 4 4 4 4 4 4 4 4 4 4 4 4 4 4 4 4 4 4 4 4 3 3 3 3 3 3 3 3 4 4 3 3 3 3 3 3 3 3 1 1 1 1 < < < < < ; < : : : < < < : : : ; ; ; ; ; ; : : : : : : : : ; ; ; ; ; ; $ ; $ $ $ + + + + + + + + @ @ @ @ @ @ @ @ @ ",
"* * * * * * # # * * * * * * * * * * $ $ $ $ $ $ $ $ $ & & & : : : : 2 2 2 2 2 r r r r t t y y y u u p p p p f f f f f p u p p p y 2 $ @ @ @ O O = O O @ + : y a a a p p a a d d d a a a a a a a f a a a a h h h h h g g v v v g h h h h h h h h h h a a a a a p p p p p a a h h a a a p p p a a a a s s s p p p p p p p p 8 8 8 8 p p p p p 3 3 4 3 4 y p y y y 4 p a p 8 8 p p v g p 8 p d d G J J J H H H W ) ( ) ) ) ) W H H H E H W W W W W G g p p 8 4 4 4 3 3 3 4 t 3 3 3 t 3 3 3 t t t t 3 3 3 t t 4 3 3 t t t t t t 3 3 4 4 y y y u u u p p p p a f f f f f f f f f f h h h h f f f f f c c c M M c g g M M h h h h h h c h h h h h h h h h h f f f p p p p y y y 3 3 2 5 5 5 5 3 3 3 3 t 3 3 5 2 2 2 2 2 2 2 5 5 5 3 3 t t t t t t t t t t 3 3 3 t t t 5 5 5 5 3 3 5 3 3 3 3 3 2 2 3 3 3 5 5 3 3 3 3 3 3 3 3 3 3 3 3 4 3 3 3 3 3 3 3 3 4 4 4 4 4 4 4 4 4 4 4 4 3 3 3 4 4 3 4 3 4 4 3 3 3 3 3 3 3 3 1 1 1 1 < < < < < ; ; ; : : : : < : : : ; ; ; ; ; ; ; : : : : ; > > ; ; ; ; ; ; $ $ $ $ $ $ $ $ $ $ + + + + @ @ @ @ @ @ @ @ ",
"* * * * * * * * * * * * * * * * $ $ $ $ $ $ $ $ & & & & & : : : 2 2 2 2 2 2 2 r r r t y y y y y p p p a a f f f f f f p p p u y 2 * = O O O O O = O O @ $ 2 y a a a p p a a h d d d d d f f f h d d a s d h d d g g g g v v v g g g h h h h h h h h a a a a a p p p p p a a d d d d s p p p s a s s s s s s p p p p p p 8 p 8 8 8 p p p p p 8 8 4 4 4 4 8 p p a s h g a 8 p d J W U G s s d d d J H H H H H J J H H H H H H H H H H H W W W W W G d p 8 4 3 3 3 3 3 3 3 3 3 3 3 3 3 3 3 t t t t t t t t t t t t t t t 3 3 3 3 3 3 t t t t y y y u p p p a a a a f f f f f f f f f f f f a p a a h h h h h h h f f f f f f f f f f f f N p p p p f f f f p p p p p y 4 4 3 3 2 2 5 2 2 5 5 3 3 3 5 5 3 5 2 2 2 2 : 2 2 2 5 3 3 3 3 3 3 t t t 3 3 3 3 3 3 3 3 3 3 2 2 2 2 2 2 2 2 2 2 3 3 3 3 3 3 3 3 3 3 3 4 4 3 3 3 3 3 3 3 3 3 3 3 3 3 3 3 3 3 4 4 4 4 4 4 4 4 4 4 3 3 4 4 4 4 4 4 4 4 4 4 3 3 3 3 3 3 3 1 1 1 1 1 < < < 1 < < ; ; ; ; ; : : : : ; ; ; ; ; : ; : : > > > > ; > ; ; ; ; ; - $ $ $ $ $ $ + + + + + + + + + @ @ @ * * @ @ ",
"* * * # * * * * * * * * * * * * $ $ $ $ $ & & & & & & : : : 2 : 2 2 2 2 2 2 5 r r r y y y y u u p p p a f f f f f f f f f f u t $ @ O X O O O O O O O + ; 3 p a p p p p p a h h d d d d d d h h h h h h d d d G g g G v G v g g v g g h h h h h h h h a a a s p a p p p a s d d d d p p p p a a s s s s s s s s p p p p p 8 8 8 p p p p d d a p 8 4 4 8 p p d g G G G s 8 s J H / ( ^ J d 9 d D D H W W W W H H L L H H H H H H J G H W W W W W g d p 4 3 3 3 3 3 3 3 t 3 3 3 5 3 3 3 t t t t t t t t t t t t t t t t 3 3 3 3 3 5 5 3 3 3 t t t y y u p p a a a a a a a f f a a p p p y y y y y N f f f f f u u a u u u u u y y y y t y y y y p p p p p p p y y y 3 3 2 2 2 2 2 2 2 2 2 2 5 2 3 5 5 3 5 2 2 2 2 : : 2 2 2 5 5 5 3 3 3 5 5 5 3 3 3 3 3 3 3 3 3 3 2 2 2 2 2 2 2 2 2 2 2 3 3 3 3 3 3 3 3 2 3 3 3 3 3 3 3 3 3 3 3 3 3 3 3 4 3 3 3 3 4 4 4 4 4 4 4 4 4 4 3 3 4 4 4 4 4 4 4 4 3 3 3 3 3 3 3 3 3 3 1 1 3 1 < < < < 1 < ; ; ; ; ; ; : : ; ; ; ; ; ; ; ; ; ; ; ; ; ; ; ; ; ; ; ; - - + + $ $ $ $ + + + + + + + + + + + + + + # # ",
"* * # # # # * * * * * * * $ * * $ $ $ $ & & & & & & & & : 2 : 2 2 2 2 2 2 5 t t t t y y y u u a p p p a f a f f f f f f f f u t $ @ O O = O O = O O O + : t p a p p p p p a f h h d d d h h h h h h g g G G G G G G G G G G G g g g g h h h h h h h h a a a s p d a a a p d s s d d d d p p p p s s s s a a s a a a a p p p 8 8 p p p p d h g g p 8 8 8 s d G U W W J d 9 d J H / ;.( H D d D J J H H W ) ) ) ) ) ) ) ) W U H H J G G G G H G G g p 8 4 3 3 3 3 3 5 t t t 3 5 r 3 t t t t t t t t t 3 3 3 3 3 3 t t t t t 3 3 3 5 5 2 2 5 3 3 3 y y y u p p p p p p p p p p u y y y y t 3 3 t t y y y y y y y y y 4 t t t y 4 4 5 5 t 5 3 3 t y y y y p p y y 4 3 2 2 2 2 2 2 2 2 2 2 2 2 2 5 5 2 2 3 5 2 2 2 2 : : : 2 2 2 2 2 2 2 2 2 2 2 2 2 2 2 2 2 2 2 2 2 2 2 2 2 2 2 2 2 2 2 2 2 3 3 3 3 3 2 2 2 2 3 3 3 3 3 3 3 3 3 3 3 3 3 4 4 4 3 3 3 4 4 4 4 4 4 4 4 4 4 3 3 3 3 3 3 3 3 4 3 3 3 3 3 3 3 3 3 3 3 1 1 3 1 1 1 1 1 1 < ; ; ; > ; ; > > ; ; ; ; ; ; ; ; ; ; ; ; ; ; ; ; ; ; ; ; ; - - - + + - - - - - - $ $ $ $ $ + + + + + + + ",
"* * # # # # # * * * * * * $ $ $ $ $ $ & & & & & & & & & & 2 2 2 2 2 2 2 2 5 t t t t y y u u a a p p p a f a a a a f f p p f u t * @ = @ @ O O = @ = @ + 2 y p f d a a p a a h h h h h h h h d d g g g g G G G G G G G G G G G G g g g g h h h h h h h h a a s p d s a p p s s s p p p d p p p p s s a a a a a a d d d a p p p p p p p a h g g g d p 8 p d g P ! / / W J D J J J W ( ( U H H H H W H H L ) ( ( ) ) ) ) W W U H H J J J J G G G G d s 8 4 4 3 3 3 3 3 t t t r r r t t t t t t t t t t 3 3 3 3 3 3 t t t t 5 5 3 5 5 2 2 2 2 2 3 3 t t y y y u u u y y y y y y y t t t 3 3 2 2 2 5 t 4 t t 4 4 4 4 4 4 4 4 4 4 4 3 5 5 t 5 2 2 3 4 4 y y u y y 4 3 3 2 2 < 2 2 2 2 2 2 2 2 2 2 2 2 2 2 5 5 2 2 2 : : : : : 2 2 2 2 2 2 2 2 2 2 2 2 2 2 2 2 2 2 2 2 < < 2 2 2 2 2 2 2 2 2 2 2 2 2 2 3 2 2 2 2 3 3 2 2 2 2 2 2 3 3 3 3 3 4 4 4 4 4 4 3 3 3 3 3 3 3 3 4 4 3 3 3 3 3 3 3 3 3 3 3 3 3 3 3 3 3 3 3 3 1 1 3 1 1 1 1 1 < < < < > > > > > > ; ; ; ; ; ; ; ; > ; > > ; ; ; ; ; ; ; ; ; - - - - - ; ; - - - - - ; $ $ $ $ + $ $ + + + ",
"# # # # * * * * * * * * * $ $ $ $ & & & & & & & & : 2 2 : 2 2 2 2 2 5 r t t t y y y y u a a a a a a a a p p p p a f a p p a t 2 * @ = @ @ = @ @ @ @ + : 3 p p p d P P v h h h h h h g g g g g g g G G G J G G G H H H H G G G G G g g g g g d d h h h a a h a a d p p d d d s s 8 9 9 9 s s s s p a a a s s d d h h d a p p a a p 8 p p d g G G g d s s d J W ^ ( ( / W H H H J W W L H W ) ^ ^ ) W W W W H W W W W H H H H H H J J G G g g g g h s 8 4 4 4 t 3 5 5 5 3 t t t t t t t 3 3 3 3 t t 3 3 3 2 2 3 3 t t t t t t 3 3 3 3 5 5 5 5 5 2 3 3 t t t t t y t t t t 3 3 3 3 3 5 5 5 5 2 2 2 3 3 4 4 4 4 3 3 4 3 2 2 3 3 3 3 2 2 2 2 3 3 5 5 4 4 4 4 4 4 3 3 2 2 2 2 2 2 2 2 2 2 2 2 2 2 2 2 2 2 2 2 2 2 2 : : : 2 2 2 2 : : 2 2 2 2 2 2 : : : : : : : : : : > < < < < < < < : < 2 2 2 2 2 2 2 2 2 2 2 3 3 3 2 3 3 3 2 2 3 3 3 3 3 3 3 3 3 3 3 3 4 3 3 3 3 3 3 3 3 3 4 3 3 3 3 3 3 3 3 3 3 3 3 3 3 3 3 3 1 1 1 1 < < < < < < < < < < < < < < > > > ; ; ; ; > ; > > > > > ; ; ; ; > ; ; ; - - - - - - - - - $ $ $ $ $ $ + $ $ $ $ + + ",
"* * # * * * * * * * * * * $ $ $ & & & & & & : 2 2 2 2 2 2 2 2 r 5 r t t t t y y u a a a a a a a p a a a p p p p p p f a a f u 3 : + @ = O O O = @ + : 4 p f p p G *.:.^ g d g G v v G G G G G G G P P G H U H H H H H G G G G G G g g g g g g d h h h a a a h h d d d g G d d d s d d d d d s s p a a a s d d d g g g d d d d d p 8 8 p d g P P G g s s d J W / ( ( / W H H H H H H H W ) ( ;.=.( / ) ) H J D D D D J J H G J J G D d d h d d h s p 8 4 4 y 4 t 5 5 5 5 t t t t t t t 3 3 3 3 t 3 3 3 3 2 5 2 3 t t t t t t t t t 3 5 2 2 2 2 2 2 2 2 5 5 3 3 3 2 2 2 2 2 2 2 2 2 5 5 5 5 5 2 2 3 3 4 4 4 4 3 4 3 3 2 2 2 3 3 3 2 2 2 2 3 3 5 5 2 3 3 3 3 3 2 2 2 2 2 2 2 2 2 2 2 2 2 2 2 2 2 2 : : 2 2 2 2 : : 2 2 2 2 2 2 : : 2 2 2 2 2 2 : : : : : : : : : : > < < < < < < < : < 2 2 2 2 2 2 2 2 2 2 2 3 3 3 2 2 3 3 2 2 3 3 3 3 3 3 3 3 3 3 3 3 3 3 3 3 3 3 3 3 3 3 4 3 4 4 3 3 3 3 4 4 3 3 4 3 3 3 3 3 1 1 1 1 < < < < < < < < < < 1 1 < < < > > > ; ; > > > > > > > > ; ; ; ; > ; ; ; ; ; - - - ; ; ; - ; $ $ $ $ $ $ $ $ $ $ + + ",
"* * * * * * * * $ $ * $ $ $ $ $ & & & : : : 2 2 r r r r 2 2 5 t t t t y y y u a a a a a a a a a p p a a p p p p p p p p f f p t 5 : + @ @ @ @ + $ : 3 p f f p y 8 g P v a p d d g v G G G G G G U U W H H H W W H H H H G G J J G J J g g g g h h h d a a a a a d d g G G J D D d D J J G d d s p p p p a s d g g g g d a a p p 8 8 8 p d G P W G g s 8 d G W / ( ( / W H H H H H J J H ) ( ( ( ( / ) ) H D 9 6 q D J U U U U H G G d d d d d d s p 4 4 4 y y 4 4 4 5 5 t t 3 3 3 t t 3 3 3 3 3 3 3 3 3 5 5 5 5 t t t t t t t t y t 3 2 2 2 2 2 2 2 2 2 2 2 2 2 2 2 2 2 2 2 2 2 2 2 2 2 5 3 3 3 3 3 4 4 4 4 3 3 3 3 3 2 2 2 3 2 2 2 3 3 3 3 5 5 2 2 3 3 5 2 2 2 2 2 2 2 2 2 2 2 2 2 2 2 2 2 2 2 : : : : 2 2 2 2 : 2 2 2 2 : 2 2 : 2 2 2 2 : : : : : : : : : : : : < < < < < < < : < 2 2 2 2 2 3 2 2 2 3 2 3 3 3 3 3 3 3 3 3 3 3 3 3 3 3 3 3 3 3 3 3 4 3 3 3 4 4 4 3 3 3 3 3 4 4 3 3 4 4 4 4 4 3 4 4 3 3 3 3 3 3 1 1 < < < 1 < < < < < < 1 1 1 1 < < > > > > > > > > > > > > > ; ; > > > ; ; ; ; ; ; ; ; ; ; ; ; $ $ $ $ $ $ $ $ $ $ + + ",
"* * * * * * $ * $ $ $ $ $ & & & & & : : 2 2 2 2 r r r r 5 5 t 3 3 t t y y y p p p p p p p p p p p p a a a p p p p p p p a f p y y 3 2 : : : 2 2 3 3 y p a p p 4 p p a p s h h a g g G G G G G H U W W H H W W E H H H H H H H H G J J J G G d d h h d d d d a a d g G W W H J H H H W H H J D d d p p p p a d h g g h d p p 8 8 7 7 8 8 d g P P g d p p 9 d G W ) ) W W H H H H H H H H H U U H H H H H J d 8 8 9 d G U U U U P G G G d d s a a p 4 4 4 4 y t 4 4 5 4 5 r 3 3 3 3 t t 3 3 3 3 3 t 3 5 3 5 5 5 5 t t t t t t t t y t 3 2 2 2 2 2 2 2 2 2 2 2 2 2 2 2 2 2 2 2 2 5 2 2 2 2 2 3 3 3 3 3 4 4 3 3 3 3 4 3 3 3 3 3 3 3 3 2 3 3 3 3 5 5 3 3 3 3 3 5 5 5 2 2 2 2 2 2 2 2 2 2 2 2 2 2 2 2 : : : : 2 2 2 2 : : : 2 : : : : : : : : : : : : : : : : : : : : : < < < < < < < : < 2 2 2 2 2 3 2 2 3 3 2 3 3 3 3 3 3 3 3 3 3 3 3 3 3 3 3 3 3 3 3 3 3 3 4 4 4 4 4 4 3 3 3 4 4 4 3 3 3 4 4 4 4 4 4 4 3 3 3 3 3 3 1 1 1 < 1 1 1 1 < < < < 1 1 1 1 < < < < < ; ; ; ; ; ; > < < > > ; > > > ; ; ; ; ; ; ; ; ; - - - - - - - $ $ $ + $ + + + ",
"* * * * * & * * $ $ $ $ $ & & & & : 2 2 2 2 2 r r r r t t t 3 t t t y y y p p p p p p p p p p p p u u p p p p p p u y y p a a p p u y y y y p p p p y p y 4 4 4 4 p p p p a d d g G G G G J H W ) / ) W W ) ) ) E E E E W H H H H H J G J J G G d h d d d d a a d g P ) ) H H E ) ( ( ) W U H G d d p p p p a a d d d p p 8 8 3 3 3 3 8 p h g G G v d d d d g G D J H H U W W W H U H G J D D d D D D D d 9 8 8 s d g G G G G g G G g d p p p p y 4 4 4 4 t t 4 4 4 5 5 5 5 3 3 t t t t 3 3 t t t t 3 3 3 3 5 5 3 3 t t t t t t t t 5 2 2 2 2 : : 2 2 2 2 2 2 2 2 2 2 2 2 2 2 2 2 2 2 5 5 5 2 3 3 3 3 3 3 4 4 4 3 3 3 3 3 3 3 3 3 3 3 3 2 5 5 5 2 5 5 5 5 3 3 3 3 3 2 2 2 2 2 2 2 2 2 2 2 2 2 2 2 2 2 2 2 2 2 2 2 2 : : : : : : : : : : : : : : : : : : : : : : : < < < < < < < : < 2 2 2 2 2 3 3 3 3 3 3 3 3 3 3 3 3 3 3 3 3 3 3 3 3 3 3 3 3 3 3 3 3 3 3 3 4 4 3 3 3 4 3 3 3 3 4 4 4 4 4 4 4 4 4 3 3 3 3 3 3 3 3 3 1 < 1 1 1 1 1 1 1 1 1 1 1 1 1 1 < < > > > > > > > > 1 1 1 1 > 1 1 > > ; ; ; ; - - - - - - - - - $ $ $ $ - $ $ + + + ",
"* * * * * & $ $ & $ $ $ $ & & & 2 2 2 2 2 2 r r r r t t t t y p y y p p p p a a a a a a p p p p u u u u u u p p p y y y y p a f f f f a p p p p p u y y 4 3 3 3 4 8 p s a h g g g G G G J G H W ) / ) W W ( ( ( ) ) ) ) E E H H E H F J J J G D d d d d d d d d d d G ) ) E E ) ( ` ( ( ) W H J d d a p p p p p a a p p 4 3 3 3 3 3 3 3 4 a h g G G G v v g g g d G P P U W W W U U H G J D d d s d d D d d 9 d d d h h h h h h g g d d 8 8 8 p 4 4 4 4 4 4 4 4 5 4 5 5 5 5 3 t t t t t t t t t t t t t 3 3 5 5 3 3 t 3 t t 3 3 t 3 2 2 2 2 2 2 : 2 2 2 2 2 2 2 2 2 2 2 2 2 2 2 2 2 5 5 5 5 2 2 3 3 3 3 3 3 4 4 3 3 3 3 3 3 3 3 3 3 3 3 3 3 5 5 5 5 5 5 5 3 3 3 3 3 3 2 2 2 2 2 2 2 2 2 2 2 2 2 2 2 2 2 : : 2 2 2 2 : : : : : : : : : : : : : : : : : : : : : : : < < < < < < < : < 2 2 2 2 2 2 2 3 3 3 3 3 3 3 3 3 3 3 3 3 3 3 3 3 3 3 3 3 3 3 3 3 3 3 3 3 4 4 3 3 3 4 3 3 3 3 3 3 4 4 3 4 4 4 4 4 3 3 3 3 3 3 3 3 3 1 1 1 1 1 1 1 3 1 1 1 1 1 1 1 1 < < < < 1 > > > 1 1 1 1 1 1 1 1 1 > ; ; ; ; ; - - - - $ $ - - - - $ $ - - - $ + + ",
"& & & & * & $ $ & & & & & & : 2 2 2 2 2 r r r r t y t y y y p p p p p p a a a f a a a a p p p p u u u u u u u u u y y y y p a f f f f f p p p y y y 4 4 3 3 3 3 p p 8 8 p a d s g G G G G J H W ) ) ) E ) ( ' ' ` ( ( E ( E E E E H H J J J D D d d d d d d d d d d G W ) W ) ( ' ' ` ( W L H J d s p 8 p p y y y y 4 3 3 3 3 2 2 2 2 3 3 3 y p a f d d h h h h d g g G G G G G G G G G J G d d d d d g d d d g d a p p p p p p d d d a p 8 8 p 4 4 4 4 4 4 4 4 t 5 5 5 5 2 5 3 t t t t t t t t t t t t 3 3 3 3 3 3 3 3 t t t 3 3 3 2 2 2 2 2 2 2 2 2 2 2 2 2 2 2 2 2 2 2 2 2 2 2 2 2 5 5 5 2 3 3 3 3 3 3 3 4 4 3 3 3 3 3 3 3 3 3 3 3 3 3 3 3 3 5 3 5 3 3 3 3 3 3 3 3 3 2 2 2 2 2 2 2 2 2 2 2 2 2 2 2 : : : : : 2 2 : : : : : : : : : : : : : : : : : : : : : : : < < < < < < < : < 2 2 2 2 2 2 2 2 3 3 3 3 3 3 3 3 3 3 3 3 3 3 3 3 3 3 3 3 3 3 3 3 3 4 3 3 3 4 3 3 4 4 4 4 3 3 3 3 3 3 3 3 4 4 3 3 3 3 3 3 3 1 3 3 3 3 1 1 1 1 1 1 1 1 1 1 1 1 1 1 1 1 1 1 1 1 1 1 1 1 3 3 1 1 1 1 1 1 > ; ; ; ; - - - - - - - - - - - ; ; $ - ; ; $ + ",
"& & & & & & $ & & & & & & : 2 2 2 5 r r r r r t t t t y y y p p p p a a a a f f f f a a p p p y u u u u u u u u y y y y y p p f f f f p p y y y y y y 4 4 4 4 4 p p 8 8 8 s g G g G G G J H W W W ) ) E E ' 8.7.' ' ( ( ( ( ( ( E E H H H J J J J d d d d h h h d d G W ) E ) ( ' ' ` ( L H H D s p 8 7 3 3 3 3 4 3 3 3 2 3 2 2 < 2 2 2 2 2 2 2 2 3 3 3 3 3 3 3 3 8 p p p s d d s s d g G G D d d d d g d d d d a p p p 8 p p p p p a p 8 4 8 8 4 4 4 4 4 4 4 5 t 5 5 5 5 2 5 5 t t t t t t t t t t t t 3 3 3 3 3 3 3 3 t t t 3 3 3 5 2 2 2 2 2 2 2 2 2 2 2 2 2 2 2 2 2 2 2 2 2 2 2 2 2 5 3 3 3 3 3 3 3 3 3 3 3 3 3 3 3 3 3 3 3 3 3 3 3 3 3 3 3 3 3 5 5 5 3 3 3 3 3 3 3 2 2 2 2 5 2 2 2 2 2 2 : 2 : 2 2 2 : 2 2 2 2 2 : : : : : : : : : : : : : : : : : : : : : : < < < < < < < : < 2 2 2 2 2 2 2 2 3 3 3 3 3 3 3 3 3 3 3 3 3 3 3 3 3 3 3 3 3 3 3 3 4 4 3 3 3 3 3 3 4 4 4 4 3 3 3 3 3 3 3 3 3 3 3 3 3 3 3 3 3 1 3 3 3 3 1 1 1 1 1 1 1 1 1 1 1 1 1 1 1 3 3 3 3 3 1 1 1 3 3 3 3 1 1 1 1 1 1 > ; ; ; ; - - - - - - - - - - ; ; ; - ; ; ; $ ",
"& & & & & & & & $ $ & & : 2 2 2 2 2 r r r r r t y y y y y u p p p a a a f f f f f f a p p p p p u u u u u u u u u u u p p p f f a a a a p p p y y y y y y y y p p p s s s d g G g g G G J J H W W ) ) E E ' 8.7.' ' ` ` ' ' ' ` ( ( E E H H J J J G D d g g g g g g G W ) ) ( ( ' ` ` ( ) H J D s p 8 3 4 4 4 3 3 3 3 2 2 2 2 2 2 2 2 2 2 2 2 2 < 3 3 3 2 < < < 1 3 3 3 4 8 8 8 7 p p d d d s s s d d d d s p 8 p p y y y y y y p p p p p p 8 8 4 4 4 4 4 4 4 5 4 4 4 5 2 5 5 3 t t y y t t t y t t t t 3 3 3 3 3 3 3 3 3 3 3 3 3 3 3 5 5 2 2 2 2 2 2 2 2 2 2 2 2 2 2 2 2 2 2 2 2 2 2 2 3 3 3 3 3 3 3 3 3 3 3 3 3 3 3 3 3 4 3 3 4 3 3 3 3 3 3 3 3 3 3 3 3 3 3 3 3 3 3 3 3 2 2 2 2 2 2 2 2 2 2 : : : : : 2 2 2 : 2 : : : : : : : : : : : : : : : : : : : : : : : : : < < < < < < < 2 < 2 2 2 2 2 2 2 3 3 2 3 3 3 3 3 3 3 3 3 3 3 3 3 3 3 3 3 3 3 3 4 4 4 4 3 3 3 3 3 4 4 3 4 4 3 3 3 3 3 3 4 4 4 3 3 3 3 3 3 3 4 3 3 3 1 3 3 3 3 3 3 3 3 3 3 1 1 1 3 3 3 1 1 1 3 3 3 1 1 3 3 1 1 > 1 1 1 > > > > > > ; ; - ; - - ; ; ; - ; ; - - ; ; ; $ ",
"& & & & & & & & $ & & & : 2 2 2 2 r r r r r t t y y y y u p p p p a a f f f f f f f a p p p p p u u u u u u u p u p p p p p f a p a p p y y y y 4 y 4 4 4 4 y p p p s s s d d d d d G J H H H H W ) ) E E ( ' 8.' ' ' 8.8.8.8.' ' ( ( ) W W H H J J J D d g g g G G U W ) ) ( ( ` ` ` ` ( L H D p p 8 3 4 4 4 3 3 3 3 2 2 2 2 2 2 2 2 2 2 2 2 2 2 3 3 3 2 2 2 2 3 3 3 3 3 3 3 3 3 3 p p p p p p s s d d a p p 8 p p y y y y y y 7 7 8 p 8 p p p 4 4 4 4 4 4 4 4 4 4 4 5 2 2 3 3 t t y y t t t t t t t t 3 3 3 3 3 3 5 3 3 3 3 2 3 3 3 2 2 2 2 2 2 2 2 2 2 2 2 2 2 2 3 3 3 3 2 2 2 2 2 2 3 3 3 3 3 3 3 3 3 3 3 3 3 3 3 3 3 3 3 3 3 3 3 3 3 3 3 3 2 2 2 5 3 3 3 3 3 3 5 5 2 2 2 2 2 2 < < 2 2 2 : : : : 2 2 2 2 : 2 : : : : : : : : : : : : : : : : : : > : : : : : : : < < < < : < < < < 2 2 2 2 2 2 2 < 2 3 3 3 2 3 3 3 3 3 3 3 3 3 3 3 3 3 3 3 3 4 3 3 3 3 1 4 3 3 3 4 4 3 3 3 3 3 3 3 3 3 4 4 3 3 3 3 3 3 3 4 3 3 3 3 3 3 1 1 3 3 3 3 3 3 1 1 1 3 3 3 1 1 1 1 3 3 3 3 3 3 3 1 1 1 1 1 > > > > > > ; ; ; ; ; - ; ; ; ; ; ; $ - ; $ + + ",
"$ $ * * $ $ & & $ & & & : 2 2 2 2 r r r r r r r y t y y u p p p a a f f h g f f f f f a p p p p y y y y y y y y y p p a p p p y p p y y y 4 4 4 4 4 4 4 4 4 4 p 8 8 s s s s s s d d D H H W W W E W E H E E ( ' ' ' 8.8.9.9.9.8.' ' ' ` ( ) E H G G J J J G G G G G W ) ( ( ` 8.8.8.' ' ( H J 9 8 8 7 y 4 4 4 4 3 3 3 3 2 2 2 2 3 3 3 2 2 2 2 2 2 2 2 2 2 2 2 2 3 3 3 3 3 3 : > > 2 3 t 7 8 8 8 p p p p p p 8 4 p y y y y y t t 3 3 8 8 8 8 p p 4 4 4 4 4 4 4 4 4 4 4 3 3 3 3 t 4 4 y y 4 4 3 3 3 3 3 5 3 3 3 3 3 3 3 2 2 2 2 2 2 2 2 2 2 2 < < 2 2 2 2 2 2 2 2 3 3 3 3 3 3 3 3 3 3 3 3 3 3 3 3 4 4 4 4 4 4 3 3 3 3 3 3 3 3 3 3 3 3 3 3 3 3 3 3 3 3 2 2 2 2 3 3 2 3 2 2 2 2 2 2 < < < < 2 2 2 2 < < < < < < < : < : : : : : : : : ; : : ; : ; ; : : : : : : ; ; : : : : : : : : : : < < < 2 2 2 2 2 2 < < 1 3 3 3 3 3 3 3 3 3 3 3 3 3 3 3 3 3 3 3 4 3 3 3 1 3 4 1 3 1 3 3 7 3 3 3 3 3 3 3 4 4 4 3 3 3 3 3 3 3 3 3 3 3 3 1 1 1 1 1 1 1 1 1 1 1 1 1 1 1 1 1 1 1 1 1 1 1 1 1 1 1 1 1 1 1 > > > > > > ; ; ; ; ; ; ; ; ; ; ; ; $ + + + + + + ",
"* * * * $ $ * * $ $ $ & & 2 2 2 2 2 5 5 2 2 5 5 r r t y y y p p a a f f h h f f f f f a p p p p p p p p p p p y p p p p p p y y y y 4 4 3 3 4 4 4 4 4 3 3 4 8 8 8 8 p s s p 9 9 d d J H W ) ) ( ) ) ) E H H E ( ` ' ' 8.8.8.] ] 8.8.' ' ( ) E E H H J J J J G G G H W ) ( ' ' 8.8.8.8.' ( J 9 8 7 8 4 y 4 4 4 y 3 3 3 3 3 3 2 2 3 3 3 3 2 3 2 2 2 2 2 2 2 3 3 3 3 3 2 2 2 2 ; $ + ; > 3 3 3 3 3 3 7 7 7 3 3 3 4 p p p p t t 3 3 8 8 8 p 8 8 8 p y y y y 8 4 4 4 4 4 y y 4 4 4 y 4 y y y 4 3 3 3 3 3 3 2 2 2 2 2 3 3 3 3 2 < < < < < < < < < < < < < < < 1 3 3 3 3 3 3 3 3 3 3 3 3 3 3 3 3 3 3 3 3 3 4 4 4 4 4 3 3 3 3 3 3 3 3 3 3 3 3 3 3 3 3 3 3 3 3 3 3 3 3 3 3 1 1 1 3 3 3 3 2 2 2 2 2 2 2 2 2 < < < < < < : < : : : : : : : ; ; : : : : : : : : : : : : ; ; : : : : : : : : : : < < < < 2 2 2 2 2 < < 1 3 3 3 3 3 3 3 3 3 3 3 3 3 3 3 3 3 3 1 4 3 3 3 1 3 4 3 1 1 3 3 7 3 1 3 3 3 3 3 3 3 3 3 3 3 3 3 3 3 3 7 3 3 3 3 3 3 3 1 1 1 1 1 1 1 1 1 1 1 1 1 1 1 1 1 1 1 1 1 6 1 1 1 , , , > ; ; ; > ; ; ; ; ; ; ; ; ; ; ; $ $ + + + + + + ",
"$ * * * * * * * $ $ $ : : : : 2 2 2 2 2 2 2 2 2 5 r t t t y p y p p a f a a a a a a a a p p p p p p p y y y y y y y y y y y 4 4 3 3 3 3 3 3 4 4 4 4 4 4 4 4 8 8 8 8 8 8 p 8 d d D D H H H E E ) ( ( ( E E K E E ` ' ' ' ' ' ] ] ' ' ' ' ( ) E E H H G J J J J G G H W ) ) ( ( ( ` ` ( ( H D 0 6 3 3 3 y y y 4 y 4 3 3 3 3 3 3 3 3 3 3 3 2 2 2 2 2 2 2 2 2 3 3 3 3 3 2 2 2 : $ + @ $ : 3 t 3 3 3 3 3 3 3 3 3 3 y p p p p 3 3 3 3 4 p p p 4 4 4 4 8 8 y y y 4 4 4 8 4 4 y 4 4 4 y 4 4 y y y 3 3 3 3 3 2 2 2 2 2 2 3 2 2 2 < < < < < < < < < < < < < < < 1 1 1 1 3 3 3 3 3 3 3 3 3 3 3 3 3 3 3 3 3 3 4 4 4 4 4 3 3 3 3 3 3 3 3 3 3 3 3 3 3 3 3 3 3 3 3 3 3 3 3 3 3 < < 1 1 1 1 1 1 2 2 2 2 2 2 3 3 2 2 < < < < < : < : : ; : : : : ; : : : : : : : : : : : : : : ; : : : : > > : : : : < < < < 2 2 2 2 2 < 2 3 3 3 3 3 3 3 3 3 3 3 3 3 3 3 3 3 3 3 1 3 3 3 1 1 1 3 1 1 1 1 3 7 3 3 3 3 3 3 3 3 3 3 3 3 3 3 3 3 3 3 7 7 1 1 1 1 1 1 7 7 7 1 1 1 1 1 1 1 1 1 1 1 1 1 1 1 1 1 6 6 6 6 1 1 1 , , > > > > ; ; - ; ; ; ; ; ; ; ; - - + + + + + + ",
"* * * * * * * * $ $ $ $ : : : : : 2 2 2 2 2 2 2 2 2 5 3 t 4 y p y p p p p p p p a a a p p p p p p p y y y 4 4 4 4 3 3 3 3 3 3 3 3 3 3 3 3 4 4 4 4 4 8 8 8 8 8 8 8 8 8 8 8 p d d D D J H H H E ( ' ' ' ` E E E E ` ` ' ' ' ' ' ' ' ' ' ` ( E E H H H G J D d d d G J J H H H H H H H F D Z 9 8 8 3 4 3 4 y y 4 4 4 3 3 3 3 3 3 3 3 3 3 2 2 2 < < 2 2 2 2 2 2 3 3 3 3 2 2 2 ; + @ @ $ : 3 t 3 t 3 t t 3 3 3 3 3 3 4 p p 3 3 3 3 3 3 3 8 8 4 4 4 4 8 8 y y p 4 4 4 4 4 4 4 4 4 4 4 4 4 y y y 3 3 3 3 3 3 2 2 2 2 2 2 2 2 2 2 < < < : < < < < < < < < < < < < < 1 1 1 3 3 3 3 3 3 3 3 3 3 3 3 3 3 3 3 4 4 4 4 4 3 3 3 3 3 3 3 3 3 3 3 3 3 3 3 3 3 3 3 3 3 3 3 3 3 3 < 3 1 1 1 1 1 1 < < 2 2 2 2 2 2 2 2 < < < < < : < : : ; : : : : : : : : : : : : : : : : : : ; ; : : : : > > : : : : : < < < < < 2 2 2 < 2 3 3 3 3 3 3 3 3 3 3 3 3 3 3 3 3 3 3 3 3 3 3 3 8 4 1 1 1 1 1 3 3 3 3 3 3 3 3 3 3 3 3 3 7 7 7 7 7 7 7 7 7 7 7 1 1 1 3 3 6 1 1 1 1 1 1 1 1 1 1 1 1 1 1 1 1 1 7 7 7 6 6 6 6 6 6 , 1 1 , > > ; ; - - ; ; ; ; ; ; - - ; - - - - - - ",
"* * * * * * * * $ $ $ $ $ : : : : : : 2 : : 2 2 2 2 2 5 3 3 3 3 4 4 y y y p p p p p p p p p y y y 4 y 4 3 3 3 3 2 2 3 3 3 3 3 3 3 3 3 3 3 4 4 4 4 8 p p p p 8 8 p p p 9 q d d d q D J H E E ( ( ' ' 8.' ` ` ` ` ` ` ' ' ' ' ` ` ` ` ` ( E E H H H H J J D d d 8 s d d J J H J J J D Z 9 0 8 8 8 8 4 3 3 y y y 3 3 3 3 3 3 3 3 3 2 2 2 2 2 < < < 2 2 2 2 2 2 2 2 3 3 3 3 2 ; $ + + $ 2 3 y t t t t p p t 3 3 3 3 3 3 3 3 3 3 3 3 3 3 8 8 8 p 4 8 8 8 8 8 p 8 4 4 8 8 4 4 4 4 4 4 y y y y y 3 3 2 3 3 3 3 2 2 3 3 < 2 2 2 2 < < < < < < < < < < < 2 < < < < < < 1 < < 1 3 3 3 3 3 3 3 3 3 3 3 3 3 3 3 3 4 3 3 3 3 3 3 3 3 3 3 3 3 3 3 3 3 3 3 3 3 3 3 3 3 3 3 3 3 3 3 3 3 3 3 1 1 < < < 2 2 2 2 2 2 2 2 2 2 2 < : < : : : : : ; ; : : : : : : ; ; ; ; : : : : : : ; ; > : : > : : : : : : : < < < < < < < < < 1 1 1 3 3 3 3 3 3 3 3 3 3 3 3 3 3 3 3 7 8 d G g 8 1 1 3 7 3 3 3 3 8 3 3 3 3 7 7 7 7 8 7 7 7 7 7 7 7 7 7 7 7 3 3 3 3 6 6 1 1 1 1 1 1 1 1 1 1 1 1 1 1 1 7 8 8 7 6 6 6 6 6 1 1 1 1 1 1 > > ; ; ; ; ; ; ; ; ; ; ; ; ; ; ; ; ; ; ",
"* * * + + + + + + + * $ $ $ $ : $ : : : : : : : : 2 2 2 2 3 3 3 3 3 4 4 y y p p p p p p p y y y 4 4 3 3 3 3 2 2 2 2 2 2 3 3 3 3 3 3 3 3 4 4 4 4 8 8 p p p p 8 p p p s d d d d d q Z F F E E ( ( ' ' 8.8.] ' ' ` ' ` ` ` ` ` ` ` ( ` ( E E H H H H H J J d d 8 8 8 8 s d D D J D D Z 9 0 0 8 8 8 8 4 3 3 y y y 3 3 3 3 3 3 3 3 2 2 2 2 2 < < < < 2 2 2 2 2 2 2 2 2 2 3 3 2 : ; $ $ : 3 3 3 3 t p 3 3 3 3 3 3 3 3 3 3 3 3 3 3 3 3 4 4 p p 8 p p 4 8 8 8 8 8 8 4 8 p p 4 4 4 y 4 y y y y y y 4 3 2 3 2 3 2 2 3 3 2 < < 2 2 2 < < < 2 2 2 2 2 2 2 2 2 2 < < < < < < < < < 2 2 3 3 3 3 3 3 3 3 3 3 3 3 3 3 3 3 3 3 3 3 3 3 3 3 3 3 3 3 3 3 3 3 3 3 3 3 3 3 3 3 3 1 1 3 3 3 3 3 3 1 3 < < < < 2 2 2 2 2 2 2 2 2 2 < : < : : : : : ; ; : : : : : : : ; ; ; ; ; : : : : ; ; : : : : : : : : : : : : : < < < < < < 1 1 1 1 1 3 3 3 3 3 3 3 3 3 3 3 3 3 3 1 3 p G / / d 1 3 3 8 8 7 3 7 8 3 3 7 7 7 7 7 7 8 7 7 7 7 7 7 7 7 7 7 7 3 3 3 3 8 6 6 6 1 1 1 1 1 1 1 1 1 1 1 1 1 8 8 8 7 6 6 6 6 6 1 1 1 1 1 1 1 > ; ; ; ; ; ; ; ; ; ; ; ; ; ; ; ; ; ; ",
"+ + * * * * * * + + * * $ $ $ $ $ $ : : : $ $ $ : : 2 2 2 2 2 2 3 3 3 3 3 4 y y y p p p y y 4 3 3 3 3 3 2 2 2 2 < 2 < 2 2 2 3 3 3 3 3 3 3 4 8 8 p p p d d d 8 8 s s s d d d d d Z Z A F E E ( ` ` ' ' ] ] ] ] ] ] ' ` ` _ _ ( ( ( E E E K H H H H J D D d 8 7 3 1 1 7 8 s d d d 9 9 9 9 9 8 8 8 p y 4 3 3 3 3 3 3 3 3 3 3 2 2 2 2 2 2 2 < < < < : : 2 2 2 2 2 2 3 2 2 3 2 2 2 2 < 2 2 3 3 3 3 3 y 4 y y 3 3 3 3 3 3 3 3 3 3 3 3 8 8 8 8 8 8 8 p p y y y 8 8 8 p 4 8 p 4 y 3 4 4 4 4 y y 4 3 3 3 2 3 2 3 2 2 2 2 2 2 2 2 2 < < < < < < < < < < < < < < < < < < < < < 3 3 3 3 3 3 3 3 3 3 3 3 3 3 3 3 3 3 3 3 3 8 3 3 3 3 3 3 3 3 3 3 3 3 3 3 3 3 3 3 3 3 3 3 1 1 1 1 1 1 1 1 3 3 < < < 2 2 2 2 2 2 2 < < < < < : : : : : : : : ; ; ; : : : : : : : : : : : : : : : : : : > : : : : : ; ; ; : : < : < 2 < < < 1 1 3 3 3 3 3 3 3 3 3 3 3 3 3 3 3 3 1 1 8 W :.:.G 1 1 3 8 8 3 3 3 3 3 3 3 3 7 7 7 7 7 7 7 7 7 7 7 7 7 7 7 3 3 1 3 3 1 1 1 1 1 1 1 1 1 1 1 1 1 1 1 1 1 6 6 6 6 6 6 6 1 1 1 1 1 1 1 1 , > > ; ; ; ; ; ; ; ; ; ; ; ; ; ; ; ; ; ",
"+ + * * * * * * + + * * * $ $ $ $ $ : : : : $ $ : : 2 2 2 2 2 2 3 3 3 3 3 3 4 4 y y y y 4 3 3 3 3 3 3 3 2 2 2 2 < < < 2 3 3 3 3 3 3 3 3 3 3 8 8 p p p d d d d p 9 s d d d d d d A A A A F F E ( ` ` ' ' ] ] 9.9.] ] ] [ ` ` ( ( E E E E F H H H G J d d 8 8 1 1 1 1 1 7 8 8 9 9 9 9 9 9 9 8 p p y 4 3 3 3 3 3 3 3 2 2 2 2 2 2 2 2 2 2 2 2 < < < : : : 2 2 2 2 2 2 2 2 3 3 3 2 2 2 2 2 3 3 3 3 3 4 4 4 4 3 3 3 3 3 3 3 3 3 3 3 3 8 8 p 8 8 8 8 p y y 4 4 p p 8 8 8 8 y 4 y y 4 y 3 4 4 4 4 3 3 3 3 3 2 2 < < < < < < < 2 2 2 < < 2 2 < 3 3 3 < < 3 2 < < < 1 1 1 1 1 3 3 3 3 3 3 3 3 3 3 3 3 3 3 3 3 3 3 3 3 3 3 4 3 3 3 3 3 3 3 3 3 3 3 3 3 3 3 3 3 3 3 3 3 1 1 1 1 1 1 3 1 3 3 < < < 2 2 2 2 2 2 < < < < < < : < : : : : : : ; ; ; : : : : : : : : : : : : ; ; : : : : > > : : : : ; ; : ; : < : < 2 < < < < 1 3 3 3 3 3 3 3 3 3 3 3 3 3 1 1 1 1 1 1 d W W d 1 1 3 8 8 3 3 3 3 4 7 6 6 8 8 8 8 8 8 8 8 8 8 8 8 8 8 7 1 1 1 1 1 1 1 1 1 1 1 1 1 1 1 1 1 1 1 1 1 6 6 6 6 6 6 6 6 1 1 1 1 1 1 1 1 , > > ; ; ; ; ; ; ; ; ; ; ; ; > ; ; ; ; ",
"* * * * * * * * + + * * * $ $ $ $ $ : : : $ $ $ : : : : 2 2 2 2 2 2 3 3 3 3 3 3 3 3 3 3 3 3 3 2 2 2 2 2 2 2 2 2 1 3 3 3 3 3 3 3 3 3 3 3 3 4 8 8 p p d h d d d q 9 9 d d d d d D D D A Z Z A F E E ` ' ' ] 9.t.t.9.] ] ' ` ` ( ( E E E E E H H H G D d 8 8 1 1 1 1 1 1 1 1 1 7 8 8 8 8 8 8 p p y 4 3 2 2 2 5 3 2 2 2 < < 2 2 2 2 3 2 2 2 < < < < < < < 2 < < 2 2 2 2 2 3 t t 3 3 3 3 3 3 3 3 3 4 4 4 3 3 3 3 3 3 3 3 3 3 3 3 3 3 p p 8 8 8 8 4 4 8 8 4 4 p p 8 8 8 8 8 8 4 3 3 y 4 4 4 4 4 3 3 3 3 3 2 < 2 3 2 < < < < < 2 < 1 1 2 2 3 3 3 3 3 3 3 2 2 2 < 1 1 3 3 3 3 3 3 3 3 3 3 3 3 3 3 3 3 3 3 3 3 3 3 3 3 3 3 3 3 3 3 3 3 3 3 3 3 3 3 3 3 3 3 3 3 3 3 3 1 1 3 3 3 3 3 3 3 3 < < < 2 2 2 2 2 2 < < < < < < : : : : : : : : : ; ; ; : ; ; ; ; : : : : : ; ; ; : : : : : : : : : : : : : : : : : : < < < < < 1 < < 1 3 3 1 1 3 3 3 3 3 3 1 1 1 1 1 1 1 8 8 1 1 3 7 4 8 8 8 8 8 8 8 8 8 8 8 8 8 8 8 8 8 8 8 8 8 8 8 3 3 7 1 6 6 6 6 6 6 1 6 1 1 6 6 6 6 1 1 1 1 1 1 6 6 1 6 6 6 6 1 1 1 1 1 1 1 > > > > > > > > ; ; ; ; ; > ; 1 1 > > ; ",
"* * * * * * * * + + * * * $ $ $ $ $ : : $ $ $ : : : : : 2 < 2 2 2 2 2 2 2 3 3 3 3 3 3 3 3 2 2 2 < < 1 1 1 1 3 3 3 3 3 3 3 3 3 3 3 3 3 3 3 4 8 8 p s d d d d d q q q q d d Z D D Z A D A Z A F F E ( ' ' ] 9.t.t.] ] ] ' ` ` ` ( ( ( E E E W W H J d 9 8 8 1 1 1 3 1 1 1 1 1 1 1 1 1 7 7 8 p y y t 5 2 : 2 2 2 2 < < < < 2 < 2 2 2 2 < < < : : : < < < 2 < < 2 2 2 2 2 3 3 3 3 3 3 3 3 3 3 3 3 3 3 3 3 3 3 3 3 3 3 3 3 3 3 3 3 4 y p p p 8 8 8 4 8 8 8 4 8 8 4 4 4 4 4 3 3 3 3 3 8 8 4 4 3 3 3 3 3 3 1 1 3 3 3 3 < < < 2 2 2 1 1 2 2 < 3 3 3 3 3 3 2 2 2 < 1 3 3 3 3 3 3 3 3 3 3 3 3 3 3 3 3 3 3 3 3 3 4 3 3 3 3 3 3 3 3 3 3 3 3 3 3 3 3 3 3 3 3 3 3 3 3 3 3 1 1 3 3 3 3 3 3 3 3 < < < 2 2 2 2 2 2 < < < 2 2 < : : : : : : : : : ; ; : : : ; ; ; ; ; ; ; ; ; ; ; : : : : : : : : : : : : : : : : : : < < < < < < < < < 1 1 3 1 1 3 3 3 3 3 1 1 1 1 1 1 1 1 1 1 1 8 8 8 8 8 8 8 8 6 6 8 8 8 6 8 8 8 8 8 8 8 8 8 8 8 8 7 7 8 7 7 7 6 6 6 6 6 1 6 6 1 1 6 1 1 1 1 1 1 1 1 1 6 6 6 6 6 1 1 1 1 1 , , > > > > > > > > > > ; ; > > 1 1 1 1 > > ",
"@ * * * * * * * + + + * $ $ $ $ $ $ : : $ : : : : : : : : < < < 2 2 2 2 2 3 3 3 3 3 3 3 2 2 2 < 1 1 < 1 3 3 3 3 3 3 3 3 1 3 3 3 3 3 3 3 3 4 8 8 p p s d J H J J D d 9 q Z Z Z Z Z D D F F F F E E ( ` ' ' 9.{ t.] ] ] ' ` ` ` ' ` ( E E E E W H D q 8 8 1 1 1 1 3 3 1 1 1 > ; ; > < 1 3 3 3 3 3 5 2 : $ : < < : < : : < < 2 2 2 2 < < < : : : : < < < 2 2 < 2 2 2 2 3 3 3 3 3 3 3 3 3 3 4 3 3 3 3 3 3 3 3 3 3 3 3 3 3 3 3 3 4 p y y 8 8 8 8 4 4 8 8 p p p 4 4 3 3 3 3 3 3 3 3 3 3 3 3 3 3 3 3 3 3 3 3 1 1 1 3 3 < < < 3 3 3 < 2 2 2 2 2 3 3 3 3 3 3 3 3 3 3 3 3 3 3 3 3 3 3 3 3 3 3 3 3 3 3 3 3 3 3 3 3 3 3 3 3 3 3 3 3 3 3 3 3 3 3 3 3 3 3 3 3 3 3 3 3 3 3 3 < 3 3 3 3 3 3 3 3 < < < 2 2 2 2 2 2 2 < < 2 < < < < < : : : : : : : : : : : ; ; ; ; ; ; ; ; ; ; ; : : ; ; ; ; ; ; ; : : : : : : : : : : < < < < < 1 1 1 1 < 1 1 1 3 3 3 3 3 3 3 3 1 1 1 1 1 8 8 8 8 8 8 8 8 8 8 8 8 8 8 8 8 8 8 8 8 8 8 8 8 8 8 8 8 8 8 8 8 8 8 8 6 6 6 6 6 6 6 6 6 6 6 1 1 6 6 6 1 6 6 6 6 6 6 6 6 6 6 6 6 1 1 , 1 > > > , 1 1 1 > > > > > > > > 1 1 1 1 ",
"@ * * * * * @ * + + + * $ $ $ $ $ $ $ $ : : : : : : : : : < < < 2 2 2 2 2 3 3 3 3 3 3 2 2 2 < < 1 1 1 1 1 1 1 1 3 3 1 > 1 3 1 1 3 3 3 3 3 4 8 8 8 8 p D H ) ) ) H J D Z Z Z Z Z Z D D D D F E E E ( ( ` ` ' ] ] ] ] ] ' ` ` ` ' ' ( E E ) ) H J q 8 6 1 1 1 1 1 < < 1 1 < > > ; ; > > 1 < < 2 2 2 2 $ $ $ $ : > : : : < 2 2 2 2 2 < < < : : : : < < 2 2 < 2 2 2 2 2 3 3 3 3 3 3 3 3 3 3 4 4 3 3 3 3 3 3 3 3 3 3 3 3 3 3 3 4 8 p p p 8 8 8 8 p p 8 8 p p 8 4 3 3 3 3 3 3 3 3 3 3 3 3 3 3 3 3 3 3 3 3 3 3 3 1 3 3 2 2 3 3 3 3 3 2 2 2 3 3 3 3 3 3 3 3 3 3 3 3 3 3 3 3 3 3 3 3 3 3 3 3 3 3 3 3 3 3 3 3 3 3 3 3 3 3 3 3 3 3 3 3 3 3 3 3 3 3 3 3 3 3 3 3 3 3 3 3 3 3 1 1 3 3 3 3 3 3 < < < 2 2 2 2 2 2 2 2 2 2 2 2 < < < < < < < < < : : : : ; ; ; ; ; ; ; ; ; ; ; ; $ $ $ $ ; ; ; ; ; ; : : : : : : : : : : < < 1 1 1 1 < < < 1 1 1 3 3 3 3 3 3 3 3 1 3 1 1 8 8 8 8 6 6 8 6 8 8 6 8 8 8 8 8 8 8 8 8 8 8 8 8 8 8 8 8 8 8 8 8 8 8 8 8 8 6 6 6 6 6 6 6 6 6 6 6 6 6 6 6 6 6 6 6 6 6 6 6 6 6 6 6 6 6 6 1 , 1 > > 1 1 1 1 , > > > > > > 1 1 1 1 1 ",
"@ @ * * * * @ @ + + + + $ $ $ $ $ $ $ $ $ $ : : $ : : : : < < < 2 2 2 2 2 2 3 3 2 2 2 2 2 2 2 2 1 1 1 1 1 1 1 1 3 1 > > > > 1 3 3 3 3 3 3 4 8 8 8 8 8 d H ) ( ( ) ) H D Z Z A A J D D D A F E E E E ( ( ( ` ` ' ' ' ' ` ` ` ( ( ` ( E E W W J D 8 7 1 1 3 3 1 1 > < < < < > < : : > > > > : 2 2 2 2 & $ $ $ : > : : : < 2 3 2 < 2 2 < < < < < < 2 2 2 2 2 2 2 2 2 3 3 3 3 3 3 3 3 3 3 3 4 3 3 3 3 3 3 3 3 3 3 3 3 3 3 8 4 4 p p p p p p p p p p p p p p p 8 3 3 3 3 3 3 3 3 7 7 3 3 3 3 3 3 3 1 3 3 3 3 3 3 3 3 < < < 3 3 3 2 2 2 3 3 3 3 3 3 3 3 3 3 3 3 3 3 3 3 3 3 3 3 3 3 3 3 3 3 3 3 3 3 3 3 3 4 3 3 3 3 3 3 3 3 3 3 3 3 3 3 3 3 3 3 3 3 1 3 3 3 3 3 3 3 3 1 1 1 1 3 3 3 3 < < < 2 2 2 2 2 2 2 2 2 2 2 2 < < < < < 2 < < < : : : : ; ; : : ; ; : ; ; : ; ; : ; ; ; ; ; ; ; ; ; : > < < : : : : : : < 1 1 1 1 1 < < < < 1 3 3 3 3 3 3 3 3 3 1 6 1 1 8 8 1 8 6 6 8 8 8 6 8 8 8 8 8 8 8 8 9 8 8 8 8 8 8 8 8 8 8 8 9 8 8 8 8 8 0 8 6 6 6 6 6 6 6 6 6 6 6 6 6 6 0 6 6 0 6 0 6 6 0 0 6 6 6 6 6 6 1 1 , , 1 1 1 > , , , > > 1 1 1 1 1 1 1 ",
"* * * * * * * * + + + + $ $ $ $ $ $ $ $ $ $ : : $ : : : : : < < 2 2 2 2 2 2 2 < 2 2 2 2 2 2 2 3 1 1 1 1 1 1 1 1 1 1 1 1 1 1 1 1 3 3 3 3 3 4 8 8 p p 8 d J W ) ( ' ( ) F A Z A F H J J J F F F E H E E E ( ( ( ( ` ` ` ` ( ( ( ) ( ( E E H H D 9 8 1 1 1 8 3 1 1 3 2 < < < 2 < < : : > > < < 2 2 & & & $ $ $ ; > ; ; : < 3 3 2 < 2 2 2 2 < < < < 2 2 2 2 2 2 2 2 2 3 3 3 3 3 3 3 4 3 3 3 4 3 4 4 4 4 4 4 4 3 3 3 3 3 4 8 4 4 8 8 p p p p p p p p p p p p p 8 3 3 3 3 3 3 3 7 7 7 3 3 3 3 3 3 3 3 1 1 1 1 3 1 1 < < < < < 3 3 2 3 3 3 3 3 3 3 3 3 3 3 3 3 3 3 3 3 3 3 3 3 3 3 3 3 3 3 3 3 3 3 3 3 3 4 3 3 3 3 3 3 3 3 3 3 3 3 3 3 3 3 3 3 3 3 1 1 3 3 3 3 3 3 1 1 1 1 1 1 1 1 3 3 < < < 2 2 2 2 2 2 2 2 2 3 2 2 < < < < < < < : : : : : : ; ; ; : : : : ; : : : ; ; ; ; : ; ; ; ; ; ; : > < < : : < : : : < 1 1 1 1 1 < > < < 1 3 3 3 3 3 3 3 3 3 1 1 1 1 8 8 1 6 6 6 8 8 6 6 8 8 8 8 8 8 8 8 0 8 8 8 8 8 8 8 8 8 8 8 0 0 0 0 8 8 0 0 6 8 6 6 6 6 6 6 6 6 6 0 0 0 0 0 0 0 0 0 6 6 0 0 0 6 6 6 6 6 6 1 , 1 1 1 1 > 1 1 , 1 1 1 1 1 1 1 1 1 ",
"* * * * * * * * @ @ + + * $ * * $ $ $ : : : $ $ $ : : : : : ; < : : : 2 2 2 2 : 2 2 2 2 3 3 3 2 1 1 3 1 1 > 1 1 1 1 1 1 1 1 1 1 1 3 3 3 3 7 p p s s d d D J ) ( ` ( ( F A F E E E H F F H E H H H K E E E E E E E ( ( E E E E E E E E H H D q 8 1 1 1 3 3 3 3 < 1 1 < < < < > > : : : : : : : : $ $ $ : $ ; $ ; ; ; ; : 2 3 3 2 3 3 2 2 2 2 < < 1 < < 1 < 1 1 3 3 3 3 3 3 3 3 3 3 3 3 3 3 4 4 4 4 4 4 4 3 3 3 3 3 3 3 4 8 8 p p p p p p p p p p p p p p p p t t 3 3 3 3 3 p 8 3 1 ; 3 3 3 8 1 3 8 3 ; ; > 3 1 > 3 3 3 2 3 2 2 2 3 3 3 3 3 3 3 3 3 3 3 3 3 3 4 4 3 3 3 3 3 3 3 3 3 3 3 3 3 3 3 3 3 3 3 3 3 3 3 3 3 3 3 3 3 3 3 3 3 3 3 3 3 3 3 3 3 3 3 1 1 1 1 1 3 3 3 3 1 1 3 3 < < < < < 2 2 2 < 2 2 2 2 2 2 2 2 2 < < < : : : : : : : : : ; ; ; ; : : : ; ; ; ; ; ; : : : ; ; ; ; : > > > > > : : : : < < < < 1 1 3 < < < 3 3 3 3 3 3 3 3 3 3 1 1 1 6 6 6 6 6 8 6 6 8 8 8 8 8 9 9 9 9 9 9 9 0 9 9 0 0 8 9 9 0 9 9 8 8 8 9 8 8 0 0 0 0 0 0 0 0 0 6 6 6 6 0 0 0 9 9 0 0 0 0 0 0 0 0 6 6 6 6 6 6 6 6 1 1 1 1 1 , , 1 1 1 1 1 1 1 1 1 1 1 ",
"* * * * * * * @ @ * + + * $ * $ $ : : : : : : $ : : : : : : ; ; < 2 2 2 < < 2 2 < 2 2 2 2 3 2 < 1 3 3 3 3 3 1 1 1 1 1 1 3 3 3 3 1 3 3 3 3 8 8 s d d d D D D H ) ` ' ( E F K E ( E E E E E E E E F F F F F F K K H L E E E E E E E E H J J d 9 6 6 1 7 3 3 3 1 < 1 1 < < < > > > : : : : : : : : $ $ : : $ ; $ $ $ $ ; ; < 2 2 2 2 2 2 2 2 2 2 2 < < < < < < 3 3 3 3 3 3 3 3 3 3 3 3 3 4 4 4 4 4 4 4 4 4 3 3 3 3 3 3 4 4 8 8 p p p p 8 8 p p p p p p p p p 8 3 3 3 3 3 3 3 8 8 3 ; 1 p 8 3 8 8 8 3 8 3 > ; 1 3 1 3 3 3 3 3 3 3 3 3 3 3 3 3 3 3 3 3 3 3 3 3 3 3 3 3 3 3 3 3 3 3 3 3 3 3 3 3 3 3 3 3 3 3 3 3 3 3 3 1 3 3 3 3 3 3 3 3 3 3 3 3 3 3 3 3 3 3 3 1 1 1 1 3 3 3 3 1 1 3 3 < < < 2 2 2 2 2 2 2 2 2 2 2 2 2 2 < < < < : : : : : : : : : ; ; ; ; : : : : ; ; ; ; ; : : : ; ; ; ; : : : : : : : : : : < < < < 1 1 3 1 < < 3 3 3 3 3 3 3 3 3 3 1 1 6 6 6 6 6 6 8 8 8 8 8 8 8 8 9 9 9 9 9 9 9 9 9 9 9 9 9 9 9 9 9 9 9 9 9 9 9 9 0 0 0 0 0 0 0 0 0 0 6 6 0 0 0 0 9 9 0 0 0 9 0 0 0 0 0 6 6 6 6 6 6 6 6 6 6 6 1 1 1 1 1 1 1 1 1 1 3 > > ; ",
"@ * * * * * * * @ * + + * $ $ $ $ $ $ $ : : : : : : : : : ; : : : < 2 2 < < 2 2 < < 2 2 2 2 < < < 1 3 3 3 3 3 3 1 3 3 3 3 3 3 3 3 4 3 8 8 8 8 9 q d J J d q J E ( ' ` E E E ` ' ' ` ( ( E E E L K F F F F F J J F F H K F F F K K H F D Z 9 8 6 6 8 3 3 3 1 < < 1 1 < < < < > > : : : : : : : : $ ; $ $ $ $ $ $ $ $ $ $ ; : < 2 < < < 2 2 2 2 2 < < 2 2 2 2 3 3 3 3 3 3 3 3 3 4 3 4 4 4 4 4 4 8 8 8 8 3 3 3 3 3 3 3 4 4 8 8 4 4 8 8 8 8 8 8 8 8 4 4 8 8 p 8 3 3 3 3 3 3 3 3 3 3 8 8 8 ; 3 p g 1 > 3 3 3 1 3 3 1 3 3 3 3 3 3 3 3 3 3 3 3 3 3 3 3 3 3 3 3 3 3 3 3 3 3 3 3 3 3 3 3 3 3 3 3 3 3 3 3 3 3 3 3 3 3 3 3 1 1 3 3 3 3 3 3 3 3 3 3 3 3 3 3 3 3 3 3 3 3 3 3 3 3 3 1 1 1 1 3 < < 2 2 2 2 2 2 2 2 2 2 2 2 2 2 2 2 < < < > : : : : : ; : ; : : ; ; ; ; ; ; ; ; ; ; ; ; : ; ; ; ; ; : : : : : : < : : : > 1 1 < 1 < 3 1 1 1 3 3 3 3 3 3 3 3 3 3 6 6 6 6 6 8 8 8 8 8 8 8 8 8 8 8 8 9 9 9 9 q 9 9 9 9 9 9 9 9 9 9 9 9 9 9 9 9 9 9 9 9 9 9 9 0 0 0 0 0 6 6 0 0 0 0 9 9 0 0 9 9 9 0 0 0 0 6 6 6 6 6 6 6 6 6 6 6 1 1 1 6 6 6 7 1 , > > ; ; - ",
"* * * * * * * * @ * + + * $ $ $ $ $ $ & : : $ : : : : : : ; : : : : < < < : : : $ ; : 2 2 2 < < < 3 3 3 3 3 3 3 1 3 3 3 3 7 8 p 8 8 8 8 8 8 8 s q d J J d q D E ( ` ` E E E ` ' ' ' ' ' ` ` E E E H F F H H F J J J J J F F F F K F F Z 9 9 8 6 6 1 3 3 1 < < < > 1 < < < < > ; : : : : : : : : ; $ $ $ ; ; $ $ $ + + + + $ : < < < < < 2 2 2 2 2 2 < < 2 2 3 3 3 3 3 4 4 4 4 4 t 4 4 4 4 4 4 8 p 8 4 3 3 3 3 3 3 3 4 8 8 8 8 4 4 4 4 4 4 4 8 4 4 4 8 8 p 8 4 3 3 3 3 3 3 1 3 7 p 3 1 3 *.m.!.:.3 1 1 3 8 3 1 3 3 3 3 3 3 3 3 3 3 3 3 3 3 3 3 3 3 3 3 3 3 3 3 4 4 4 4 3 3 3 3 3 3 3 3 3 3 3 3 3 3 3 3 3 3 3 3 3 1 3 3 3 3 3 3 3 3 3 3 3 3 3 3 3 3 3 1 3 3 3 3 3 3 3 3 1 1 1 1 1 < < 2 2 2 2 2 2 2 2 2 2 2 2 2 2 2 2 < < < > : : : ; ; ; : ; : : ; ; ; ; ; ; ; ; ; ; ; ; : ; ; ; ; ; : : : : : : < > > : < < 1 1 1 < 3 1 1 1 3 3 3 3 3 3 3 3 3 3 7 7 7 6 8 8 8 8 8 8 8 8 8 9 9 9 9 9 9 d d d d d d 9 9 9 9 9 9 d 9 9 9 9 9 9 9 9 9 9 9 9 9 9 9 9 0 0 0 0 0 0 0 0 9 9 0 9 9 9 9 9 9 0 0 0 0 0 6 6 6 6 6 6 6 6 6 6 6 6 7 7 7 3 > > ; ; + + ",
"* * * * * * * * * * + + $ $ $ $ $ $ & & $ $ $ : : : : : ; : : : : : < < 2 : $ + + + $ : 2 3 3 < 1 1 3 3 3 3 3 3 3 3 8 8 p p p p p p p p 8 8 p p 8 d J J D 9 Z F E ( ( ( E _ ` ` ' ' ' ' ` ` ` ( E E L H H L H F J J F F F F F K H F Z 9 0 8 6 6 8 3 3 3 1 1 1 1 1 1 < < < < > > : : : : : : : : $ $ $ $ ; ; $ $ + + O O @ + ; < < < < < 2 2 2 2 2 2 2 3 3 3 3 3 3 3 4 4 4 4 4 4 4 y y 4 4 4 8 p p p 8 3 3 3 3 4 3 4 4 4 8 8 8 8 4 4 4 3 3 3 3 3 3 3 3 8 4 4 4 3 8 3 3 4 3 3 3 8 3 3 3 8 y.*X,Xy.p 3 < 3 4 3 1 4 3 3 3 3 3 3 3 3 3 3 3 3 3 3 3 3 3 3 3 3 3 3 3 3 3 3 3 3 4 3 3 3 3 3 3 3 3 3 3 3 3 3 3 3 3 3 3 3 1 3 3 3 3 3 3 3 3 3 3 3 3 3 3 1 3 3 3 3 3 3 3 3 1 1 1 1 3 3 1 3 < < < < 2 2 2 2 < 2 2 2 2 2 2 2 2 2 2 < < : : : ; ; : : ; ; ; ; ; ; ; ; ; : : : ; ; ; ; ; ; ; ; ; ; ; : : : : : > : : > < 1 1 1 1 1 3 < 1 < 1 3 3 3 3 3 3 3 3 3 8 8 7 6 6 6 8 8 8 8 0 0 9 9 9 9 9 9 q d d d d d d d d 9 9 9 9 d 9 9 9 9 q q q q 9 9 9 9 9 9 9 9 9 9 9 9 9 9 9 V 9 9 9 9 9 V 9 9 9 9 0 0 6 6 6 6 6 6 6 6 6 6 6 6 7 7 7 7 7 1 > ; - + + + ",
"@ @ @ @ @ @ @ * * * + + + $ $ $ $ $ & $ $ $ $ $ : : : : ; : : : : : : : : $ + O O O + ; 2 3 3 2 1 1 3 3 3 3 3 1 3 3 8 8 s 9 9 9 d d d s 9 8 8 8 8 d J J D 9 q Z F E E E E E _ ` ` ` ' ` ` ` ` ` E E E E L L H H J J F F F F K K H F V 0 6 8 6 7 1 1 3 3 3 3 1 3 1 1 < > < > > > : : : : : : : : $ $ $ ; ; ; $ $ + @ O O O + $ : : : < < < 2 2 2 2 3 3 3 3 3 3 3 3 3 4 4 4 4 4 y y y y 8 8 8 8 p 8 8 4 3 3 3 3 3 3 3 4 8 8 8 8 8 4 4 3 3 4 4 4 4 3 3 3 3 4 3 3 3 8 3 3 4 3 3 3 8 3 3 3 3 ! n.n.! 3 3 4 3 3 3 3 1 3 3 3 3 3 3 3 3 3 3 3 3 3 3 3 3 3 3 3 3 3 3 4 4 3 3 4 3 4 3 3 3 3 3 3 3 3 3 3 3 3 3 3 3 1 1 1 1 1 1 3 3 3 3 3 3 3 1 1 1 3 3 1 1 1 3 1 1 3 3 1 < < < < < 2 2 2 < 1 1 1 1 < < < < 1 1 < 1 3 3 < < 2 2 < < < : : : : : : ; ; ; ; ; ; ; ; ; ; ; : : ; $ ; ; ; ; ; ; ; ; ; ; ; ; ; ; > ; ; > > < 1 < 1 1 3 < 1 1 1 3 1 3 3 1 3 3 3 3 8 8 8 8 6 8 8 8 0 0 9 9 9 9 9 9 9 d q d d d d d D D D D 9 9 9 9 9 9 9 9 q q d d V V V V 9 9 9 9 9 9 9 9 9 9 V V Z 9 9 9 V V V 9 9 9 0 0 0 0 6 6 6 6 6 6 6 7 6 6 7 7 7 7 7 , > ; + + + + ",
"* * * * * * * * * * + + + + * $ $ $ $ $ * * $ $ : : : : : : : : : : $ $ + + O . . O + : 2 3 3 3 1 1 1 3 7 7 3 1 7 7 9 d D D D D D D D D D q 8 8 9 d D J J D D D H E ) ( E E ` ` ' ' ' ` ` ` ` _ E E E E E H F F J J J F F F K K F Z 9 6 0 9 9 7 1 1 1 1 3 3 3 1 > > < < > > > > : : : ; ; : : : ; ; ; ; ; ; $ + @ @ O O @ + $ ; : : : : < 2 2 2 1 1 3 3 3 3 3 3 3 3 4 4 4 8 8 8 8 8 8 8 8 8 8 8 8 8 3 3 1 1 1 3 3 4 4 8 8 8 4 4 4 4 3 3 4 4 4 4 7 7 7 8 8 3 7 3 7 7 3 3 3 3 3 3 8 4 4 ; 3 d d 1 ; 3 8 4 4 4 3 1 3 3 3 3 3 3 3 3 3 3 3 3 4 4 4 3 3 3 3 3 3 3 3 3 3 3 4 4 4 1 1 1 3 3 3 3 1 1 1 3 1 1 1 1 1 1 1 1 3 3 3 3 3 3 3 3 1 1 1 1 1 1 1 1 1 1 1 1 1 1 1 < < < 2 2 2 2 < < 1 1 1 1 < < < < > > > > 1 > > > < < < > < : : : : : ; ; ; ; ; : ; ; ; ; ; ; : : ; ; ; ; ; ; ; ; ; ; ; ; ; ; ; ; ; ; ; > > < < < 1 1 3 1 < < 3 3 3 3 3 3 3 3 3 3 8 7 8 8 8 0 0 0 9 9 9 9 9 9 9 9 d d D D D J D D D D D D Z Z V V Z Z Z Z Z Z Z Z Z Z Z Z Z Z 9 9 9 C 9 9 9 C Z Z D Z V V V V V V C 9 9 9 0 0 0 6 6 6 6 6 6 7 6 6 7 7 7 7 3 > ; - + + + + ",
"* * * * * * * * * * + + + + * $ + + $ + + + + + : : : ; : : : : : ; $ + O O X X . O + : r t t 3 7 7 7 8 8 8 8 8 8 8 d J H H H F F K K E F D q 9 d d d J J J J H E ) ( ` ` ` ` ' ] ] ] ] [ [ ` _ E E E E L K F F H F J F F H K K D 9 0 6 9 d d 8 1 > ; > > 1 1 < > > > > > > > > : : : ; ; : : : : ; ; ; ; $ $ + @ @ + + + $ ; ; : : : : < < 2 2 1 1 1 1 3 3 3 3 1 3 3 8 8 8 8 8 8 8 8 8 8 8 8 8 3 3 3 3 1 1 1 1 4 8 8 8 8 4 4 4 4 4 4 4 4 4 4 8 8 8 8 8 8 8 8 8 7 8 8 8 3 3 3 3 4 3 8 4 3 8 3 8 8 3 3 4 4 3 3 8 3 3 3 3 3 3 3 3 3 3 3 3 4 4 4 3 3 3 3 3 3 3 4 3 3 3 4 4 4 1 3 3 3 3 3 3 1 1 1 1 3 3 3 3 1 1 1 1 1 1 3 3 3 8 8 8 3 1 1 1 1 1 1 1 1 1 1 1 1 1 1 < 3 3 3 3 3 3 3 3 1 1 1 1 < < < < > ; > > > > > > < < < > < : : : : : ; ; ; ; ; : : : : : : : : : ; ; ; ; ; ; ; ; ; ; ; ; ; ; ; ; ; ; ; > > < 2 < 1 1 3 < < < 3 3 3 3 3 3 3 3 3 7 8 7 8 8 0 9 9 9 9 9 9 V D D D D D D J J J J J J D D D D D Z Z Z Z Z Z Z Z Z Z Z Z Z Z Z Z Z C C C C C C 9 Z Z D D D V V V V V V C V 9 9 9 0 0 0 6 6 6 6 6 7 7 6 7 7 7 3 > ; - + + + + + ",
"* * * * * * * * + * + + * $ $ * + + @ @ @ @ @ + $ : : : : 2 2 : ; $ @ O X X O O O # $ 2 t p p p 8 8 8 s d d s 9 0 9 D F L L L E K E E E E H J s 9 9 d D D J H H W ( ' ' ` ` ' 8.] 9.9.' ` ' ` ` ` ( E E H F F F H H F F K K H K V 9 9 0 d d s 8 1 > ; > 1 1 ; < < : : : : : : : : ; ; ; ; ; : : ; ; ; ; : $ $ + + + + + $ ; : : : : : : < < 2 3 3 3 3 3 3 3 3 3 1 3 3 4 4 8 8 8 8 8 8 8 8 8 8 8 8 8 3 1 1 1 1 1 3 3 4 4 8 8 8 3 7 7 3 3 3 8 8 8 8 8 8 8 8 8 8 8 8 8 8 4 3 3 3 3 3 3 3 3 4 3 4 4 4 4 4 4 4 4 3 3 3 3 3 4 3 3 3 3 4 3 3 3 4 4 3 3 3 3 4 4 3 3 3 3 1 3 3 3 1 1 3 3 3 3 3 3 1 1 1 3 3 3 1 1 1 1 1 1 1 1 3 7 6 8 8 8 8 8 7 6 6 1 1 1 1 1 1 1 1 1 1 3 < 3 3 2 2 2 3 < 1 1 1 1 < < < < < < < > > > 1 1 1 > > > > : : : : : ; ; ; ; ; : : : ; ; ; ; ; ; ; ; ; ; ; ; ; ; ; ; ; ; ; ; : > : > > > > > : 2 < < 3 3 3 1 1 1 1 3 3 3 3 3 7 7 6 6 8 8 9 9 9 9 q d 9 9 9 D Z D D D D J J J D J D D D D D Z Z Z Z Z Z Z Z Z Z Z Z Z Z Z Z Z C C C Z Z C C Z Z Z F F Z Z Z Z Z C Z C C C C C q 0 0 6 6 6 6 6 7 7 8 7 7 > ; ; - + @ @ @ @ ",
"* * * * * * * * * * $ * $ $ $ * @ @ O O O O @ + $ : : : : : : : $ + @ O X X O O + + : 2 t t t y 8 p s d D D D d 9 9 V J L E E _ _ ` ' ` ( E H d 9 9 q d D D J H E ( ( ` ` ` ' ' ] 8.' ' ' ' ` ` ` ( E H F F J J J H J F F F F F V 9 9 9 d d s 7 > > ; > > > ; > : : ; ; ; ; ; ; ; ; ; ; ; ; ; ; ; ; ; ; : : $ $ + + + $ $ : : < : : : < < < 3 3 3 3 3 3 1 1 3 1 1 3 3 4 8 8 8 8 8 8 8 8 8 8 p p p 8 3 1 1 1 3 3 3 3 3 4 8 8 8 8 7 7 3 3 4 4 8 8 8 8 8 8 8 8 8 8 8 8 7 8 3 3 3 3 3 3 3 3 4 4 4 4 4 4 4 4 4 4 3 3 3 3 3 3 3 3 3 3 3 3 3 3 3 4 4 3 3 3 4 4 3 3 3 3 1 3 3 3 3 1 1 1 3 3 3 3 1 1 1 3 3 3 3 1 1 1 1 1 1 1 3 7 7 8 8 8 s 8 8 8 6 6 1 1 1 1 1 1 1 1 3 3 1 1 3 2 2 2 1 1 1 1 1 1 1 < < < < < < < > > 1 1 > > > > > : : : : : : ; ; ; : : : : : : ; ; : : ; ; ; ; ; ; ; ; ; ; ; ; ; : : > > > > > > : : 2 < 3 3 3 3 1 1 1 3 3 3 3 7 7 7 8 6 8 8 8 9 9 9 9 q d D D Z D Z D D D D J D J J J D D D D D D Z Z A Z Z A A A A A Z A A A A A A A A A A A Z A A A F F F F Z Z Z Z Z Z C C C C 9 q 0 0 0 0 6 6 6 6 7 7 3 > ; - + + @ @ @ @ ",
"* * * * * * * * * $ $ $ $ $ $ $ = O X X X X = + $ : : : : : : $ + @ O X . X O O # + $ : : 2 3 3 8 8 d D H H J J D Z Z F ( ` ' 9.] 9.9.' ( E J d 9 9 9 d d D D J H E ( ( ( ( ` ` ` ( ( ` ' 8.' ` ( ( E F J J J F J J J F F F F F V 9 9 9 D J s 7 > ; ; ; ; ; ; ; ; ; ; ; $ $ ; ; ; ; ; ; : : ; ; ; ; ; : : : $ $ $ $ $ $ ; : < < < < < < 2 < 3 3 3 3 1 1 1 1 1 1 3 3 3 4 8 8 8 8 8 8 8 8 8 8 p a s p 8 3 1 1 3 3 3 3 3 4 8 8 8 8 8 8 8 8 8 8 8 8 8 8 p p 8 p 8 8 8 8 8 8 4 4 4 4 3 3 3 3 4 4 4 4 4 4 4 4 4 4 3 3 3 3 3 3 3 3 3 3 3 3 3 4 3 3 3 3 3 4 4 4 3 3 3 3 1 3 3 3 3 1 3 1 3 3 3 3 1 1 3 3 3 3 3 1 3 3 1 1 1 1 1 3 7 8 8 s s s s 8 8 6 1 1 1 1 1 1 1 1 3 3 3 3 3 3 2 3 3 1 1 1 1 1 1 1 < < < < < < < > 1 1 < < < < < 2 2 2 : : : : : : : : : : : : : : : : ; ; ; ; ; ; ; ; ; ; ; ; > > > > > > > < > 3 3 3 3 3 3 3 3 3 1 1 3 1 7 7 7 7 7 8 8 8 8 9 9 9 9 q d D D D D Z D D D D D D J J J J F F F F F F F A F F F A A F F F A A A A A A A A S A A A A A A A F K K F A A A A A A A Z Z Z C C V V 9 9 0 6 7 7 7 3 > ; ; + + + @ @ @ + ",
"* * * * * * + + * $ $ $ $ $ * + = O X . . X = + $ : : : & $ $ + @ O O X X O O O + + $ $ $ $ ; > 3 7 s D H H H H D D A K ' 9.F.G.G.G.F.8.` E H 9 8 8 9 9 d d d D J H H E E ) ) ) H D D L ( ' ( ( ( ) H J J J J H H H J F D F J F V 9 0 9 J J s , > ; ; ; ; ; ; ; ; ; $ $ $ $ ; ; $ $ ; ; ; : : $ ; ; ; : : : ; $ $ $ $ : : < < < < < < < 2 < 3 3 3 3 3 1 1 1 1 1 1 3 3 8 8 8 8 8 8 8 8 8 8 p p d d s 8 3 1 1 3 8 3 3 4 8 8 8 8 8 8 8 8 8 8 8 p p p p p p p p p p 8 8 8 8 8 4 4 4 4 4 4 4 4 4 4 4 4 4 4 4 4 4 3 3 3 3 3 3 3 3 3 3 3 3 3 3 3 3 4 4 3 4 4 3 3 3 3 3 1 3 3 3 3 3 3 3 1 3 3 1 1 1 3 3 3 1 3 1 3 3 1 1 1 1 1 1 7 7 8 8 s s s p 8 7 1 1 1 1 1 1 3 3 3 3 3 3 3 3 3 2 3 1 1 1 1 1 1 1 < < < < < < < < 1 1 < < < < 2 2 2 2 : : : : : : : : : : : : : : : : ; ; ; ; ; ; ; ; ; ; ; ; ; > > > > > > > 1 1 3 3 3 3 3 3 3 1 1 1 1 3 7 7 7 6 8 8 8 8 9 9 9 d q q D D D D D D D D D D F F J J J J F F F F F F F F F F F F F F K K F K K K S S S A S S S A A A S S K K K K K K K K A A A A A A D Z D D V 9 9 6 6 7 , , > ; - + + @ @ @ @ + ",
"* * * * * + + + + * * * $ * * * = O . o . X @ + $ $ $ $ * + + @ O O O X O O @ @ # + * + # # $ $ ; > 7 9 J H J F A A A E ' t.F.H.G.F.9.' ( E J 9 8 8 0 9 d 9 9 d q D J J H H H F 9 6 , 6 J H H H W H H H J J J H H H J D F F F J V 0 6 9 G G p > ; ; ; ; ; - ; ; ; ; ; ; ; $ ; ; $ ; ; : ; ; ; ; ; ; : : : : : : ; ; ; : < < < : < < < < 2 < < 2 3 3 3 1 1 1 1 1 1 3 3 7 8 8 8 8 8 8 8 8 8 8 s d d p 8 3 1 3 4 8 7 8 8 8 p p 8 8 8 8 8 p p p p p p p p p p p p p p p 8 8 8 3 3 4 4 4 4 4 4 4 4 4 4 4 4 4 4 4 3 3 3 3 3 3 3 3 3 3 3 3 3 4 3 3 3 4 4 4 4 3 3 3 3 3 3 3 3 3 1 1 3 3 1 1 1 1 3 3 3 3 3 3 3 3 3 3 1 1 3 1 1 1 1 7 7 8 8 8 8 8 8 3 3 1 1 1 1 3 3 3 3 3 3 3 3 3 3 3 3 3 1 1 1 1 1 1 1 < 1 1 1 1 1 < > < < < < < < 2 2 < : : : : : : : : ; ; ; ; ; ; ; ; ; ; ; ; ; ; ; ; ; ; ; ; > > > > > > > 1 1 3 3 3 1 3 3 3 3 3 3 3 1 3 3 7 7 8 8 8 8 8 0 9 9 9 q q D D D D D D D D F F F F J J J J F F F F F F F K K K K K L K K K K K K K S S S S S S S S S S S S S S S S K K K K S K S S F F F F D D V 9 0 , , , > > ; - - + + + + + + + ",
"* * * * * * + + * * * * * * + + = O X . . X O @ * $ $ + # @ @ @ O O X X O O @ @ @ @ # + + + + + + - > 6 9 D D A Z Z A E ' 9.t.t.9.] ` E E H J 9 8 8 9 9 d 9 9 9 9 9 d D J J D D 6 - + - 1 7 9 D H H H J J J J J H H J F F F F D V 0 6 9 D D 8 > ; ; ; ; ; - ; ; ; ; ; ; ; ; ; ; ; ; ; : ; ; ; ; ; ; : : : : : : ; ; : : < < : : : : : < 2 < 2 2 3 3 1 1 1 1 1 1 1 1 3 3 3 3 8 8 8 8 8 8 8 8 8 s 8 8 8 8 1 8 8 8 8 8 8 d d s 8 8 8 8 8 p p p p p p p p p p p p p p 8 8 8 8 3 3 3 4 4 4 4 4 4 4 4 4 4 4 4 4 4 3 3 3 3 3 3 3 3 3 3 3 3 3 3 3 3 3 3 4 4 4 3 3 3 3 3 3 3 3 3 1 1 3 3 1 1 1 1 3 3 3 3 3 3 3 3 3 3 1 1 1 1 1 1 1 6 7 7 7 7 8 8 7 3 3 3 3 3 3 3 3 3 3 3 3 3 3 3 3 3 3 1 1 1 1 1 1 1 1 1 1 1 1 1 1 1 < < < < < < < < 2 < ; ; ; ; > ; ; ; ; ; ; ; ; ; ; ; ; ; ; ; ; ; ; > ; ; ; ; > > > > > > 1 1 3 1 3 3 1 3 3 3 3 3 3 1 1 3 3 7 7 8 8 8 8 8 9 9 9 d q d D D D D D D D J F F F F F F F F F F K K K K K K K L L K K K K K S K K K S S T S T S S T E E E E T S S T L L K T S K S K K K F J V 9 9 9 6 , > , > > ; - + + + + @ @ + @ ",
"* * * * * * * * + * + * * * * * = X . . . . X @ * * # @ O O O @ O O O O O O O O O O @ + + $ + + + - > 6 9 Z A Z A A A E _ ' ] ] 9.] ' ` E E H J 9 9 9 q 9 9 9 9 8 9 9 q D D V 9 7 - + + - > 7 d J J J J J J J H H H H F F H F Z V 0 0 d d s 7 > > ; ; ; ; ; ; ; : : ; ; $ $ ; ; ; ; $ $ $ ; ; ; ; ; ; ; ; ; : : : : : < < < : ; : : : < < < < 3 3 3 3 3 1 1 1 1 3 3 1 3 3 3 3 3 3 3 4 4 8 8 8 8 8 8 8 8 8 8 8 8 8 8 d d d d 8 8 7 7 8 8 8 8 8 8 8 8 8 8 8 8 8 8 7 7 7 3 3 3 3 8 4 4 8 8 7 7 7 7 3 3 7 7 7 8 3 3 1 1 1 1 1 1 1 1 1 1 1 3 3 3 3 1 4 4 3 3 3 3 3 3 3 3 3 3 1 1 3 3 3 3 1 1 1 1 1 1 3 1 3 3 1 1 1 1 1 1 1 3 7 1 6 6 7 3 3 3 3 3 3 3 3 3 3 3 3 3 3 3 1 3 3 3 3 3 3 1 1 1 1 1 1 1 1 1 1 < 1 1 1 < < < < < < < < < < < > > ; ; > > ; ; ; ; ; ; ; ; ; ; ; > > > > > > > > > ; ; > > > > > > 1 1 1 1 1 1 1 1 3 3 3 3 1 1 3 3 7 6 7 8 8 8 8 9 9 9 d d d D D D D D D D F F F F F F F F F F K K K K K K L L L L L L L L K K T K E E E _ _ _ _ _ _ _ _ [ _ _ _ _ _ _ _ _ T T L E L L L H F Z 0 6 6 6 , > > > > ; - - + + + + @ @ @ @ ",
"* * * * * * * * * * * @ @ * * * @ X . . . . X @ @ @ @ O X O O @ O O O O O O X X . X O # * $ $ + - - > 6 9 Z Z Z A A S E _ ' ' ] S.9.9.' ( E H J D d 9 9 9 9 8 8 8 8 9 9 9 9 9 9 8 > - - - > 6 d D D D J J J F H L L H H E E F C 9 9 9 V d p 3 > > > > > : ; ; : : : : : ; ; : : ; ; $ $ $ $ ; ; ; ; ; ; ; ; : : : : < < < < : ; ; ; : ; : < < < 3 3 3 3 3 3 3 3 3 3 3 3 3 3 3 3 3 3 4 3 3 8 8 8 8 8 8 8 8 8 8 8 8 9 d d d d 8 7 7 7 7 7 8 8 8 8 8 7 7 8 8 7 8 8 3 3 3 3 3 3 8 8 8 4 8 8 7 7 7 7 3 4 8 7 7 7 3 3 1 1 1 1 1 1 1 1 1 1 1 3 3 3 3 1 4 4 3 3 3 3 3 3 3 3 3 3 1 1 3 3 3 3 3 3 1 1 1 1 1 1 3 3 3 1 1 1 1 1 3 3 7 3 7 6 7 1 1 3 3 3 3 3 3 3 3 3 3 3 3 3 1 1 3 3 3 3 1 1 1 1 1 1 1 1 1 1 < < 1 < < < < < < < < < < < < < 1 1 1 1 > > > ; ; ; ; ; ; ; ; ; > > > > > > > > > > > > > > > > > > 3 1 1 1 1 1 1 1 3 3 3 1 3 3 3 7 7 6 8 8 8 8 9 9 9 9 d d D D D D D D D D F F F F F F F F F F K K K K L L L E L E E E E E E E E _ _ _ _ _ _ _ [ [ [ [ ] ] ] [ [ [ _ _ _ _ _ _ _ _ E L E K F 9 , , > , , > - > > ; - - + + + + @ @ @ @ ",
"* * * * * * * * * * * * @ @ @ @ @ X X . . . X X O X X X X O O O O O O O X X X . o X O @ + + + * $ ; > 8 D J D F K E K E E _ _ ` ] ] ] ' ` E F D D D D 9 9 9 8 8 8 8 8 8 8 8 9 9 8 3 1 1 1 7 8 9 d d D J J J F E ( E L H E ) F 9 9 9 9 D s 8 1 > ; > : : : : ; ; : : ; ; ; : : : ; ; ; ; ; ; ; ; ; : : : : : ; ; ; : < < < ; $ + $ $ $ $ $ - ; < 1 3 3 1 3 3 1 3 3 3 1 3 3 3 3 3 4 4 3 8 6 8 8 6 8 8 8 8 8 8 8 8 8 s d d d 9 8 8 3 3 3 7 7 7 7 7 8 8 8 8 8 8 8 7 8 8 8 8 8 8 8 4 4 8 3 3 8 3 3 3 3 3 3 3 3 3 1 1 1 1 1 1 1 1 1 1 1 1 3 3 3 3 3 3 3 3 3 3 3 3 3 3 3 3 3 3 3 3 3 3 3 3 1 1 1 1 1 1 1 3 3 3 3 1 1 3 3 7 7 7 7 7 7 7 1 1 7 3 7 3 3 3 3 3 3 3 3 3 3 3 1 3 7 3 3 1 1 1 1 1 1 1 1 1 1 1 1 1 < < < < < < < < < < < < < < > > > > > > ; ; ; ; ; ; ; ; ; ; ; > > > > > > > > > > > > > > > 3 3 > 3 3 3 3 3 3 3 3 1 1 3 7 7 6 6 7 8 8 8 9 9 9 9 9 d d D D D Z Z Z A Z A F A A A A A A A A K K L L E E E E E E E E _ _ E L L _ _ [ [ [ [ [ [ [ ] ] S.D.D.S.S.[ [ [ [ [ _ _ _ _ _ _ E L F V 0 > > - - - > > > ; ; - - - + + + + @ @ @ ",
"* * * * * * * * # @ * @ @ @ @ @ X X X . . . X X X X X X X X O O O O O X X X X . X X O O @ @ @ # $ - ; 7 D D D D E E E S K K K E E _ _ E L K J D J D D D 9 9 9 9 8 8 9 9 8 9 9 9 d p 8 8 8 8 d d d d D J H H E ( ( E E E ( ) H D 9 9 9 d d 7 > > ; > : : : : ; ; ; ; ; ; ; : : : ; : ; ; $ ; ; ; : : : : : : ; ; : : < < ; $ + @ + @ + + + + $ ; 1 3 3 1 1 1 3 3 3 3 7 7 3 3 3 3 4 4 8 8 8 8 8 6 8 8 8 8 8 8 8 8 8 8 9 9 8 8 8 8 3 3 3 7 7 7 7 7 7 8 8 8 8 8 8 8 8 8 8 8 8 8 8 8 4 4 3 3 8 3 3 3 3 3 3 3 3 3 1 1 1 1 1 1 1 1 1 1 1 1 3 3 3 3 3 3 3 3 3 3 1 1 3 1 3 3 3 3 3 1 3 3 3 3 1 1 1 1 3 1 3 3 3 3 3 1 1 1 3 7 7 7 7 7 7 7 7 7 7 3 3 3 1 1 1 3 3 3 3 3 3 7 8 8 8 8 8 8 8 8 6 6 6 4 1 1 1 1 1 1 1 1 < 1 < < < < < 1 < < < < > > > > > > ; ; ; ; ; ; ; ; ; ; > > > > > > > > > > > > > > > > 3 3 3 3 1 3 3 3 3 3 1 3 3 7 7 7 6 6 7 8 8 0 9 9 q q d 9 d Z D D Z D A F F A F F A A A A A A S K L L E E E E E E _ _ _ _ _ _ _ _ _ _ ] S.S.] [ [ ] ] S.D.D.D.S.S.S.] ] [ [ [ [ ] ] [ _ _ K Z 0 , , , - - > > > > ; ; - - - + + + + @ @ @ ",
"* * * * * * * * # # # @ @ = X X X X X . . . X X X X X X X X X X X X X X X X . . X X O O O O O O @ @ @ - 1 6 , , 9 F E E E K S S S S S S K K F F F D D Z 9 9 9 9 9 9 9 9 9 9 9 9 p 8 8 8 8 8 9 9 d D J H H E E ( ( E L E E L J D 9 9 9 d 8 3 > > > ; > : : : : ; ; ; ; ; ; ; ; ; : : $ $ $ $ ; ; : : : : : : : : : : : : ; $ @ O O O O @ @ O + $ < 3 1 1 1 3 1 7 8 8 8 8 8 8 8 8 4 4 4 4 8 8 6 6 8 8 8 8 8 8 8 8 8 8 8 8 8 8 8 8 3 3 3 7 7 7 7 7 7 8 8 8 8 p p p p p p 8 8 8 8 8 8 8 3 3 8 3 3 3 3 3 3 3 1 1 1 1 1 1 1 1 1 1 1 1 1 1 3 3 3 3 3 3 3 3 3 1 1 1 1 1 1 1 3 3 1 1 1 1 3 3 3 3 3 3 3 3 3 3 3 3 3 3 1 1 3 3 7 7 7 7 7 7 7 7 7 3 3 1 1 1 1 3 3 3 7 7 7 7 8 8 8 8 8 8 8 8 7 8 8 6 1 1 1 1 1 1 1 1 1 1 1 < < < 1 1 < < > > > > > > > > : : ; ; ; ; ; ; ; ; > > > 1 3 3 3 > > > > > > > > > 3 > > 3 1 3 3 1 3 1 3 3 3 6 6 7 6 7 8 8 0 8 9 9 q q 9 9 Z Z Z Z Z A F F F K K K A A A A A A S K L E E E _ _ E E _ _ _ _ _ _ _ _ _ _ [ ] ] [ [ [ S.S.S.D.D.D.D.D.D.S.S.S.[ [ [ [ ] [ ` _ K C 6 , , > > > > > > > ; ; - - + + + + + @ @ @ ",
"@ @ @ @ @ @ @ @ * @ @ @ = X X X X X . . X . X X X X X X X X X X X X X X X X . o . . X X X X O O @ O O @ - - + + - 0 F E E E E E E E K K E E E L H K F J J J D D d d 9 9 0 0 9 9 8 8 8 8 8 9 9 d D D J H E E E E E L L L L F D D 9 0 9 8 7 > ; ; ; ; ; : ; ; ; ; ; ; ; ; ; ; ; ; : : : $ ; ; : : : : : : : : : : : : : ; ; $ + @ @ O @ @ @ O + $ < 3 1 1 3 3 1 7 3 8 7 7 8 8 8 8 4 4 4 4 8 8 6 6 8 8 8 8 8 8 8 8 9 8 8 8 8 6 6 6 6 6 6 6 7 7 7 7 8 8 8 8 8 8 8 8 8 8 8 8 8 8 8 8 8 8 8 7 8 1 1 1 1 1 1 1 1 1 1 1 1 1 1 1 1 1 1 1 1 1 1 1 6 6 6 1 1 3 3 1 3 1 1 1 1 1 1 3 1 1 1 1 3 3 3 3 3 3 3 3 3 3 3 3 3 3 3 1 1 7 7 7 7 7 7 7 7 7 7 3 6 1 6 6 6 7 8 8 8 8 8 8 8 8 0 9 9 0 8 8 8 8 8 7 6 1 1 1 1 1 1 1 1 1 1 < 1 1 1 1 < < < > < < < < < < < ; ; ; ; ; ; ; ; ; > > > > > > > > > > > > > > > 3 > > 3 3 1 1 1 1 1 1 1 3 7 7 6 6 6 6 8 8 0 9 9 9 9 q Z Z Z D A A A A F K S A A A S S S S A S K K K E E _ _ E _ _ _ _ _ [ [ [ [ [ [ [ [ [ [ [ ] S.S.S.S.S.S.D.D.D.D.D.D.S.] ] ] ] ] ] ` _ F 9 6 , , > > > > > > > ; ; - + + + + + + @ @ @ ",
"@ @ @ @ @ @ @ @ # # # @ X X X X . . o o o o o o o o X X X X o o X X X X X o . . o . o o o X X X O O O O + + + + - 6 Z F E E _ ` ` ` _ _ ` ` ` ` ` ( ( ) ) H H J J D d 9 9 9 9 9 8 8 8 8 8 9 d D D J J H L E E E E L L L H F Z D 9 0 0 6 3 > ; ; > > > ; : : ; ; ; ; ; ; ; ; ; ; ; ; ; ; ; : : : : : < < < : : : : ; ; $ $ $ + @ @ O O O O O + $ < 3 1 1 3 3 1 7 3 3 3 3 8 8 8 8 8 8 8 8 8 8 8 8 8 8 8 8 9 9 8 8 9 9 9 8 8 8 8 6 6 7 7 7 7 6 8 8 8 8 8 8 8 8 8 8 8 8 8 8 8 8 8 8 8 8 8 8 6 1 1 1 1 1 1 1 1 1 1 1 1 1 1 1 1 1 1 1 1 1 1 1 1 6 6 1 1 1 1 3 1 1 1 1 1 1 3 3 3 1 1 1 3 3 3 3 3 3 3 3 3 3 4 3 3 3 3 3 3 3 3 7 7 7 7 7 7 7 7 6 7 8 8 8 8 8 8 8 8 8 8 9 9 9 9 9 9 9 9 9 0 0 8 8 8 6 7 1 1 1 1 1 1 1 1 1 1 1 1 1 < 1 1 > > > > > 1 > ; ; ; ; ; ; ; ; ; ; > > > > > > > > > > > > > > > > 1 1 3 1 1 1 1 1 3 3 1 3 7 6 6 6 6 6 8 8 9 9 9 9 V V Z Z D A A A S S S A S S S S S T K K S K K L E E E E _ _ _ _ _ _ _ [ [ ] ] ] ] [ [ ] S.S.S.S.S.S.S.D.D.D.D.D.D.D.D.D.D.D.S.D.] [ _ L C 6 , , > > ; ; ; ; ; ; ; ; - + + + + + + @ @ @ ",
"@ @ @ @ @ @ @ @ # # @ = X X X o . . . o o o o . o o o X X X o o X X X X o o o o o X X X X o X X X X X O @ @ O + - 6 8 9 F E ` ' ] 8.] ] ] 9.] ] ' ` ` ` ( W H H H J D d 9 9 9 9 8 8 8 8 8 9 9 D J J H H H E E E K K K K F D Z d 9 0 6 6 > > ; ; ; : ; ; $ $ $ $ ; ; ; ; ; ; : ; ; ; ; ; ; : : : : < < < < : : : : : ; $ $ + + @ + @ O O O O + $ < 3 1 1 3 3 3 8 3 7 8 8 8 8 4 8 8 8 8 8 8 8 8 8 8 8 8 0 9 9 8 8 8 8 8 8 8 8 8 8 7 8 8 8 8 8 8 8 8 8 8 8 9 9 9 9 8 8 9 8 8 8 8 8 8 8 8 8 8 6 1 1 1 1 1 1 1 1 1 1 1 1 1 1 1 1 1 1 1 1 1 1 6 6 6 6 7 6 1 1 3 3 1 1 3 3 3 3 3 3 3 3 3 3 3 3 3 3 3 3 4 4 3 3 3 3 3 3 3 7 7 7 7 7 7 7 7 7 7 6 7 6 6 8 6 8 8 9 0 9 9 9 9 9 q q q 9 9 q 9 9 9 0 8 8 6 6 7 6 1 1 1 1 1 1 1 1 1 1 1 1 1 1 1 1 1 1 1 1 1 > 1 1 1 1 < < 1 1 > > > > 3 3 3 3 3 3 > > > > > > 1 1 3 3 1 1 1 1 3 3 3 7 7 7 6 6 6 8 8 0 9 9 9 9 V V Z Z A A A A S A A S S S T T _ _ _ _ _ E _ _ _ _ _ E _ _ _ _ _ _ [ [ ] ] ] ] [ [ [ ] ] S.S.D.S.S.S.D.D.D.D.D.D.D.D.K.D.F.F.D.] _ S A 0 , > > > ; ; - - - ; ; ; - - + + + + + + @ @ @ ",
"@ @ X O X X X X = = X X X X o . . . o o X X o o o o o o o o o o X X o o o o X X X X X X X o o X X X = X O O O @ + - > 6 9 Z K E ' 9.t.t.9.t.9.] ] ' ` ` ( ) E H H H J D d d 9 9 9 8 8 8 9 9 d D D J J J J H E L F F F F D Z q d d 9 6 1 > ; ; ; ; ; ; $ $ $ $ $ ; ; ; ; ; : : : ; ; ; ; : : : : < < < < < : : : : : ; ; $ + @ O @ @ O @ O O + $ < 3 3 1 3 3 3 3 3 3 8 8 4 8 4 4 8 8 8 8 8 8 8 8 8 8 8 9 9 8 9 8 8 8 8 8 8 8 8 8 8 8 8 8 9 8 8 9 9 9 9 9 9 9 9 9 9 9 9 8 8 8 8 8 8 8 8 8 8 1 1 1 1 1 6 6 1 1 1 1 8 8 6 8 4 8 7 8 6 6 4 3 8 8 8 8 6 6 8 8 3 3 3 3 3 3 3 3 3 3 3 3 3 3 3 3 3 3 3 3 8 8 7 7 3 7 3 3 7 7 7 7 7 7 7 7 8 7 7 7 7 8 8 8 8 8 9 9 9 9 q Z Z Z Z Z Z Z C C V V V 9 9 0 8 8 8 8 7 1 1 3 1 1 1 1 1 1 3 3 3 3 1 1 3 3 1 1 1 1 1 1 1 1 1 1 1 1 3 1 > 1 3 3 1 3 3 3 3 3 > > > 3 3 3 3 3 3 1 3 3 3 3 7 7 8 8 6 6 6 8 8 9 9 9 9 9 V Z Z A F K L K K K K K L _ _ _ [ ] ] ] [ _ _ _ _ _ _ _ _ E _ _ _ _ [ [ [ [ [ ] [ [ [ [ S.S.D.K.D.D.D.D.D.K.K.R.K.K.D.D.D.D.D.S.[ S C , , > > ; ; ; ; - - - - - - - + + + + + + + + @ @ ",
"@ @ X X X X X X X X X X o o . . . o o o X X X X o o o o o o o X o X X . o o X X X X X X o o X X o X X X X X O @ @ @ + - - , 0 Z E ' 8.] ] ] ] [ ` _ E E E H H H H J J D D d d 9 8 8 8 8 9 9 9 9 9 D D Z D H H H F F F F Z 9 q d D 9 6 , > ; ; ; ; ; ; $ $ $ $ $ : : ; ; ; : : : ; ; ; ; : : : : < < < < < : : : : : : : ; $ + @ @ O O O @ O + $ < 3 3 3 3 3 3 3 3 3 3 4 4 4 4 4 8 8 8 8 8 8 8 8 8 8 9 9 9 9 8 8 9 9 9 9 9 8 8 8 8 8 9 9 9 9 9 9 s s 9 9 8 9 9 9 9 9 9 8 8 8 8 8 8 8 8 8 8 8 1 1 8 8 8 6 6 6 6 6 8 8 8 8 8 8 6 6 8 8 8 8 8 8 8 8 6 6 8 8 8 3 3 3 3 3 3 3 3 3 3 3 3 3 3 7 3 3 3 3 7 7 7 7 7 7 3 3 7 7 7 7 3 7 7 7 7 7 7 7 8 8 8 8 9 9 9 9 q Z Z Z Z D D D A A Z Z D D D D d 9 9 9 9 8 8 8 1 3 3 3 1 1 1 1 1 3 3 3 3 3 3 3 3 1 1 1 1 1 1 1 1 1 1 1 > > > > 1 > 1 1 3 3 3 1 1 > 3 3 3 3 3 3 3 3 3 7 3 3 7 7 8 8 6 6 6 8 0 9 9 9 9 9 9 C Z F K L E E E E _ _ _ [ ] ] S.S.F.] ] ] [ [ [ [ _ _ _ _ _ _ _ _ _ [ [ [ [ [ _ _ [ [ S.D.D.K.D.K.K.K.K.K.K.R.R.K.D.D.D.D.D.] _ S 0 , , - > ; ; - - + + + - - - + + + + + + + + @ @ @ ",
"X X X X = = X X X X o . . . . . o o X X X X X X o o X o o X X X o o o o o o X X X X X X X X X X X X X X = O @ @ @ @ + + O + - 0 A E ( ` _ _ [ _ E K L L K F J J J J D D D D V q 9 8 8 8 8 8 8 6 6 8 9 d J H J J J D D 9 9 9 9 9 d 6 , > > ; ; ; ; ; ; ; $ $ $ $ $ $ $ : ; ; ; ; $ ; ; ; ; ; ; > > > > > < < : : : : : < : $ + O @ @ @ @ @ + $ ; 1 3 3 3 1 3 8 1 3 3 3 8 8 3 3 3 1 7 7 8 8 8 8 8 9 9 9 9 9 9 9 9 8 8 q 9 9 8 8 8 9 9 9 9 9 9 d d d s 9 9 9 9 9 9 9 9 9 8 8 8 8 8 8 8 8 8 8 8 6 6 6 6 6 6 6 6 6 6 8 8 8 8 7 7 8 7 8 8 8 8 8 8 8 8 8 8 8 8 8 8 4 3 7 7 7 7 4 8 3 3 1 6 3 3 3 3 3 3 3 3 3 3 8 3 3 4 3 8 7 7 8 8 8 8 8 8 8 8 8 8 8 9 9 9 q q Z Z D J F F F F A A A A J J F D D D d 9 9 9 8 8 8 8 4 1 3 1 1 1 1 3 3 3 3 3 3 3 3 3 1 1 1 1 1 1 1 1 1 1 1 1 3 3 1 1 1 1 > 1 1 > 1 1 1 1 3 3 3 3 3 3 7 7 6 6 7 7 6 6 8 6 8 8 9 9 9 9 V V C Z A K L E _ ` ` ` [ [ ] ] S.F.F.S.S.] ] ] [ [ [ [ [ [ _ _ _ _ _ _ _ _ _ _ _ _ _ _ [ ] ] S.D.D.K.R.R.D.D.D.D.D.K.D.D.D.D.S.] ] _ S , , , > - - ; - - + + + - - - + + + + + + + + + @ @ ",
"X X X X X X X X . . . . . . o o o X X X X X X X o o X X o X o X o X o o o o X X X o o o X X X X o X X X X X = = @ @ @ O O + - 1 9 J H E L _ ` _ E K K K F D D D D D D d 9 V Z Z d q 9 8 8 8 1 > > 6 8 d J J J D D V 9 0 0 0 9 9 s 7 > ; ; ; ; ; ; ; ; ; $ $ $ $ $ $ $ $ ; ; ; ; $ ; ; ; ; ; ; > < < < < > : : : : : : : : $ + @ @ @ @ @ + + $ : 1 3 7 1 1 3 7 3 3 3 7 8 8 8 7 7 7 7 7 8 8 8 8 0 9 9 9 9 9 9 9 9 9 9 d q q q q 9 9 9 d 9 q q d d d d 9 9 9 9 9 9 9 9 9 9 8 8 8 8 8 8 8 8 8 8 6 6 6 6 6 6 6 6 6 6 6 6 6 6 6 6 6 6 8 8 8 8 8 8 8 8 8 8 8 6 8 8 8 3 7 3 3 6 8 6 7 1 1 6 3 3 3 3 3 3 3 3 3 3 3 3 7 7 3 8 7 8 8 8 8 8 8 6 6 8 8 8 9 8 9 q Z Z Z D F J F F K K K F F F F F F J D D D V 9 9 9 8 8 8 8 4 3 3 3 1 3 1 3 3 3 3 3 3 3 3 3 3 1 1 1 1 1 1 1 1 3 3 3 3 3 3 1 1 > > > > 1 1 3 3 3 1 3 3 3 7 7 7 6 6 7 6 8 8 6 6 0 0 9 9 V V V Z C Z A L E _ ` ` ` ' ] ] ] ] S.F.D.S.] ] [ [ [ [ [ [ [ [ [ [ _ _ _ _ _ _ _ _ _ _ _ _ _ [ [ [ S.D.K.K.K.D.S.S.D.D.D.S.S.S.S.] [ _ L C , , , - - - - - + + + + + + - + + @ + + + + + @ @ O ",
"X X . . X X X .     . . . o o X X X X X X X X X o o o o o o o o X X X X o X X X o . o o o o o X X X X X X X X O = O O @ O O + ; 7 9 d Z A E ` _ L A F K J D D D D D 9 9 9 9 C V q q q 8 8 1 > - - 1 9 D J J D 9 9 9 0 6 8 8 8 8 7 3 > ; ; ; ; ; ; ; ; ; - - $ $ ; $ $ ; ; ; ; ; ; ; > > > > < < 3 3 1 1 > > ; : > > > > > > ; + @ @ + + + - ; > 1 3 3 3 3 3 3 3 3 3 7 8 7 7 7 7 7 7 8 8 8 0 9 9 9 9 9 9 9 9 9 9 9 q q q q q 9 9 q q q q q q d d D d q 9 9 9 9 9 9 9 9 9 9 9 8 9 9 8 8 8 8 8 8 8 8 8 8 8 8 8 8 8 8 8 8 8 8 8 8 8 8 8 8 8 9 9 8 0 0 0 0 8 8 8 8 8 6 6 6 6 8 8 1 1 6 6 6 6 6 6 7 7 7 7 7 7 8 8 7 8 8 7 8 8 8 8 7 6 6 6 0 8 0 0 9 9 9 q Z A A F F K K K E L L K K K K K F F F F Z Z V V 9 9 9 8 8 8 8 8 7 3 7 7 3 3 3 3 3 3 3 3 3 3 3 3 3 3 3 3 3 3 3 3 3 3 3 3 3 3 3 3 1 3 3 3 3 3 1 3 1 7 6 6 6 6 6 6 6 6 6 6 0 0 0 0 9 V C C C C C A A K E E _ [ ] ] ] ] ] ] S.F.F.D.S.] [ [ [ ] [ [ [ [ [ [ [ [ [ [ [ [ _ _ _ _ _ _ _ [ [ [ [ ] S.S.S.] [ S.S.S.S.S.] ] ] [ _ K Z 0 , - - - + - - + + + @ + + + + + + @ @ @ + + @ @ @ O ",
"X X X . X X X .   o   . o o X X X X X X o o o o o o o o o o o o X X X X o o X X . . o X o o o o o o X X X X X X O O O @ @ @ @ + @ ; < 1 0 H ` ` F Z D F H J D D Z V V V C C C C q 9 9 9 8 6 > - , 6 q D J J D 9 0 6 6 6 9 8 8 3 3 > ; ; ; ; ; - ; ; ; ; - - - - ; $ $ ; ; ; ; ; ; ; > > < 1 1 1 3 3 3 1 < ; ; < < < < 1 1 < ; ; + + + $ ; ; < 1 3 3 3 3 3 3 3 3 3 3 8 7 8 8 8 8 8 7 6 6 8 9 9 9 9 9 9 9 9 9 9 9 q q q q q q q q d d q q q d d D D d d d q d q q 9 9 9 9 9 9 9 9 9 9 9 9 9 9 9 9 9 9 9 9 9 9 9 9 8 8 8 8 8 8 8 8 0 9 9 9 9 9 9 9 9 9 9 9 9 9 8 8 8 8 6 6 8 8 6 6 6 6 6 6 6 6 6 6 8 8 8 8 7 8 8 8 8 8 8 8 8 8 8 8 0 0 0 0 9 9 9 9 q Z A A A A A K L E E E E L E E L L K K K A Z Z Z Z Z V 9 9 9 8 8 8 8 7 8 8 7 7 7 7 7 7 7 7 7 7 7 7 7 7 7 3 3 3 1 1 1 1 1 1 1 1 3 3 3 3 1 7 7 7 1 6 6 6 6 6 6 6 6 6 6 6 6 0 0 0 0 9 Z Z Z Z Z Z A A A K K E _ _ ] ] ] ] ] S.D.K.K.K.F.S.] ] ] ] [ [ [ _ _ _ _ [ [ [ [ [ [ [ [ [ _ _ _ [ _ _ [ [ [ ] [ [ [ [ [ [ ] ] ] ' ` L J 9 6 6 > - - - + + + + + + + + + + + + + + + @ + + @ @ @ O ",
"X X o o o o o o . . o . o X X X X X X o X X X o o o o o o o o X o o o X X X X X X X o o X X X X X X X X X X X X X X O @ @ O @ @ * $ ; - - 6 D Z V 0 9 J J D D D D D D D Z Z C C q 9 9 9 q 6 6 , 8 9 D D J J D d 0 6 6 8 8 p 3 3 1 > ; ; ; ; ; - ; ; ; ; ; ; ; - ; ; $ $ $ ; ; ; > < < 1 1 1 3 3 8 8 8 1 ; ; ; < < < < 1 1 1 1 < ; - - ; < 1 3 3 3 3 3 3 3 3 3 3 7 7 7 8 8 8 8 8 6 6 8 8 8 0 9 9 9 9 9 9 9 q q q 9 Z Z Z Z Z Z Z Z Z Z D Z D D D D D D D D D Z Z Z q 9 9 9 9 9 9 9 9 9 9 9 9 9 9 9 9 9 9 9 9 9 9 8 8 0 9 9 9 9 9 9 9 9 q q q q Z C C q 9 9 9 9 9 9 9 8 8 8 8 6 6 6 6 6 6 6 6 6 6 7 7 6 8 8 8 8 8 8 8 8 8 8 8 8 8 0 0 9 9 9 9 9 9 Z Z A A A A S K L E E E E E E E L K K K K K A A Z Z Z Z V 9 9 0 9 0 8 8 8 8 8 8 8 6 7 7 7 7 7 8 7 7 7 7 3 3 7 3 1 1 1 1 6 6 3 7 7 7 7 7 7 7 6 6 6 6 6 6 6 6 6 6 6 6 0 0 0 q 9 9 C Z F F K H L E E E E _ _ _ _ [ [ [ ] S.F.F.K.K.K.K.K.D.D.S.S.S.] [ [ _ _ _ _ _ [ [ _ _ _ _ _ _ _ _ _ _ _ _ _ _ [ [ [ _ _ _ [ [ [ [ [ ` L Z 0 , > - - - - - + $ + + + + + + + + + + + + + + + + @ @ @ @ ",
"X X o o o o o o o o o X X X X o o o o o o o X X o o o o o o X X o o X X X X X X X X o o X X X X . . X X X X X X X X X X X X X X X @ @ + + > 0 9 8 6 0 D J J J J J J J J F D Z C Z Z q q Z q 9 0 q d D D D J D D 9 0 6 7 8 8 3 3 > ; ; ; ; ; ; ; ; ; ; ; ; ; ; ; ; ; - ; ; ; ; ; > < 1 1 1 1 3 3 8 8 8 1 1 > > > 1 > 1 1 1 1 1 1 > ; ; 1 3 3 3 3 3 3 3 3 3 3 3 3 7 7 8 8 8 8 8 8 8 8 8 0 0 0 9 9 9 9 9 9 V Z Z Z Z Z Z Z Z Z Z Z D D D D D D D D D D J J J D D D D D Z q V 9 9 9 9 9 9 9 9 9 9 9 q q q q 9 q 9 q 9 9 9 9 9 q q q Z Z Z Z Z Z Z Z Z Z Z Z q q q 9 9 9 9 8 8 8 6 8 6 6 6 6 6 6 8 8 6 6 6 6 8 8 8 8 p 8 p 9 9 9 9 8 0 0 9 9 9 V 9 V Z A A A S K K E E E _ _ _ _ E E _ E L K K K S S A F A Z V 9 9 9 0 0 8 8 8 8 8 8 8 7 7 7 7 7 7 8 7 7 7 7 7 7 7 7 1 1 1 7 7 7 7 7 7 7 7 7 7 7 6 6 6 6 6 6 6 6 6 6 6 6 0 q 9 9 V D Z F F L E ( ` ` _ _ ` [ ] ] [ ] [ [ ] S.D.F.F.D.F.K.K.F.F.D.S.S.] ] [ [ _ _ [ [ _ _ _ _ _ _ _ _ _ _ _ _ _ _ _ _ _ _ _ _ _ _ _ ` _ _ _ L V 0 , > - - - - - - - + + + + + + + + + + + + + + @ + @ + + @ @ ",
"X X o o o X o o o o o X X o o o o o o o o o o o o o o o o X X X o o o o X X X X o o o o X X o o . . . X X X X X X X X X X X X X @ @ @ @ + - , , 1 > 1 7 8 d J J J J J F F F A A A Z Z Z D D D Z D D D D D J D D 9 0 6 7 7 3 3 3 ; ; ; ; - ; ; ; ; ; ; ; ; ; ; ; ; ; ; ; ; ; ; ; > < 1 1 1 3 3 7 8 8 7 3 1 1 1 1 1 1 1 1 3 3 3 3 3 1 3 3 3 3 3 3 7 3 3 3 3 3 8 8 8 8 8 8 8 8 8 8 8 8 0 0 0 9 9 9 9 9 9 9 Z Z Z Z Z Z Z D A A A A A D D D D F F F J J J J J J F D D D A Z Z Z Z Z Z Z Z Z Z Z Z Z Z Z Z Z Z Z Z Z 9 q Z Z D D D D Z Z D D D A A A A A A D Z Z q q q 9 9 9 9 9 8 8 8 8 8 8 8 8 8 8 8 8 8 8 8 8 8 8 p p s 9 9 9 9 0 0 9 9 9 C Z Z Z A A F K K E _ _ _ _ _ [ [ _ _ _ _ _ E E L K L L F F F F Z Z V V 9 9 0 8 8 8 8 8 8 8 8 8 8 8 8 8 8 8 8 8 7 7 7 8 6 6 7 7 7 6 6 6 6 6 6 6 7 7 6 6 6 6 6 6 6 6 0 0 9 9 V V 9 V Z D D J F H E ( ` ' ` ` ' ] ] ] ] ] ] ] ] ] ] S.S.D.D.D.F.D.D.S.S.] ] ] ] [ [ [ [ [ _ _ _ _ _ _ _ _ _ _ _ _ T S T _ _ _ E E L E _ _ _ L K A V 6 , > - - - - - - + + + + + + + + + + + + + + + @ @ @ + + + @ ",
"X X o o o X o o o o o o o o o . . . o o o o o o o o o o o X X X o o o o o X o o o o o o X X o o . . . . X X X X X O O X X X X O X X X @ + + - - - + + - - 6 d D J J J J J F F F A Z Z Z D D D D J D D Z D D 9 0 0 6 6 7 7 3 1 > ; ; ; - - ; ; ; ; ; ; ; ; ; ; ; ; ; ; ; ; ; ; < > < 1 1 1 3 7 7 8 8 3 3 1 1 1 1 1 3 3 3 3 3 3 3 3 3 3 7 7 3 3 3 8 7 3 8 8 8 8 8 8 8 8 8 8 8 8 8 8 0 0 0 0 9 9 9 9 9 9 9 Z Z Z Z Z D D D D A A A D F F J J J J J F F J J J J J F D D D A A Z D D D D D A Z Z Z Z D D D D D D D D Z D D D D D D D D D D F F F F F F F F F D D D Z Z q q 9 9 9 9 9 9 9 8 8 8 8 8 8 8 8 8 8 8 8 8 s p p s s 9 9 9 0 9 9 9 Z Z Z A A F K L E E _ _ [ [ [ [ [ [ [ [ [ ` _ _ E E E E E K K F F D Z Z D V 9 9 9 9 9 8 8 8 8 8 8 8 8 8 8 8 8 8 8 8 7 7 7 6 6 6 6 6 6 6 6 7 6 6 6 6 6 6 6 6 6 6 6 6 6 0 9 D D D V V V V Z D J F H H E ( ` ` ` ' ] ] t.t.F.F.] ] ] ] S.S.S.D.D.D.S.S.S.S.] ] ] ] ] ] ] [ [ [ _ _ _ _ _ _ E T T T T S S S L T T T L K L L L T L A C 0 6 > - - > - - + + + + + + + + + + + + + + + @ + @ @ @ + + + @ ",
"X X X o o . . . . . . . o o       o . o o o o o X X X X X X X X X X X X X X X X o X o o o o o o . . . . . X X X X X O O X X X X O O O O O O + + @ O O + - ; 3 s d J H J D F F F F A Z Z Z D D Z Z Z D D Z 9 0 0 6 6 0 6 7 3 > > ; ; - - - ; ; ; ; ; ; ; ; ; ; ; ; ; ; ; ; ; < < 3 1 1 1 3 3 8 7 8 8 7 1 1 1 3 1 3 3 3 3 3 3 3 3 3 3 8 8 3 3 3 3 7 8 7 8 8 8 8 8 8 8 8 9 9 9 0 0 9 9 0 9 9 9 V V 9 9 9 Z Z A A Z A A A D A A A A F F F F F F F F F F F F F J F F F F F F F F F F F F F F F F F F F F F F F F F F D D D D D F F F F F F F F F F F F F F F F F D A A Z Z q 9 9 9 9 9 9 9 8 8 8 8 8 8 8 8 0 0 9 8 9 9 9 9 9 9 9 9 9 V C Z Z A A S K K L E _ _ [ [ [ [ [ [ ] ] ] [ [ [ ' _ _ E _ _ E E L K F F A Z Z Z V 9 9 9 9 9 9 s 9 8 9 9 8 8 s s 8 8 8 6 6 6 8 0 0 6 6 6 6 6 6 6 7 8 8 0 0 0 0 8 6 6 6 9 9 D D H H J J V V V Z V Z F F F K E ( ` ` ` ' ] ] ] ] 9.] ] F.F.F.S.S.S.S.] ] ] ] ] ] ] ] ] ] ] [ [ [ _ _ _ _ _ _ E K S K K T S T K K L K S K K L L L L K A V 0 , > > > - - - - + + + + + + + + + + + + + + + + @ @ @ @ @ @ @ ",
"X X X o o o . . . . . . o o o   o o . o o o o o o o o o o X o o o o o o o o X o X X o o o o o o . . . . . . X X X X X O X X X X X O O = @ @ + @ @ @ @ + + + ; > 9 D H F F F F F D D D D D A Z Z Z Z D D D q 9 0 0 0 0 6 7 1 > > ; ; - - ; ; ; ; ; ; ; ; ; ; ; ; ; ; ; ; > ; < < > > 1 3 3 7 8 8 8 8 7 1 1 1 3 1 3 3 3 3 3 3 3 3 3 3 3 3 3 3 3 3 7 7 8 8 8 8 8 8 0 0 0 9 9 9 9 9 9 9 9 9 9 9 9 V 9 9 9 Z Z A A A A A A F F F F F F F F F F F F F H H H H F F F J F F F F F F F F F F F F F F F F F F F F F F F F F F F F F F F F F F F K K K K K K F F K F F F J F D D Z Z Z q 9 9 9 9 9 8 8 8 8 0 8 9 9 0 9 9 9 9 9 9 9 9 9 9 9 V Z Z A A K K E E _ _ _ [ [ ] ] ] [ ] ] S.] [ [ ] [ [ _ _ _ _ E E E L K F F A Z Z V 9 9 9 9 9 s 9 9 9 9 9 8 8 9 9 9 9 9 9 8 8 8 0 0 0 0 6 6 6 0 0 0 9 9 d D D D V 9 0 0 0 9 D D J J J D V 9 V V V Z D D D F L E _ ` ` ` ` ` _ ` [ [ [ ] F.{ ] ] [ [ ] ] ] ] [ [ [ [ [ [ _ _ _ _ _ _ _ _ _ _ L L S K K K L K E E L L K A A S K L K K Z C , - - - - - - - - + + + + + + + + + + + + + + + + @ @ @ @ @ + + ",
"X X o o o o . . . . . . . . o o . . o . o o o o o o o o o o o o o o o o o X o o o o o o o o X X . . . . . . X X X X X X X X O X X X O = = @ @ @ + @ @ + @ @ + - > 8 D H H F J D A F F F D A Z Z Z D D J D Z 9 0 0 6 6 6 1 1 > ; ; ; - ; ; ; ; ; ; ; ; ; ; ; ; ; ; ; ; ; ; > > 1 1 1 1 3 8 8 8 8 9 8 7 1 1 1 1 1 3 3 3 3 7 7 7 7 8 8 3 3 3 3 7 7 8 8 8 8 8 8 8 8 9 9 9 9 9 9 9 9 9 9 9 9 9 9 C C C Z Z Z A A A A A A A F F F F F K K K K K K E E E E E E E E K K K K F F F F F F F F F F F F F F F F F F F F F F F F F J F F F K K K K K L L L L K L E E E K K K F F F D D A Z 9 9 9 9 9 9 9 8 8 0 0 0 0 9 9 9 9 9 9 9 9 9 9 Z Z Z A A F K K E _ _ _ _ [ [ S.S.S.S.] S.S.S.S.[ [ ] ] [ [ _ _ _ _ E E E L K F F A Z D Z 9 9 9 9 9 9 9 9 9 9 9 9 9 0 0 0 0 0 0 0 6 0 0 0 9 9 9 9 C 9 V D J H H H H H J V 9 9 9 d D D D D V 9 9 9 9 V Z Z Z V Z F H L E E E E E E E L E _ [ ] ] [ [ _ [ [ [ [ [ [ [ _ _ _ _ _ _ _ _ _ _ _ L L L L L K K K S A K L L K K A A A A A A A A Z C , - - - - - - - + + + + + + + + + + + + + + + + + @ @ @ @ + + + ",
"X X o o o . . . . . . . . . . . . . . . o o . . o o o o . o o o . . . . . o . . o o X o X X X X . . . . . . . X X X X X X X O O = X X X X O O O @ @ @ @ + @ @ + - 1 9 J H H H J A F F F F A A Z Z D D D D 9 9 0 0 6 6 6 1 1 > ; ; ; ; ; ; ; ; ; ; ; ; ; ; ; ; ; ; ; ; ; ; > 1 1 1 1 3 3 8 8 8 8 s 8 6 6 1 1 1 6 3 3 3 7 7 7 7 7 8 8 7 3 1 3 7 8 8 8 8 8 8 8 9 9 9 9 9 9 9 9 9 9 9 9 9 9 9 9 C C Z Z Z Z A A A A A A A F K K K K K K K E L L E E E E E E E E E E K K K K F F F F F F F F K F F F K K K F F K K K K K K F K K K L K L E E E E E E E E E E E L L L K F F F F D Z C Z Z q 9 9 9 9 9 9 9 9 9 9 9 9 9 9 9 9 q q Z Z D F F K K K E _ _ _ [ [ [ ] S.S.S.S.S.S.S.S.S.] [ ] ] [ [ _ _ _ _ _ _ E E L F F A Z Z D Z V V 9 9 9 9 9 9 9 9 9 9 9 9 9 0 0 0 0 9 V C C Z Z A F F F F F H H ) ) ) L H J D 9 9 9 d 9 9 9 9 0 0 0 9 V V V V C V D F F F K L L L L L L K E _ _ _ _ _ _ _ _ _ _ _ _ _ _ _ _ _ _ _ _ _ _ _ L L S S K L L L K A A A K K K K A A C C C Z Z Z Z C , > - > - - - - + + + + + + + + + + + + + + + + + @ @ @ @ + + + ",
"o o o . . . . . . . . . o o o o . . . . . . . . . . . . . . o o . . . . . . . . X o o o o o X X . . . . . . X X X X X X X X X O X X X X X X X X @ @ @ @ @ @ @ @ + - 6 9 D H H H F F F F F F A Z Z Z V V 9 9 0 0 6 6 1 1 1 > > > ; ; ; ; ; ; ; ; ; ; ; ; > > > > ; ; ; ; ; > 1 1 1 1 1 7 8 9 9 9 9 8 7 6 1 1 1 6 7 7 7 8 7 7 7 7 8 7 7 7 7 7 7 8 8 8 8 8 8 0 0 9 9 9 9 9 9 9 9 V V C C C C C V Z Z Z A A A A A A A A F F K K K K E E E E E E E E E E E E E E E E E E L L K K K K K K K K K K K K K K K K L K K K K K L L L L E E E E E E E E E E E E E E E K K L E L K F F F A A Z Z C V Z V V 9 9 9 9 9 9 9 9 V q q Z Z Z Z F F K L L K E _ [ [ [ [ [ [ S.S.S.S.S.S.S.S.S.S.] ] [ ] [ [ _ _ _ _ _ _ E L K F A A D F F F D Z Z V V V V V C V C V Z V V C 0 0 0 C C A Z F K K L L L L L L E E E E H H J D 9 9 0 9 0 0 0 0 0 0 0 0 9 C V V V V Z Z Z Z F F K H K K L L L L E E E E _ _ _ _ _ _ _ _ _ _ _ _ _ _ _ _ L L L L A A K K L L K A Z A F F F A A C C C C C C C V 0 6 , , , - - - - - - - - + + + + + + + + + + + + + + + + + + + + ",
"o o . . . . o o . . o o o o o o . . . . . . . . . . . . . . o o . . . . . . . . X X o X o o X X . . . . X X X X X X X X X X X X X X X X X X = = O @ @ = = @ + + @ + - 6 9 D H H J F D F F D D Z V 9 9 0 0 0 6 6 6 6 1 1 > > > > ; ; ; ; ; ; ; ; ; ; ; ; > > > > ; ; ; ; > 1 1 1 1 1 7 7 8 9 9 9 8 6 6 6 6 6 6 6 8 8 8 8 6 8 6 6 6 6 6 6 6 6 6 6 8 8 8 8 8 0 0 0 9 9 q q Z Z Z Z Z Z Z Z Z Z Z A A A A A A A A A F A F K K E E E E E E E E E E E E E E E E E E E E E E E E E E E L L L L K K L L K K K K K K K K E E E E E E E E E E E E E _ E E _ _ _ _ _ _ _ _ E E K K K K F A A Z Z Z Z Z Z Z Z Z C C C C C C Z Z Z Z Z A F K E E E E _ _ [ ] ] ] [ ] ] S.S.[ S.S.S.S.S.S.] [ [ [ [ _ _ _ _ _ _ E E L K A A A F J F F F F Z Z D Z V C V Z Z Z Z D D Z C C C F L E E E E E E E E E E L L H H H H F D 9 9 0 6 6 6 6 6 6 0 0 0 0 0 9 9 9 V V V V V Z D J J F F F F F F F K L E E E E E E E E L L L L L K L L L L K K L K A A A K K K F Z C Z Z D D D Z V V V 0 0 0 0 0 0 6 , , , > > - - - - - - - - + + + + + - + + + + + + + + + + + + ",
". . . . . . . . . . . o o o o o . . . . . . . . . . . . . . o o . . . . . . . . X X X o o o o X X X X X X X X X X X X X X X X X O X X X O = = = X X = = = @ @ + @ + - - 6 9 D J J J F F D D Z V 9 0 0 0 0 6 6 6 6 6 1 1 > > > > > ; ; ; ; ; ; ; ; ; ; ; > > > > ; ; ; ; 1 1 1 1 7 7 7 8 8 0 8 8 6 6 6 6 6 6 6 0 0 0 0 0 0 0 6 6 6 6 6 6 8 8 6 6 8 8 0 0 0 9 0 9 9 q Z Z Z Z Z Z Z Z Z Z Z Z A F A A F F A F F K K K K E E E E E E E E E E E E E E E E E E E E E E E E E E E E E E E E L L L L L L L L L L L L L E E E E E E E E _ _ _ _ _ _ _ _ _ _ _ _ _ _ _ _ _ _ _ E K K K K F F A A A A F Z Z Z Z C Z Z Z Z Z Z A A A A K L E E E E _ _ [ ] ] ] ] ] [ S.S.S.S.S.S.S.S.] ] [ [ [ [ [ _ _ L L E E E L K A A F F F F F F A A A F F F A F L L L K K E ( E L L E ' ' ' ' ' ' ` ` ` ( E L K F F F F Z 9 9 0 6 6 6 6 6 6 6 6 0 0 0 0 0 0 9 9 9 9 9 V V D D J J J J Z D Z F F F K K A F F K K L L S L L K K L K K K K K A A A A A A A Z Z C C C V V V V V V 0 0 0 0 , , 0 , 6 , > , > > - - ; - - - - ; - - - - - - - - $ + + + + $ ; ; + + ",
". . . . . . . . . . . . . . . . . . . . . . . . . . . . . . . . . . . . . . . . X X X X o o o X X X X X X X X X X X X X X X X X O O O O X X X X = = @ @ = @ @ @ @ + - - 6 6 d J F J J J D Z V 9 0 0 0 0 0 0 6 6 6 6 6 1 1 ; > > > ; ; ; ; ; ; ; ; ; ; ; > > > > 1 1 > > 1 1 1 3 7 8 8 9 9 8 6 6 1 1 6 6 6 6 0 0 0 0 0 0 0 0 0 0 0 0 0 0 0 0 0 0 0 0 0 9 9 9 9 V 9 9 Z Z Z Z Z Z Z Z Z Z Z Z A F A A F K F K K K L L E E E E E E E E E E E E E E E E E E E E E E E E E E E E E E E E E E E E E E E E E E E E E E E E E E E _ _ _ _ _ _ _ _ _ _ _ _ _ _ _ _ _ _ _ _ _ _ _ E E E E L K F F F F F F A A Z Z C C Z Z Z Z A A A F K E _ _ _ _ _ _ [ [ ] ] ] ] S.S.S.S.S.S.S.S.S.S.S.] [ [ [ [ _ _ L K L L L L K F F F A F F F A A A A F F A K L E ` ` L L ` ' ` E E _ ' ' ' ' ' ` ` ` ` ( E H F F F D F V 9 0 6 6 7 6 6 6 6 6 6 6 6 6 0 0 0 0 0 0 9 9 9 9 9 D D J J J D D D Z D F F A A A A A A A S K S S S S S K K K K A A A A K K A Z Z C C C C C C V V 0 0 0 6 , , , , 6 6 6 , , , > > - - ; ; ; ; ; ; ; - - - - - ; ; ; ; $ $ $ $ ; ; ; + ",
"o . . . . . o o . . . . . . . . . . o o o o . . . . . . . . . . . . . . . . . . o o o o X X o o X X X X X X X X X X X X X X X X X = X = = = = = X = @ = @ @ @ @ + + + - > 7 9 d D J J D Z D V 9 0 0 0 0 0 8 6 6 6 6 1 1 > > > > > > > > > > ; ; ; ; ; ; > > > > > > > 1 1 1 7 7 7 8 9 9 8 6 6 1 1 6 6 8 0 0 9 0 9 9 9 9 0 0 0 0 0 0 0 0 0 0 0 0 0 9 9 9 9 9 V Z Z Z C C C Z Z Z Z Z Z Z A A A A K K K K K K K K K K K E E E E E E E E E E E E E E _ E E E E E E _ _ E E E E E E E E E E E E E E E E E E E E E E E E E _ _ _ _ _ _ _ ` _ _ _ _ _ [ [ [ _ _ _ _ _ _ [ [ [ [ _ _ _ E E L L L L K F A A Z A Z Z Z Z Z Z A A A K E E _ _ _ _ _ _ [ [ ] ] ] S.S.S.S.S.S.S.S.S.S.S.] ] [ [ [ _ _ _ K S K K K L K F F F D D Z Z Z Z Z A F F F K L E ( ` L E ( ` E L L E ` ` ` ` ` ` ` ` ( E L H J D D D V 9 0 6 6 6 6 6 1 1 1 6 6 6 6 6 6 6 6 0 0 0 0 0 9 9 9 9 V D D V V Z Z Z Z D D D Z F Z A A A S S A A A K L L L E L L A C A A Z C C C C C C Z Z V V 9 0 0 6 6 , , , , 6 6 , , , , , > > ; ; ; ; ; - - - - - - - - ; ; ; ; ; ; ; ; ; ; ; ; ",
". . . . . . . o . . o o o o o o o . . . . . . . . . . . . . . . . . . . . . . . o o o X X o o o X X X X X X X X X X X X X X X X X X X X = = O X O O = @ @ @ @ @ @ @ @ - ; 7 9 d D D D D V D V 9 0 0 6 6 6 6 6 6 6 6 1 1 1 > > > > > > > > > > ; ; ; ; > > > > > > > > 1 1 1 7 7 7 8 8 8 8 6 6 1 6 6 0 9 9 D d 9 9 9 9 9 0 0 0 0 0 0 0 0 0 0 0 0 9 9 9 9 9 V V V Z Z Z Z Z Z Z Z Z Z A A A A K K K K K K K K L L E E E E E E E E E E E _ E E _ E _ _ _ _ E E _ _ _ _ _ _ _ _ _ _ E _ _ _ E E E E E E E E E E E E _ _ _ _ _ _ _ ` [ [ [ [ [ [ [ [ [ [ [ [ _ _ [ [ [ S.F.F.] ] ` _ _ _ E E E E K K A A A A Z Z A A A A A A F K L E E E _ _ _ _ [ [ ] ] ] S.S.S.S.S.D.D.D.D.S.S.S.] [ [ [ [ _ _ K S K K K K K K F F D Z Z Z Z Z Z Z Z Z Z Z F K K L L K L E L L L L _ E ( ` ` ` ( E E E H J D D V 9 0 0 6 6 1 1 1 , , , , 1 1 6 6 6 6 6 6 0 0 0 0 0 9 9 9 9 V V Z V V V V C Z Z D F D F Z Z A A S S K A A L E _ ` ` _ L A C Z Z C C 9 C C V V D Z Z V 9 0 0 6 6 6 6 , 6 6 6 6 , 6 , , > > ; ; ; ; ; ; ; ; ; ; - - - ; ; - $ ; ; - - ; ; ; $ ",
". . . . . . . . . . . . o o o o o o . . . . . . . . . . . . . . . . . . . . . . o o X X X X o o X X X X X X X X X X X X X X X X X X X X X O O O O O @ @ @ @ @ @ @ @ @ - > 7 8 s V D V V 9 9 9 9 9 0 0 6 7 7 7 3 1 1 1 1 1 1 > 3 > > > > > > > > ; > > > > > > > 1 1 1 3 1 3 7 7 7 8 8 8 7 6 6 6 6 9 d D J J D D 9 9 9 9 9 9 9 0 0 0 0 0 9 9 9 9 9 9 9 9 V V Z Z Z Z Z Z Z Z Z A F F F F F K K K K K K L L L E E E E E E E E E E E E _ _ _ _ _ _ _ _ _ _ _ _ _ _ _ _ _ _ _ _ _ _ _ _ _ _ _ _ _ _ E E E E _ _ _ _ _ _ _ _ _ _ ` [ [ [ [ [ [ [ [ [ [ [ [ [ [ [ [ ] S.F.K.F.F.] ] [ _ _ _ _ E E K K S S A A A A A A A A F K K K L L E E E _ _ _ [ [ [ ] ] S.S.S.S.D.D.D.D.S.S.S.] [ [ [ _ _ _ _ S S A K K K K K K F J Z Z Z Z Z V Z D Z Z Z Z Z A F H F F H E L L E E L L E E L K K H J D V 9 9 0 8 6 6 1 1 1 1 , , , , , 1 6 6 6 6 6 6 6 6 6 0 0 0 9 9 9 9 V Z V V V V C C C Z D F F F A A K A A A L K A L ` ` ` ` ` L F C Z V V C 9 9 V V Z D D V 9 9 0 6 6 6 6 6 6 6 6 6 6 7 , , , > > ; ; ; ; ; ; ; ; ; ; ; ; - ; - + + - + + + + + + + ",
". . . . . . . o . . . . o o o o o o . . . . . . . . . . . . . . . . . . . . . . o o X X X X o o . . X X X X X X X X X X X X X X O O O O O O O = O O @ @ @ @ @ @ @ @ @ - > 3 p s V V 9 9 9 9 9 9 9 9 6 6 7 3 3 3 1 1 1 3 1 > 3 3 > > > > > > > > > : : 1 1 > 1 1 3 3 3 3 7 7 8 8 8 8 8 8 6 6 8 0 9 D J J J J D D D 9 9 0 9 9 9 9 9 9 9 9 9 9 9 9 V 9 9 V V Z Z Z Z Z Z Z Z A F A A F F K K K L L L L L L L E E E E E E E _ _ _ _ _ _ _ _ _ _ _ _ _ _ _ _ _ _ _ _ _ _ _ _ _ _ _ _ _ _ _ _ _ _ _ _ _ _ _ _ _ _ _ _ _ _ _ _ _ _ [ [ [ [ [ [ [ [ [ [ [ [ [ [ [ S.D.D.D.K.K.K.S.] ] [ [ [ _ _ _ E K K K K K S A A A A A A K K K K K L L K L E _ _ [ [ [ [ ] ] ] S.S.S.S.S.S.S.S.[ [ [ [ [ _ _ _ L S S A K K K K F F F D D Z Z Z V V V D Z V C C C Z V J D D H L L L H F F F F F F Z V D V 9 0 6 7 6 7 3 3 3 1 1 1 1 1 1 , , 6 6 6 6 6 6 8 0 0 0 0 9 9 V V V V V V Z D Z Z Z C C V Z F F F A A K A F L L L A L ` ` ( E L H D V V V 9 0 0 9 9 9 9 9 9 9 9 0 0 0 0 6 6 6 6 6 6 6 6 7 6 , , > > ; ; ; ; ; ; ; ; ; ; ; - - + + + + + + @ @ @ @ @ + ",
"o o o . o o o o . . . . . . . . o . . . . . . . o o o . . . . . . . . . . . . . o X X X o o o o . . . . X X X X X X X X X X X X O O O O O O O O @ O O = = = @ @ @ @ @ + ; 3 8 s D D s 9 9 9 9 8 0 6 6 7 7 7 7 3 3 3 3 3 3 > > 3 1 > > > > > > 1 3 3 3 3 3 3 3 3 3 3 7 7 8 8 8 8 8 9 9 8 6 8 9 d J H H H H H J D D 9 9 9 9 9 9 9 9 9 9 9 9 9 9 9 Z V V Z Z Z Z Z Z Z Z Z A A A F F F K K K K L L L L L E L E E E E _ _ _ _ ` ` ` _ _ _ _ _ _ _ _ _ _ _ _ _ _ _ _ _ _ _ _ _ _ _ _ _ _ _ _ _ _ _ _ _ _ _ _ _ _ _ _ _ _ _ _ _ [ [ [ [ [ [ [ [ [ [ [ [ [ [ [ [ S.D.K.D.D.D.D.S.] ] ] [ [ [ [ _ _ E K K K K S S A A A A F A A A S K K L K T L _ _ _ _ [ [ [ [ [ [ ] S.] ] ] [ [ [ [ [ [ _ _ _ _ K S S K K K F F F F Z D Z 9 V V V 9 9 9 9 9 9 9 9 9 9 9 9 9 V D D 9 9 9 9 9 V V 9 9 0 9 9 6 6 7 1 1 1 1 1 1 1 1 1 1 1 1 1 1 6 6 0 0 6 0 0 0 9 9 9 V V Z C C C V Z A F D Z Z Z Z Z F F F F A F K K L _ ` E K L E E L K F F Z V C V V 9 0 9 9 9 9 0 6 6 0 0 6 6 6 6 6 , , , 6 6 6 6 , , , , > - ; ; ; ; - ; ; ; ; ; - - + + @ @ @ @ O O O O O O ",
". . . . o o o o   o o o o o o o   o   o o o o o o o o o . . . X . . . . . . . . . . o o . . . . . . . . X X X X X X X X X X X X X X O O O O O O O O = = = = = O = = @ + ; > 3 p V D D s 9 9 9 6 6 6 7 7 7 7 3 3 3 3 3 3 3 > > 3 3 > > > > > 3 3 3 3 3 3 3 3 3 3 7 7 8 8 9 9 9 9 9 9 9 0 0 9 D J H H H H H H J J d 9 9 9 9 9 0 9 9 9 9 9 9 9 9 9 Z Z Z Z Z Z Z D A A A A A A F F K K L L L L L L L L L E E _ _ _ _ _ _ [ [ [ [ [ [ [ _ _ _ _ _ _ _ _ _ _ _ _ _ _ _ _ _ _ _ _ _ _ _ _ _ _ _ _ _ _ _ _ _ _ _ _ _ _ _ _ _ _ [ [ [ [ [ [ [ [ [ [ [ [ [ [ [ [ S.D.K.K.D.D.D.D.D.S.S.] ] ] [ [ _ _ E E L K K S S F A A F A A A A S K K K K K L _ _ _ _ _ _ _ [ _ [ [ ] ] ] [ [ [ [ [ [ [ _ _ _ E K S A K K K A A Z Z V V V 9 9 9 0 0 0 0 0 0 0 0 9 9 9 0 0 6 6 6 6 6 6 6 6 6 0 0 6 6 6 7 7 7 7 1 > > > 1 1 1 1 , 1 7 6 6 6 6 6 0 9 9 0 0 9 9 C V V C C C C C C Z A A A A A A A A F K L K L K K L L L ` ` ` L L E L K Z F D D Z C C V 9 9 q 9 9 0 6 6 6 0 0 0 0 6 , , , , , , 6 6 6 , , , , > > - ; ; ; - ; - ; ; - - + + @ O O O O O O O O O O ",
". . . . .       o o o o o o o o o o o o o o o o . . . o . . X X . . . . . . . . . . o . . . . . o o . . . X X X X X X X X X X X X X X X O O O O O O O O O @ O O O = @ + $ ; > 3 9 D D d 8 8 9 0 6 6 6 7 7 7 3 3 3 3 3 3 3 3 3 3 3 3 3 > > > 3 3 3 3 3 3 7 7 8 8 0 0 9 9 9 9 D D D D 9 9 D D J H H H H H J J J D d 9 9 9 0 0 0 0 9 9 9 9 9 9 9 9 V Z Z Z Z Z D D A A A A A F F F K K L L L L E E E L L E _ _ _ _ _ _ [ [ [ ] ] ] ] [ [ [ [ ` ` ` _ _ _ _ _ _ _ _ _ _ _ [ [ [ [ _ _ _ _ _ _ _ _ _ _ _ _ _ _ _ _ _ _ _ _ _ [ [ [ [ [ [ [ [ [ ] ] ] S.S.S.S.D.D.K.K.D.D.D.D.D.S.] ] ] ] [ [ _ _ E E L K K K K F F F K F A A A S K K T T K L L _ _ _ _ _ _ _ _ [ [ [ [ [ [ [ [ _ _ _ _ _ _ E E K S A K F A A Z Z V C 9 9 9 9 0 6 6 6 6 6 6 6 0 0 9 6 9 8 6 6 6 6 6 6 6 6 6 6 7 6 1 1 1 6 6 6 1 , > > 1 1 1 3 3 7 6 8 0 0 8 9 V D V V V V V Z F F A Z A C A A K K K A K A A K K K K K E _ _ _ T L T _ ` ` L L E L K A F K K F V C 9 9 q q q q 0 6 6 0 9 9 9 0 6 , , , 6 6 6 6 6 , , , , , > > - - ; > ; - - - - - + + O O O O . . . O O O O O ",
"o o . o o       . . . . . . . . o o o o o o o o . . . . . X X X . . . . . . . . . . . . . . . . . o . . . X X X X X X X X X X X X X X X X O O O X X X O O O O O O O @ + + + + ; 6 D J V 0 0 9 0 0 6 6 6 7 7 7 3 7 7 3 3 3 3 3 3 3 3 3 1 > > 3 3 3 3 7 7 8 8 9 9 9 9 9 9 D D D D J D D D D J H L H L H H J J D 9 9 9 9 9 0 0 0 0 0 0 9 9 V D 9 9 V V Z Z Z D D F A A A A F F F K K K L L L E E E E E E _ _ _ _ _ [ [ [ S.S.S.S.S.S.] [ [ [ ` ` _ _ _ _ _ _ _ _ _ _ [ [ [ [ [ [ [ [ _ _ _ _ _ _ _ _ _ _ _ _ _ _ _ [ [ [ [ [ [ [ ] [ ] ] ] ] S.S.S.D.D.D.D.D.D.D.D.D.D.D.D.D.S.] ] ] [ [ _ _ E E K L L K K K F F F K K F S S S K K T T K K L E _ _ _ _ _ _ ` _ [ _ [ [ [ [ _ _ _ _ _ E E E K S S S F A A Z Z Z V V V V 9 9 0 6 6 6 6 6 6 6 6 6 6 6 6 6 7 7 7 6 1 , 6 6 6 7 7 6 7 7 1 6 7 7 6 1 1 1 1 1 1 7 7 6 8 8 9 9 d D J J J D F F F F L L K K A A A L _ E L L K S S K L K K K ` ' ] ' [ _ _ _ ` _ L L E L K A L L L F Z V q 9 C q q 0 0 0 0 9 Z Z 9 0 , , , 6 6 6 6 6 1 , , > , , > > > > > > - - - - + + O O O O O X . . X X O O O O ",
"o o o     . o   o o o o o o o o o o o   o O X o o o o . X o   o o . . . . . . . . . . . . . . . . X X o o X X X X X X X X X X X X X X X X X X X X X O = = O O O O @ @ @ + + + ; 1 d H J D 9 6 0 0 0 0 6 6 7 7 7 3 3 3 3 3 > 3 3 3 3 1 1 3 3 3 3 7 7 8 8 8 s d d V V Z Z Z Z Z Z A A D D J H H H H H J J D D d q 9 9 9 0 0 0 0 0 9 9 9 9 V V V V Z Z Z D Z D F F A F A F K K K K S K L E E E E _ E _ _ _ [ [ [ [ [ S.S.S.S.S.S.S.S.S.[ [ [ ` ` _ ` _ _ _ _ _ _ _ _ [ [ [ [ [ [ _ _ _ [ [ [ _ _ _ _ _ _ _ _ _ [ [ [ [ [ ] ] [ ] ] S.S.S.S.D.D.D.D.D.D.D.D.D.D.D.D.D.D.D.D.D.S.] ] [ [ [ _ _ _ E L L K K F K K F F F F A A S K K L K L L K K E _ _ _ _ _ _ _ _ _ _ _ _ _ _ _ _ _ _ E K L K K K A A A A Z V V V V V V V 9 0 0 6 6 6 6 6 6 6 6 6 6 6 6 6 6 1 1 1 1 1 3 3 3 3 3 3 3 7 7 7 6 1 7 7 6 6 6 6 6 6 6 0 9 V V D D D V V J H L L L ( ` ` ` ` L L _ [ ' ` _ _ E K L _ ` _ L L ' ] ' ] ] ] ] ] ] [ _ _ ` E K K L L K Z C q q V C C C Z V 9 0 0 0 6 6 6 , , 6 6 8 6 6 6 , - - > , , > > > - - - - - - + + + + + O O O X . . X X O O O O ",
"      o . .   . o o o o o o o o X o o o X       o X     o X X X . . . . . . . . . . . . . . . . . X o o o X X X X X X X X X X X X X X X X X X X X O O = = O O O O = @ @ + + + $ > s H U H V 0 0 0 0 6 6 6 7 7 7 3 3 3 3 3 3 3 3 3 3 3 3 3 1 7 7 7 8 8 9 d d d D D D D F F Z Z Z F F J F H H H H H J J J D q q q 9 9 0 0 0 0 0 0 0 0 9 9 9 9 V V Z D D D D F F F F F F K K K K K K K L E E _ _ _ _ _ _ [ [ ] [ [ S.S.D.D.D.S.S.] [ [ [ [ ` ` ` _ E L L E _ _ _ _ _ [ [ [ [ [ [ _ _ _ [ [ [ [ [ _ [ _ _ _ _ _ [ _ [ [ ] ] ] ] S.S.D.D.D.D.D.D.D.D.K.K.D.D.D.D.D.D.D.D.D.D.D.S.] ] [ [ [ _ _ E L L L K K F F F F F F F A A K K K K K K K K K K E _ E E L L L E _ _ _ _ E L L K K K K K K S A A Z A A Z C C C C V V 9 0 0 0 0 6 6 6 6 6 6 6 6 6 6 6 6 6 6 6 7 7 1 1 7 7 7 7 7 7 7 7 7 7 6 6 7 7 6 6 6 7 6 6 6 8 9 V V D D V V V D J L L L ( ` ` ` ` ` [ ' ] [ _ _ E _ _ [ 9.F.] ` ` ' ] ' ] ] 9.F.] ] ] [ [ ` E L K K K F Z C V C C Z D F F D 9 0 0 6 , , , , 6 6 6 6 6 1 , , - - - , > > > > > - ; - - - + + + + @ O O X X X X X X O O O O ",
"= X   o . X   o o o o o o o o o   X o o X o o # o o o o   o .   . . . . . . . . . . . . . . . . . X X X o X X o X X X X X X X X X X X X X X X O X O O = O O O O O @ @ @ + @ + + - 7 J ) ( H 9 0 0 6 6 6 6 6 6 7 7 7 3 3 3 7 3 1 3 3 3 7 7 7 7 7 8 8 9 d D D J J J J J F F F Z D F F F H E E L L H J J D Z q 9 9 9 9 9 9 9 9 0 0 0 9 9 9 V V V V D D Z D A F F F K K K K K K L L K K E _ _ _ _ _ _ ` [ ] ] S.S.S.S.D.D.D.D.S.] [ [ [ _ _ ` E L L Z A K L _ _ _ _ _ [ [ [ [ [ [ [ [ [ [ [ [ [ [ [ [ _ _ [ [ [ [ [ _ [ ] ] S.S.S.S.D.D.F.D.D.D.D.D.K.K.K.D.D.K.K.D.D.D.D.D.S.S.] ] [ [ _ _ _ E L L K K F F F F F F F A A A A K K K K K K K K L L L L L L L L L E E L L L K K S K K S S A A A Z Z C C C V V 9 9 9 0 0 0 0 6 6 6 6 6 6 6 6 6 6 6 6 6 6 7 7 6 6 7 7 7 7 7 7 7 7 7 7 7 7 7 7 7 7 6 6 6 7 6 9 0 0 0 8 8 d V Z V V V V Z F F L L L _ ` ` ' ] ] ] _ L L _ L _ [ t.F.9.` _ [ ] [ [ [ ] ] [ [ ' ` _ L L K K A Z Z C Z Z Z D J H H J 9 0 0 0 , > - , , 6 6 6 1 , - - - , - - > , > > > > > ; - - + + O O O O O O O X X X X X X X X X ",
".   o     o     o o o o o o o o o o   o X o       X   o X X   O . . . . . . . . . . . . . . . . . X o o o X X o X X X X X X X X X X X X X X X O X O O = O O O O O @ @ @ + + + + - > 9 U ( ) D 0 0 6 6 6 6 7 7 6 7 7 7 7 7 7 6 1 1 3 7 7 6 6 6 6 8 9 9 D J J H H F H K K K F F D A F F H E L H H J J D Z Z 9 9 9 9 9 9 9 9 9 9 9 9 9 9 V V V V V Z Z D A A A F F K K L K L K E L E _ _ _ _ _ _ _ _ [ [ ] S.S.S.S.S.D.D.D.D.S.] [ [ [ ` _ L F V V , 0 C K E _ _ _ _ [ [ [ [ [ [ [ _ _ _ [ [ [ [ [ [ [ _ _ [ [ [ [ _ [ ] ] S.] S.S.D.D.D.D.D.D.D.D.D.D.D.D.D.D.D.D.D.D.D.S.S.] ] [ [ [ _ _ E E E L K K F F F F F F A A A A A K K K K K K K K K L L L L L L L E E _ L L K A A A A A A A A Z Z Z C C C C V 9 9 9 0 0 0 0 0 0 6 6 6 6 6 6 6 6 6 6 6 6 6 6 6 7 6 6 7 7 6 6 6 6 6 6 6 6 6 6 6 6 6 6 6 6 6 6 9 9 0 8 8 8 8 8 9 V V V V V C V D F F L ( ` ' ' [ _ L S K _ _ _ _ ] 9.] ` _ ` ' [ [ _ _ _ _ E _ E A A K K A Z A Z Z A F F F H L H D 0 0 6 6 6 , - , 6 6 1 , > > > > > > > > , , , , > > > ; - - + + O O O O X O O O O O O O X X X X ",
"    o X X . X   o o o o o o o o o o o o     X X o X o   O o   o . . . . . . . . . . . . . . . . . o o X o X X o X X X X X X X X X X X X X X X O X X X O O = = = O = @ @ + + + + - - , J ( ( H D 9 6 6 6 6 6 6 6 7 7 7 7 7 6 7 7 6 6 6 8 0 9 0 0 9 9 V D J H H H K H H L L K F J F F F H H H H H J J D Z 9 9 q q 0 q q q 9 9 9 9 C C V Z Z Z Z Z Z Z Z A A F F K K K L L E E E _ _ _ _ _ _ _ _ _ [ [ [ ] S.S.S.S.S.S.S.S.S.S.[ [ ` _ L F V 0 6 , - , 0 A E _ _ _ _ _ [ [ _ _ [ _ [ [ _ _ [ [ [ [ [ [ [ _ [ [ [ [ _ [ ] ] ] ] ] ] S.S.D.D.D.D.D.D.D.D.D.D.D.D.D.D.D.S.S.S.] ] ] [ [ _ _ _ E E E L K K F F F F A A F F A A A A F F F K K K K K K L K L L L E E E E L L K A A A A A A A Z Z Z C C C C C V 9 9 0 0 0 0 0 0 6 6 6 0 0 0 0 6 6 6 6 6 6 6 6 6 7 6 6 6 6 6 6 6 6 6 6 6 6 6 6 6 6 6 6 6 6 6 6 9 9 6 8 8 s 6 6 6 6 9 9 9 0 6 0 0 C Z K ` ' ] ' ` _ L L _ ` ` _ _ ` ' [ _ _ _ [ ' [ _ _ _ E E _ L A A K K A A A F F F F Z Z H H H 9 6 6 6 0 6 , - , 6 6 , > - > 1 1 1 , , , > > > , , > ; + + + + + + + O . X X O O O O O O X X X X ",
"o @   o o   X . o o o o . . . . o o X o   X o       o @   X # X . . . . . . . . . . . . . . . . . o o o X X X o X X X X X X X X X X X X X X X O X X X O O = O = O = @ @ + + + + - + - 0 H ( ( U 9 0 6 6 6 6 6 6 7 7 7 7 6 1 6 7 6 6 0 9 9 9 9 9 9 9 D D J H L L L L L L E E H H F F J J H H H J J J D Z 9 9 q q 9 9 q 9 C C C C C C V Z Z D D D Z Z A A F F L L L L E E _ _ _ _ _ _ _ _ [ [ [ [ [ [ ] ] S.S.S.S.S.S.S.] ] ] [ _ E K V 6 , - - - - , 0 Z E _ _ _ _ _ _ _ _ _ _ _ _ _ _ _ _ _ _ [ _ _ _ _ _ _ _ [ _ [ [ ] [ [ [ [ ] ] S.S.S.S.D.D.D.D.D.D.D.D.D.D.S.S.] ] ] ] ] [ ` _ _ E E E L E K K F F A A A A F F F A A A F F F F K K K K K K K K K L L L E L L K K A A C C C Z Z Z C C C C C V C 9 9 9 0 0 0 0 0 0 0 0 0 0 0 0 0 0 6 0 6 0 0 6 6 6 6 6 7 7 7 0 0 0 0 6 6 6 6 6 6 6 6 6 6 6 6 6 6 0 0 6 8 8 s 0 6 , , , 6 6 6 > > , , V F ` 9.9.8.' ` ` ` [ ' ' ` ` ` ] ' ` ` ` ` ` ` ` ` _ E E E K A K L K K F F F F F Z C V V D V 0 6 0 0 0 6 , , , 6 6 , , > 1 6 7 6 , , , > > > > > ; - + O O + + + @ O O X O O O O O O O X X X X ",
"  X o   . *   X o o o o o o o . X       X X   X o o   . X o     . . . . . . . . . . . . . . . . . o o o X X X o X X X X X X X X X X X X X X X X X X O O O O O O O = @ @ + + + + + + - > 0 L ( ( D 9 6 0 0 6 6 6 7 7 7 6 6 6 6 6 0 0 9 9 9 9 9 V V V D D J F H E E E L L E E E H F F D D J J J J D D D q 9 9 q q 9 9 9 C Z Z Z Z Z Z Z D D D F F A A A F K L L E E E _ _ _ _ _ _ _ _ [ [ [ [ [ [ [ ] ] ] ] ] ] ] S.] ] [ [ [ _ E Z V 6 - - - - - > , , C L _ _ _ _ _ _ _ _ _ _ _ _ _ _ _ _ _ _ _ _ _ _ _ _ _ _ _ [ _ [ [ [ [ [ [ [ [ [ ] ] S.S.S.S.S.S.S.D.D.S.S.] ] ] [ [ ] [ _ _ _ _ E E E E L K K F F A A A A F F A A A A A F F F K A K A K K A A A K K L K K K K A A C C C C C C V C 9 9 9 9 C 9 9 9 9 0 0 0 0 0 0 0 0 0 0 0 0 0 0 0 0 9 9 9 9 9 0 0 9 9 9 9 0 0 0 0 0 0 0 0 0 0 6 6 6 6 6 6 6 6 6 6 6 7 6 8 6 6 , > , , , , - - > , 0 Z L 4.9.8.' ` ` ` ` ` E E E ` ` ` ` ` ` ` E ( _ E E K F F A A K K K K F F F F Z V V V 9 9 0 0 0 0 6 6 6 , , 6 6 6 6 6 1 1 7 7 1 > , , > > ; ; ; - + + O O O @ @ @ O O X X O O O O O O X O O O ",
"X   o o Q V.X   o o o o o o o o o   X o .   t &X$XC.C.o -XX . o . . . . . . . . . . . . . . . . . o X X o X X o X X X X X X X X X X X X X X X O X X O O O O O O O = @ @ + + + + + - - - , D ( ( H V 9 9 0 6 6 6 7 7 7 6 9 0 0 0 9 9 9 9 9 9 V Z D D D D F H H E E E L L L E E L J D Z Z D J J D D D Z q 9 q q q 9 9 9 Z Z Z Z Z Z Z D F F F F F F F F K L E E E E _ _ _ ` ` [ [ [ [ [ [ [ [ [ [ ] ] ] [ [ [ [ [ ] ] [ [ [ _ E A 0 6 , - - - - ; - - , q K _ _ _ _ _ _ _ _ _ _ _ _ _ _ _ _ _ _ _ _ _ _ _ _ _ _ _ _ _ _ _ [ _ _ _ _ [ [ [ [ [ [ [ [ [ ] ] S.S.S.S.] ] [ [ ] ] [ _ _ _ E E E L L L K K F F A A A A F A A A A A A A A F F F A A A A A A A A A A A A A A A A C C C C C C C 9 9 9 9 9 9 9 9 9 9 9 9 9 9 9 9 9 9 9 9 9 9 9 9 9 9 9 9 9 d d 9 9 d d d d 9 9 9 9 9 9 9 9 9 0 0 6 6 6 6 6 6 6 6 6 6 , 6 7 1 1 , , , , , , > , 6 0 0 0 Y E ` ` ` E E L L L L L E E E E ` ` _ E L E L A A A C C Z F E K F F A A A A Z V V C C 0 , 6 0 0 0 0 6 6 6 6 6 6 6 6 6 6 6 1 1 , , > > ; - - - - @ O @ @ O O O O O O X X X X X X X X X X X O ",
"o   X   o . .   X   O o   . X         o o X O.&X. C.b.X X   X   X o   X o   X o o o o o X o X o . X o X X o   #   @ X o X X X o X X X X X X X O X X X = = = = O = @ @ @ @ @ + + + - - + - 6 H ( ) L H D 0 6 6 6 6 6 6 d H U J 9 V D D V V V V Z V D J F F F K H E E L L E E K K A A Z Z Z D D D d 9 9 q 9 q q q q q C Z Z Z Z F Z Z F F F F K K K L L K K L E E _ _ _ ` [ [ [ [ [ [ [ [ [ ] [ [ ] ] ] ] [ [ [ [ [ [ [ [ ` E K C 6 , ; ; ; ; ; + - - - , K _ _ _ _ _ _ _ _ T _ _ _ _ _ _ _ _ _ _ _ _ _ _ _ _ _ _ _ _ _ _ _ _ _ _ _ _ _ [ _ [ [ [ [ [ [ [ ] ] ] [ [ [ [ [ [ [ _ _ _ _ E E E L K K K K K F A A A A A A F F F F A A F F F F F Z Z Z Z Z Z Z Z Z Z Z C C C C C C C C 9 9 9 9 9 9 9 0 9 9 9 9 9 0 9 V D 9 9 9 9 Z Z Z C C 0 0 V D D D D D V V D D D D D Z V 9 9 Z Z V 9 9 0 0 6 6 6 6 6 , , > , , , > > 1 1 , > > , 1 6 6 0 9 9 9 Z J E E L L K A Z Z A K L L L E ( ` E A A F A A Z C q Z A F K F F A D D D F F D Z V q 0 0 0 0 0 6 6 , 0 6 6 6 0 0 0 , 6 6 , > ; ; ; - - - - + + @ O @ @ O O O O O O X X X X X X X X X X X X ",
"  X   o O.$X  $XC.V.-X2.!.&Xw.O O.&X&Xb.-X& &X-XV.C.b.X -Xo C.$XV.$XV.X X O   * $X&X&Xm . >.&X&X$Xr O $XV.V.-X>.!.$Xb.# o o @ X X X X X X X X O X X O O = = O O @ @ @ @ @ @ @ + + - + + + - d U ( 4.8.( D , , 6 8 8 d W 5.7.( H H H H D D Z Z D J F H L H H K K E L K K K F A Z Z Z Z C 9 Z Z 9 9 9 9 9 9 q C C C C C Z A A A A F F F F F K K L L L K S A K E E _ _ _ _ _ [ [ [ [ [ [ [ [ [ [ [ [ [ [ [ [ [ [ [ [ [ _ _ _ L C 0 , > ; ; ; ; ; + - - - 6 Z E _ _ [ [ [ _ _ _ _ _ [ _ _ _ _ _ _ _ _ _ _ _ _ _ _ _ _ _ _ _ _ _ _ _ _ _ _ _ _ _ _ _ _ [ [ [ [ [ [ [ [ [ _ _ _ _ _ _ _ _ E E E L L K K K K F A A A A A A A F F F F F D D D Z Z V V V Z Z Z Z Z Z Z Z V V C C C V 9 9 9 9 9 9 9 9 9 0 9 9 V V V V D D H D F F Z F F F F Z C C F F F Z 9 V V D D J J D D D V 9 V D D V 9 9 9 0 0 6 6 6 , , > > > > > > > > > > > > > 1 6 6 0 9 9 9 V D K K F F Z Z Z Z Z A F F K H E E Z 0 , 0 0 0 0 0 Z F E E H F A Z Z Z F F K F C q C q q 0 0 0 6 6 6 6 6 6 6 0 0 0 6 6 6 , - - - - - + + + + @ O O O O O O O O O O X X X X X X X X X X X . ",
"O     X O.$X. $Xb.X b.&X. t -XX &XO.o b.-X  %.$X  C.i.X ,XO b.$XX X -Xx   X   C.C.X a $X* -Xr   b.Y.X &X2.# b.&X. 2 -Xo X o X . X X X X X X X O X O O O O O = @ @ @ @ @ O @ @ @ + O + + - - 6 J J U ( U 9 , , 6 d d D H ^ ) H D U W W H L H H J J H H L L H H H K K K F F F Z Z Z Z C C C Z Z 9 9 9 Z Z Z Z Z A Z Z Z A A A A A A A F K K K L L L L A C C A L E _ _ _ _ _ _ _ _ [ [ [ [ [ [ [ [ ` [ [ [ [ _ _ _ _ _ _ _ E F q , > - - ; ; ; $ $ - - - 6 Z E _ [ [ [ [ [ _ _ _ _ [ _ _ _ _ _ _ _ _ _ _ _ _ _ _ _ E E E E E E E E _ _ _ _ _ _ _ _ _ _ _ _ [ [ [ _ _ _ _ _ _ _ _ _ _ E E E E E K K K K K F A A A A A A A A F F F A Z Z V V V V V V C C V V V V V V C C C V V q q q 9 9 9 9 9 9 9 9 9 Z J J J J H L L F F K K L K L L K A A L L K K E E L K F Z Z Z J F D V V D D V 9 9 9 9 9 6 6 6 , 1 1 , > > > > > > > > > > > 1 1 1 6 8 9 9 9 V V Z Z Z Z Z D Z F Z Z Z F F H E H D q 0 0 , , 0 D H H F Z C Z Z V V D H F D 9 0 0 C V q 0 6 6 0 6 6 0 0 0 0 0 0 0 6 , - - + + O O O O O O O O O O O O O O O X X X X X X X X X X X . . . ",
"o o o . O.$X. $Xm   2.V.  O -X. -Xo   u -XX &.$X. C.b.. *X. C.C.  O V.2.. @   &X&.  O   m &X  X a *XO &XO.  >.!.X * -X#   O X X X X X X X X X O O O O O O = @ @ + + @ @ O O @ @ @ O O + - - , d J J H H D 9 6 6 9 s s 8 6 6 , 6 0 d d D D D 9 9 D D J H H H H H F J J J F D Z Z Z Z Z C Z Z Z Z 9 Z Z A A Z Z A A A A A A A A A A A F K K K K K L K C 0 C C K L E E _ _ _ _ _ _ _ _ _ _ _ _ _ _ _ _ _ _ _ _ _ _ _ _ E E L F 6 , - - + $ ; $ $ $ - - - 6 F E _ [ [ [ [ [ _ _ _ _ _ _ _ _ _ _ _ _ _ _ T L L T _ _ E E E E E E E E E E E E E _ _ _ _ _ _ _ _ _ _ _ _ _ _ _ _ _ _ _ E E E E L E K K K K K K A A A A A A A A A A Z Z Z V V V V V V V V V V V V V V V V V 9 9 9 9 9 0 9 9 9 9 9 V 9 9 V D J J F H E ( L F K E E _ L L _ L L L E E ` ' 9.' E L K A Z A F F J V V D D 9 9 9 V d 9 7 6 1 7 7 8 7 > > > > ; > > ; ; ; ; > 1 1 1 6 6 6 0 9 0 0 9 V V D D D J Z 9 V D J H ) ( E Z 6 0 , 6 9 J J D 9 0 0 9 9 V V D D D 9 0 6 0 0 q 0 0 6 6 0 0 0 0 0 9 9 9 9 0 6 - - O O O O O O O O O O O O X X O O O O X X X X X X X X X X . . . o ",
"o o o . O.$X. $Xm o 2.!.X # *XX -XX X t -X  %.$X  n.b.O -X. C.b.X X V.2.X   X $X%.  O   m &X  X u -Xo $Xm # 2.V..   -X  # O   * X X X X X X X O X X X X O @ + + * + + @ O O O O O O O + + - ; 1 6 9 J H D 0 6 , 1 1 , > , > - - , 1 , , 7 0 9 9 9 9 D D D J J H D D D D D Z Z C Z Z Z C Z Z Z Z Z Z Z A A Z Z C A A A A A A A A A K K K K K K K L S C 0 C C K L K E E _ _ _ _ _ _ _ _ _ _ _ _ _ E E E E E E E E E E E L F Z 6 - - - + $ ; $ + + - - - , A _ _ [ [ [ [ [ _ _ _ _ _ _ L L _ _ _ _ T L L L L L L L L L L L E E E E E E E E E _ _ _ _ _ _ _ _ _ _ _ _ _ _ _ _ _ _ _ _ E L K L E K K K K S K K A A A A Z Z Z Z Z Z V V V V V 9 9 9 9 9 9 9 9 9 9 9 9 9 9 9 9 9 9 0 0 0 9 9 9 9 V 9 9 C Z D F F E ( ` E F K E _ _ _ _ _ _ _ _ _ ` ] F.t.' _ E L L A C D F F D D D D 0 0 9 d 9 6 7 1 , 3 7 7 7 , > - - ; ; ; ; ; ; ; > ; ; ; > 1 7 7 8 6 6 0 0 9 9 V D V 0 0 0 9 D H ) ( ) D 6 6 0 0 D H J V 0 6 6 0 0 9 9 9 9 9 6 6 6 6 0 0 0 0 6 6 0 0 0 0 0 9 9 9 9 6 , - + O O O O O O O O O O X X X X X X X X X X X X X X X X X X X . . . ",
"@     X O.$X. $XM o 2.V.& u -X& *Xv . b.-XX m $X. V.2.O -X  C.&X  o -Xf # u X C.C.X a $X* -Xr   2.$Xo &XI o w.V.X * -Xo . O X o X X X X X X X O X X X X O @ + * * + + @ O O O O O @ @ @ @ + - - - , s G J s 7 , > - - - > > - - - - - - , 7 6 6 8 8 8 8 0 0 9 9 9 9 9 9 9 9 9 9 Z Z Z Z Z A D F Z C C A A A A A A A A A A A S S K K K K K K K K K K A C C A K L K L E E _ _ _ _ _ _ _ _ _ _ E E E E E E E E L K E E L K F 9 6 - - - + - ; + + + - - - , A _ [ [ [ [ [ _ _ _ _ _ _ _ L L _ _ _ _ E L L L L K L L L L K K K L E E L K K K E E E E E _ E _ _ _ _ _ _ _ _ _ _ _ _ _ _ E L L L L K K K K K S K A A A Z Z C Z V V V V V V V 9 9 0 0 0 9 9 9 9 9 9 9 9 9 9 9 9 0 0 0 0 0 0 9 0 9 V V C C Z D A F E ( ` E A A E ` ] ] ] ] ] [ [ [ [ ' 9.9.' ` ` ` E A C D F F D D D 9 0 6 9 8 6 7 1 , > > 3 3 3 > ; > > ; ; ; ; ; ; ; ; < ; ; ; > , 3 7 6 6 6 9 0 0 0 0 6 6 , 6 6 9 J H / U D 9 D J H H H D 0 , , 6 6 6 8 0 0 0 8 6 6 6 0 0 0 0 0 6 6 0 0 0 0 8 8 6 6 6 > - - O O O O O O O O O O O X . X X . . . X X X X X X X X X X X X X . . ",
"  =   o +.$X  &XO.@ 2.V.n V.-XI 2.&X$Xb.&X. 2.$X. b.C.. -X  C.!.$X&XC.. O.$XO @ $X&X&XQ . 3.&X&X&X# . &XM X 2.V.  X *X# X X X . X X X X X X X X X X X O O @ @ + + + + + @ @ @ @ O @ @ @ + + + + - - 7 s 8 7 > - - - - - ; ; ; > ; ; > , 7 s 8 8 6 6 6 6 6 6 6 6 6 0 0 0 9 9 9 9 V Z Z Z A F F F A Z A A A F F K K F A A A K K K K L L K K K A A A K K A A A K L K K K K L L E E _ _ E E E E E E E E E L L L L L E E L K F 9 6 - > - - ; - - + - - - , C L _ [ [ [ [ [ _ _ L E _ _ E E E E _ _ E L K L L L L K L L K K K K K E E L K S K T K K T T L E _ _ _ _ _ _ _ _ _ _ _ _ _ _ E L L L L T T S S K K K A A A Z Z C C C V V V V V 9 9 0 0 0 0 0 0 0 0 0 0 0 0 0 0 0 0 0 0 0 0 9 9 9 9 9 D D D Z F F F K E E E E A S _ ' ] 9.F.F.9.] [ ] [ ` ` ` _ _ ` ` E K K D J J Z V D 9 0 7 7 6 7 1 1 1 1 3 > 1 > > ; ; ; ; ; ; ; ; ; ; ; ; ; ; > > > , 3 7 7 7 7 7 6 6 1 , > - > 1 6 9 d d 6 7 8 D H H J d 6 , - - - , 6 6 6 6 6 6 6 6 6 0 0 0 0 6 6 6 6 6 6 6 6 1 1 > > - - O O O O O O O O O O O O X X X X X . . . . . X X X X X X X X X X X X ",
"o o X   o . .   .     t b.qX-Xm 3.x o %.$X    . . .   . . X C.b.  . . . X X   o X   . o X   X . . o X X o O X . X o X X o X O X X X X X X X X X X X O O O = @ + + $ $ + + + + + + + + + + @ @ @ - ; 7 p 7 > ; - - ; - - - - - ; > > ; - > 7 7 7 1 1 1 1 1 1 6 6 6 6 0 8 8 0 0 6 9 9 C Z Z F F F K F F A A A A K L K A A K L L K L L L L K K A A A K L K F K L L L L K K T T L E E E L L L E L E L L L L L L L L L L L K F 9 6 - > - - - - + - - - , 0 Z _ [ [ [ [ [ [ _ _ T K _ E E L L L L L L K K L L L L L L K K K S S K E E K K S K T K T K S L _ _ _ _ _ _ _ _ _ _ _ _ _ _ _ _ E L L L L T S S K K K A A A A Z C C V V V V V V 9 0 0 0 0 8 0 0 0 0 0 0 0 0 0 0 0 0 0 0 0 0 9 V 9 9 V D F F F K L H K K L E K C A E _ [ [ ] ] [ _ _ _ _ L L L L L E L A A K J J D V V V 9 6 6 6 1 1 1 1 3 3 3 > > ; ; - ; ; ; ; ; ; ; ; - - ; ; ; > > > > , , , 1 1 1 1 > > > > - - > > 1 1 7 > > 7 9 d 9 , - - - > > - - > > , 1 1 , , 1 6 6 0 9 6 6 , > > - - > > - - + + + + O O O O O O O O O O O O O X X X X X . . . . X X X X X X X X X X X . ",
"o o o . . . o       . 2 w.$Xb.y %.&X&X&Xx .   . o X   . X . b.b.. . o . o o o . . . . . . . . . o o X X X X X X X X X X X X X X X X X X O O O O X X X O O O @ @ + + + + $ + + $ + $ + + + @ + + - 1 p p 7 1 ; - + + - + + + ; > ; > > > > > > 1 > 1 3 1 1 1 1 6 1 7 6 6 6 6 6 6 0 0 q C Z A F L E E E ` E E S S K E L K K L E E L L L L K K S S K L E L L K L L K K K K K K K K L L E K L L L L L L L K K K K K K L E K F C 6 - - - - - - - - > , 0 D L ` _ _ _ _ [ _ _ _ L K L L K K K K K S S C A A K L L L L L L S S S E K E T L L E E E E K E _ ` [ _ _ [ ] [ [ _ _ _ _ _ _ _ _ _ T L L S S K S K S K A A A Z Z C V V V 9 9 0 9 9 0 0 6 6 6 0 6 6 6 6 6 6 6 6 8 6 6 6 6 6 6 9 9 9 V V D F H F K K K A A K L S A A K E E E E ` E L L E E E E H L K F Z Z D F J D V 9 9 9 9 6 , , , , > , 1 1 > ; ; - ; ; ; ; - - - ; ; ; $ $ ; ; ; ; ; ; ; ; ; ; ; ; - ; ; ; ; ; ; ; ; ; ; ; - - > , 7 1 > - > > > , , > - - - - - - > - > > 1 3 7 3 > - - - + + + - + + @ + O O O O O O O O O O O X X X X X . X . X X . . . X X X X X X X X X . . . ",
"o o o . . .       o   @ f &.c @   X   o     X o .   . X o   *   . . . . o o o . . . . . . . . . o o o o o o o o X X X X X X X X X X X X O O O O X X O O O O @ @ @ + + + $ $ $ $ $ ; $ + + + + - ; 3 s s p 3 ; - + + + - + - ; > ; ; ; > > > > 1 > > 1 1 1 1 1 1 1 1 6 6 6 6 6 6 0 0 q C Z A A L E ` ' 8.] ' E E ` ' ' _ E E _ ` _ _ ` _ E L K S K L L L L L L L K K K K K K K K K K K K K L L L L L L L K K K K L L L K A C 6 , - - - - - - - , 0 Z L ` ` _ _ _ _ _ _ _ _ L K K K K S S S A A C C C A A K K L L _ L L L _ _ _ _ _ _ _ _ _ _ _ _ _ _ [ [ [ [ [ ] [ [ _ _ _ _ _ _ _ _ _ L L L S S K S K S A A A A Z Z C V V C 9 9 0 0 9 0 0 6 6 6 0 6 6 6 6 6 6 6 6 6 6 6 6 6 6 6 9 9 9 9 V V D D Z A Z Z A A L E E L K L L K K K L L L L E E L H K K F F F Z Z D V V 9 0 9 d 9 6 > > > > > > > > ; ; - - - - - - - - - - - - $ $ - - - - - - - - ; ; ; - - - - - ; - ; ; ; ; ; ; - - - > > > ; - > > > > - - - - - - - - - - - - - ; ; ; - + + + + + + + O O O O O O O O O O O O O O O X X X X X X X X X X X . . X X X X X X X X X . . . ",
"o o o . . .     o . . . X # O . = . X   X X .   X   . .   X     . . . . . o o . . . . . . . . . . . . . . . . . X X X X X X X X X X X X O O O O X O O O O O @ @ @ + + + $ $ $ : 2 3 : $ + + + + ; 3 p p 3 > ; - - + + - - - ; > ; ; > > > > 1 1 > 1 3 1 1 1 1 1 1 1 1 1 1 6 6 6 0 0 q C C C A K E ` ' t.t.t.` E ' t.t.] ` ` ' 8.` ` ` ` _ L K K K L L L L L L K K K K K K K K K T T K K K K K K K K K K S K K K L L K F F Z C q 6 , , , , , 0 9 D H E ` _ L T T _ T T T L L S S S S S A A A C C C C S K L L L T T T _ [ [ [ [ _ [ ] ] ] [ [ _ _ _ _ _ [ [ [ [ [ [ [ _ _ _ _ _ _ _ _ L L L L S S K S A A A A A A Z Z C C C V 9 9 0 0 0 0 6 6 6 6 0 6 6 6 6 6 6 6 6 6 7 6 6 6 6 6 0 9 9 9 0 V V V V V V C Z F K E L K K K K F F K F F F H E H F J F F D D D V 9 9 0 0 6 6 1 7 1 1 ; ; ; ; ; ; ; ; - - $ + - - + + + + - + $ $ $ $ - $ - - - - - - ; ; ; ; - - - - - - - ; ; - - - - - ; ; ; ; ; ; > > - - - - - - + + - - - - + - + + + + @ @ @ @ + + O O O O O + O O O O O O O O O O O O X X X X X X X X X X . . . . . . . . . . . . o o ",
"o o o . . .     o . . .       o     X X o .   . . . . X   X . X . . . . o o o . . . . . . . . . . . . . . . . . X X X X X X X X X X X X O O O O O O O O O O = @ = @ @ @ + $ $ : y y 2 ; + + + + + ; > > ; ; - + - + + - ; ; ; ; ; > > > > 1 1 3 > 3 3 1 1 1 1 1 1 1 1 1 1 6 6 6 6 0 C V C C Z F F E ( ' 8.' K A ` t.G.9.[ ] 9.t.` ` ` ` ` L S S L L L L L L L K K L L K K K K K K K K K K K K K K K K K K S K K K K K K F F F Z C q 0 0 0 9 V J L L L L L S S S S S S S L L S A C S S S S S C C S S L _ _ _ _ _ [ _ ] K.J.R.D.S.F.F.K.F.] [ _ _ _ _ _ _ [ [ [ [ ` ` _ _ T _ _ _ _ T L L L L L L S S A A A A A A Z Z C C C V 9 9 0 0 0 0 0 6 6 6 6 6 6 6 6 6 6 6 6 6 7 6 6 6 6 6 0 0 0 0 0 9 V V 9 V V Z F F F K F F F H H F H E H J J F H J J F D V V V 9 9 0 6 6 6 1 > ; ; ; - - - - - $ - $ $ + + + + + + + + + + + + $ $ $ $ + $ $ $ - + + - ; > > ; ; - - + + + - ; ; - - - ; ; ; ; ; ; ; > > ; ; - - - + + - - ; ; ; - - - + + + + @ @ + + + + @ @ @ @ @ @ O O O O O O O O O O O O X X X X X X X X X X X X . . . . . . . . . . o o "
};
