/* XPM */
static char *_694d8bf8c62461f99898d6272cf6af1SkMV1uF6YiKMtm8B[] = {
/* columns rows colors chars-per-pixel */
"888 499 256 2 ",
"   c #030403",
".  c #0A0403",
"X  c #060806",
"o  c #0B0A06",
"O  c #050509",
"+  c #0A050B",
"@  c #06090A",
"#  c #0B0B0B",
"$  c #130302",
"%  c #130B04",
"&  c #120D0C",
"*  c #1A0906",
"=  c #0E100D",
"-  c #0B1108",
";  c #13120D",
":  c #1B130D",
">  c #1A1408",
",  c #0C0D12",
"<  c #090A15",
"1  c #120E12",
"2  c #170D15",
"3  c #0D1113",
"4  c #0D141A",
"5  c #141313",
"6  c #1A1513",
"7  c #1C1915",
"8  c #14151A",
"9  c #1A151A",
"0  c #151A1C",
"q  c #1C1B1B",
"w  c #161915",
"e  c #270604",
"r  c #25170B",
"t  c #221B15",
"y  c #231D1A",
"u  c #281A16",
"i  c #36130C",
"p  c #1D211C",
"a  c #192011",
"s  c #24211D",
"d  c #2B231C",
"f  c #2A2317",
"g  c #33251C",
"h  c #37281A",
"j  c #362811",
"k  c #151B23",
"l  c #1C1D22",
"z  c #181A28",
"x  c #14192B",
"c  c #231E24",
"v  c #2A1E2B",
"b  c #1D2223",
"n  c #1C242A",
"m  c #1C2334",
"M  c #1B2F32",
"N  c #232323",
"B  c #2B2522",
"V  c #2C2A24",
"C  c #23242B",
"Z  c #2C2B2B",
"A  c #26292A",
"S  c #342B23",
"D  c #3B2D23",
"F  c #332D2A",
"G  c #362826",
"H  c #3C332B",
"J  c #383229",
"K  c #2B2B33",
"L  c #262937",
"P  c #332D34",
"I  c #2A3437",
"U  c #383637",
"Y  c #2B312C",
"T  c #4E120A",
"R  c #452A1A",
"E  c #4C3019",
"W  c #702816",
"Q  c #442D24",
"!  c #43352B",
"~  c #4C3B2C",
"^  c #463627",
"/  c #553B29",
"(  c #463B35",
")  c #543A32",
"_  c #6A2719",
"`  c #3A423B",
"'  c #58432C",
"]  c #4A4339",
"[  c #574737",
"{  c #554C35",
"}  c #654A37",
"|  c #68533B",
" . c #704F35",
".. c #746535",
"X. c #373946",
"o. c #2E3449",
"O. c #2D3659",
"+. c #443E45",
"@. c #633C4A",
"#. c #394548",
"$. c #394753",
"%. c #3C4765",
"&. c #484747",
"*. c #564B46",
"=. c #595349",
"-. c #484A55",
";. c #495459",
":. c #585757",
">. c #514F51",
",. c #675847",
"<. c #755B45",
"1. c #665A56",
"2. c #6E524E",
"3. c #79644A",
"4. c #696359",
"5. c #786858",
"6. c #746A54",
"7. c #575A65",
"8. c #4A5468",
"9. c #59636A",
"0. c #5A6874",
"q. c #686767",
"w. c #766A66",
"e. c #79736A",
"r. c #676975",
"t. c #69737B",
"y. c #797877",
"u. c #726E73",
"i. c #635F62",
"p. c #8A321C",
"a. c #925B36",
"s. c #87594E",
"d. c #87694B",
"f. c #866B55",
"g. c #8A7357",
"h. c #977957",
"j. c #91704C",
"k. c #A67956",
"l. c #866A66",
"z. c #887768",
"x. c #957A67",
"c. c #867A76",
"v. c #977A75",
"b. c #946B6C",
"n. c #A67872",
"m. c #945B5D",
"M. c #C96F4B",
"N. c #7B8279",
"B. c #9A8356",
"V. c #A3825C",
"C. c #A58558",
"Z. c #AD9455",
"A. c #9A8468",
"S. c #898379",
"D. c #988778",
"F. c #938A73",
"G. c #A68866",
"H. c #A48B79",
"J. c #AA947A",
"K. c #B4997B",
"L. c #B38C6F",
"P. c #B9A56D",
"I. c #C9B25D",
"U. c #CCB265",
"Y. c #CBB368",
"T. c #CDAF69",
"R. c #D1936D",
"E. c #B3994F",
"W. c #757B85",
"Q. c #6B7785",
"!. c #5B648F",
"~. c #937C85",
"^. c #7A848C",
"/. c #7A85A9",
"(. c #888786",
"). c #978A86",
"_. c #99938A",
"`. c #868C94",
"'. c #999896",
"]. c #8E9197",
"[. c #A68B85",
"{. c #A99787",
"}. c #B39B84",
"|. c #B59A89",
" X c #A89A95",
".X c #B69B96",
"XX c #B38A8C",
"oX c #B8A38B",
"OX c #AAA399",
"+X c #B8A798",
"@X c #B5AA93",
"#X c #979AA4",
"$X c #A9A7A6",
"%X c #B9AAA5",
"&X c #BCB3A8",
"*X c #BAB7B5",
"=X c #ABAEB4",
"-X c #A8A0A5",
";X c #C69990",
":X c #C4A998",
">X c #C8B59A",
",X c #D6BC96",
"<X c #CFB28D",
"1X c #C5ABA6",
"2X c #C3B4AB",
"3X c #CBB4AB",
"4X c #C7B7A8",
"5X c #D5B8A9",
"6X c #C5BBB3",
"7X c #CBBCB4",
"8X c #C9B8B7",
"9X c #D5BCB6",
"0X c #D2ACA8",
"qX c #E5B9B1",
"wX c #E3AF93",
"eX c #DAC39A",
"rX c #D6C193",
"tX c #E3C69A",
"yX c #D8C6A7",
"uX c #CCC3BB",
"iX c #C9C2B8",
"pX c #D8C5B9",
"aX c #D6CBB3",
"sX c #E4CBA7",
"dX c #E7D2AC",
"fX c #E7C6B9",
"gX c #E8D5B7",
"hX c #F3D0B9",
"jX c #F6E3B7",
"kX c #B0B5C8",
"lX c #D3BEC2",
"zX c #EABCC2",
"xX c #BCC4CF",
"cX c #CBC6C4",
"vX c #D5C9C5",
"bX c #DAD3CA",
"nX c #DBD7D4",
"mX c #CFCDD5",
"MX c #E9CAC4",
"NX c #F3CCC6",
"BX c #E8D6C7",
"VX c #F4D5CA",
"CX c #E4DAD4",
"ZX c #F6DAD5",
"AX c #E6CDD3",
"SX c #F7E4DB",
"DX c #F0E6D5",
"FX c #D1D8E9",
"GX c #DBE4F4",
"HX c #F8EAE5",
"JX c #F9F4EA",
"KX c #FFFFFE",
"LX c #F9F6F4",
"PX c #E9EBEF",
"IX c #F5DEE1",
"UX c #B7C1B1",
/* pixels */
"D.D.H.D.H.H.H.H.H.[.[.[.[.[.[.H.[.[.[.J.J.{.{.{.{.{.[.{.{.J.J.{.{.{.{.{.{.{.{.{.}.{.}.}.}.}.}.{.oX|.|.oXoXoXoX+XoXoXoX+X+XoXoXoXoXoXoX+X+X+X+X+X+X+X+X:X:X+XoX:XoX+X+X:X:X>X:X:X1X:X:X:X:X:X:X:X:X:X:X:X>X1X4X4X3X3X4X3X5X5X5X5XiXiXiXiXaXaXaXiXpX9X9X9X9X7X5X7XiXiXyX7XyXiXiXiXiXiXiXyX7X7X7XiXyX7X7X4X1X:X:X1X+X+X+X+X+X+X+X:X:X+X+X+X+X+X+X:X+X+X+X+X+X+X+X+X:X4X7XiXpXpXvXvXpXpXvXbXvXvXvXvXvXvXbXbXbXbXbXbXvXvXvXvXvXvXpXpXuXuXuXuXuXuX7X7X7X5X7X4X5X7X7X7X7X7X7X9X9X9X7X7XuX7X7X7X6X2X2X2X2X7X7X2X2X2X2X2X2X1X%X1X4XaX:X<./ / ' ' ) ' ] ' ' [ ' ~ ~ ^ ! ! ! ! ! ! H H ! ! ~ ~ ! ! ! H H H J H H H H ! ( ] =.] ) v.4X1X7X4X7X7XiX7X7X7X7XiX7X6X2X2X2X4X4X4X2X4X2X2X4X4X4X2X5X7X7X7X7X4X4X5X9X9X9XiXiXiXaXaXpXpXpXiXpXpXpXpXpXpXpXpXpXpXpXpXpXpXpXuXiXuXiXiX7X4X%XOX{.[.[.[.).c.c.y.u.u.u.u.u.u.u.q.u.r.r.t.u.r.r.r.r.r.q.q.r.r.r.9.q.r.r.r.i.q.r.r.r.r.r.r.r.r.r.r.r.r.r.r.r.r.9.7.7.7.7.7.7.9.r.9.9.9.7.7.7.7.7.7.7.7.7.7.:.:.:.-.-.-.-.-.-.-.-.-.-.X.X.+.+.+.+.+.+.+.X.X.X.X.X.X.X.X.X.X.X.X.X.X.X.X.X.X.X.X.o.I I K P I U I I I I I I I I I o.o.I I o.o.o.o.o.O.-.8.-.-.X.o.o.o.o.o.o.o.o.o.O.X.X.O.O.O.O.-.8.8.8.8.8.8.-.%.%.%.-.-.O.-.O.O.$.$.%.-.-.8.8.%.O.%.-.-.-.%.%.%.O.O.O.O.O.O.O.O.O.o.O.O.O.O.O.o.o.o.o.o.o.o.o.o.o.o.o.o.o.o.o.o.o.o.O.X.I K c C Z K K K o.o.o.o.L Z N l K U X.X.O.O.O.%.%.%.O.%.%.O.O.%.%.%.O.X.X.Y q 5 5 5 5 5 w 0 8 3 , 5 5 5 5 5 5 5 # # 1 1 5 5 5 , , 5 5 # 5 # # 5 , , 5 3 3 3 w w 5 w w & # 1 & & 5 5 5 ; ; 5 5 5 7 5 ; # , 8 5 5 & # ; # # # < 4 x m o.o.L L L L L L L L L L o.o.o.L m L L C l w , , 4 z m C m L L m m m m m m m n n n n n n m n n z m n n z z z z z z z z z z z k k z k k l l z z z k k z l k k 0 0 k k l l l k k k k k l l k k k 0 k k k k k k k k k k 0 k 0 k k 0 k k 0 q k k x m o.;.7.>.( B l 8 k k 0 0 0 k z z k k k 8 0 0 0 0 0 0 0 0 8 0 8 w 0 0 0 0 0 k k l k k k k k k k l ",
"D.D.H.D.H.H.H.H.H.H.H.H.[.[.[.[.[.[.[.[.J.{.{.[.[.[.[.[.[.J.J.J.J.J.{.{.}.}.}.}.}.}.{.}.}.|.|.|.|.|.oXoXoXoXoX+XoXoXoXoX+X+X+XoXoXoX+X+X+X+X+X+X+X+X+X:X+X+XoX+X+X+X+X:X:X:X:X:X1X:X:X:X:X:X:X:X>X:X>X>X4X4X4X4X3X3X4X3X5X5X5X5XiXiXaXiXaXaXiXiXpXaXaXaX9X7X9X9XiXaXaXaXaXpXpXiXaXaXaXiX7X7X7X5X5X7X7X5X4X1X:X1X:X:X:X:X:X+X+X:X+X+X+X+X+X+X+X+X:X+X+X+X+X:X:X:X:X5X7XiXpXpXpXpXvXvXbXbXvXvXvXvXvXvXbXbXbXvXvXvXvXvXpXvXvXpXpXpXuXuXuXuXiXuX9X5X5X7X4X4X7X5X7X7X9X9X9X9XuXuXiXiXiX7XiXiX7X4X2X2X2X2X2X2X2X2X&X&X2X2X2X&X+X5XyXJ. .} ' ) ~ ~ ~ ~ ^ ~ | [ ~ ~ ~ Q ! ! H H H H ! ! H H H ! ! ! ! H H H H H H ! ! ! ] ( ~ w.4X4X5X4X4X4X7X7X7XiXiXuX9X7X7X7X7X7X7X7X7X7X7X4X4X5X5X5X5X7X7X7X7X7X7X7XiXiXiXiXaXpXpXpXpXpXpXpXpXpXpXpXpXpXpXpXpXpXpXpXpXpXpXpXpXiXuXuX9X7X5X4X2X%X+X.X[.).).(.c.y.u.u.u.u.u.r.u.u.r.r.r.r.r.r.r.r.q.r.r.r.r.r.q.q.r.q.i.9.r.r.r.r.r.r.r.r.r.r.r.r.r.r.r.r.9.9.9.9.r.9.7.9.r.9.7.7.7.7.7.7.7.7.8.7.8.8.:.:.:.-.-.-.-.-.-.-.-.-.-.+.X.+.+.+.+.+.+.+.X.X.X.X.X.X.X.X.X.X.X.X.X.X.X.X.X.U o.o.U I I I I I I I I I I I I I I I I I I I o.o.o.o.o.O.-.8.-.O.X.o.o.o.o.o.o.o.o.o.X.X.X.X.o.O.$.-.8.8.8.8.-.-.%.O.O.O.O.O.O.O.O.O.$.O.O.%.-.8.%.O.O.O.O.O.O.O.O.O.O.O.o.O.O.O.o.o.o.o.o.O.O.O.o.o.o.o.o.o.o.o.o.o.o.o.o.o.o.o.o.o.o.o.o.o.K Z Z C C Z P X.X.X.X.o.o.o.o.L L L o.o.O.O.O.O.O.O.O.O.O.O.O.O.%.O.O.X.X.Z 7 5 5 # # # 5 w 5 5 # 5 5 5 5 5 # # # # 3 1 ; 5 3 3 , # # # # # 5 5 , , 3 , 3 3 3 5 5 w 6 1 # & & & 5 5 5 ; # # ; 5 ; ; ; 5 5 5 5 & & # # # # w < < z o.o.o.L L L L L L L L L L L o.L L m m C C z q 8 q z n L L m m m m m m m m m m n n n n n n n n z x n z n z z z z z z z z z l k k k z k k l k k k z 0 k k k k k k k k k k k k k 0 k 0 0 k k k k k 0 0 k k k k k k k k k 0 k k k k 0 k k 0 0 0 k m L %.9.r.4.] V l k k k k 0 8 8 k k k k 8 8 8 8 8 8 8 0 0 0 0 8 0 0 k q q q 0 0 k z k k k k k k k k ",
"D.D.H.H.H.H.H.H.H.[.H.H.H.[.[.[.{.J.[.{.[.{.{.[.{.[.[.{.{.J.J.{.J.J.J.{.}.}.}.}.}.}.}.}.}.|.|.oX|.oXoXoXoXoXoX+XoXoXoX+X+X+X+X+X+X+X+X+X+X+X+X+X+X+X+X:X+X+XoX+X+X:X:X:X:X:X>X>X:X:X:X>X:X>X>X>X>X>X>X4X4X4X4X4X3X5X5X7X7X7XyXyXaXaXiXiXaXaXaXaXpXaXaXaXaXiX9XiXiXpXpXpXpXpXpXpXaXaXpXaXiX7X5X5X5X5XyX5X5X>X>X1X>X:X:X:X:X:X:X:X:X+X+X+X+X+X+X+X+X+X+X+X+X+X:X:X>X4XyXiXaXpXpXpXpXpXvXvXvXvXvXvXvXvXpXpXpXpXvXpXpXpXpXpXpXpXpXpXpXuXuX7X7XiXiX7X7X7X7X4X4X7X7X7X9X9XuXuXiXuXpXpXuXiX7X7X7X7X7X7X2X2X2X2X4X2X&X&X&X2X2X2X+X:X:X}.g.3.| | } ' ~ ~ ~ ~ [ [ ' ~ ^ ^ ~ ~ ! ! H H H ! H H ! ! ! ! ! ! H H H H H ! ! ! ! ( ( 1.1X4X4X7X4X4X4X4X7X4X7X7X7X7X7X7XiXiXiXiXiXuXiX7X7X7X7X7X7X7X7X7X7XiXiXiXiXiXiXaXiXaXpXpXpXpXpXpXpXpXpXvXpXpXpXpXvXvXvXpXpXpXvXpXpXuXuXpXiXyXiXpXuX7X3X2X%XOX X).(.c.c.u.u.u.r.r.r.u.u.r.r.r.r.r.r.r.r.r.r.r.r.r.r.r.r.r.r.r.r.r.r.r.r.r.r.r.r.r.r.r.r.r.r.r.r.9.r.9.7.7.9.r.r.9.7.7.7.7.7.7.8.7.8.8.:.:.:.:.8.-.-.-.-.-.-.-.-.-.-.+.X.+.X.X.X.X.X.X.X.X.X.X.X.X.X.X.X.X.X.X.o.o.o.o.U P o.o.I I I I L L L L L I I L L L L L P P L L o.I I o.o.X.-.-.-.X.X.o.o.o.o.o.o.o.o.o.X.X.O.X.O.O.$.-.8.8.8.8.8.8.%.-.-.-.-.-.-.O.O.O.O.O.O.O.O.O.O.O.O.O.o.O.O.O.O.O.o.o.O.o.o.o.o.o.o.o.o.o.o.O.o.o.o.o.o.o.o.o.o.o.o.o.o.o.o.o.o.o.o.L U P A N U K Z N N z l z I I o.o.o.o.o.o.L L o.o.X.X.X.O.O.O.O.O.O.O.O.O.O.o.K y ; ; 6 ; # # 5 5 # # # 5 5 5 5 # # # # # , & ; ; , 3 , # & ; ; # # # , 5 , # 3 = 3 # & w 0 5 # # # # 5 5 5 , # , # # # # - 5 8 w - # ; 1 # , , , < z L o.o.o.L L L L L L L L L L L L m m m m L C C n C C n C L m m m m m m m m m m m n n n n z z n n z z x z z z z z z z z z z k k k k k k k k l k k k k 0 k k k k k k k k k k k k k k k 0 0 0 0 k k k k 0 0 k k k 0 k k k k k k 0 0 0 0 k k 0 0 8 k m o.%.0.0.:.] s 0 8 z z 8 8 8 8 8 8 8 8 8 8 8 8 8 8 8 8 8 8 8 8 8 8 8 8 8 8 8 8 k z k 0 0 k k k k k ",
"D.D.H.H.H.H.H.H.J.J.H.H.H.H.J.J.{.J.[.J.J.{.{.[.{.{.{.{.{.{.{.{.{.J.J.{.{.{.}.}.}.}.}.}.}.}.|.|.|.oXoXoXoX+X+X+XoXoXoXoX+X+X+X+XoX+X+X+X+X+X+X+XoX:X:X:X:X:X:X:X:X:X:X:X:X:X:X>X+X+X>X:X:X:X>X>X1X1X1X4X4X4X4X4X3X5X7X5XyXyXaXaXaXpXpXaXpXaXaXaXaXaXaXaXaXiXiXaXaXpXpXpXpXpXpXpXpXpXpXpXpXpXiX7X5XyXyX5X4X1X1X4X4X4X4X4X4X4X1X1X:X+X+X+X+X+X+X+X+X+X+X+X+X+X:X:X4X5XyXpXpXpXpXpXbXbXvXvXvXvXvXbXvXvXpXpXpXpXpXpXpXpXpXpXpXpXpXpXvXpXpXiXiXiX7X7X7X7X7X7X7X7XiXuX7XiXiXuXpXpXpXuXuXuXuX7X7X7X7X7X7X4X2X2X4X2X2X2X2X2X2X2X2X4X1X:X}.H.g.<.,.,.} ~ ) ] ) [ ,.,.~ ' ( ( ~ ^ H H H H H ! ( ! ! ~ ~ ~ ! ! ! ! ( ( ( ( ! ] ) ,.{.4X4X4X4X7X7X7X4X7X7X7X7X9XuXiXuXpXpXuXpXpXiXuX9X9X9X9XpXuXuXuXuXiXiXiXiXiXiXaXpXpXpXpXpXpXpXpXpXpXvXvXvXvXbXbXbXvXvXpXpXpXpXpXpXuXuXuXaXyXyXyX7X7X7X7X8X2X%X.X{.).~.y.u.r.r.r.r.r.r.q.r.r.r.r.r.q.q.q.r.r.r.r.r.r.r.r.r.r.r.r.r.r.r.r.r.r.r.r.r.r.r.r.r.9.9.9.9.9.7.7.r.9.r.9.9.7.7.7.7.7.7.8.7.8.:.:.8.;.-.-.-.-.-.-.-.-.-.-.-.+.X.X.X.X.X.X.X.X.X.X.X.X.X.X.X.X.X.X.X.o.o.o.P o.X.X.o.I I I L L L L L L L L L L L L L L L P L L L L I o.o.o.O.-.O.X.o.o.o.o.o.o.o.o.o.X.X.O.$.-.-.-.$.%.-.%.O.O.-.-.8.8.8.8.8.8.-.O.O.O.X.O.O.o.o.o.o.o.o.o.o.o.o.o.o.o.o.o.o.o.o.o.o.o.o.o.o.o.o.o.o.o.o.o.o.o.o.o.o.o.o.o.o.o.o.o.L o.X.X.&.&.P P P K K K K K L L C C C Z K K o.o.P o.o.X.X.X.X.X.O.O.O.O.O.O.o.o.o.v 9 6 6 1 # # # 5 5 # # # # # # # # # # # # # # ; ; & # 3 # # & 7 6 & # # , 3 3 # 3 = # # # 7 0 1 # # # , 5 5 5 , , 3 , # # # # ; w 5 ; o # , , , , z m L L o.o.o.L L L L L L L L L L L L m m L m L L L C L L m m m m m m m m m m m m m m n n n n n z n z n n z z z z z z z z z k k k k k k k k k k k k k k k l k k k z k k k k k k 8 k k k k 0 0 8 0 0 k k k 0 0 0 0 0 0 0 0 k 0 0 k 0 0 0 0 4 k 0 8 4 x m o.%.8.0.9.] d N C z l k 8 8 8 8 8 8 8 8 8 8 8 8 8 8 8 8 8 8 5 5 5 3 1 5 5 5 8 8 8 k 0 0 k z z z l ",
"D.D.D.H.H.H.H.[.H.H.H.H.H.H.H.H.{.J.J.J.J.[.{.{.[.[.J.{.{.{.{.J.{.{.{.{.{.{.}.}.}.}.}.}.}.}.|.|.|.oXoXoXoXoXoXoXoX+X+X+XoX+X+X+XoX+XoX+X+X:X+X+XoX+X+X+X:X:X:X:X:X:X:X:X+X+X:X>X+X:X:X:X:X:X>X>X:X1X4X4X4X4X4X4X4X5X7XaXaXaXaXaXaXpXpXpXpXpXpXpXpXpXpXpXpXpXpXpXpXpXvXbXbXBXBXBXBXBXBXBXbXvXpXpXpXpXaXyX5X4X2X4X5X7XiXuXiX7X4X4X2X2X+X+X+X+X+X+X1X1X2X1X1X1X4X4XiXiXpXpXpXvXvXvXbXbXbXvXvXbXbXbXbXbXbXbXvXbXvXvXvXpXpXpXpXpXpXpXpXpXuXpXuXuXiXiXiXiXiX7X7XiXiXuXuXuXuXuXuXvXvXuXuXuXpXpXuXuX7X7X7X7X6X2X2X2X2X2X&X&X&X2X2X4X7X9X4XJ.x.x.x.5.2.,.[ ,.[ [ <.4.[ [ *.[ [ ] ~ ~ ~ ! ( ( ] ] [ *.*.*.=.*.[ ] ] ] ] ] ] [ [ ,.D.7X7XiX7X7XiXiXuXpXpXpXuXpXpXpXpXpXpXuXpXpXpXpXuXuX9X9XpXpXpXpXpXpXpXpXiXaXpXpXpXpXpXpXpXpXpXpXvXvXbXbXbXbXbXbXbXbXpXpXpXpXpXpXpXpXuXiXiXiX7X7X4X7X7X7X6X7X7X2X%X.X_.c.y.u.u.r.u.r.u.q.r.r.r.r.q.q.q.q.r.r.r.r.r.r.r.r.r.r.r.r.r.r.r.r.r.r.r.r.r.r.r.r.7.7.7.7.9.9.9.r.r.7.7.7.7.7.7.:.7.7.8.7.7.7.7.8.;.-.-.-.-.-.-.-.-.-.-.-.-.-.X.X.X.X.X.X.X.X.X.X.X.X.X.X.X.X.X.o.o.X.U P P o.o.X.I I I L L L L L L L L L L L L L L L L L L L L I o.o.o.X.-.-.X.o.o.o.o.o.o.o.o.o.o.X.X.O.O.-.O.-.O.O.O.O.O.O.O.O.%.-.8.-.-.-.%.O.o.o.o.o.o.o.o.o.o.o.o.o.o.o.o.o.o.o.o.o.o.o.o.o.o.o.o.o.o.o.o.o.o.o.o.o.o.o.o.o.o.o.o.o.o.L o.o.P U X.X.U U L P U K K L K K L L c l b p N A A C o.X.X.U U U X.X.X.X.X.o.o.X.X.o.Z 0 ; ; 5 , , , # 5 5 # # & & # # # # # # # # # # ; ; - # 3 = # & y 7 ; # = 3 @ # # # # # # # w w & # # # , 5 # # , , , , # , ; 5 # 5 w w = # < < 8 n L o.o.L L o.o.L L L L L L m L L L L L L L m m m m m m m m m m m m m m m n m m m m m m n n n n z z z z n z z z z z z z z z k z z z k k k k 0 k k k k 0 0 k l k k k k k k k 0 8 8 8 8 8 8 8 0 8 8 8 0 0 k k k k 0 0 0 8 8 8 0 0 0 0 k k k 8 k 8 8 8 k k x m L $.8.7.] V B z z l k 8 0 0 0 8 8 8 8 8 8 8 8 8 8 w w 5 3 , , , , , , , , , , 4 0 0 k l b n C n ",
"D.D.D.H.H.H.H.H.H.H.H.H.H.J.J.J.{.J.J.J.J.[.{.{.{.{.{.{.{.{.{.{.{.{.{.{.}.}.}.}.}.}.|.}.}.}.|.|.|.oXoXoXoXoXoXoX+XoXoX+XoX+X+X+X+X+XoX+X:X:X:X:XoX+X+X+X:X:X:X:X:X:X:X:X:X:X:X:X+X:X:X:X:X:X>X>X1X1X4X4X4X4X4X>X4X3X5XiXaXaXaXpXpXaXpXpXpXpXpXpXpXpXpXpXpXpXpXpXpXvXbXBXBXCXCXCXDXDXCXCXCXCXBXBXvXpXpXpXiXiXiXuXpXvXbXbXbXvXpXuXuX7X2X4X4X2X3X4X8X7X7X7XiXiXpXpXpXpXvXbXbXbXbXbXCXbXbXbXbXbXCXCXnXCXCXCXCXCXbXbXbXvXvXpXpXpXvXvXvXvXvXvXvXvXvXpXvXuXpXpXpXpXpXpXuXvXvXbXbXbXbXvXbXbXbXbXvXvXuXuX6X7X6X2X&X2X2X&X&X6X7X8XuXvXvXbXbXvXuX+X[.D.z.5.5.1.6.5.5.5.w.6.4.1.,.*.[ ] ] ] ] *.=.1.4.w.w.w.w.w.4.1.=.=.=.=.=.1.1.w.F.uXpXpXuXpXuXpXvXvXbXbXvXbXbXbXbXbXvXpXpXpXpXpXpXuXpXpXpXuXpXpXpXpXpXpXpXpXpXpXpXpXpXpXpXpXpXpXvXbXbXbXbXbXbXbXbXbXbXbXbXvXpXpXpXpXpXiXiXiXiXiX4X4X7X4X2X6X8X6X2X2X%X X~.y.u.u.q.q.q.q.r.r.r.r.q.q.q.r.r.r.r.r.r.r.r.r.r.r.r.r.r.r.r.r.r.r.r.r.r.r.r.r.9.9.7.i.9.9.r.r.r.7.7.7.7.7.7.7.7.7.7.7.7.7.:.8.-.-.-.-.-.-.-.-.-.-.-.-.-.-.X.X.X.X.X.X.X.X.X.X.X.X.X.X.X.X.o.P P P P P P P o.o.U I L L L L L L L L L L L L L L L L L L L L L I o.o.o.O.-.-.X.X.o.o.o.o.o.o.o.o.o.o.X.X.X.X.X.X.O.O.O.O.O.O.O.%.O.O.O.O.O.O.O.O.o.o.o.o.o.o.o.o.o.o.o.o.o.o.o.o.o.o.o.o.o.o.o.o.o.o.o.o.o.o.o.o.o.o.o.o.o.o.o.o.o.o.o.o.L L U U &.U U U K L L P U I L L L L I I P I U I I I P P L I I K U U X.U X.X.X.X.X.U P K Z N t 6 ; , 3 3 # 3 , , # # ; # # # # # # # # # # # ; # = 3 = # t S y & # # 5 # # # & # # & # ; 5 # o # # # 5 # # , , , # , 5 # , # 5 l b l 0 8 l L o.L L o.L L o.L L o.L L L L m L L L L L L m m m m m m m m m m m m m m m n z n n m m m m n n z z z z z z n z z z z z z z z k z z z z k k k k 0 k k z k k k k k 0 0 k k 0 0 k 0 8 8 8 k k 8 8 8 8 8 8 8 0 0 0 8 8 8 8 8 8 8 8 8 8 8 8 8 8 8 8 k 8 8 8 8 z x x m O.8.7.>.U V l l k 8 8 0 0 8 8 8 8 8 8 8 8 8 w w w w ; # # # o , # , , , , , 4 0 0 l n C A A A ",
"D.D.H.H.H.H.H.H.H.H.H.H.H.J.J.J.J.J.J.J.J.{.{.[.{.{.{.{.{.{.{.{.{.{.{.}.}.}.}.}.}.}.}.}.}.|.|.|.|.|.oXoXoXoXoXoXoXoXoXoX+XoX+X:X+X+X+X+X+X:X:X:XoX:X+X+X+X:X:X:X:X:X:X:X:X:X:X:X+X:X:X:X:X:X:X4X1X1X>X4X>X>X>X>X>X3X5XyXaXaXpXpXaXaXpXpXpXpXpXpXpXpXpXpXpXpXpXpXvXBXBXCXDXDXPXHXPXPXPXHXHXDXDXDXCXbXbXbXbXbXbXCXCXCXDXDXDXCXCXbXbXvXpX7X7X7XuXuXvXvXbXbXbXBXbXbXbXbXBXCXCXDXCXCXDXDXCXCXCXCXCXDXCXDXDXDXDXDXCXCXCXCXbXbXbXbXbXbXbXbXCXCXCXCXCXCXCXCXbXbXbXbXbXbXbXbXnXCXCXCXCXCXCXCXCXnXbXbXbXvX7X7X2X&X&X&X2X2X7X8XuXvXnXCXCXDXCXCXDXDXCXbX&X[.c.e.z.D.F.D.)._.S.c.w.4.,.*.*.*.,.4.e.c.(._._._.'._.).S.y.e.w.w.w.e.c.). XvXbXbXbXbXbXbXbXCXCXCXCXCXCXCXCXCXCXbXbXvXvXpXpXpXpXpXpXpXpXpXpXpXpXpXpXpXpXpXpXpXpXpXpXpXbXbXbXbXbXBXBXBXBXBXbXbXbXbXbXbXbXbXbXpXpXpXpXpXpXiX4X2X2X2X2X2X*X2X2X2X2X%X X).~.c.u.q.u.q.q.q.q.q.q.q.q.q.q.r.r.r.r.u.r.r.r.r.r.r.r.r.r.r.r.r.r.r.r.r.r.r.r.r.9.9.q.9.9.9.r.7.7.7.7.7.7.7.:.7.7.:.:.:.:.:.-.-.-.-.-.-.-.-.-.-.-.+.+.X.X.X.X.X.X.X.X.X.X.X.X.X.X.o.P U U P I I I P X.X.X.o.X.U I L L L L L L L L L L L L L L L L L I L L L o.o.X.O.-.-.O.O.X.o.o.o.o.o.o.o.o.o.o.o.o.o.o.o.o.O.O.-.-.-.-.-.O.O.O.o.O.o.o.o.O.X.o.o.o.o.o.o.o.L L L o.o.o.o.o.o.o.o.o.L o.o.o.o.o.o.o.o.o.o.o.o.o.o.o.o.o.o.o.o.o.o.L U U U &.K Z K K P X.X.U U I L L L K P K K U L L I K P L L L K P U X.#.U U U U U P F B V s s s q 0 w # , , 3 # , # # # # # # # # # # # # # # # , , # & B F 7 o # # 5 5 & & ; & & ; # # # # # # # # = # # , , , , w 8 = , < k C K L C L o.L L o.o.L L o.L L o.o.o.L L L m L L L L m m m L m m m m m m m m m m m n n n n n z n n n n n n z z z z z z z z z z z z z z z z z z k k k 0 k 0 0 k k z z k k l l 0 0 k q 8 8 0 k 0 k k k k 0 8 8 8 8 8 8 8 8 8 8 8 8 8 8 8 8 8 8 8 8 8 8 8 8 8 8 8 8 5 8 8 k x x M $.;.;.` Z l q 9 8 0 0 w 8 8 8 8 8 8 8 8 w 5 w w 5 # # o # # , # , 3 3 , 3 8 k k b n A A Y Z ",
"D.D.D.H.H.H.H.H.[.[.[.H.H.H.J.H.J.J.J.J.J.{.{.J.{.{.{.J.J.{.{.J.{.{.}.}.}.}.}.}.}.}.}.}.}.}.|.|.|.|.|.oXoXoXoX:XoXoXoX+X+XoX+X:X+X+X+X+XoX+X:X:X:X:X:X+X+X:X:X:X:X:X:X:X:X:X:X:X+X:X>X>X>X:X>X>X>X>X>X>X>X>X>X>X>X4X5XyXaXaXpXpXaXaXpXpXpXpXpXpXpXpXpXpXpXpXpXfXBXCXDXDXPXJXLXLXLXLXLXLXLXJXHXHXCXCXBXBXCXCXDXDXPXHXJXJXJXJXHXPXDXCXCXbXvXbXbXCXCXCXDXDXDXDXDXDXDXDXDXDXHXPXHXHXHXHXHXHXDXHXHXHXHXPXHXJXJXPXHXPXDXDXCXCXbXbXCXCXCXDXDXHXPXPXHXHXDXPXDXDXCXCXBXCXCXCXDXDXHXHXPXPXHXHXPXIXCXCXbXuXuX6X2X&X&X&X2X7XuXuXbXCXPXPXPXPXLXLXLXPXCXDXCXBXiX2XOXOX%X&X&X*X%X X).c.5.1.1.1.w.c._.OX&X6XcXcXiXiX*X$X X_.S.S.).'.$X%X*XCXDXDXCXCXDXDXDXDXPXHXPXPXPXPXHXHXDXCXCXbXbXvXpXpXpXpXpXpXpXpXpXpXpXpXpXpXvXvXbXvXvXvXpXbXbXbXbXbXBXCXCXCXCXCXCXnXnXbXbXBXBXBXbXBXbXbXbXvXpXiX4X2X2X2X2X&X&X&X&X2X2X&X1X+X%X-X'.~.c.u.q.q.r.r.q.q.q.q.q.r.r.r.r.r.u.r.r.r.r.r.r.r.r.r.r.r.r.r.r.r.r.r.9.r.9.r.r.q.9.9.7.7.9.7.7.7.:.7.:.:.7.:.:.:.:.:.-.-.-.-.-.-.-.-.-.-.-.X.X.X.X.X.X.X.X.X.X.X.X.X.X.X.X.P P U U U P I I o.X.X.X.X.U I L L L L L L L L L L L L L L L L L L L L L I o.o.o.o.O.-.-.-.X.o.o.o.o.o.o.o.L L o.o.o.o.o.o.X.X.O.-.-.-.O.O.O.O.o.o.o.o.o.o.o.o.o.o.o.o.o.o.o.o.L L o.L o.o.L L L L L o.o.o.o.o.o.o.o.o.o.o.o.o.L o.o.o.o.o.o.o.o.o.I U U ( &.Z K P K P U X.U K C C L K K P K K P Y U #.U L C C C v c C U ;.U U U U U P B B V 7 6 t s y w ; 3 , , , , # # # # # # # # # # # # o # # # , # & 7 B ; o & # # # ; ; ; & ; 5 # # # # # # o # # # # , , , 5 l q 5 , 4 z L L L L L L L o.o.o.o.o.L L L o.o.o.L L L L L L L m m m m m m m m m m m m m m m m n n n n z z z n n n z z z z z z z z z z z z z z k z z z b z l k 0 0 k k 0 k z z z k l b b q l l 0 8 8 k k k k k k k 0 8 8 8 8 8 8 8 8 8 8 8 8 8 8 8 8 8 8 8 8 8 8 8 8 8 8 8 5 5 8 8 8 k k x M $.;.` Y Z q 9 w 8 0 0 0 8 8 8 8 8 8 w w 5 5 5 ; # o o o # = # = 5 , , 3 4 k z n A A A A A ",
"D.H.H.H.H.[.[.[.H.H.H.J.J.J.J.J.J.J.J.J.{.{.{.{.}.{.{.J.J.J.{.}.{.}.}.}.}.}.}.{.}.}.}.}.}.|.oXoXoXoXoXoXoX:X:X:X:XoX:XoXoX+X+X+X+X+X+X:X+X:X:X:X:X:X+X:X:X:X:X:X:X:X:X:X:X:X:X:X>X>X>X>X:X:X:X>X>X:X>X>X>X>X>X>X>X5XyXaXaXpXpXpXpXpXpXpXpXpXpXvXpXpXpXpXvXvXbXbXBXDXDXHXLXKXLXKXLXKXKXLXLXKXLXLXHXHXCXHXDXPXJXLXLXLXLXKXLXLXLXPXJXPXDXCXnXPXPXPXPXPXJXJXJXLXPXPXPXJXJXJXLXLXPXLXLXLXJXJXJXPXLXLXLXLXLXLXLXLXLXLXJXPXPXPXCXPXCXPXPXJXPXPXLXLXLXPXLXLXPXPXHXDXDXDXPXPXPXJXLXPXLXLXLXLXLXPXPXCXCXvXuX6X2X&X2X2X2XuXvXCXCXPXJXLXLXKXKXLXLXLXPXPXJXDXDXDXCXCXCXCXCXnXbXuX%X Xc.e.5.5.D. X*XcXmXCXCXCXPXnXnXcXcX&X$X$X&X*XcXvXnXPXPXPXPXPXPXPXLXJXLXLXLXLXLXLXJXLXJXPXDXDXCXbXbXpXpXpXpXpXpXpXbXbXbXbXbXbXbXbXbXbXbXbXbXbXbXbXBXbXCXCXCXCXCXCXnXnXCXCXCXCXCXCXbXbXBXBXCXCXbXpX7X2X2X2X&X&X&X2X&X%X&X&X2X2X2X&X%X%X-X'.~.q.q.q.r.r.r.r.q.r.r.r.t.r.r.t.r.r.r.r.r.r.r.r.r.r.r.r.r.r.r.r.r.r.r.r.r.r.7.7.9.7.7.7.7.7.:.7.;.7.7.7.7.;.;.-.-.-.-.-.-.-.-.-.+.+.+.-.+.X.X.X.X.X.X.X.X.X.X.U o.o.U U o.o.X.X.I I o.X.X.X.X.X.U I L L L L L L L K K L L L L L L L L L L L L I L o.o.o.o.O.O.O.o.o.o.o.I o.o.o.I I o.o.L L o.o.o.o.O.X.-.-.-.+.X.X.X.o.o.o.o.o.o.o.o.o.L o.o.o.o.o.o.o.o.L L L L m m L L L o.o.m o.L o.o.m o.o.L o.o.o.o.o.o.o.o.L o.U U U Z P U c F P U U U X.K K Z K K Z K K K K K K K I P U P U -.X.l L K P K U P U U ( H S D D g r : : t d 7 w # # # o # o # # # # # # # # & # # , < , , , ; 5 # # o X ; ; y 7 ; # & 5 5 - # o o # # # < , # # < 8 C L C z n L L L L o.L m o.L L L o.L L o.L L L L L L L L L m m m m m m L m m m m m m m m m m m m m m m m z z z n n n n z z z z z z l l z z k z z z k k b C b k 0 0 0 0 k k 0 z z k k z z n N N N l 8 8 0 0 0 l l k 0 8 8 8 8 8 8 8 4 8 8 8 8 8 8 8 8 4 8 8 8 8 8 8 8 8 8 8 8 4 3 8 8 8 k x x M $.8.;.&.J B 0 p p 8 8 k w 0 5 8 0 5 8 q 5 8 5 # # # X @ # o # # # @ < 3 8 k z n m m A A A ",
"H.H.H.H.H.H.[.[.H.[.H.H.J.J.J.J.J.J.J.J.{.{.{.{.J.J.{.{.{.{.{.{.{.}.{.{.}.}.}.}.}.}.|.|.|.oX|.|.|.|.oXoXoXoXoX:X:XoX:X+XoXoX+X:X+X+XoX:XoX+X:XoX:X:XoX:X:X:X:X:X>X:X:X:X:X:X:X:X>X>X:X:X:X:X>X>X>X:X>X>X>X>X>X>X4X5XyXyXaXpXpXpXpXpXpXpXpXpXpXpXpXpXpXpXgXbXBXBXDXDXJXKXLX$X&.0 o   o w Y q.CXLXLXPXLXJXPXLXLXiX:.N #   o 5 P (.LXLXHXHXPXPXPXLXPXKXLXKXLXLXLXPXLXLXLXLXKXKXKXLXLXLXLXKXPXKXPXKXKXKXKXKXKXKXLXLXLXLXJXJXPXPXPXPXLXLXLXKXKXLXKXLXKXKXLXLXJXPXPXPXJXPXLXKXLXLXKXLXKXLXLXLXJXPXnXbXuX7X2X&X&X2X8XvXCXCXJXLXnX:.q #   X & P :.CXLXPXPXJXHXPXLXLXPXKXLXCXCX7X XS.z.D. X&XvXPXPXPXLXLXLXPXLXPXnXnX6XcXvXbXPXPXPXPXLXLXJXLXLXLXPXKXLXKXKXKXKXKXLXLXLXLXJXJXCXBXbXvXvXpXvXpXpXbXbXbXbXbXbXbXbXbXbXbXbXbXbXbXbXBXBXBXCXCXCXCXCXCXnXnXnXnXCXCXCXBXbXbXbXbXCXCXBXpX7X4X2X&X1X%X%X%X%X%X%X&X&X2X2X8X8X8X*X$X-X].y.r.r.q.r.r.u.u.u.u.r.r.r.r.r.u.u.u.u.r.r.r.r.r.r.r.r.r.r.r.r.r.9.q.r.9.7.7.9.9.7.7.7.:.:.7.;.7.7.;.;.;.;.-.-.-.-.-.-.-.-.+.-.+.+.+.+.X.X.X.X.X.X.X.X.X.X.U o.U U P P P P P I P o.X.X.X.o.o.I L L L L L L L L A A L L L L L L L L L L L L L L o.o.o.o.X.X.X.o.o.o.o.P L I L L L o.o.L o.o.o.o.X.X.O.+.-.-.+.X.X.X.o.o.o.o.o.o.o.o.o.L o.o.o.o.o.o.L L L L L m L L L o.o.o.o.o.o.o.o.o.o.L L m m o.L o.L o.L L X.X.X.U U N Z Z c U U U U U P c Z K K C N C N C N l z z C C K K I U X.&.-.K 0 N Z K K P F ( *.*.*.! ! h r r > : 6 7 w 5 5 # # # # # # # # = 3 # # # , < , , # & ; # # - # % > s 7 ; & # # # X # # # o o # # , , # , z L L L L L L o.o.L o.L m o.L L L o.L L L L m L m L L L L L m m m m m m m m m m m m m m m m z z z n n n n x z x x z z x x z z z z z z z z k k k k k k z n C b k 8 8 8 k 0 8 k k k k z C L A Y Y A b q 0 0 l l l l 0 8 8 3 8 8 8 8 4 4 8 8 8 8 8 8 8 8 4 4 8 8 8 8 8 8 8 8 3 8 4 , 4 4 4 4 x x o.8.0.r.1.*.U A N b 8 z C C A C l q w 5 3 w 3 w 5 # ; 5 5 # # # # # @ , 3 4 0 k z n A Y A A ",
"H.H.H.H.H.H.H.H.H.J.J.H.J.J.J.J.J.J.J.J.J.J.{.J.J.J.{.{.{.{.{.{.}.{.{.{.}.}.}.}.}.}.}.|.|.oX|.|.}.|.oXoXoXoXoXoXoXoX+X+X:X+X+X+X+X+X+X+XoXoX:X:XoXoX+X:X:X:X:X>X:X>X:X:X:X:X:X:X>X:X:X:X:X:X>X>X>X>X>X>X>X>X>X>X4X5XyXyXaXpXpXpXpXpXpXpXgXgXpXpXpXpXpXpXpXbXBXDXDXJXLXPXU                   # y.LXLXJXJXKXLX:.#           X     N cXLXLXLXLXX X               KXKXKX#                 PXLX1.X               o 5 Y 1.PXLXLXLXLX$X            X   o 5 N &.*XKXLXLXLX:.                      LXCXnXuX6X&X%X&X7XuXnXPXJXLXq.X     X   X       ; u.KXLXLXLXV             '.DXbX7X2XOX&XnXq.    X             Z CXCXnXnX:.            4.KXLX#           o   # 5 q U _.LXLXPXDXCXbXBXvXpXvXbXbXbXBXbXbXBXBXBXBXBXBXBXCXBXBXBXBXBXnXCXCXCXCXCXCXCXCXnXnXCXCXCXCXBXbXbXbXbXCXBXpXuX4X2X2X1X%X%X%X%X%X%X%X%X%X&X*X*X8X*X=X=X-Xy.q.r.q.u.r.r.r.u.u.u.u.u.u.r.r.r.u.r.r.r.r.r.r.r.r.r.r.r.r.r.r.r.q.q.9.9.9.9.9.7.7.7.:.:.:.7.7.7.;.;.;.;.;.-.-.-.-.-.-.&.+.-.-.+.X.X.X.X.X.X.X.X.X.X.X.U X.o.U P I P I I P I I o.o.o.o.o.o.X.o.I L L L L L L L L L L L L L L L L L L L L L o.o.o.o.o.X.X.o.o.o.L L L L L L L L L o.L o.o.o.o.X.X.X.X.+.+.O.X.X.X.O.O.o.o.o.o.o.o.o.o.o.o.o.L o.o.L L L L m L L L L L o.o.m m o.o.o.o.o.o.o.o.o.o.L L L P U U X.X.U P A q A Z Z P P K Z Z Z l K Z l 8 8 q q q q c K P K K I I I I C -.-.&.K A l N C Z y V P { 4.,.[ [ ~ h h f r t 6 6 w # , o # # # # # # # # # # # # # # # # # # # ; : : u y ; & & # # # @ # # # o o o # # @ 3 z L L L L L L L L o.o.L L L o.L L L L L L L o.L L m L L L L L m m m m m m m m m m m m m m m z z z z x z z x x z z z z x x z z z z z z z z z z k k k z k z C L m b k 0 0 0 0 z k k k n L I I #.&.` Z q l l l z b b z k 8 8 8 4 4 4 4 4 4 8 8 4 8 8 8 8 8 8 8 4 8 4 8 8 8 4 4 3 3 4 , 4 4 4 4 x m $.0.Q.W.u.=.&.U A n z C P U U U A q q q w 5 0 q w # # 3 3 # # @ @ @ , 3 4 8 l k 0 0 q q w 7 ",
"H.H.H.[.H.H.[.[.H.H.J.J.J.J.J.J.J.J.J.J.J.{.{.J.{.{.{.{.{.{.}.}.}.}.{.{.}.}.}.}.}.}.}.}.|.|.oX|.|.oXoXoXoXoXoXoXoXoX+X:X:X:X+X+X:X:X:X:X:X:X:X:X:X:X:X:X:X:X:X:X:X:X:X:X:X:X:X:X>X>X:X:X:X:X:X>X>X>X>X>X>X>X>X>X5X5XyXaXaXpXpXpXpXpXpXgXgXgXpXpXpXpXpXpXpXbXCXDXHXJXLXU   O                     N.LXKXLXLX1.                X     w mXLXLXKX#     X           cXLXLX                  LXKXq.            X           # *XLXLXLX*X  X                 X   X y.LXKXLXq.X                     PXPXbXvX6X2X&X2XuXvXCXPXLX:.                X       u.KXLXLXP           X $XPXDXbXbXCXDXCX*.                  0 PXPXPXPX:.            q.KXKXo         X   X   X       &.KXJXPXCXCXbXbXvXvXbXMXBXBXbXbXBXBXBXBXbXBXBXCXBXBXBXbXnXnXnXCXCXCXCXCXCXCXCXnXCXCXCXCXBXbXbXbXbXbXbXpXuX7X4X4X1X%X+X+X-X-X$X$X%X%X%X&X*X*X*X*X=X-Xy.q.q.q.u.q.r.y.y.u.u.u.u.u.r.r.r.r.r.r.r.r.Q.t.u.r.r.r.r.r.r.r.r.r.q.9.7.9.9.9.7.7.7.7.:.:.7.7.:.;.:.;.;.;.-.-.-.-.-.-.&.&.-.+.X.X.X.X.X.X.X.X.X.X.X.U U X.o.o.P P P I I I I I I I o.o.X.X.X.X.o.o.I P L L L L L L L L L L L L L L L L L L o.o.o.o.o.o.o.o.o.L L L L L L L L L L L L L o.o.o.X.X.X.X.X.X.X.X.X.X.X.O.o.o.o.X.X.X.o.o.L L L L m L L L L m m m C L L L L L o.L o.L L L L o.L m L L L K P U U U U U Z V y q C V V N N N c N N Z K l , , 3 w 0 8 c K P K C C K C C L -.X.L X.;.>.U P l N C C c f *.4.*.,.<.| f.<.} ~ h u 7 ; 1 o o # # # # # o # # # # # # # # # = - o ; : t S y % o & # # , # , # o o # # # # 4 z L L L L L L L L L L o.o.L L L L L L L L L L o.L m m L m m m m m m m m m m m m m z z n m m m z z z z z x x z x z z z z x x x z k z z z z k k k k l z z z z n C n n n q 8 8 8 k 4 k m o.-.;.-.9.q.>.J N c z k k l z k 0 8 8 8 4 4 4 3 3 4 8 8 4 4 8 k q 8 8 8 4 4 4 4 8 8 4 3 3 4 4 3 3 3 4 4 x m %.!.Q.^.e.:.] Y M m L X.&.:.:.&.U U N p N A V q 5 o @ O @ @ @ @ , 3 8 8 8 8 0 w 8 w w w 7 6 ",
"H.H.[.H.H.H.H.H.H.H.[.[.[.[.J.J.J.{.{.J.J.J.J.J.{.{.{.{.{.{.}.}.}.}.}.}.}.}.}.}.|.}.}.}.}.}.|.oXoXoXoXoXoXoXoXoXoXoX:X:X:X:X+XoX+X:X:X:X:X:X:X:X+X+X:X:X:X:X:X>X:X:X:X:X:X:X:X:X>X:X:X:X:X:X:X:X>X>X>X4X4X>X>X4X5XyXyXaXpXpXpXpXpXpXgXgXgXpXpXpXpXpXpXpXgXBXCXDXJXLX$X          X             X N LXKXKX*X            X             &.KXLXLX5             X   '.KXcXX                 PXKXy.                      o   w LXLXKX*X                          X mXLXKXq.                    o LXPXnXiX&X%X%X&X8XvXPXPX=XO               X           mXKXKXU   o         =XPXCXbXCXCXPXLXU   X               o LXLXLXLXq.            u.KXKX9           X               u.LXPXHXCXbXpXvXvXbXbXbXbXbXbXBXBXBXCXBXBXbXCXCXCXnXnXnXCXCXCXCXCXCXCXCXCXCXCXCXCXCXCXCXbXbXbXbXBXbXpXpXuX7X7X2X1X%X+X%X$X.X-X$X-X%X%X*X8X*X*X=X-X~.u.q.q.u.w.u.c.w.q.u.y.u.u.u.u.u.r.r.r.r.t.t.t.t.r.r.r.r.r.r.r.r.r.r.7.7.7.q.9.7.7.7.7.7.7.;.;.;.;.;.;.-.-.-.-.-.-.-.-.-.&.-.-.&.X.X.X.X.X.X.X.X.o.X.X.X.X.o.U U I P I I I I I I L L I o.X.o.o.o.I L P L K L L o.I L L L L L L L L L L L L o.o.o.o.o.o.o.o.L L L L L L L L L L L L L L o.o.o.o.X.X.O.O.O.O.O.X.O.O.o.o.o.o.o.o.o.o.o.L L m m m m L L L m L K K +.( G P P v v v L L L C C z z C Z K U U U P U Z P U A q q z N N y y y 0 q q C C 8 , w 5 5 w N c q 9 8 q z C z A L o.L n C C P X.9.;.U q q C B V *.*.[ ,.| | <.f.3.} ~ D d & & # o o # # # o # # # # # # # # # # ; # & > t S y & o & o o # # , # # # # @ 3 0 C L L L L L L L L m m L o.o.L L L L L L L L L L m m m m m m m m m m m m m m m m z z z m m m n z n x x z z z z z z z z z z z z z z z z z z k k k k k z z z z n n m n K U C q q l k x L #.;.9.r.r.t.y.q.&.J A k 8 8 0 k k 8 8 8 8 4 4 3 3 3 4 4 4 4 4 n Z N 8 5 8 3 3 5 5 5 5 3 3 3 3 4 3 4 3 4 4 x o.8.Q.Q.W.e.=.J A L o.;.7.9.r.q.:.>.*.] *.&.U q 5 o o # O @ , < 3 8 8 8 8 8 8 w w 5 7 7 y s s ",
"H.H.H.H.H.H.H.H.H.J.J.J.J.J.{.{.J.{.J.J.J.J.J.J.J.{.{.}.}.{.{.{.{.}.}.}.}.{.}.|.}.}.}.|.}.}.|.|.oXoXoXoXoXoXoX|.oXoX:X:X:X:X:X:X:X:X:X:XoXoX+X:X:X:X:X:X:X:X:X>X:X:X:X:X:X:X:X:X:X:X:X:X:X>X>X>X>X>X>X4X4X4X4X5X5XyXaXaXpXpXpXpXpXpXbXgXpXpXpXpXpXpXpXpXgXBXCXHXLXLX:.            :.U             PXKXKX&.            :.Z             CXKXKXo                 y.LX$X          X       LXKXy.  X               o         y.KXKXiXX           X         X     >.KXKXy.                    o PXnXcX6X%XOX%X&XiXnXPXLX&.            >.>.  X         u.KXKXP             *XPXCXnXnXCXPXLXA                     mXLXLXKXq.            y.LXKX5     O                     b LXLXHXCXBXvXvXbXbXbXbXbXbXbXbXbXbXbXCXCXbXbXbXnXnXnXCXCXCXCXCXCXCXCXCXCXCXCXCXCXCXCXCXCXCXbXbXbXBXbXpXpXuX7X7X2X1X%XOX.X X-X-X-X-X%X%X*X*X*X8X$X Xc.q.q.q.y.(.$X$X X).y.u.u.u.u.u.u.r.t.t.t.t.t.r.r.r.r.r.r.r.r.r.r.r.r.9.9.9.7.7.7.7.7.:.;.;.>.>.;.;.;.-.-.-.-.-.-.-.-.&.&.&.-.&.X.X.X.X.X.X.X.X.o.o.X.X.o.o.U P I I I I I L I P L L L L L L L L L L L L L L o.o.o.L L L L L L L L L L L L L L L L L o.L L L L L L L L L L L L L L L L L o.X.O.X.X.O.O.O.O.O.O.o.o.o.o.o.o.o.L L L L L m m m m L L z l c F H ! *.*.) ) @.( ( F U K c A c A V F J P U U U Z Z C K U K q 9 l B N B B q q 6 q l q 5 5 5 = 5 w N 0 , , 8 l l k k A L z A 8 n L C 0 K -.q.;.U q K z C Z U ,.5.5.| 3.3.d.<.[ ^ d : ; # X o o o o o o # # # # o o # # # & % % d D t & o # o o # o # # # # @ , k L L L L L L L L L L L L L o.o.L L L L m m L L L L m m m m m m m m C m m m m m m m z m m m m n z z n x z z z z z z z z k k z z z z z z z z z z k k k z z z z z n m m M U #.Z q 0 k x n o.8.0.t.W.^.^.(.e.>.U A q 8 4 8 0 8 8 4 4 4 4 3 3 3 4 4 4 4 4 z U #.Z w 5 3 3 3 5 5 5 5 , , 3 5 8 5 4 3 4 k x %.Q./.^.^.e.:.` U $.8.0.t.t.t.q.q.q.4.e.w.] q ; # o O # , 3 w 4 8 8 8 8 w w 8 w w w 5 6 6 : : ",
"J.H.H.H.H.H.H.J.{.[.J.J.H.J.{.{.J.J.{.{.J.J.J.J.{.{.{.}.{.{.{.{.}.{.{.}.{.{.}.|.}.}.|.|.}.}.}.oXoX|.|.oXoXoXoXoXoXoX:X:X:X+X:X:X:X:X:XoXoX+X+X+X:X:X:X:X:X:X:X>X>X:X:X:X:X:X:X:X:X:X>X>X>X>X>X>X>X>X>X4X4X4X5X5X5XyXyXaXpXaXpXpXpXpXpXpXpXpXgXpXpXpXpXpXbXBXDXHXLXLXU       X   Z KXcX  X   o     iXLXKXq           A KX=X            (.KXKX5                 :.KXy.X                 LXKXy.            U :.o           U KXLXcX            q >.X           N KXKXy.                      JXCXcX%XOXOXOX%XcXnXPXLXo O         A KXKXo   X       U KXKX&.X           *XPXCXCXnXPXLXKXw                     $XKXLXLXu.            ^.KXKXw           o :.0             PXPXJXDXbXbXbXbXbXbXbXBXBXBXbXbXbXbXCXbXbXbXbXnXnXnXnXCXCXCXCXCXCXCXCXCXCXCXCXCXCXCXCXCXBXbXBXBXbXvXpXpXuX7X9X7X2X&X+XOX.X X-X-X-X$X%X%X&X&X&X$X_.c.q.w.w.c.%X8X8X7X8X&X-X).c.u.u.u.u.Q.u.u.Q.Q.t.t.r.r.r.r.r.r.r.r.r.r.r.q.7.7.7.7.7.:.:.:.:.;.>.>.;.;.-.-.-.-.-.-.-.-.-.-.+.-.&.X.X.X.X.X.X.X.U U o.o.o.o.U P I I I I I I L L L L L L L L L L L L L L L L o.o.o.L L L L L L L L L L L L L L L L L L L L L L L L L C L L L L L L L L L L o.o.X.o.X.O.O.O.O.O.O.o.o.o.o.o.L L L L m m m m m n C C v v Z ! ) 2.2.s.m.b.b.f.f.2.) J y t F ( J F F Z V V A N l C C C P P c 9 q 9 q B B y V y y c q 5 5 5 ; q N A Z U P Z c z c K &.P z z A n b C C l l P >.q.7.c A Z C Z ( *.,.3.<.<.<.<.| [ ~ h f 6 & o o o o # # o o o o o # # # o 6 : : G G : o X o # # o # o # # # < k C L L L L L o.L L L L L L L L L L L L L m m L L L m m m m m m m m m n n m m m m m m z z z z z z z x x z z z z z z z k k k k k k k k k k z z z k k k 8 k z k z n L I L o.;.;.U N b l m I -.0.W.`.`.`.`.(.u.*.J N l 8 8 8 8 8 4 3 3 3 3 5 5 3 4 4 4 x k I >.>.Y w 8 5 , , , 3 3 3 3 , 3 3 1 1 3 3 4 x o.8.Q.^.Q.W.y.q.>.#.8.0.Q.^.W.Q.t.u.u.y.w.H ; # # # o # , 5 8 w 8 8 8 5 w w w w 5 5 6 ; ; & & & ",
"J.J.J.J.J.J.{.{.H.[.[.[.J.J.{.{.{.{.{.}.J.J.J.}.}.}.{.J.J.J.}.}.}.}.}.}.}.}.}.}.}.|.|.|.}.}.}.oX|.|.oXoXoXoXoXoXoXoX:XoXoX+X:X:X:X:X:X:X+X+X+X+X:X:X:X:X:X:X>X>X>X>X>X>X>X>X>X:X:X>X>X>X>X>X>X>X4X>X4X4X5X5X5XyX5X7XyXiXaXaXpXpXMXpXpXpXgXgXgXpXpXpXgXpXbXBXDXHXLXKXZ           &.KXCXX           $XKXKX            U KXcX            q.KXKX5                 ( KXq.                  LXKX(.            ].LXq.          q LXKXcX            :.KXy.          5 KXKXy.            :.'.].(.y.PXnX%Xw.c._.OX$XcXCXLXLX            U KXKX0           A KXKX&.            *XPXnXnXnXPXLXKX          X           y.LXKXKXy.            ~.KXKX5           w KX*X            $XKXHXDXCXbXbXbXbXBXBXBXCXCXbXbXnXnXBXCXCXCXnXCXCXCXCXCXCXnXCXCXCXCXCXCXCXCXCXCXCXCXCXCXCXCXBXbXvXpXpXpXpXuX9X7X7X2X%XOX X X-X X X-X X$X%X&X&X&X X(.). X X2X7XuX7XpX9X8XlX%X).c.u.u.Q.Q.t.t.Q.Q.r.u.r.r.r.r.r.r.9.9.r.9.9.i.7.7.7.7.7.7.7.7.:.>.-.-.;.-.-.-.-.-.-.-.-.-.-.&.X.-.+.X.X.X.X.X.X.U U X.X.U P U P P I I I I I I L L L L L L L L L L L L L L L L I L L L L L L L L L L L L L L L L L L L L L L L L C L A C L L L C L L L L L L o.o.o.o.O.O.O.O.O.O.O.O.o.o.o.L L L m m m z z z m n v c v P +.2.2.m.s.m.k.k.s./ / 2.*.u F *.w.e.&.P Z B q 0 8 0 l N Z N Z U Z 9 q B q q 6 5 Z V B N c 6 w 5 0 V Z A A P U U K K P X.U K K K K A K C K C A N N &.q.-.A A A N Z F F ~ } | }  .| [ ) ~ Q g 7 ; o o o @ o o o o o o o # & & s y 6 d 6 % % X o # # o # o # o # 8 L L L L L L L L L L L L L L L L L L L L m m m m L L m m m m m m m m m z z x x m m m m z x x x x z x x x z z z z z z z k k k k k k k k k k z z z k k k 8 k k z n I #.-.-.9.y.y.:.&.-.#.#.8.t.^.`.`.`.`.`.^.4.] S V l 8 8 8 8 8 4 3 3 3 , 5 5 3 3 4 4 x L -.q.:.Y w 5 8 , , , 3 3 3 3 , , , , , 3 3 4 x O.8.!.Q.t.t.y.e.:.#.%.0.Q.^.^.Q.t.y.y.4.H : ; & o + # 8 8 8 3 3 8 8 w w w w 5 5 5 ; & # o . o # ",
"}.}.{.J.J.J.{.{.J.{.{.{.J.J.{.J.J.J.{.J.J.{.{.J.}.}.{.{.{.{.}.}.J.{.}.}.}.}.}.}.}.}.}.}.|.oXoXoX|.|.oXoXoXoXoXoXoXoXoXoXoX+X:X:X:X:X:X:X:X:X:X:X:X:X:X:X:X:X:X:X>X>X>X>X>X>X>X>X:X>X>X>X>X>X>X4X4X4X5X5X5X5X5X5XaXaXaXpXpXpXpXpXgXgXpXpXpXpXpXpXvXvXgXgXBXBXDXHXLXLXZ           U KXCX            '.KXLX            &.KXcX            :.KXKX5                 q KX>.                  LXKX(.            ].KX(.          w KXLXmX            >.KX$X  X         KXKXy.            W.KXLXLXPXPXbXbXuXw.=._.=XiXPXLXnX            U LXKXq           0 KXLX&.    X       *XKXnXiXnXPXLXcX  X       A         X :.LXKXKXy.            (.KXKXw           w KXPX            '.KXPXDXCXbXBXBXbXbXbXbXbXbXbXbXbXCXbXCXCXBXbXbXnXnXnXnXCXCXCXCXCXCXCXnXnXnXCXCXCXnXnXnXBXbXbXbXpXpXpXpXuX7X7X7X7X7X2X%X.X X X X-X-X-X%X%X%X*X8X2X2X8X7XuXuXuXuXuXvXvXvXuX8X%X X(.y.u.Q.t.t.t.t.u.u.r.r.t.t.r.r.r.r.r.r.q.9.7.7.7.7.7.7.:.7.:.;.;.-.-.-.-.-.-.-.-.-.-.-.-.-.-.-.X.+.X.X.X.X.X.X.X.X.U U P P P I I K I I I K L L L L L L L L L L L L L L L L L L L L L L L L L L L L L L L L L L L L L L L L L C C L L L L L L C C L C L L L o.o.X.X.X.O.O.O.O.X.o.o.o.L L L m z m z z z m m l v B Q 2.s.m.m.m.j.a.j.a.) ( ( J u ~ 2.2.*.U p 9 9 0 0 6 5 5 9 9 l c Z F F Z V c B B 6 y c Z P F Z Z Z F F V V V N Z C K Z K P P K Z C C C C A Z Z Z A C C C Z U &.U K Z P N U +.P F ( ,.,.} / ^ ^ ^ D y & o o X X o o # # o X X   : u y 6 ; # # # X X + # # + o @ < k m L o.L L L L L L L L L C L L L m m L m m m m m L L m m m m m m n z n n z 4 4 x m z z z x x x z z z z z z z x x x x z z z z z z k k z z z z z k k k k k z k k z I $.8.0.Q.^.`.(.(.(.y.r.9.t.^.`.`.`.].`.].(.u.=.J q q 8 8 w 5 5 5 5 3 3 4 , 5 5 4 4 x m $.0.u.:.S w 5 3 3 3 3 , , 3 , < , , , , 5 4 4 x M %.0.0.0.t.t.t.7.$.$.0.Q.^.^.t.W.t.q.] : % #   3 k N q 5 w 8 8 8 8 8 6 5 5 1 & % % # # # # o o ",
"}.}.}.}.{.{.{.{.{.{.{.J.J.{.J.{.J.J.J.J.J.J.{.{.}.}.{.{.{.{.}.}.}.}.}.}.}.}.}.}.}.}.}.}.|.|.oXoX|.oXoXoXoXoXoXoXoXoX:XoXoXoX:X:X:X:X:X:X:X:X:XoX:X:X:X:X:X:X>X>X>X>X>X>X>X>X:X>X>X>X>X>X>X>X4X4X4X4X5XyX5X7X7X7XaXaXpXpXpXpXpXgXgXgXgXpXpXpXpXgXMXMXgXgXbXBXDXHXLXLXP           X nXPX:.:.>.>.>.&.cXKXnX            &.KXcX            :.KXKX5                 o LXU                   LXKX(.            (.LX].        o o LXKXcX            >.KX$X    X       KXKXy.            (.KXLXLXLXCXvXcXiX$Xq.q.=XcXPXKXnX            U KXLXN           # LXKXU   X         *XLXPXbXnXPXLX'.          &.w         U LXLXKXy.            (.KXKXw           0 LXLX            '.LXLXCXCXBXbXBXbXbXbXbXbXBXbXbXCXbXbXbXbXCXCXCXCXCXnXCXCXCXCXnXnXnXnXnXnXnXCXCXCXnXCXCXBXCXbXbXpXpXpXuX7X7X7X7XuX7X7X2X%X X X X X X-X-X%X%X&X2X8X7XuXuXuXpXcXvXbXvXvXbXvX8X8X%X'.~.W.W.W.W.t.t.t.u.r.r.t.t.r.r.r.r.r.q.i.i.7.7.7.7.7.:.;.;.;.:.;.;.>.>.-.-.-.-.-.-.-.-.&.&.-.+.X.X.X.X.X.X.X.X.X.X.X.U U U U P I K K K K L L L A A L L L L L L L L L L L L L L L L L L L m L L L L L L L L L L L L L m m C n C C C C C m C C C L L L L L o.o.X.X.X.O.O.O.o.o.o.o.o.L L L m C l C l v C z z C ( *.2.s.m.n.n.k.k.k.h.,.G A Z G *.4.=.( B q l w w 5 w w 5 8 8 8 q c c Z Z Z Z P F Z V F P P P P P Z Z F B B B N V A l c c Z Z C C C C C C K I Y Z C N C K P U q A >.y.P l U C &.&.U S ] [ } } [ ~ ^ D S S 6 . X o o X X X o # # o 6 y t & # o + # # # # # # @ # , k C L L L L L L L L L L L L L L m m m m m m m m m m m m m m m m m m m n z z 3 < < x x x z z z z z z z z z k x x x x x x k k k k k k k k k z k k k k k k k k 4 k x I 8.0.Q.^.^.`.`.].].(.^.W.Q.^.`.`.`.`.`.`.`.(.N.4.U A b q w w 3 3 5 5 5 3 4 , 1 , 4 x m o.9.t.u.*.s 5 1 , , , , , , , , , , , , , , 3 4 x x o.%.8.0.Q.y.t.7.$.-.0.Q.W.W.^.S.4.J > % .   l A A C 8 , 3 8 8 8 8 w w ; & & & # # # # o o # # ",
"}.oX+X+X+X@XoXoX|.|.{.{.{.{.J.J.J.{.J.J.J.J.{.}.}.}.{.{.{.{.}.}.}.}.}.}.}.}.}.}.}.}.}.}.|.|.|.|.oX|.|.oXoXoXoXoXoXoXoXoXoXoX:X:X:X:X:XoX:X:X:XoX:X:X:X:X:X>X>X>X>X>X>X>X>X>X>X>X>X>X>X>X>X4X4X>X4X4X5XyXaXaXyXyXyXaXpXpXpXpXgXgXgXgXgXpXpXpXpXgXBXBXBXBXbXBXDXHXLXKX*.            N cXKXKXKXKXLXKXLXKXnX            &.KXcX            :.KXKX5                   nX5       X           LXKX(.            ].KXy.          N KXKXmX            :.LX'.          # KXKXy.            W.KXKXLXLXPXCXcXcXcX$XS.*XbXPXLXmX            U KXKXw   X       # KXKX&.o           *XLXPXPXnXPXLXq.          u.A         0 KXKXKXy.            (.KXKX5           q KXnX            $XKXPXDXCXbXbXbXbXbXbXbXbXbXCXBXBXbXbXbXnXnXCXCXCXCXCXCXCXCXCXCXCXCXCXCXCXCXCXCXCXCXCXCXBXBXbXbXbXpXpXiX7X7X7X7X9X7X7X7X2X X X X X X X-X$X$X$X&X8XuXcXcXvXvXvXbXbXbXvXbXvX8X&X*X-X~.u.W.W.W.W.W.W.t.t.u.u.r.r.r.r.r.r.i.7.7.7.7.7.7.7.7.;.>.;.;.:.;.;.>.-.-.-.-.-.-.-.-.&.+.&.X.X.X.X.X.X.X.X.X.X.X.X.U U P I I K K K K K K L L L A L L L L L K L L L L L L C C L L L L L m L L L L C C C L m C C C C m m m n C C n C C m m C C L L L L o.o.o.X.X.X.o.O.o.o.o.o.o.L L m m m c z z v k K l F *.2.,.s.k.k.L.j.k.R.K.2.F c F ( 2.2.! y N b 8 8 9 w w w q l l l l c N Z P P P U U ( ( P U U U U P Z A B B y q B y c c 9 c C Z C C C K K C C C K P K K C z l N Z U Y N -.7.-.C K K U &.] J H [ *.} [ [ ~ h g u t o X X o # o X X X o & 6 & o o X o o o @ o O @ @ < k C L o.o.L L L L L L L L L m z z z m m m m m m m m m m m m m m m m m m n z k , < k z x z x z z z z z k k k k x x k k k k k k k k k k k k k k k k k k 8 k k k n m M %.Q.^.^.`.`.`.`.`.`.`.`.^.^.`.`.`.`.`.`.`.`.(.N.4.&.U Y K C q 3 3 3 < < , 3 , 1 8 4 x o.8.Q.y.q.U 6 5 # , , , , , , 3 , , , , , , , < 4 4 m O.8.0.Q.^.W.y.9.7.0.Q.Q.^.^.N.e.] > . % q A I K A l 8 1 5 8 4 5 w 5 ; & o # # + o o o o o # # ",
"oX:X4X4X4X4X2X%X+X|.{.{.{.{.{.J.J.{.}.{.J.J.J.{.{.{.{.{.{.{.}.}.}.}.}.}.}.}.}.}.}.}.}.}.|.|.|.|.|.|.|.oXoXoXoXoXoXoXoXoXoXoX:X:X:X:XoXoX:X:X:X:X:X:X:X:X:X>X>X>X>X>X>X4X4X4X4X>X>X>X>X>X4X4X4X4X4X4X5X5XaXaXaXaXaXaXpXpXpXpXpXbXgXgXgXpXpXpXgXMXBXBXBXBXbXbXCXDXJXLXc.                :.LXLXKXKXLXKXLXmX      X     U KXcX            >.KXKXw           w       $X      o 5           LXKX(.        X   '.PXU           &.KXLXcX            >.PX>.    X     A KXKXy.            (.KXPXLXPXLXPXnXnXCXnX=XcXPXPXKXmX            U KXKXw           o LXKX&.            *XLXPXPXCXPXLX>.          (.U         X LXKXKXy.            (.KXKXw           5 PX(.        X   nXLXLXCXCXbXbXbXbXbXbXbXbXbXbXBXbXbXbXbXnXCXBXBXCXCXCXCXCXCXCXCXCXCXCXCXCXCXCXCXCXCXCXCXCXCXbXbXbXbXpXuXiXiX7X4X7X7X7XiX7XOX X X X X X X-X-X$X%X*X8XuXvXvXvXbXbXbXbXvXvXiX&X%X&X-X~.u.W.W.W.W.W.W.Q.t.t.t.t.r.r.r.r.r.7.7.7.7.7.7.7.7.7.:.;.;.;.:.;.;.;.-.-.-.-.-.-.-.-.&.+.+.X.X.X.X.X.X.X.X.X.X.X.o.U U I I K K I K K K K L L L A A A L L L L L L L L L L C C C L L L L C L L C C C C m C C C C C m m n n n m n n C C z n m C L L L o.o.o.o.o.o.o.o.o.o.o.L L L L m z z z z v z z v c ( 1.,.<.k.L.L.L.h.d.f.,.) y 0 N d j Q G B N b 0 8 q w 0 0 q N C C c c A A Z P U U ( U >.>.U ( +.+.U A A c c y y y B Z B c N Z P K c c C Z Z C C C C C K K K A b b b Y &.U N U r.q.U C b U q.U J U ] =.*.,.[ / ^ h g 7 ; X   @ o o @ o X o o o o # # o X   @ @ @ O @ k C L L L L L L L C L C n n z k 4 4 z m L m m m m m m m m m m m z m m m m z l z k l z z z z z z z z z z z z z z x k k k k k k k k k k k k k k k k k 8 k 8 k z z m o.$.0.^.^.^.`.^.`.].`.`.`.(.^.^.^.^.`.`.`.`.`.`.(.N.q.:.&.U X.K b 4 3 3 3 < 3 3 3 5 4 x M %.Q.^.t.1.F 6 5 # , 5 , , , , 3 , , , , , , 1 < 4 x m O.8.0.Q.Q.t.t.t.t.Q.W.W.^.(.y.4.S d ] &.&.&.I Z N 8 5 5 8 8 3 5 5 5 ; o X X X o o o o o o # # ",
"+X4XiXpXpXiX7X6X1X+X{.[.{.{.{.{.J.{.{.{.J.J.J.{.{.{.{.J.{.{.{.{.J.}.}.}.}.}.}.}.}.}.}.}.}.}.}.}.|.|.|.oXoXoXoXoXoXoX:X:XoXoX:X:X:X:X:X+XoX:X:X:X:X:X:X:X:X>X>X>X>X>X>X>X>X>X>X>X>X>X>X4X>X4X4X4X5X5X5XyXyXyXaXaXaXaXaXpXpXpXgXMXgXgXpXpXvXbXMXBXbXbXBXBXbXbXCXDXJXLXLX5                 w $XKXLXKXKXLXnX            U KXcX            >.KXKX5           U       q.      A 0           LXKX(.              X           w cXLXKXcX              X     X       q.KXKXy.                    Z LXLXPXPXPXPXnXnXPXLXKXmX            U KXKX0           o KXKXU             *XLXPXPXPXJXLXU           $X>.          mXKXKXy.            (.KXKX5                           A KXLXJXDXCXbXbXbXbXbXbXgXpXpXvXvXbXbXbXbXCXCXCXCXCXCXCXCXCXCXCXCXCXCXCXCXCXCXCXCXCXCXCXCXCXCXCXBXbXbXpXpXpXpXuX4X7X7X7X7X7X%X X X X X X X X X-X$X%X*XuXcXvXvXbXbXbXbXvXuX6X&X2X8X-X~.c.~.W.W.W.W.W.W.u.u.t.t.r.r.r.r.r.i.7.7.7.7.7.7.7.7.7.7.7.7.;.;.>.;.;.>.>.-.-.-.-.-.-.-.-.-.+.X.X.X.X.X.X.X.X.X.o.I I I U P I I I K L L K A A A C C C L A L L L L L L L C C C L L L L L C C L C C m m m C C C m n n n m n n n n C n z m C L L C L o.o.o.o.o.o.o.o.L L L L m L m z z m z z z z L c ( 2.}  .n.R.j.k.G.g./ g $ % 6 5 7 B D V B c c 8 8 w 5 8 q N N C K K C A A B G F U ( ( *.:.:.&.*.*.&.H P P F B c v B F B c B F H U F c Z Z Z Z Z C C C C C C Z K P Y A A K U P k I W.t.X.b C U >.Z P Z U ( [ [ } } ^ g d 6 % o X X o # # o X o X + o @ X @ @ @ O O < 1 L L L o.L L C C L C n z 8 4 , O < < k m m m m m m m m m m m m m m m m m m z z z z z z z x z z z z k k k z z z z x x x k k k k k k k k k k k k k k k 8 k k x x x m o.8.Q.^.^.^.^.^.`.`.`.`.`.`.^.^.^.^.`.`.`.`.^.^.(.(.u.:.&.P U A 0 3 3 3 4 4 4 3 0 8 4 m 8.Q.^.^.e.:.V ; 5 , 5 5 5 , , , , , # @ , , , 3 < 4 x m %.0.Q.Q.W.W.y.t.t.Q.W.^.W.W.(.N.N.S.e.:.>.&.U P N 8 3 3 3 , < # & ; ; # X X X o o o o o o # # ",
"4X7XpXuXuXuXuXiX7X2X+X{.{.[.[.{.{.{.{.J.J.J.J.}.{.{.{.J.{.{.{.{.J.}.}.}.}.}.}.}.}.}.|.}.}.}.}.}.|.|.|.|.oXoXoXoXoXoXoX:XoXoX:X:X:X:X:X:XoXoX:X:X:X:X:X:X:X>X>X>X>X>X5X4X4X4X4X4X>X>X>X4X4X4X4X5X5X5XyXyXyXyXaXaXaXaXpXpXpXpXbXbXgXgXpXvXbXMXBXBXbXBXBXBXBXbXCXDXHXJXKX].X           X     X :.KXKXKXKXmX            U KXcX            >.KXKX5           :.      A       &.w           LXKX(.      X               0 y.PXLXKXKXcX                        X >.LXKXKXy.                    Z KXPXLXLXLXKXPXPXLXLXLXnX            U LXKXCXnXnXnXnXnXnXKXKX&.            *XLXPXPXJXLXLXN           mXq.          '.KXKXy.            (.KXKX5                         Z cXLXLXHXDXCXbXvXvXpXpXvXgXpXpXpXpXvXvXbXbXBXCXCXCXCXCXCXCXCXCXCXCXCXCXCXCXCXCXCXCXCXCXCXCXCXCXbXCXbXbXBXBXBXBXpX4X3X7X7X7X2X&X$X X X X X X X X.X$X$X&X8XuXvXvXbXbXbXbXvXuXuXuXvX7X%X~.c.~.y.W.W.W.W.W.W.W.W.t.t.r.r.r.r.9.7.7.7.7.7.7.7.7.:.7.:.:.;.-.-.>.>.>.>.-.-.-.-.-.-.-.-.-.&.+.X.X.X.X.X.X.X.X.o.U I I P P I I K K L K K K A A C C C C C A L L L L L L C C C C m L C L C C C C m n n n C C n z z z n n n n n m n n C C C C L L L o.o.o.o.o.L L L L L L L m m z z z m m z z z k +.2.s.s.L.L.k.h.' ^ r r r g D g y B A c l l l 9 9 9 q q q N A Z Z Z Z A A Z G G H ( +.*.1.1.q.1.1.=.&.( *.+.( P F F F F G B F H F F B B Z Z Z P P P K K Z C C C K K K C I I A K U k C X.:.>.P C U X.U P Z U ] *.,.,.[ ) h f > o X X X X o o X o X o O X @ o # @ O < k n o.o.o.o.L L A C z 8 5 , @ @ O   < < k m m m m m m m m m m z z x z m m m z z z n l z z x x z z z k k k k z z z z z z z z z z z z k k k k k k k k k 8 8 k k x x x m $.0.^.Q.^.^.^.^.^.^.^.`.^.^.^.^.`.`.`.`.`.^.^.`.(.N.q.>.P b b 0 3 , 3 4 4 4 k n m C X.8.Q.^.^.N.u.&.p ; 3 8 0 8 3 3 3 3 3 , , # , , , < < 4 x o.8.Q.Q.^.W.t.t.t.t.Q.Q.W.^.W.W.t.^.N.u.u.q.>.U N 0 3 , , , < < o # # & # X X @ o o o o o o # # ",
"iXuXuXvXvXvXvXuXcXiX2X+X|.{.{.{.}.{.{.J.{.}.{.}.{.{.J.{.{.}.}.}.}.}.}.}.}.}.}.}.|.|.}.}.}.}.}.}.|.|.|.|.oXoXoXoXoXoXoXoXoXoX:XoX:X:X:XoXoX:X:X:X:X:X:X:X:X>X>X>X>X4X5X5X4X4X4X4X>X>X>X>X4X5X5X5X5XyXyXyXyXaXaXaXaXaXpXpXpXpXfXfXgXpXpXvXbXBXBXBXbXBXBXBXBXBXCXDXPXJXLXKXy.# X           X     U KXKXLXnX            U KXcX            >.KXKX5           (.              u.9           LXKX(.                X       w (.KXKXKXcX                  X   0 (.LXKXLXKXy.                    U KX(.U U &.U U &.U &.nXnX            U KXKXLXLXKXKXLXLXLXKXKXU     X       *XLXPXPXHXLXLXo           LX(.          u.KXKXy.            (.KXKX5                     X q.PXKXLXLXPXCXCXBXMXvXvXpXvXbXgXgXpXvXvXbXbXBXBXCXCXCXCXCXCXCXCXCXCXCXnXnXnXnXCXCXCXCXCXCXCXCXBXCXCXbXbXbXCXBXBXBXuX7X2X2X2X2X2X&X$X X X-X X X X X X XOX%X6XuXuXvXbXbXbXbXvXvXbXbXbXuX%X).c.~.W.W.W.W.W.W.W.W.W.W.t.r.r.r.r.9.7.7.i.7.7.7.7.7.7.7.;.>.>.-.-.>.>.-.>.>.-.-.-.-.-.-.-.-.&.X.X.X.X.X.X.X.o.X.U P I I K I K K K K K K K K K K A A A A C A A A C C L L C v v C m m m m C C C C n n n z C z z z z n n z z z z z n I X.U U P K L L o.o.L L L L L L L m m m z m z z z m m z z 9 H *.<.m.;Xk.k.G.R e e i Q R Q i r u Z Z L c c l q 9 8 8 c q N N c y c c c c F F ( +.*.2.1.5.w.e.w.w.1.1.1.1.=.+.( ( ( ( ( F H ! ( G G B y y y c B F P P F Z K P K K K K K L I U C C L C C -.:.&.P C K U P P V B U ] *.[ [ ' ^ f % o o o o X X   o X X X O @ o @ O < k C o.o.o.o.L A A C c 5 o X O O O o # @ < 4 z k x z m m m m m z z x x x x x x x z z z z z x x z z z z z k k k k z z z z z z z z z k k k k k k z k k k k 4 8 8 k x x m o.$.t.Q.Q.^.^.^.Q.Q.^.^.^.^.^.^.^.`.^.`.`.`.`.^.`.^.u.:.U b 8 5 1 , , < < 4 k x o.X.-.0.^.^.^.^.y.4.` a q l b l 8 3 8 8 w 3 , , # , < < < < x m $.0.Q.Q.W.W.Q.Q.t.Q.Q.Q.Q.^.W.W.^.y.y.y.q.&.c 5 o o @ @ # # o o o o o # o o o X X o o o o o o o ",
"uXuXvXvXvXvXvXvXvXcXuX4X+X+X|.{.{.J.J.{.}.}.J.J.}.}.{.{.{.}.}.}.}.}.}.}.}.|.}.}.|.|.}.}.}.}.}.}.|.|.|.|.|.|.oXoXoXoXoXoXoX:X:X:X:X:X:X:X:X:X:X:X:X:X:X:X:X>X>X>X>X>X5X5X4X4X4X4X>X>X>X4X5X5X5X5X5X7XyXyXyXaXaXaXaXaXpXpXpXfXgXgXpXpXpXbXbXbXBXBXbXbXBXBXBXBXCXDXHXPXLXLXKXmXA                   :.KXKXnX    X       U KXcX            &.KXKXw         X $X              (.0           LXKX(.                            q.KXKXcX                          N PXKXKXy.                    U LXq.                iXnX            U KXLXKXLXLXLXLXLXLXLXKX&.            *XLXLXPXDXLXPX          1 KX'.          >.KXKXy.            (.KXKX5                         5 *XLXJXHXCXCXbXMXMXvXvXbXbXbXbXbXbXbXbXbXBXBXCXCXCXCXCXCXCXCXCXCXCXCXnXnXCXCXCXCXCXCXCXnXbXCXCXCXbXbXBXCXCXbXbX7X7X2X2X2X2X2X&X$X X X X X X X X X X X%X&X7XuXvXbXbXbXvXvXbXBXbXbXbX9X X).~.~.~.W.W.W.W.W.W.W.W.r.r.r.r.r.q.i.7.i.7.7.7.7.7.7.7.;.;.;.>.;.;.;.>.>.-.-.-.-.-.-.+.&.&.&.X.X.X.X.X.X.X.X.X.U P I I I I K K K K L L K K K K A A A C A A C C z C C C v v C C C L m m C C C C C z z z z z z z n C z z n z z C I >.7.>.-.-.X.P L L L m L L L L L L m z z z z z z z x x z z c ) ,.j.L.k.k. .E e g h / i i i Q *.( V B y c c q 8 4 k c c c c c y q 9 y y B P ( *.1.1.w.w.e.z.z.e.e.w.w.w.w.1.*.*.*.*.*.*.=.1.1.1.=.1.=.*.( J G B B Z Z F Z K K K K K L A L X.I U L U L L I X.&.&.P Z P U U P Z Z U ] ] ] | [ ~ f ; o X . X X X   o X X o o X O , k L o.o.o.o.o.L C q 8 q 5 o X o o O X o @ @ < < < < z m m m m m x x z z x x x x x x z k z x x z x z k z z z k k k z z z z z k k k k k k k k k k z k k k k 8 8 8 4 x x m %.0.W.W.W.^.Q.t.0.Q.^.^.^.^.^.^.^.^.^.`.`.^.^.^.^.N.q.>.A 5 8 5 1 , , < < 4 n L X.8.0.Q.^.^.^.^.y.4.` V Y K K l 4 4 8 8 4 3 , , # , < < < 4 x o.8.0.Q.t.t.t.t.t.t.t.Q.Q.W.Q.Q.^.y.y.4.J 5 # @ @ X o o @ O @ X o o o o o o # o o X X X o o o o o ",
"pXuXvXvXvXvXvXvXvXvXvXuX6X&X%XOX{.{.}.}.J.J.{.}.{.{.{.}.}.}.}.}.{.}.}.{.}.}.}.}.|.|.}.}.}.}.}.}.|.}.oX}.oXoXoX|.oXoXoXoXoX:XoXoX:X:X:X:XoX:X:X:X:X:X:X:X:X:X>X>X>X4X5X5X4X4X4X4X>X5X5X4X5X5X5X5X5XyXyXyXyXaXaXaXpXpXaXaXpXpXpXgXbXgXgXbXBXBXBXBXbXBXBXBXBXCXCXDXHXHXLXKXKXLXKXy.X               X mXKXnX            U LXcX            >.KXLX5           mX              =Xw           LXKX(.            y.*XA           X LXKXcX            &.cXP X         :.KXKXy.                    U KX:.                cXnX            U KXKXLXKXLXLXKXLXLXLXKX&.            *XLXLXPXCXLX=X        X A KX*X          Z KXKX(.            (.KXKX5           0 mX:.          0 KXLXPXDXBXbXpXpXbXbXbXbXbXbXbXBXBXBXbXBXCXCXBXCXCXCXCXCXCXCXCXCXCXnXCXCXCXCXCXCXCXCXCXBXBXbXbXbXbXCXCXCXBXpX7X7X2X&X&X2X2X%X$X X X X X X X X X X X X%X&X7XvXbXbXbXbXbXbXCXbXbXbXvX8X%X$X X~.~.W.W.W.t.Q.W.Q.t.r.r.r.q.9.9.i.7.7.7.7.7.7.7.:.:.;.;.>.;.;.;.-.>.-.-.-.-.-.-.-.&.+.+.X.X.X.X.X.U U U P U U P I I K L L L L L L L K A A C C C A C C C C C v z z m C C C C C C C C m z z z z z z z z z z n n z z z C n C -.t.t.r.r.q.:.+.P L L L L L L L m C n z m z z z z x z z z z F ' j.L.k.K.} e r Q i h.L.E / <.z.1.Z c l c c 8 8 9 9 l c c c c c y 9 t y B ( *.1.w.l.l.c.v.D.).D.v.c.z.l.c.w.w.w.l.c.c.c.c.c.). X X).v.c.(.c.w.1.*.( F F G Z P P P P K K L L P X.U I P o.P K o.X.-.-.X.P U P U U P N U U ( ] ] [ ! u > . .   X X X X     X + O < z L o.o.o.o.L L N 8 5 # 5 % o . o # # o @ O @ O O < z m m m x z m m x x z m m x x z z z z z z x x x z z z k k k z z z k z z k z k k k k k z k k k k k k 8 4 4 k k k x m o.8.Q.^.^.^.Q.0.8.8.t.W.^.^.^.^.^.^.`.^.^.^.^.^.^.^.u.:.U q 8 3 8 3 , , 4 4 k I $.8.0.Q.W.^.^.^.^.y.4.&.I #.U Z q w 4 8 0 8 4 , < , , , < 4 x o.%.0.0.Q.Q.t.t.t.t.t.Q.Q.Q.Q.Q.W.e.y.4.Z # # # O #   X X o O X o X X o # & ; ; & # X X o X o X X X ",
"uXuXvXvXvXvXvXvXvXvXvXuXuXiX2X+X|.{.}.}.J.J.{.}.J.J.{.{.J.J.}.K.}.}.}.}.}.}.}.}.|.|.}.}.}.}.}.}.|.|.oX}.oX|.oX|.oXoX;XoXoX:X:X:X:X:X:X:X:X:X:X:X:X:X:X:X:X:X>X>X>X>X4X3X4X4X>X>X5X5X5X5X5X5X5X5XyXyXyXyXyXaXaXaXpXpXpXaXpXpXpXpXpXgXgXbXMXBXBXBXbXBXBXBXBXCXCXDXPXLXLXKXKXKXKXKXmXA       X       (.KXnX            U KXcXX           >.KXKX9           PXX             mXw           LXKX(.      X     ].LX(.            =XKXcX            :.LX].          w KXKX(.            (.KXKXKXLXLX:.                cXnX            U KXLX:.U U U U U &.LXKX&.            *XKXLXCXPXLX(.          U KXnX          0 KXKX(.            (.KXKX5           w KXmX            cXLXJXHXCXbXbXBXBXBXbXBXbXbXbXBXBXbXbXnXCXCXBXBXBXCXnXnXnXnXCXCXCXnXCXCXCXCXCXCXCXnXbXbXbXbXbXbXBXCXBXBXpXuX3X2X%X%X+X+X%X%X%X$X X X X X X X-X-X-X X X%X2XuXvXbXbXbXbXBXBXbXbXvXuX2X%X%X$X_.~.~.W.W.W.W.W.r.t.r.r.r.r.9.i.i.i.7.7.7.7.7.7.7.7.:.;.;.;.;.;.;.>.>.-.-.-.-.-.-.&.+.X.X.X.X.X.X.U U U P U U P I I K L L L L L L A A C C C C C C C C C C C C v v C C C C n n C C n n z z z z z z z z z z z z n C z z L &.r.W.W.(.W.W.y.7.X.L C m L m m m z z z z x z z z z x x z q c ) <.L.k.L. .e r ! h } G.R h.>XD.1.F 9 l l 9 9 8 8 k k l c c c c q 9 6 y H *.w.e.c.).).).[.{.[.[.).).).).).).~.). X.X.X X X.X.X%X%X%X&X%X%XOX X[.).).c.e.1.( F F U P P P K C K K K P P K L L A A L X.-.+.X.P P X.U U Z q U P U ] ! ] Q g > . o X X   X @ X X O , z L o.o.o.o.L A C q ; & o & o o o + o o @ @ O O @ < 4 x m m m m m m m x x x m m m m x x z z z z k k k k k k z z z z z z k z z z k z z z z z k k k k k k k 8 k 8 k k 4 x m $.!.Q.^.^.t.9.;.$.%.0.W.^.^.W.Q.Q.W.^.^.^.^.W.t.t.7.-.U b w 4 , 4 3 3 < < 4 m $.8.0.Q.W.W.^.^.^.^.y.7.-.X.#.U Z p w w 8 k 8 3 , @ # < < < 4 m $.0.0.t.t.t.t.r.0.r.t.Q.Q.Q.Q.Q.y.e.w.] 6 X o X   X X X X X X X X o # # ; ; ; & & & o o o X o o o o ",
"pXvXvXvXvXvXvXvXvXvXvXvXvXvXiX&X+X{.|.}.J.J.J.{.{.J.{.{.{.J.}.}.}.}.}.}.}.}.}.}.}.}.}.}.}.}.}.}.|.|.oX}.|.|.oXoX;X:XoXoXoXoX:X:XoXoX:X:X:X:X:X:X:X:X:X:X:X>X>X>X>X4X5X5X5X5X5X5X5X5X5X5X5X5XyXyX7XyXyXyX7XyXaXyXaXaXpXpXaXpXpXpXpXpXgXbXbXbXbXbXbXBXBXBXbXbXCXDXJXLXy.] &.:.>.q.y.LX&.  X         &.KXnX      X     U KXcX            >.KXKXw           KXq             LX0           LXKX(.            (.KX].            (.KXmX            >.KX$X          X KXKX(.            y.KXLXKXLXKX>.    X     X     iXnX            U KXKXw           X KXLX&.  X         *XLXPXPXLXKXq.          w &.&.X           LXKX(.            (.KXKX5         X 5 KXLX            '.LXLXPXCXCXBXBXBXBXBXBXBXbXBXBXbXbXnXnXnXnXCXBXCXCXnXnXnXnXnXnXCXCXCXCXCXCXCXCXbXbXbXbXbXbXBXbXbXBXbXpXuX4X1X1X+X X XOXOXOX$X X X X X X X-X X X X X X X%X6XuXvXbXbXbXBXCXbXbXvXuX2X2X8X8X&X X(.~.~.W.W.W.W.u.u.r.r.r.r.r.q.q.i.7.7.7.7.7.7.7.:.:.;.:.;.;.;.;.>.-.-.-.-.-.-.&.X.X.X.X.X.X.X.U o.U U P P P P K K L L L K A A C C C C C C C C C C C C C C C v C C C m n n C C z n z z z z z z z z z n C C C n L U ;.t.`.`.`.`.].].`.u.-.U U o.X.C z z z z z z z z l z z x z z q D ) s.n.R. .i G B r e h.j.d.oXS.[ u % , l k q 8 8 9 l c c N c c y t c J *.w.c.D.).).).[.[. X X X X X{. X X X X X X-X%X%X.X.X%X%X%X%X%X&X2X&X%X%X%X&X%X.X X_.c.1.+.&.+.U P Z P K K K P I L L K A A L L X.+.X.X.X.&.U >.>.P Z Z Y U ( ] [ ( g : o o o X X @ O O < z L o.o.o.L o.C N y ; o % o o X o + o + O O # O O @ 8 z n z z x x m m m m x x x m m z z x x z z z k k k k k k z z z z z x x x k k z z z z z z k k k k k k k k k k k k x m o.8.Q.Q.^.Q.t.9.8.;.8.0.W.^.W.t.t.t.W.W.W.W.^.t.9.;.X.L n 0 8 0 0 0 w 4 4 x x o.8.Q.Q.^.W.W.^.^.^.^.u.:.-.#.#.#.U Z N 0 0 0 8 3 , # < , 4 4 x M $.0.0.0.0.0.t.t.t.Q.t.Q.Q.t.t.Q.y.e.=.f o . . X     o X X X X o # # & ; ; ; ; ; & & # # o X o o o # ",
"uXvXvXvXvXvXvXvXvXcXcXvXbXbXcX*X+X|.|.}.J.{.J.{.{.{.}.}.{.J.}.}.}.}.}.}.}.}.}.}.}.}.}.}.}.}.}.}.|.|.|.}.|.}.oXoXoXoXoXoXoXoX:X:XoXoXoX:X:X:X:X:X:X:X:X:X:X>X>X>X>X>X4X4X5X5X5X4X5X5X5X5X5X5X5XyX7X7XyX7X5XyXyXyXpXaXaXpXaXpXpXpXpXpXgXbXbXbXbXBXbXbXBXBXbXbXCXDXHXLX&.      X   A KXLX#           U KXnX            &.KXcX            :.KXKX# X         LX&.          w KX0           LXKX(.            ].KX(.            (.KXcX            >.LX'.          X KXKX(.            (.KXKXLXLXPXPXLXLXKXLXLXLXLXKXKXnX            U KXKX0           3 KXKX&.            cXLXLXLXLXLX&.                    X       cXKX(.            (.KXKX5           5 KXPX            '.KXLXPXDXCXCXCXCXBXbXBXCXBXCXCXnXnXnXnXnXnXCXCXCXCXnXnXnXnXnXnXnXnXnXnXnXnXCXCXbXbXbXbXbXbXBXbXbXvXpXpX4X1X1X+X+X.X XOX.X X X X X X X X X.X X X X.X.X X.X%X6XuXvXbXbXCXCXbXbXbXvXpXpXbXbXuX8X.X(.~.~.W.W.y.u.u.r.r.r.r.r.r.q.9.7.7.7.7.7.7.:.:.:.;.;.;.;.;.;.;.;.-.-.-.-.-.&.X.X.X.X.X.X.X.o.o.o.U P I I P K L L L L A A A C C C C C C C C C C C C C v z z C C C C n n C C z z z z z z z z z n n C K U U P #.9.^.`.].'.#X#X$X$X#X(.u.7.7.;.&.L z z z l z z z z z z z z z k q Q [ h.L.K.j u u $ r R tX<XH.S.*.d 5 5 l l 5 5 9 9 l N N B c y t t y ( 2.w.c.).).).).[.{.XX X X.X.X X X X.X.X.X%X%X%X%X%X1X1X2X2X2X2X2X2X2X2X8X&X2X2X&X%X%X$X$X Xc.w.4.*.U F P K K Z C A A L I L C K L L o.o.X.-.&.K q U &.X.Z K Z P V ] ] ~ S > .   X X X # 5 L L L L L L L C s y 7 o . o # o X X X o O O O @ O @ , k n z z k 4 x m m x m m x m x x x x z x x z z x k x z z z z x x x x x z z k k z z z z k k k k k k k k k 8 k 8 k x x M $.0.Q.Q.Q.t.0.9.9.7.0.Q.W.W.Q.r.0.t.W.Q.Q.t.t.9.-.X.I C n n A K A C n k z m o.%.0.Q.Q.W.W.^.^.^.^.y.q.-.U I #.-.#.U b w 4 4 3 , 5 , , < 4 k m o.%.8.0.0.0.t.t.r.t.Q.Q.Q.Q.t.t.W.y.4.D % % .   O O O       o o # # & & ; ; ; ; ; ; & & # o o o # # # ",
"vXvXvXvXvXvXvXvXvXvXcXvXbXbXvX8X%X.X|.}.J.{.{.{.{.{.{.{.{.J.}.}.}.}.}.}.}.}.}.}.}.}.}.}.}.}.}.}.}.}.oX}.|.}.|.oXoXoXoXoXoXoX:X:XoXoX:X:X:X:X:X:X:X:X:X:X:X>X>X>X>X>X4X3X5X5X5X5X5X5X5X5X5X5XyXyX5X5X5X5X5X7X7X7XpXaXaXpXaXpXpXpXpXpXpXbXpXvXBXBXBXbXbXbXbXbXCXDXLXLX&.          A LXKXU           A KXLX            U KXcX            :.KXKX#           LXq.          U KXw           LXKX(.    X       (.LX].            (.KXcX            >.KX$X            KXKX(.            y.KXKXLXLXLXPXPXPXPXLXLXLXLXLXLXPX            &.KXKXq           3 KXKX&.            iXKXLXLXKXKXU X X                         ].KX(.            (.KXKX5           w KXLX            '.LXLXPXDXCXbXbXbXbXCXCXCXCXnXnXnXCXnXnXnXnXCXCXnXCXnXbXnXbXnXnXnXnXnXnXnXnXbXbXbXbXbXbXbXbXbXpXpXpXpXiX7X4X4X+X+X+X+X X X X X X X X X X X X X X X.X.X X X.X%X2XuXbXCXCXCXCXbXbXbXbXBXBXvXpX4X%X).c.~.~.y.u.t.u.r.r.r.r.r.r.q.9.i.7.7.7.7.7.7.7.:.;.:.;.-.-.;.;.-.-.-.-.-.-.-.+.X.X.X.X.X.X.o.o.U U I I K K L L L L K A A A C C C C C C C C C C C C C v v v z v C C C C n n z z z z z z z n n C n C X.;.9.9.t.].].].].].#X=X$X$X$X'.`.W.r.7.X.A z z z z z z z z z z z z k k B =.f.m.<.i D u r r ' tXV.oX{.=.Z 9 1 8 9 8 5 6 9 l l c N y 6 2 2 G +.2.w.c.D.D.[.[.{. X X X X.X.X+X+X.X.X%X%X%X%X%X&X1X1X2X2X2X8X8X8X8X8X8X2X8X6X2X2X2X*X&X%X%X%X%X X).w.=.&.H F Z Z Z Z C K K K C A L L L L I &.&.&.K K U -.U I K C 6 H ( ] ! g r % & & 6 B U X.X.o.o.L L K z 7 5 ; X X # # o X X X X O X   X O , 0 k k 8 < < < k m m m m x x z x x x x x x x z x x x x z z z z z z z z z z z k k z z k k k k k k k k k 8 k 8 k 4 k x m o.%.0.0.Q.Q.t.9.9.0.t.Q.W.W.Q.t.r.r.t.Q.t.t.t.r.-.#.#.#.#.#.&.-.-.&.U I Y L o.$.8.Q.Q.Q.W.W.^.^.^.^.t.7.X.L M X.-.#.I 0 3 3 3 3 4 8 w k k x m o.$.8.8.0.t.Q.t.t.r.t.Q.Q.Q.Q.t.t.^.e.{ r % % o   O   @ o o o X o # # % & & & & & ; ; ; & & o o o # # o ",
"vXvXvXvXvXvXvXbXvXvXvXbXbXbXbXcX2X+X|.}.{.{.{.{.{.{.{.{.{.{.}.}.}.}.}.}.}.}.}.}.}.}.}.}.}.}.|.|.}.}.|.|.|.}.|.|.oXoXoX:XoXoX:X:X:XoX:X:X:X:X:X:X:X:X:X:X:X>X>X>X>X>X4X5X5X5X5X5X>X5X5X5X5X5X5XyX5X5X5X5X5X7XyXyXaXaXaXaXpXaXpXpXpXpXpXpXpXvXbXBXBXBXBXbXbXbXCXHXPXLX:.          A KXKX&.  X       N KXKX            &.KXcX            :.KXKXw           LXy.          :.KXw           LXKX(.            ].KX(.            y.KXcX            &.KX$X            KXKXy.            (.KXKXLXKXLXPXPXPXDXPXPXPXPXLXKXLXX           &.LXKX0           N KXLX&.            cXKXLXLXKXLX0     X     o                 u.KX(.            (.KXKX5           5 KXPX            '.LXLXPXPXCXbXbXbXnXCXnXnXnXbXbXnXCXnXnXnXnXnXnXnXnXnXnXnXbXnXnXnXbXbXbXbXbXbXbXbXbXbXbXbXbXbXpXpXpXpXpXpXaX7X4X+X+X X X X X X X X X X X X X X X X X X X XOXOX%X6XvXCXCXCXbXbXbXbXbXbXBXpXpX7X2X&X%X_.~.y.c.y.y.u.r.r.r.r.q.9.9.9.i.7.7.7.7.7.7.:.:.:.;.;.;.;.;.-.-.-.-.-.-.-.-.X.X.X.X.X.X.o.o.U P I I K L L L L L A C C C A C C C C C C C C C v v z v v v z v C C C n z z z z z z z z z L C C C X.7.^.].].$X$X].`.`.`.#X#X$X$X$X$X'.(.r.;.I n l z z z z z z z z z z z k q H *.b.<.R ~ g r i A.dX,XK.J.4.&.l 9 8 9 8 5 5 9 9 9 9 y y t 6 t F =.l.v.v.).).[.{.{. X X X.X.X+X.X%X%X%X%X%X%X%X%X2X2X2X2X2X2X2X9X8X8X8X8X8X7X8X8X8X8X2X8X8X2X&X%X&X%X%X_.c.w.1.( F q y C K K K Z P P C C o.X.I X.-.&.-.X.K P X.U &.K Z Z J ( ! ! Q G u u D ) *.*.+.+.+.&.X.P y : & o X o , @ O O O X X X X X O 5 8 8 8 5 < < O < x m m m m x z x x x z z x x x x k x x z z z z x x x x z z z z k k k k k k k k k k k k k 8 8 8 k 4 x m o.$.8.0.0.t.Q.t.r.t.Q.W.W.W.Q.t.t.t.t.W.Q.t.t.t.r.;.#.-.;.7.9.t.t.r.9.:.&.X.o.X.%.0.Q.Q.^.^.^.^.^.^.y.u.&.K L I #.$.U b 4 8 4 4 4 0 0 0 l z m o.$.8.8.8.0.r.t.t.t.Q.Q.Q.Q.W.W.W.y.W.q.] > % . o O @   @ X X X X X o # X o # # # & & ; ; & # # o o o o o ",
"vXvXvXvXvXvXvXbXvXvXvXbXbXbXvXcX*X%X|.}.}.}.}.}.}.{.{.{.}.}.}.}.}.}.}.}.}.}.}.}.}.}.}.}.}.}.}.}.}.}.|.|.oX}.|.|.oXoXoXoXoX:X:X:X:X:X:X:X:X:X:X:X:X:X:X:X:X:X>X>X>X>X>X4X>X4X5X5X>X5X5X5X5X5X5XyX5X5X5X5X5XyXyXyXaXaXaXaXpXaXpXpXpXpXpXpXpXpXbXbXbXbXbXbXbXBXCXDXLXLXq.          N LXLXU           Z KXLX#           U KX=X  X         y.LXKXw           LX$X          y.KX5           LXKX(.            ].LXq.            (.KXcX            &.KX'.            KXKXy.            >.$X].(.u.*XPXPXDXnXCXnXnXPXPXLXLXw           Y KXKXw           U KXKX>.            (.'.].'.nXKXX                 X           >.KX(.            y.KXKX5           5 KXPXX           '.KXLXPXDXCXbXbXbXbXbXbXbXbXbXbXnXnXnXnXnXnXCXCXCXCXCXCXnXnXbXbXbXbXbXbXbXbXbXbXbXbXbXbXbXbXbXvXpXpXpXpXpXpX9X9X2XOX X X X X_._._. X X X.X.X%X%X%XOX X X X X.XOX&XuXbXBXCXBXbXbXbXbXbXbXbXbXvXuXuX9X%X).c.e.y.y.u.u.r.r.r.q.q.q.i.i.7.7.7.7.7.7.7.:.;.;.;.;.;.-.-.-.-.-.-.-.-.-.+.X.X.X.X.X.U U I P I I K L L L L L A C C C A C C C C C C C n z n z z z z z z z z z z z z z z z z z z z K &.&.&.-.r.`.$X=X$X$X#X].`.^.^.#X#X=X=X=X$X#X`.9.&.C z z z z z z l z l z z z z l y ~ ,.<./ ^ Q r i h.L.sXsX@XF.:.F 9 9 1 1 9 q q 9 9 l q y y t c ( 1.z.).).[.[.[.{. X X.X.X.X.X+X+X+X%X%X%X%X%X1X&X&X1X1X2X2X7X7X7X8X7X8X8X8X8X8X7X6X8X8X6X6X8X8X2X8X8X&X2X%X X).c.c.>.H c y Z P A Z U U L z P X.X.X.-.-.X.>.-.X.A P &.I U C V ( ( ~ ~ ~ ^ ^ [ ,.*.2.*.>.>.&.&.( S u > o . # # O O X X X X   X o 1 0 5 , # # < < O x z m m m z z z z z z x x x x z x k k z z z z z z z z z z z z z k k k k k k k k 4 k k k k 4 4 8 4 4 x m o.%.8.0.t.t.t.t.t.t.Q.t.Q.W.Q.t.Q.Q.Q.Q.Q.Q.t.t.r.7.-.;.7.r.t.^.^.y.t.9.;.;.$.$.8.0.Q.Q.^.^.^.^.W.W.t.q.X.C L X.#.X.A 8 4 z z k n b k k z z M o.8.8.0.0.t.Q.Q.Q.Q.Q.Q.Q.Q.W.W.^.y.y.w.' r % . + + O X X o o X X X X + o o o o X # & & & & # # # o # # # ",
"vXvXvXvXvXvXvXbXvXvXvXbXbXbXvXcX*X X|.|.}.}.}.{.}.J.{.{.}.}.}.}.J.}.}.}.}.}.}.}.}.}.}.}.}.}.}.}.}.}.|.|.|.}.|.|.|.|.oXoXoXoX:X:X:X:X:X:X:X:X:X:X:X:X:X:X:X:X:X>X>X>X>X4X4X4X5XyX5X5X5X5X5X5X5XyX5X5X5X5X5X5XyX7XyXyXaXaXaXpXpXpXpXpXpXpXpXpXpXpXbXbXbXbXbXbXCXDXPXLX(.          X nXnX#           U KXKXP           w PXu.            $XKXKX#           LXmX          ].KXw           LXKX(.            U >.X             '.KXcX            &.LX'.        X   KXKXy.            X         =.JXPXCXnXbXvXnXnXPXLXLXA X         # CXcX            >.KXKXU   X                 '.nX            U KXLXA           A KX(.            y.KXKX5           5 KXPX            ].LXLXHXCXbXbXvXvXvXbXbXbXnXbXbXnXnXbXbXbXnXnXnXnXCXCXCXnXnXbXbXbXbXbXbXbXbXbXbXbXbXBXBXBXBXbXvXpXpXpXpXpXaXpX7X2XOX X X X[._._.'. X X.X-X$X&X2X%XOX X X X X+X+X%X6XvXbXCXCXbXCXCXCXCXCXbXbXBXvXpXuX7X3X Xc.c.u.u.u.r.r.r.q.q.q.i.i.7.i.i.7.7.7.7.:.;.;.;.;.;.-.-.-.-.-.-.-.-.-.+.X.X.X.X.U U U I I I I K L L L L L A C C C C C C C C C C z n n n C n z z z z z z z z l z z z z z z z L &.r.y.y.`.#X=X=X=X=X#X#X].`.Q.Q.#X#X=X=X$X$X#X^.;.U z l z z z z l z z l l z k z l c ^ s._ T / R i _ <XG.L.K.J.=.B 9 1 9 9 9 9 9 q 0 q c c y y c ( 1.w.c.).).[.[. X X X X.X.X+X.X.X.X%X1X1X%X1X1X2X1X&X2X2X3X7X8X7X9X7X7X8X8X8X8X7XuX8X7X6X6X8X8X8X8X8X8X8X2X8X2X%X X). X'.q.F 9 A Z Z v C U L z o.-.X.L -.-.X.:.>.X.K K K K K K U &.[ ) [ [ } <.5.2.2.=.1.=.&.] ] ] S r % . o o X O X X X     X ; 0 1 , # o O O < z m m x x x n n z z z z z z x x x z z z z z z z z z z z z z z z z k k k k k k k k 4 4 k k k k 4 4 4 4 x m o.%.8.0.r.t.t.t.t.Q.Q.Q.t.W.t.t.t.Q.t.Q.Q.W.t.t.9.7.;.8.r.Q.W.^.^.^.W.t.q.9.;.;.8.0.Q.Q.Q.^.W.W.Q.t.u.:.&.A L X.o.n 0 4 n I K M L I K L L L o.$.%.8.0.Q.t.Q.Q.Q.Q.Q.t.Q.^.W.W.^.y.y.e.{ r % . #   X - o O @ o o X o o # o o o + o # # # # # # # # o # % ",
"vXvXvXvXvXvXvXvXbXbXbXbXbXbXvXcX&X X|.|.J.J.{.}.}.J.J.J.{.{.}.}.K.K.}.}.}.}.}.}.}.}.}.}.}.}.}.}.}.}.}.}.|.|.oXoXoXoXoXoXoXoXoX:X:X:X:X:X:X:X:X:X:X:X:X>X:X:X:X:X>X>X>X>X4X4X4X5X5X5X5X5X5X5X5X5XyX5X5X4X4X5X5XyXyXyXyXyXpXpXpXpXpXpXpXpXpXpXpXpXbXbXbXbXbXbXCXDXPXLXPX    X                       q.LXKXu.                          5 LXLXKX#           LXKX          *XKX5           LXKXy.X                             cXKXcX            &.KX'.            KXKXy.                      :.JXPXCXbXvXuXvXbXDXJXLX4.                            $XKXKXU                     $X$X            >.KXKXP           # KX(.            y.KXLX5           5 KXPX            ].LXPXDXBXpXpXpXvXvXvXvXbXbXbXbXbXbXbXbXbXbXnXnXnXnXnXnXnXnXnXnXnXbXbXbXbXbXbXbXnXnXnXnXbXbXbXbXbXvXpXpXpXpX7X4X+X+X X X X X_.)._. X X X$X%X&X2X%X%X+X.X.X+X+X+X&X2XuXbXCXCXCXCXCXCXCXCXCXbXbXbXpXpXpXpX7X%X%X).c.u.u.u.u.i.i.i.i.7.7.7.7.7.7.7.7.7.7.7.7.:.;.;.;.-.-.-.-.-.-.+.X.X.X.X.X.X.U P P P P I I K L L L L L L C C C C C z C C C c C C C z z z c C v v z z l l z z z l z z m X.q.`.#X-X$X$X=X=X=X=X$X#X`.t.r.W.].#X#X#X#X#X#Xt.X.C z z l z z z l l l l z x x z 9 y *.s._ E E W  .L.C.G.} z.5.S y 5 9 9 9 9 9 9 9 9 y y y 6 r F 2.w.c.v.).).[.[.{. X.X.X.X.X+X%X%X%X%X1X1X1X1X1X2X3X1X2X3X8X8X8X7XuX8X8X8X9X8X8X8X8X8X7X7X7X7X8X7X7X7X7X7X8X8X8X&X%X X X X$Xc.U B y Z A c C K L z X.-.L X.-.X.X.7.7.X.K C Z K C &.&.( [ *.,.2.<.<.<.*.} ,.*.*.( ^ [ [ g * . .   X X X X .   & : 7 6 ; 5 & O   # 8 z m x z z z z m x m x x x x z z z x z x x z z z z z k z z k z k k k k k k k 4 k k k k k k k 8 8 8 4 k m M o.$.8.0.t.Q.Q.Q.Q.Q.Q.Q.t.t.t.r.t.t.t.t.t.W.Q.t.0.8.8.9.Q.^.^.^.^.^.W.W.y.r.9.9.9.9.0.Q.Q.Q.t.Q.t.r.9.7.-.U U I m z k x I X.#.#.-.-.#.X.o.o.X.$.8.0.0.t.t.^.W.t.Q.Q.Q.Q.W.t.^.^.W.W.y.e.4.( : o X . o o X X X X X X + o X X X X o o # # # # # # & # & % ",
"bXvXvXvXvXvXvXcXvXvXvXbXbXbXvXcX&X.X|.|.{.{.}.{.}.J.K.}.}.}.}.}.}.}.}.}.}.}.}.}.}.}.}.}.}.}.}.}.}.}.}.}.}.|.|.|.oXoXoXoXoXoXoX:XoXoX:XoX:X:X:X:X:X:X:X>X>X:X:X:X>X>X>X>X4X4X4X5X5X5X5X5X5X5X5X5X5X5X5X5X4X4XyXyXyXyXyXyXaXpXpXpXpXpXpXpXpXpXpXpXgXpXbXbXbXbXBXDXPXLXLX`                         X mXKXLXLX0     X                   y.KXKXKX#         X PXKX0         nXKXw           PXKXu.                            5 LXKXiX            U KX].            KXKXu.                      :.PXPXCXbXvXuXpXbXCXPXLXnX3     O                   Z KXKXLXU   X                 '.(.            :.KXKXU             CXy.      X     u.KXKX#           5 KXPX            (.LXPXCXvXpXiXpXpXpXvXbXvXbXbXbXbXbXbXbXbXbXnXnXnXnXnXnXnXnXnXnXnXbXbXbXbXbXbXbXbXbXbXbXbXbXbXbXbXbXbXpXpXpX4X1X+X+XOX X X)._._._. X X X%X%X%X6X2X2X2X2X%X+X+X+X&X2XiXbXbXCXCXCXCXCXCXCXCXbXCXBXBXvXpXvXpX9X8X&X).u.u.u.u.r.r.q.9.9.9.9.i.7.7.7.7.7.7.7.;.;.-.-.-.-.-.-.-.-.-.&.X.X.X.X.X.U U P P P P K I I L L L L L C C C C C C C C C C c C C C z z z c z z z z z l l z z n n z z o.9.`.#X$X=X=X=X=X=X=X$X#X'.W.9.r.W.].].#X].].#X`.0.X.n z z l z z z z z l k z x z z c u 2.s.k.L.R.R.R.R.k. .f.e.H s 5 8 8 9 9 q 9 9 9 9 y y 2 & F 1.l.v.v.).).[.[.[. X.X.X.X.X.X+X%X%X%X1X1X1X1X1X1X3X2X2X2X2X3X8X8X9X9X9X9XlXlXlX8X8X8X7X8X7X8XuXuXuXcXuXuX9X9X9X9X8X2X%X_. X X$X X1.F c B c 9 K U L v I o.A K -.-.X.7.W.-.A K K Z Z &.&.( ] =.=.,.3.g.<.} } [ *.( ^ [ <.^ r % %           . 6 6 6 & . - 5 , O , q z m m m z z z z m n m x m m x z x 4 x x x x k z z z z k z z z k z k k k k k k k k k 4 4 4 4 4 8 8 4 4 x m M o.$.8.0.0.Q.Q.Q.W.Q.Q.W.Q.t.t.t.t.t.t.t.Q.Q.0.8.8.8.8.r.W.^.^.^.^.^.W.W.W.r.7.;.$.8.0.t.t.t.t.t.0.9.9.7.>.#.U K n k x m $.$.;.;.9.7.-.X.#.#.$.8.0.t.t.W.^.t.t.Q.Q.Q.W.t.W.t.W.^.W.y.y.4.d : . . X X     X X X X X X X + X X X o + o o o # # # # # # # & ",
"vXvXvXvXvXcXcXcXvXbXbXbXvXbXvXcX&X.X{.}.}.{.{.{.{.{.K.}.}.}.}.}.K.K.}.}.}.}.}.}.}.}.}.K.}.}.}.}.}.}.}.}.}.|.|.|.oXoXoX:XoXoXoXoX:X:X:X:X:X:X:X:X:X:X:X:X>X:X:X:X>X>X>X>X>X>X>X4X>X>X5X5X5X5X5X5X5X5X5X4X5X5X5XyX5XyXyXyXiXaXpXpXpXpXpXpXpXpXpXpXgXpXpXbXvXbXbXCXDXJXPXPXb         X           o y.LXLXLXKXcX5 o                   :.LXKXLXLX#           LXKXZ       o KXKX;           PXKXq.  X                         (.KXKX*X            U KX(.          X LXKXq.              X       :.LXPXCXbXuXuXuXvXnXCXLXLX'.o     X     X         q PXKXLXLXU                     ].:.            q.KXLX&.            $Xy.            q.KXLX5           # KXPX            y.PXPXCXvXuX4X7XiXpXpXpXvXvXbXbXbXbXbXbXbXbXnXnXnXnXnXnXnXnXnXnXbXbXbXbXbXbXbXbXbXbXbXbXbXbXbXbXvXvXpXpXpXpX5X1X+X+X+XOX X X_. X_. X X X%X%X&X7XuXuXpXpX7X%XOX+X&X&X7XvXbXCXCXCXCXCXCXCXCXCXBXBXBXbXvXvXvXvXuX8X Xu.w.u.u.r.r.r.r.9.7.7.7.7.7.7.7.7.7.:.;.>.-.-.-.-.-.-.-.-.-.&.X.X.X.X.U U P P I P K K K K L L L L L A C C C C C C C C c z C C z z z z z z z z z z l l l z z z n I 7.`.$X$X=X=X=X=X=X=X=X$X#X].r.t.^.`.].].W.Q.^.`.Q.;.L z z z l z z z z z l l z n k k y Q x.R.<XL.a.k.k.R.k.h.5.( y 5 8 8 6 9 9 9 9 9 9 9 y 6 2 G 2.z.D.).).).[.{.{.{.|..X.X.X.X.X+X%X%X1X1X1X1X1X1X3X2X2X2X2X2X8X9X7X7X7X9X9XuXcXcX9X9X9X8X8X8X8XcXcXcXcXcXcXvXuXcXvXcX8X6X2X_._. X-X%X(.( y c Z K C K K v L K L C -.X.L 7.t.X.I P P K U U &.U ( =.[ [ <.| / } [ ) ) [ [ ,.[ D > .   o   . % > % : 6 . o o @   @ b K C z n L L L L C C m m z L L x z m z z z x z x z z k z z z z z z n k k k k k k k k k 4 4 4 4 4 8 k 8 k x m o.o.$.8.0.t.Q.Q.Q.W.t.t.Q.W.Q.t.t.t.t.u.9.I k < 4 L %.0.W.W.^.^.^.^.^.W.^.y.9.;.$.$.9.0.0.0.t.0.9.8.;.8.;.;.#.I n n x m o.$.;.9.9.9.7.-.#.$.$.8.0.t.Q.Q.W.y.t.W.Q.t.t.W.t.Q.W.W.y.y.:.Y ; o . o o o X   X   X X X X X X X X X + + X X o o # # # # # # # # ",
"vXvXvXvXvXvXcXcXbXbXbXbXvXbXvXcX&X.X{.}.}.}.{.{.{.J.J.}.}.}.}.}.J.K.}.}.}.}.}.}.}.}.}.K.}.}.}.}.}.}.}.}.}.|.|.|.oXoXoXoXoXoXoX:X:X:X:X:X:X:X:X:X:X:X:X:X:X:X:X:X>X>X>X>X>X>X>X>X>X>X5X5X5X5X4X5XyXyX5X4X4X4X5X5X5X5X5XyXyXyXiXpXpXpXpXpXpXpXpXgXgXpXpXpXpXpXbXBXCXDXLXPXLXq.5             o P =XKXLXLXJXLXLXnXX.O X     X     0 (.LXLXLXLXLX#       X   PXKX`       0 KXLX5           PXLX:.                    5 5 U $XLXLXLX=X  X     X   Z KXS.            KXLXq.                      :.PXCXCXbXvXuXuXvXbXCXCXPXLXcXU               # q.LXLXLXLXLXN       X   X         ].P             q.LXKX&.  X         q.q.X   X       q.LXLXo           # KXPX            e.HXDXbXpX4X4X4X5X5XiXpXpXvXbXbXbXbXbXbXnXnXbXnXnXnXnXnXnXnXnXnXbXbXbXbXbXbXbXbXbXbXbXbXvXpXvXvXvXpXvXpXpXiX4X1X+X+X+X X X X X X_._. X X-X$X&X2XuXvXpXvXuX%X.X+X&X&X7XvXbXCXCXCXCXCXCXCXCXCXCXBXBXbXvXvXvXvXpXcX$X(.u.u.r.r.q.q.9.9.9.9.7.7.7.7.7.:.:.;.;.;.-.-.-.-.-.-.-.-.-.+.X.X.X.X.U U P P K K K K K K K L L L L L A A C C C C C C z z C z z z z z z z z z z z z l z z l C U 7.^.#X$X=X=X=X=X=X=X=X=X=X#X'.W.^.].#X^.W.8.0.Q.r.7.X.C z z z z z z z z l z l z x z 9 u 5.h.j.a._ W k.R.T.L.G.=.y q 5 8 8 6 9 9 9 9 6 t u u 2 G 1.z.c.D.S.).[.{. X{. X X.X.X.X+X+X%X%X%X%X1X1X1X1X2X2X3X2X3X3X8X8X9X9X9X7X9X9XvXuXcXuXuX9X9X9XcXcXcXcXcXcXcXvXcXuXuXuXuXuXuX2X2X$X X%X X%X).( y 9 N C c K U I L X.L U X.o.C r.7.X.P U +.K P K P U ( ~ ) ^ / } | / ) ) ) ' ' } ' g % . X   % & t t t % . . O @ 4 L &.$.I o.X.#.-.#.U K Z l C z L o.L m z k x z x z z x z k x n z n z n z k z z z k k k k k k k k k k k 8 k 4 m M o.O.$.8.0.Q.W.W.W.t.t.t.t.t.t.t.t.t.r.:.U @ @ x o.8.0.t.Q.Q.Q.W.^.^.^.W.W.u.7.7.7.8.0.0.0.9.9.7.;.$.$.;.8.;.X.C n m m M O.%.8.0.0.9.;.;.-.;.8.0.Q.Q.Q.Q.W.t.Q.W.Q.W.W.t.t.W.t.u.:.V 5 ; X . X X X       X   X X X X X X X X X + + X X + o # # # # # # # # ",
"vXvXvXvXbXvXvXvXvXvXbXvXvXbXvXcX%X.X{.}.}.J.}.}.{.J.K.}.}.J.J.J.}.K.}.}.}.}.}.}.}.}.}.}.}.}.}.}.}.}.}.}.}.}.}.|.|.oXoXoXoXoX:X:X:X:X:X:X:X:X:X:X:X:X:X:X:X:X:X:X>X>X>X>X>X>X>X>X>X>X5X5X4X4X4X5X5X5X4X4X4X4X4X4X4X5X5X5X5XyXyXiXpXpXpXpXpXpXpXpXpXpXpXpXpXpXbXbXCXDXDXJXLXLXLX$Xq.>.:.q.(.PXKXLXPXJXHXJXJXLXLXLXPX_.1.:.:.u.*XKXLXJXJXHXPXPXJXLXLXLXLXLXKXLXLXLXLXLXLXLXLXLXKXLXLXLXKXLXLXLXLXKXLXLXKXKXKXKXKXKXLXLXLXLXLXLXLXLXLXLXLXLXLXKXKXKXKXPXLXLXLXKXLXLXKXLXLXKXLXKXKXKXKXKXLXLXLXPXPXCXnXbXvXuXuXvXbXnXDXHXPXLXLXCX(.:.:.>.q.'.LXLXLXPXJXPXPXLXLXKXLXLXLXLXLXKXLXKXLXKXLXKXKXLXKXLXLXLXPXLXKXLXLXKXLXKXKXKXLXLXKXKXLXLXLXLXLXLXLXKXLXKXLXLXLXLXLXKXLXLXPXLXPXCXBXbXpXiX5X4X4X4X4XiXpXpXvXvXvXbXbXbXbXbXbXbXbXbXbXbXnXbXnXbXbXbXbXnXbXbXbXbXbXbXbXbXvXuXuXuXpXpXvXpXuX7X4X1X+X%X+X|.{. X%X%X X_. X X.X$X%X&XuXbXbXvXiX+XOX+X&X2X7XvXbXCXnXCXCXCXCXCXBXCXCXbXbXbXbXbXvXpXvXuX2X$X~.u.u.r.r.r.9.9.i.i.7.7.7.7.7.:.;.;.;.;.;.;.-.-.-.-.-.-.-.+.X.X.X.X.U U U P P I I K K K L K K K A C C C C C C C C C C C C c z z C c z z z z z z z z z C L X.7.`.$X=X$X=X=X=X=X=X=X=X=X$X#X#X`.^.`.`.r.0.$.8.7.7.7.X.n n z z z z z z z z z z k l l 9 ( ) E  .k.k.L.E.T.L.L.f.) 9 5 8 5 8 9 9 9 9 9 9 t u 2 u *.z.v.v.D.D.).[.{. X X X X.X.X+X+X%X%X%X%X%X1X1X1X1X3X3X2X2X3X3X8X7X9X9X7X7X9X9X9X9XuXuXuXcX9XuXuXcXcXcXcXcXvXvXvXuX9X9XuXcX7XuX2X*X&X%X%X.X'.(.=.y 9 Z c 9 C X.I A L X.X.-.I I 7.-.I K U U K C K P F H *.) ) |  .' ' / ) [ / ' } ~ f % . - t d 6 6 : . 5   @ z X.7.9.7.;.8.9.r.9.7.;.>.&.Z w < < m L L n n z z x z x x z n m L X.X.I I n z z z k k k k k 4 4 8 4 4 4 4 4 k x m L o.$.8.0.Q.W.W.Q.W.W.t.t.t.t.t.t.t.r.9.:.` ` #.;.;.$.8.Q.Q.Q.Q.W.^.^.^.W.t.9.-.;.8.8.8.0.0.9.9.7.;.;.;.8.8.;.o.I L m o.o.$.8.0.t.0.9.9.9.9.9.0.Q.W.W.W.Q.W.Q.W.t.t.W.t.t.W.y.:.Z # . .   X                   X X X X X X X   X X X X X + o # # # o o # # = ",
"vXvXvXvXvXvXbXbXvXvXbXvXvXbXvX8X+X+X|.}.}.J.J.}.}.}.K.}.}.J.J.J.J.J.}.}.}.}.}.}.}.}.}.}.}.}.}.}.}.}.}.}.}.}.}.|.oXoXoX;X:X:X:X:X:X:X:X:X:X:X:X:X:X:X:X:X:X:X:X>X:X>X>X:X>X>X>X>X>X>X5X5X4X4X4X4X4X4X4X4X4X4X4X4X4X4X4X4X4X4X5X7XiXiXiXaXaXaXpXpXpXpXpXpXpXpXpXpXbXbXCXDXHXLXPXLXLXLXLXKXLXJXPXPXHXDXCXCXDXCXPXJXLXLXLXJXLXKXJXPXHXHXCXCXDXDXHXPXPXHXJXPXPXLXLXLXJXLXPXPXPXLXPXLXLXPXJXPXPXPXLXPXLXLXLXLXLXLXLXLXLXKXPXPXPXPXHXPXPXLXLXLXLXPXLXLXLXJXLXJXLXJXJXLXJXJXLXLXLXLXLXLXLXLXLXKXPXPXCXCXbXvXuXuXuXuXvXbXnXnXPXPXLXLXLXLXLXLXLXLXPXJXJXPXPXCXPXPXPXPXLXLXLXLXLXLXLXLXLXPXPXPXPXJXLXPXPXPXPXPXJXJXJXJXPXPXPXHXLXPXPXPXPXJXHXHXPXPXPXPXJXJXLXLXJXJXJXLXPXJXJXHXDXBXpXpXpX4X4X4X4X>X4X5XyXiXpXpXuXvXbXbXbXbXbXbXbXbXbXbXbXbXbXbXbXbXbXbXbXbXbXvXvXvXvXvXpXiXiXuXpXpXpXpXiX5X4X1X1X4X2X+X|. X$X%X X_. X X X%X%X&X7XbXbXvXuX&X+X+X&X2X7XvXbXCXCXCXCXCXCXCXCXnXbXbXbXbXbXbXpX9X9X2X2X%X(.u.u.r.r.r.r.9.i.7.7.7.:.:.7.:.:.;.>.-.-.>.-.-.-.-.-.-.-.&.X.X.X.U U U P I I I K L L L L K A A A A C C C C C C C C C C C C z z z z z z z z z z z z n C X.7.W.#X=X=X=X=X=X=X=X=X=X=X=X$X$X].^.t.W.W.9.9.$.$.;.7.9.X.z l l z z z l z z l l 8 z z 8 Z u ^ x.L.L.R.R.R.L.L.3.,.S 6 5 5 9 w q 9 9 5 5 2 6 u r *.l.c.v.D.D.[.[.[.{. X|. X X.X+X+X+X%X%X%X%X%X1X1X1X2X3X3X8X3X3X8X9X9X9X9X7X9X9X9X9X9X9XuXuXvX9X9XvXvXvXvXvXvXvXvXvXcXuX9XcXuX6X8X6X8X8X*X2X&X$X%Xc.=.B 9 P A c K X.L C L L X.-.o.-.>.&.P U :.U U U P y c ( [ *./ ' ' / E } } / ' } ' h : ; : > u 6 # o @   8 X.7.Q.^.^.W.W.W.^.^.^.t.y.y.q.] : X O z I I C z z z z x x x x x m X.7.-.&.X.Z b z k k k k k k 4 8 8 8 8 4 4 k k x m M o.%.0.Q.W.W.W.t.t.W.W.t.W.Q.t.t.t.9.;.;.;.:.;.-.$.$.8.Q.Q.Q.Q.Q.^.^.^.t.r.;.#.$.$.$.8.8.9.7.7.7.7.;.-.$.$.$.o.o.o.o.o.$.8.0.0.0.9.0.t.r.0.t.t.Q.W.Q.Q.Q.W.W.Q.W.t.y.y.u.:.Z 5   . o % %             X X   X X X X X X X X   X X X X X + o o # # # # # # = ",
"vXvXvXvXcXvXbXbXvXvXbXbXbXbXcX*X+X+X|.}.}.J.J.}.{.J.J.}.}.}.J.K.J.K.}.}.J.J.K.K.}.}.}.}.}.}.}.}.}.}.}.}.}.}.}.}.|.oXoX:X:X:X:X:X:X:X:X:X:X:X:X:X:X:X:X:X:X:X:X:X:X>X>X:X>X>X>X>X>X>X>X>X>X4X4X4X>X>X>X>X>X:X+X:X:X+X+X+X:X:X>X1X4X4X4X4X4X4X4X4X7XiXiXiXiXiXiXiXuXvXbXCXnXCXHXDXPXPXPXPXJXHXHXCXbXbXbXbXbXbXCXDXDXPXPXHXPXPXPXPXCXbXbXbXuXvXvXbXbXCXCXnXDXCXnXCXCXPXCXPXPXDXCXPXCXPXCXCXCXCXPXPXPXPXPXPXPXPXPXPXPXPXPXCXCXDXPXDXDXDXDXPXPXHXPXHXPXHXHXPXPXPXPXPXPXPXPXPXHXLXPXPXJXJXPXPXCXCXCXbXvXuXuXuXuXuXcXvXbXbXnXCXDXPXHXJXPXLXPXPXHXCXDXbXbXCXvXnXCXCXDXPXPXDXPXPXPXPXPXHXDXDXDXDXCXCXbXCXbXbXbXCXCXbXCXCXnXDXnXnXCXnXCXCXCXCXCXDXDXDXDXDXCXCXDXDXDXDXCXCXCXCXbXpXpXiX5X1X>X1X>X:X>X4X4X4X4X4X6XiXuXvXvXvXvXvXvXuXuXuXuXuXuXuXuXuXcXuXuXuXuXuXuXiXiX6X6X2X2X4X2X4X4X4X2X2X1X+X+X2X2X+X X X%X%X[._. X X X%X&X2X7XvXbXbXvX7X%X+X%X2X7XuXvXbXCXCXCXCXBXCXCXnXCXCXCXCXBXbXuX3X2X2X&X$X(.u.u.r.r.r.9.i.i.7.7.7.:.:.7.:.;.;.-.-.-.-.-.-.-.-.-.-.-.+.X.X.X.U P P P I K I K L L L K L A K A A C C C C C C C C C C C C C c z z z z c z z b z z z m $.Q.`.$X$X=X=X=X=X=X=X=X$X=X$X$X#X].`.t.r.9.7.9.-.o.-.;.-.L z z z z z l l z z z k z k z z 9 g f.b._  .k.R.R.k.z.[ G y 9 1 1 w q 6 6 1 1 2 2 t y ~ w.v.c.D.).D.[.[.[.{.|. X.X.X+X+X+X+X%X%X%X1X1X2X2X3X3X8X8X8X8X8X9X9X9X9X9X9X9XcXcX9X9X9X9XuXvX9XpXpXvXvXvXvXvXvXvXvXvXcXuXuXuXuX8X8X8X8X6X*X2X*X*X&X$Xq.B B Z Z K X.U A A C L I X.I X.&.U P -.&.P X.&.N y H J [ [ } }  .} }  . .} ' ~ ^ D u % : % o     @ 4 7.t.W.^.`.^.(.`.`.`.`.`.`.`.(.u.*.%   8 L X.U L z z z x m x x m L o.;.9.;.>.&.P l l k k k k k k k 8 8 8 4 4 k 4 k x m L $.0.Q.Q.W.W.W.W.W.W.Q.t.t.t.t.t.9.:.#.I #.$.$.$.$.$.8.0.Q.Q.Q.Q.^.W.W.t.r.9.7.8.8.8.8.7.7.7.7.;.8.;.$.$.$.$.$.$.$.#.$.8.0.0.0.8.9.0.t.r.t.Q.W.W.W.W.W.W.W.t.t.t.u.y.u.&.w o X X X % o   o                   X X X X X X X X X X X X X X + # # # # # # # # ",
"vXvXvXvXvXcXvXvXbXbXbXbXvXvXuX&X+X.X|.}.}.{.J.}.{.J.J.J.J.}.J.K.}.}.}.}.}.}.}.}.}.}.}.K.}.}.}.}.}.}.}.}.}.}.}.}.}.|.|.oXoX;X;X:XoXoXoXoX:X:X:X:X:X:X:X:X:X:X:X:X:X>X>X:X:X:X>X>X>X>X>X>X>X>X>X>X:X:X:X+X+X@X@X@X@X@XoXoXoXoX@X+X+X+X+X+X+X%X&X&X4X4X4X4X4X4X4X4X4X7X7XiXcXbXbXCXCXnXCXCXbXCXbXvXvX2XpXiX2XuXuXbXbXnXbXCXnXbXbXuXuX6X%X&X%X%X%X%X&X&X&X6X&X6X6X6XiXcXcXcXcXbXnXbXbXnXbXvXnXcXbXnXnXnXnXnXCXCXnXnXnXnXnXnXbXbXbXbXnXCXCXCXCXDXCXCXCXCXCXDXDXCXCXCXCXCXDXDXPXPXPXPXPXDXCXCXnXvXvXcXuXiXiXiXiXiXiXiXuXuXvXvXnXnXCXCXCXnXCXnXvXvXuXuXiX6XiXuXvXbXvXnXnXnXnXbXnXbXbXbXvXcXuXvXiXiX2X4X%X2X&X&X2X&X&X%X&X%X&X&X&XiX6X6X7XuXuXuXvXbXbXbXbXvXbXvXvXbXbXvXvXuX7XiX4X4X+X1X+X+X+X+X+X+X>X%X+X+X+X&X2X6X6XiXiXiXiX6X6X6X2X2X6X6XiXiXiXiX6X8X6X6X2X2X&X%X+X+X+X+X+X+X+X1X1X1X4X&X+X%X+X+XOXOX%XOX X X X_. X-X%X&X8XvXbXbXvX7X+X.X+X%X2X7XuXvXbXCXBXBXbXbXnXnXbXCXCXbXbXvX9X4X+X%X%X'.~.u.u.r.r.r.q.i.7.7.7.7.:.7.:.>.>.-.>.-.-.-.-.-.-.-.-.-.&.X.X.X.X.U P P U P I I I L L L K A A A A C C C C C C C C C C z N C C c z l z z z z z b n n n L -.W.].=X=X=X=X$X=X=X=X$X$X#X#X-X#X'.`.t.7.$.-.8.$.X.8.7.X.z C l l z z l z l z k l 4 z x k c w./ T _ a.R.R.R.L.) t c c 2 2 2 9 0 5 1 # + 2 y B G 5.z.v.v.D.).H.[.[.[. X.X.X.X+X+X+X+X+X%X%X1X1X1X2X3X3X8X8X8X8X8X8X8X9X9X9X9X9X9XcXcX9X9X9X9X9XvX9X9XpXvXvXvXvXvXvXvXvXvXvXcXuXuX8XcX8X8XuX8X8X*X*X&X&X%X%Xq.c 9 Z C c K K C L C K P P U X.X.U U X.P U ;.&.K Z J R [ } } } |  . .} / ' [ [ ) S t % . X # O z 0.W.^.^.`.`.^.^.(.^.`.].`.].]._.S.w.] ] >.7.-.X.U L L m m m m o.o.;.7.t.0.9.:.:.&.A l l k k k k k 4 8 8 8 4 4 4 4 4 x m o.%.0.Q.Q.Q.W.W.W.W.W.Q.t.Q.t.t.0.-.-.#.I #.;.;.$.$.%.0.Q.Q.Q.Q.W.^.W.W.t.t.0.7.8.0.0.0.9.9.0.9.;.;.$.X.O.#.$.$.$.$.$.;.8.0.0.0.0.0.0.0.0.Q.Q.Q.Q.Q.W.W.W.Q.t.t.u.q.1.U ; .   X + + o o .         X X X O O     X X   X X X X X X X X X X X X o # # # o o o ",
"vXvXvXcXcXvXbXbXbXvXvXvXvXvXuX&X+X.X|.}.}.}.}.}.J.{.{.{.}.K.K.K.K.J.J.J.}.}.}.}.}.K.}.K.}.}.}.}.K.}.}.}.J.}.}.}.}.}.|.oX|.|.oXoXoXoXoXoXoXoXoX:XoXoXoXoX:X:X:X:X:X:X:X:X:X:X:X:X:X:X>X>X>X>X>X4X+X+XoX}.{.{.{.J.H.J.J.H.H.{.{.{.{.{.{.|.@XOXOXOX@X+X+X+X+X4X4X@X+X@X@X+X%X&X&XiXiX6XiXiX6X2X2X&X+X%X%X@X@X%X&X4X8X8X6XuX&X2X%X&XOX{.{.).F.F.F.S.F.S.S.).)._._.'. XOX$X%X%X&X&X&X6X6X6X6X6X&X6X6X6X6XcXcXcXiXiXiX6XiX6XiXiX*XiXiXcXcXbXbXbXbXbXbXCXbXbXvXvXbXnXvXbXbXbXbXbXbXbXbXbXbXvXcXuX6XiX*X&X&X2X6X&X6X6X&X&X&X&X6X6X6XiXuXuXiX6X*X&X&X%X%XOX&X&X&X&X6X6X6X4X6X6X&X&X2X&X&X&X+X+X+XOXOX{.{. X).).).S.).(.S.S.S.S.S.(._.'.'. XOX@X@X&X4X&XiX6X4X7X2X4XiX4X2X&X+X4X+X@X+XoX@X@XoXoX|.}.@X+XoXoX|.{.OX@X+X+X&X+X%X&X&X%X+X+X+X+X+X%X&X&X&X2X&X&X&X%X+X+X@XOXOXoX@X+XoXoX@X+X+X4X4X1X+X+X+XOX&X%X X X X X X X.X%X%X2X8XuXvX7X%X+X+XOX+X2X7X7XuXuXbXbXbXbXbXbXCXbXbXbXbXbXvXpX7X%XOX X).u.u.u.r.r.r.r.9.7.7.7.7.7.7.:.:.;.>.>.-.-.-.-.-.-.-.-.-.+.X.X.X.X.U U U P P I I K K L L K A A C C C C C C C C C C C C C z z z z z z l l c k c z n z n n $.Q.#X=X=X=X=X$X$X$X$X$X#X#X#X$X#X].].^.r.$.X.o.o.X.;.;.X.C z z z z z z z z z z k k z z l U G Q / _ R.wXR.;X3.B 6 9 9 2 2 9 9 9 8 1 1 2 2 u Q =.z.c.v.D.D.[.[.[.[.{. X.X.X+X+X%X%X%X%X%X1X1X1X1X3X3X3X2X3X2X8X8X8X9X9X9X9X8X9X9XcXcX9X9X9X8XlXcX9XpXvXvXvXvXvXvXvXvXvXvXvXvXuX9XuXuXuXuX8X8X8X8X*X&X&X%X=X$Xw.9 2 P P 9 C C c L K K K P X.X.X.U U U K U 7.U K P H J ) ) ) }  . . .} } ,.,.[ ! u % #   O 4 7.`.`.`.`.].].`.`.`.`.].].].].].'.].]._.(.u.7.-.-.X.K L n n L o.o.8.Q.^.^.Q.t.t.r.:.&.K l k k k z k k 8 4 4 4 4 4 4 k x M $.0.Q.Q.Q.Q.t.Q.Q.t.t.t.r.r.0.9.8.$.#.$.$.-.;.;.8.%.8.0.t.Q.Q.Q.W.W.W.W.t.r.7.;.8.0.0.0.9.9.9.7.$.$.o.o.o.$.$.%.8.8.8.8.9.0.0.0.0.0.0.Q.Q.W.W.W.t.Q.Q.W.W.t.y.r.q.:.J % . o . .     X X X               X X         X X X X X X X X X X X X o O X X o o # # ",
"vXvXvXvXvXvXvXvXbXbXbXbXbXvXuX&X+X.X|.|.}.}.|.}.{.{.J.J.J.J.}.}.J.J.}.}.}.}.}.}.}.K.K.J.}.}.}.}.}.J.}.J.J.J.}.J.J.K.}.}.}.}.}.oX|.}.}.oXoXoXoXoXoXoXoXoXoXoXoXoXoXoX+X:X:X:X:X:XoXoXoXoXoXoXoX@X}.D.{.J.A.S.c.z.g.e.e.5.5.5.e.w.z.e.6.6.e.z.S.S.z.z.x.F.F.D._.D.c.S.S.S.c.y.c.S.S.S.S.S.S.S.S.S.F.S.e.S.F.D.D.H.J._.D.D.F.).S.c.c.4.,.=.=.=.=.*.*.*.*.*.:.=.:.1.i.q.w.c.).(.S.S.)._._._._.)._.).D.).S.S.S.e.).).S.S.c.S.).(._._.).OX%XOXOX&XiXiXiXiX*X&X&X%X&X&X&X*X*X*X*X*X*X*X%X&X&X%X'._.S.c.S.)._.S.e.c._. X(.(.(.).(.(.).).).).).S.S.c.c.c.S.S.S.S.D._._.)._._._._.).)._.).F.F.D.v.c.c.e.1.5.4.,.=.*.*.=.[ *.*.*.*.*.=.,.1.4.4.e.D.). X X_.S.).{.{.).D.D.[.{.D.D.D.c.S.c.c.D.F.z.z.l.z.x.x.z.5.e.z.z.z.z.z.e.c.S.S.S.c.z.e.z.z.D.'.).S.OX).).).D.F.D.F.S.F.F.z.x.D.F.z.e.S.{.{.D.D.D.[. X%X X_._. X_.[. X.X%X%X&X6XuXuX2X%X+X%X+X+X2X4X7XuXuXvXbXbXbXbXbXbXnXbXbXbXbXbXpXpXuX8X&X_.w.q.q.q.r.r.r.r.i.i.7.7.7.7.:.;.>.-.-.-.-.-.-.-.-.-.-.+.+.X.X.X.X.U U U P P I K L L L L A C A C C C C C C C C C C C C c z z z z z z z z c k C z n n n X.0.^.#X$X$X$X$X$X$X$X$X$X#X#X#X#X].].].^.7.I m o.o.$.7.7.L z z z z z z z z z z z z z k l c F D ^ i ' wXtXk.} D 6 1 8 2 2 2 9 9 5 1 1 + 1 2 g @.5.z.c.v.D.).[.[.[.[. X.X.X.X+X%X%X%X%X%X%X1X2X2X2X3X3X2X2X2X3X8X8X9X9X9X8X8X8X9X9X9XlX9X9X9X8X8XlX9XuXpXvXvXvXvXvXvXvXvXvXvXvXcXcXuXuXuXuX8X8X8X8X6X*X&X%X%X=X Xu.Z y P P c c C A K K K K I X.X.U U U K K -.-.P P B ( [ / } } / <.d.s.| } *.*.( S o 1   k 7.`.`.].`.].].].].`.].].#X].].].].].].].].(.y.q.7.;.X.K C I o.X.$.7.Q.^.^.^.^.^.(.^.u.:.&.K z l k z k k k 8 8 8 8 4 x x L o.8.0.0.t.r.t.Q.Q.t.t.t.r.9.7.;.;.;.$.$.$.-.;.;.;.;.%.8.0.0.Q.Q.Q.Q.W.W.t.t.9.;.-.8.8.8.8.7.9.9.-.o.o.o.$.$.$.$.$.$.8.8.8.8.9.0.0.0.0.0.t.Q.Q.t.W.W.W.t.t.t.t.u.q.*.d o o %           X X X               X X         X X X X X X X X X X X X o X X X o # # # ",
"cXcXvXvXbXbXvXvXbXbXbXbXbXvXiX&X+X.X|.}.}.oX|.}.}.}.{.{.}.}.K.K.J.}.}.}.}.K.J.K.K.J.J.J.J.{.}.J.K.J.J.J.J.J.J.J.J.J.K.}.}.K.}.}.oX}.}.}.|.oXoXoXoXoXoXoXoXoXoXoXoXoXoXoXoXoXoXoXoX+XoXoXoXoX+X+X|.{.{.H.A.A.z.6.w.5.5.5.5.5.5.5.w.w.5.w.z.c.c.c.F.F.D.{.{._.{.).D.v.z.e.w.w.e.e.e.e.e.e.e.e.z.z.e.z.S.F.D._.[.H.J.{.{._.).S.z.5.:.=.*.] ( ( U J P Y Y Y P U U ` *.=.i.q.e.z.S.S._. X X X X X'._.).(.S.c.e.w.c.c.y.c.e.c.c.c.(._._.'.OX&X%X&X&X&X*X&XOX X X_._._._._.'.'.'.'.'.'. X'.OXOXOX_.D.F.).(.(.~.c.c.(.(.S.c.c.c.c.c.c.c.c.c.c.c.c.e.c.c.F.S.D.D.{.{.{._. X_._._._._._.D.S.S.z.v.z.5.1.1.*.] ( ( U U P Z Y Z V F J H ] *.*.,.4.6.e.D._.[._._. XOX X{.{.{.{._.).D.F.F.S.z.c.z.e.e.w.w.l.z.e.w.w.e.e.w.w.w.w.e.e.e.e.e.e.e.c.c.)._.OXOXOX$X$XOXOXOXOXOXOXOX{.{.{.|.|.[._. X%X+XoX{. X XOX+X{.). X X X X X.X%X%X%X2X7X7X&X%X1X7X4X2X2X4X7X7XiXpXbXbXbXbXbXbXnXbXbXbXbXvXpXpXuXcX8X Xy.u.r.q.r.i.r.r.r.i.7.7.7.:.:.;.>.>.-.-.-.-.-.-.-.-.&.+.&.X.X.X.X.U U P P P I I K K L K A A C A C C C C C C C C C C z z z z z z z z c c c l z z n n L 7.t.`.#X$X$X#X$X#X#X#X#X#X#X#X#X`.`.#X].9.$.L m L X.;.r.r.I C z z z z n z z z z x z z 8 z N y u i / R.hXR.f.S 7 7 1 1 1 1 9 q 9 1 1 & + & : ! 1.l.c.v.D.D.).[.[.[.{..X.X+X+X%X%X%X%X%X%X1X2X2X2X2X7X3X2X2X2X8X8X9X9X9X9X9X9X9X9X9X8X9X9X9X8X8X8X8X7XuXuXpXpXpXvXvXvXvXvXvXvXvXcXcXuXuXcXcXuXuX8X8X6X*X*X*X&X&X*X%X~.P 9 A P C l c C A A C K K U U U X.I C +.7.U U P V *.<.| } } <.j.d. .} } ,.] H q   K t.`.#X].`.].].].].].].].#X#X].].].].].].].].`.^.W.t.q.-.X.X.X.$.;.0.Q.^.`.`.`.`.`.`.(.^.u.:.U N k k z z z k 4 4 k 8 4 x m o.$.8.0.0.0.0.0.Q.t.t.t.t.r.7.-.$.#.-.$.#.#.;.9.8.$.$.$.$.8.0.0.t.Q.Q.Q.t.t.t.9.-.$.$.$.$.;.9.9.-.I m m o.$.$.$.o.$.%.8.8.9.9.7.8.7.9.9.9.t.Q.W.t.W.t.t.t.t.u.y.q.U ; ; ; . . o         X X                   X           X X X X X X X X X X X o o o o # # # & ",
"vXvXcXvXvXbXvXvXbXvXbXbXbXvXiX&X+X.X|.|.}.oXoX|.|.}.}.}.}.}.K.K.K.}.}.K.J.J.J.J.J.J.J.J.J.J.J.J.J.J.J.J.J.J.J.J.J.J.J.J.}.J.}.}.}.}.}.}.}.}.}.}.}.oXoXoXoXoXoXoXoXoXoXoXoXoXoXoXoXoXoXoX+X+XoX+X@XoXD.F.z.w.1.1.=.*.{ { { *.*.*.*.=.=.=.=.4.6.e.S.F._.{.{._.D.c.e.4.4.=.=.=.>.=.=.=.=.=.=.=.=.=.1.4.e.S.S. X_.OX X{.).F.c.w.1.*.&.U F V s q 0 0 5 6 7 q 0 q s N d S ( ] :.4.y.).). XOXOXOXOX X_.S.w.w.4.4.1.:.>.=.:.=.:.:.:.4.w.e.S._. X$X%X&X%X$X_._.y.e.e.q.q.q.q.q.q.q.q.u.u.y.(.(.S.(.c.y.y.w.q.4.4.4.4.4.:.4.1.:.1.:.:.:.:.=.=.=.=.1.4.4.w.e.S._._.{.OXOXOXOX X X X X{._.F.S.c.w.5.,.[ ] U U V s p q w w 0 7 5 5 w y y N Z S ] ] *.1.w.z.F.{.{.OX+X+X+X@XOX{. X_.S.c.e.w.q.1.=.=.=.=.=.=.=.=.=.=.*.*.*.=.=.=.=.=.=.=.=.:.4.q.e.c.S.).OXOX&X*X&X&X&X&X&X%X+X+X%X+X+X+X+X+X+X2X2X&X2X&XOX X X X{. X X X X X.X.X%X%X&X2X2X2X2X7XpXuX4X4X4X7X7XuXpXpXuXvXbXbXbXbXbXbXbXvXpXiXpX7X8X2X$X~.w.q.q.i.i.9.7.i.7.7.7.7.:.:.:.>.>.>.-.-.-.-.-.-.-.+.+.&.X.X.X.X.U U P U P P I K K K L K K A C A A C C C C C c c z z z z z z z z z z z z c z z n n $.Q.W.`.#X$X$X#X$X#X#X#X#X#X#X#X#X].`.`.t.&.o.n m o.$.-.9.7.C z z z z z n z z z z z z z z c &.c.+XaXjXtXwXd.Q q 8 6 1 1 , 1 9 9 5 5 & % % : u [ w.c.v.v.D.).[.[.[.{..X.X.X+X+X%X%X%X1X1X2X2X2X2X2X2X3X3X3X2X3X3X8X8X8X8X8X8X8X9X8X8X9X9X9X9X9X9X9X7X7X7XuXuXpXpXuXuXvXvXvXpXpXcXcXcXuXcXcXcXuX8X8X8X6X*X*X*X*X%X%X*X=X).+.9 c c C C v C C C C K I P U #.X.K U >.U U &.P H [ ,.} ,.2.s. .' } ' [ *.&.U q.].#X].#X].#X'.].].].].].].#X#X].].].].].].].].].(.(.^.u.;.-.$.-.7.r.W.W.^.].`.`.`.`.(.(.^.u.:.` A k 8 z k 4 k 4 k k k k x L o.$.8.8.8.8.9.0.t.r.r.r.r.9.-.X.#.#.$.$.#.$.;.7.;.X.o.o.o.$.8.0.t.t.t.Q.t.t.t.9.-.o.o.$.$.9.9.;.#.L m o.$.$.$.o.O.$.%.8.9.9.9.7.8.7.0.0.0.r.Q.W.W.Q.t.t.r.u.q.&.y ; o . . & #                                 X             X X X X X X X X X X o o o o # # & & ",
"bXvXvXvXvXvXvXvXbXvXbXbXbXvX8X%XoX|.}.}.}.}.|.|.|.|.|.|.|.}.}.}.}.}.}.}.K.K.K.K.J.J.J.J.J.J.J.J.J.H.H.J.H.H.H.H.H.H.H.J.J.J.J.J.J.J.J.J.J.K.K.}.}.}.}.}.}.|.|.oXoXoXoXoXoXoXoXoXoXoXoXoXoX+XoXoXoXD.F.5.,.=.] ] H J F S S S S S J F S J H ( ] ,.5.e.S.D.D.S.e.4.=.] ( H J F F F F F F F F F U U ] ] =.6.z.F._. X X_.S.e.4.>.U Y B y 6 & & o . o o o .     X # & 9 q p s U &.>.q.y.). XOXOX X_.S.w.4.=.( +.U U H J J F J U U ( &.=.4.y.(. X X$X].(.y.q.*.&.] U ` U U U U U U &.&.>.1.q.1.w.q.1.=.&.( U U P U U U U P P U P P P P P J F J U ( *.=.4.e.S._. XOXOX+XOXOXOXOX{.[.D.F.c.e.4.=.[ H V N w 5 # # # . . + . + # o X o = ; k q s J ] =.4.e.c._. X XOX+X+XOX{._.S.w.4.=.*.( U H J J F S F J F F F F F S F F F F F F F J U U ] =.1.e.S._.OX%X6X6X*X&X&X2X&X&X2X2X2X&X1X%X+X%X&X2X4X7X2X%X X X X{.{. X X[. X XOX%X%X&X2X7X7XuXpXpX7X4X4X4X4X4XiXiX7XiXuXvXvXvXvXvXvXvXuXiX7X7X8X2X%X X~.q.q.q.q.q.q.7.7.7.7.7.:.:.;.>.>.>.>.-.-.-.-.-.-.-.+.X.+.X.X.X.X.X.X.U P P P K K K K K K K A C A C C C C C C z z z z z z z z z z z z z l c z C n L 7.^.].#X-X$X#X#X#X#X#X#X#X#X#X#X#X#X].t.-.I L L o.$.;.-.7.-.C z n z z z z z z z z z m L z &.].bXSXVXeXtXL./ s 8 k 1 1 1 1 8 9 w 5 1 + $ $ u G 2.l.b.v.D.D.[.[.[.{.XX.X.X.X+X+X%X1X1X1X1X2X2X2X2X2X2X2X3X3X3X2X2X3X3X2X3X8X8X8X9X9X9X9X9X9X8X9X9X7X7X9X9XuXuXuXuXpXvXvXvXvXuXuXuXuXuXuXuXuXuXuXuXuXuX6X*X&X&X*X&X%X&X%X8X(.&.c c K C v v v c C K K I U &.&.U U &.U U U >.&.( ,.,.<.<.|  . . .' / =.w.y.].].`.].#X].].'.].].].].].].#X].'.].].].].].].`.].`.].^.u.:.;.7.t.^.`.^.^.`.`.`.`.`.`.`.(.(.t.1.] Z C z z z k k k k 4 k z m m M o.O.O.$.%.8.0.0.0.9.9.9.7.-.#.X.X.#.-.$.-.8.;.#.I I o.o.$.%.8.0.t.t.t.t.t.t.9.-.I o.$.8.7.8.;.#.I o.$.$.$.$.O.O.$.8.9.9.9.9.7.8.7.0.0.t.Q.Q.Q.t.t.u.u.r.&.N = .   . o o                                                   X X X X X X X X X + o X + # # # & & ",
"vXvXvXvXvXvXvXvXbXvXvXbXbXvX6X%X|.|.}.}.}.}.}.|.|.|.}.}.}.}.|.oX}.}.K.K.K.K.J.J.J.J.J.J.J.J.J.H.J.H.H.H.H.H.H.H.H.H.H.H.H.H.H.H.J.J.J.J.J.J.J.}.}.}.}.}.}.}.}.}.}.}.}.}.}.}.oXoXoXoXoXoXoXoXoXoXJ.A.z.1.=.J d p q 6 5 5 5 5 5 5 5 5 6 7 y B F ( *.4.e.S.S.e.4.*.( V y 7 6 : ; ; 5 5 5 w 5 9 q y N Y J *.5.e.D.[.).S.6.=.] U C 0 5 X > { g.C.Z.U.I.U.U.T.P.Z.B.j.' > + l 0 B Y &.1.y.(.'. X XS.e.:.` J V c c w ; 8 9 8 8 9 q N A P +.:.w.F.S._.(.4.=.U P K C w w w w w w w w s B Y J &.&.&.&.Y Y V y 0 0 q q 9 w 7 ; 5 w 5 w 6 5 5 8 9 q 0 N F U *.4.y.).OXOX$X%X%X+X+X X{.).F.z.e.,.&.U Z c 6 # $ h | j.Z.E.I.I.U.I.E.Z.Z.B.../   ; ; 6 B F ( =.5.c.).{.OXOX@XOX{.c.e.4.] J d q q 6 6 6 5 5 5 5 5 6 6 6 5 5 5 5 5 5 6 6 6 9 q y Z U &.=.5.S.[.%X6XiXiX6XiXiX7X7X6X6X6X7X7X4X2X2X2X6X7X7X4X+X X X X{._._.[. X X X.X%X&X2X6X7XpXvXpX7X2X2X2X4X2X5X4X7X7X7X7XuXuXuXuXuXuXuXiX7X7X7X2X%X X].).(.].~.u.q.q.i.7.7.7.7.:.:.:.>.>.>.>.>.-.-.-.-.-.&.X.X.X.X.X.X.X.X.X.P P P P K K K K K K A A C C C C C C C C z z z z z c c c c z z z z c C z C C X.r.`.#X#X$X$X#X#X#X#X#X#X#X#X#X#X#X#X].r.X.I L X.$.8.8.;.0.;.L n z z z z z C C C m m L L I y.lXSXVX}.tXwXj.j q 9 1 , & 1 5 9 9 5 1 & $ $ * g ( 1.l.b.v.D.[.[.[.XX|.|..X.X.X+X+X%X1X1X1X2X2X2X2X2X2X2X2X3X8X8X8X8X3X8X2X2X3X8X8X9X9X9X9X9X9X8X9X9X8X9X9X9X9XuXuXuXuXuXvXpX9X9XuXuX9X9XuX8X7X7XuXiX8X8X6X2X&X*X*X*X&X&X*X=X$X~.:.X.v C C v z z C A K K P X.+.X.+.X.X.U U X.-.+.&.4.<.' ' } ' ' } / 2.D.(.].].].#X#X#X].#X].].].].].#X#X].].].].].].].`.].].`.].^.^.t.t.^.`.`.`.`.`.`.`.`.`.^.`.`.`.`.y.4.] Y K C z z z k z k k x m m m M L L m o.o.$.8.8.7.9.r.9.;.$.X.X.#.-.;.-.-.$.o.L M I X.$.$.%.8.0.0.t.t.t.t.t.9.;.X.o.%.8.8.8.;.#.X.X.$.#.o.o.O.$.%.7.0.0.9.9.9.8.9.0.0.Q.Q.t.t.t.u.u.q.U 5 X   X .     o X       X X                             X       X X X X X X X X X X + O X + X # # # # ",
"vXvXvXvXvXvXvXvXvXvXvXvXvXcX6X+XoX}.}.}.}.}.}.}.|.|.}.}.|.|.oXoX|.}.}.}.}.K.K.J.J.J.J.J.J.J.H.H.H.H.H.H.D.H.H.D.D.D.D.D.D.D.H.D.H.H.H.J.J.J.J.J.J.{.}.}.}.}.}.}.}.}.}.}.}.}.}.}.{.}.{.}.}.oXoX}.J.A.1.>.P S : 2 o X X X X X X X X X X   X # w s J *.4.e.e.4.] J N q 1 @ o o X X X X X @ X X o o % t B ( :.w.w.(.c.4.=.U Z 6 > > ..B.Y.Y.Y.Y.Y.I.U.U.I.U.U.Y.Y.U.Y.P.Z.| * 1 q Z ] :.w.S.).(.e.1.-.K 7 > X #   o X o o X X X o 5 r S U =.4.e.e.4.;.Y A w # o o , @ O O O O # # # 7 s f V A Z A 6 # # X         o @ O O # O @ @ O X X o o X # 5 q Y *.q.S.'.OXOX%X&X+XOX{.).D.z.4.*.] V c q > r 3.Z.U.Y.U.I.U.U.Y.T.T.Y.Y.U.U.U.U.P.B./ : 2 l V H *.4.e.D.{. X X{.D.z.1.( G u 2 1 X X X o X X X X X X o     X X X X X X X X X o # r c F *.4.c._.%X2XiXiXiXiXiX7X7X8XuXpX7X7X7X4X2X2X6X7X7X4X+X X{.[.).)._. X X X.X X+X2X2X7XuXpXpXuX7X2X&X2X2X4X7X7X7XiXiXiXiXiXiX6X6X2X2X2X4X2X2X%X X).].'.-XlX$Xy.q.q.i.7.7.7.7.7.7.:.;.>.>.>.-.-.-.-.-.&.+.+.+.+.X.X.X.X.X.U U P P K K K K K K A A A C C C C C C C C z c z z z c c z z z z c z C C C L X.;.r.`.#X#X#X#X$X#X#X#X#X#X#X#X#X#X$X#X`.;.I X.X.X.;.0.8.8.9.-.m z z n m z z L L L L L o.U q.&XBX+Xh.<XtXK.} u 6 # 9 1 , 1 8 5 1 & + + $ $ t ( =.1.w.b.v.D.[.[.{.{.|.|..X.X.X+X%X1X1X1X1X2X2X2X2X2X2X2X3X3X8X8X8X8X3X3X3X3X3X3X8X8X9X9X7X9X8X8X8X8X9X9X9X9X9X9XuXuX9X9X9X9X9X7XuXuXuXuXuXuX8X8X8X7X6X6X2X&X*X*X*X*X*X*X*X*X=X X~.q.P K C v v v c C C K K K U U U X.X.U U U &.+.&.=.,.,.) / / } } ,.f.z.(.(.].].].].#X].].].].].].].#X].].].].].].].].].].].`.].`.`.(.`.`.`.^.`.`.`.].`.].`.`.`.`.`.(.W.u.:.&.X.K n z z n z k k z m m m m n x x m m o.$.;.;.9.9.7.-.X.X.$.$.;.;.;.$.o.L M M o.$.$.$.;.8.0.0.t.t.t.r.r.9.:.#.X.8.8.;.8.;.;.;.-.$.X.o.o.$.%.8.0.0.9.9.9.9.9.0.0.0.t.t.t.t.u.u.:.Y ;     .       X       X   X             X               X X X X X X X X X X X X X X + + o o + o # o # % ",
"vXvXvXvXvXvXvXvXvXvXbXbXvXvX8X%X@X|.}.}.}.}.}.}.}.|.|.|.oX|.oXoXoXoXoXoX}.}.}.}.J.J.J.J.H.H.H.H.H.H.D.D.A.D.D.D.D.A.D.A.D.D.A.A.D.D.D.H.H.H.H.H.J.J.J.J.J.J.J.J.{.J.J.J.J.{.J.J.J.{.{.{.{.}.{.J.).z.,.( j P.Y.U.Y.Y.Y.Y.U.U.U.Y.Y.Y.Y.Y.Y.Y.I.E.s ( *.4.4.*.H s Z.I.Y.Y.U.Y.U.U.U.U.U.U.Y.U.U.U.Y.Y.P.f ( =.4.4.1.] U q 5 > | P.T.T.T.U.U.U.U.Y.U.U.Y.U.U.U.Y.Y.U.U.I.U.E...% 5 s U *.q.e.e.4.*.R P.Y.I.U.Y.U.Y.Y.U.Y.Y.Y.Y.U.Y.Y.3.g X.:.q.1.=.! r G.U.I.I.U.U.U.U.U.Y.Y.Y.U.U.U.T.A.6 c > P.I.U.U.U.U.Y.U.U.U.I.I.U.U.U.U.Y.U.Y.U.Y.Y.U.U.U.I.y J =.w.S. XOX%XOXOX{.D.S.z.4.*.( V q ; . d.U.I.Y.Y.U.I.U.U.Y.Y.U.U.I.I.U.U.Y.T.U.I.Y.Z.' % 1 c F ] 1.e.F._.{.).c.q.] j B.Y.U.U.Y.Y.Y.Y.Y.Y.Y.Y.U.U.U.U.U.Y.U.U.Y.Y.U.U.U.Y.U.U.I.Y.r U :.w.F.oX&X6XiX6X6X6X6X7X8XiXuX7X7X4X2X2X3X2X2X2X%XOX{.[.D.).).)._.{. X X X+X&X4X6XiXpX7X7X7X2X&X2X2X3X7XiXpXpXuXiX7X6X6X2X&X%X+X%X&X+XOX X).).].].#X*X-X~.i.i.q.i.7.7.7.7.7.:.>.>.-.-.-.-.-.&.&.&.&.&.&.X.X.X.X.X.X.X.U P P P P K K K K Z K A A C C C C C C C C C C c c z z z z z z c C z v I X.8.t.0.W.#X$X#X#X#X#X#X#X#X#X#X#X#X$X$X'.y.X.U I #.o.8.8.%.8.7.-.n C z z n z z L L L L L X.:.c.c.[ f.wXtXR.<.D 2 & 5 5 + , 1 1 , # + + . $ 2 G *.1.w.w.z.v.D.[.[.[.|.|.|..X.X.X+X%X1X1X1X1X2X2X2X1X1X2X2X3X3X3X8X8X8X8X3X3X3X3X3X3X8X8X8X8X8X8X8X8X8X8X8X9X9X9X9X7X7X7X9X9X7X7X8X7X7XuXuXuXuX8X7X7X7X6X2X&X&X&X*X*X*X8X6X*X*X*X=X].~.:.P v v v C C C C C P K P P P X.X.X.U U U &.&.U *.*.} ) } 3.<.5.b.3.c.c.].`.].].].].].`.].].`.].].].].`.].].].`.].].`.].`.].].].`.].`.`.`.].`.`.`.`.].`.`.`.].`.`.(.y.u.u.:.#.X.U U L m z k z n n x n k x x m m M o.8.7.7.7.;.#.X.$.$.;.;.7.7.$.o.L M o.$.%.8.8.;.;.8.0.t.t.r.9.9.9.:.-.$.8.8.;.;.;.;.7.;.X.L M o.$.8.8.7.9.9.7.8.7.8.9.0.0.t.t.r.u.r.&.w & o . . . X X     O O X                   X               X X X X X X X X X X X X X X + + o + o # # # # # ",
"vXvXvXvXvXvXbXvXvXvXvXvXvXbXuX6X+X@X}.{.{.}.}.}.}.}.}.|.|.|.oXoX|.|.oXoXoXoXoX}.}.J.J.J.H.H.H.H.D.D.A.A.A.x.x.x.v.x.x.A.A.A.D.D.D.D.D.D.D.D.D.H.D.J.J.J.J.H.{.J.J.J.H.H.J.J.H.H.H.H.{.{.{.{.[.D.F.5.*.U t E.Y.U.U.U.U.U.U.U.U.U.Y.U.U.U.U.Y.I.E.5 Z +.*.=.( B w E.I.Y.U.U.U.U.Y.U.U.U.U.U.U.U.U.U.I.P.w Z ] =.*.+.S w o / Z.U.T.U.U.U.U.U.U.U.U.U.U.U.U.U.U.U.U.I.Y.U.U.U.Y.Z.E 5 7 U &.:.4.=.( N G.I.Y.U.T.I.Y.U.U.U.U.U.U.U.U.T.B.l Z &.>.=.U b 2 P.I.I.T.Y.U.U.U.U.U.U.U.U.U.T.Y.{ & - o I.U.U.Y.U.U.U.U.U.U.U.U.U.U.U.U.U.U.U.U.U.U.U.U.U.U.u b ] q.c.'.$X@X@X X).F.5.q.*.H p 9 % ' P.I.I.Y.U.U.U.U.U.U.U.U.U.U.U.U.U.U.U.U.U.U.U.I.U.Z.r & w K &.=.w.S.).S.e.:.J y h.U.U.Y.U.Y.Y.Y.U.U.U.U.U.U.U.U.U.U.U.U.U.U.U.U.U.U.U.U.U.U.; Z ] 1.S.[.+X%X%X&X2X2X6X2X6X6X6X4X2X2X&X%X&X%X&X2X%X X X{.D.).).).).D. X X.X|.+X&X4X7XiXiX7XiXuXuXiX4X4X7XiXvXuXiX6X2X2X&X+X+X+X+X+X+X X_.).).(.].#X-X-X-X~.q.i.i.7.7.7.7.7.:.:.>.>.-.-.-.-.-.-.-.-.-.X.X.+.X.X.X.X.X.U U U P P K K K K K K K C C C C C C C C C C C c z z z z z z z z c n C v I -.r.r.t.].#X#X#X#X#X#X#X#X#X#X#X$X$X$X-X].:.K I X.$.$.$.X.$.$.$.X.L C z m z m L o.L L C L &.&.~ [ d.L.wXR.k./ u 6 t 2 * & 1 8 , 1 @ + + $ $ u ( 2.w.5.l.v.v.[.[.[.[.XX|.|.|..X+X+X%X1X1X1X1X1X2X2X1X1X1X1X2X2X2X8X8X8X3X3X2X2X2X3X3X3X3X8X8X8X8X9X8X8X8X8X8X9X9X7X9X9X7X7X7X7X7X7X7X7XuXuXuX8X8XuXuX8X8X6X&X&X&X*X2X*X8X6X*X*X&X%X-X].u.>.+.c l C c C K z c C C U U K X.X.X.I P X.U U ( ] [ ) [ }  .f.x.d.f.c.c.(.].].`.].`.`.`.].`.`.`.`.`.`.`.`.`.].].].`.].].].].].].`.`.`.`.`.`.`.`.`.`.`.`.`.`.`.`.`.(.(.t.7.-.-.>.&.#.I n b n n n n k k k k k x M $.8.7.9.8.;.$.$.-.$.;.7.;.;.-.#.I o.#.;.8.8.8.;.;.8.0.0.t.t.r.9.9.;.-.$.$.$.;.7.;.9.7.-.X.I I o.$.$.8.8.9.9.9.8.9.8.0.t.t.t.u.9.:.N w o . .             X X                       X X                 X X X X X X X X X X X X X X X o # # # # # % ",
"vXcXvXvXvXvXbXvXvXbXvXvXbXvXvXuX7X4X>X+X|.{.}.}.}.}.}.|.|.|.oXoXoXoXoXoXoXoXoXoX}.J.J.J.H.H.H.D.D.A.A.A.A.x.x.z.z.z.z.z.z.z.z.z.z.D.D.D.D.D.D.D.H.H.H.H.J.J.J.H.D.H.D.D.D.D.D.H.D.D.D.D.D.[.D.D.z.4.] V 6 Z.Y.U.U.U.U.U.U.U.U.U.Y.U.U.Y.U.Y.U.I.o q P ] ] J q # I.Y.Y.U.U.U.U.U.U.U.U.U.U.U.U.U.Y.U.Z.5 B H ( H V 5 & ..Y.Y.Y.I.U.Y.U.U.U.U.U.U.U.U.U.U.U.U.U.U.U.Y.U.Y.I.I.Y.P.| : w S &.*.*.Y q | I.Y.I.Y.U.U.U.U.U.U.U.U.U.U.T.Z.1 q U ( ] Z 5 S Y.U.I.Y.T.I.U.U.U.U.U.U.U.U.T.I.> . # f Y.I.Y.Y.U.U.U.U.U.U.U.U.U.U.U.U.U.U.U.U.U.U.U.U.U.U.~ w F =.e.). XOX{.'._.e.4.*.H A l . ..Y.I.Y.Y.Y.U.U.U.U.U.U.U.U.U.U.U.U.U.U.U.U.Y.Y.U.Y.U.Y.P.' % 5 Z ] 1.e.c.z.5.*.V 9 j.U.U.Y.Y.Y.U.U.U.U.U.U.U.U.U.U.U.U.U.U.U.U.U.U.U.U.U.U.Y.U.# B ( 1.z.).{. XOX%X&X&X&X&X2X2X2X2X&X%X%X%X%X%X&X2X%X%X%X+X{.).S.).)._.{.+X+X XOX%X2X6X6XiXuXuXpXpXiX2X2X7XuXuXuX6X2X&X&X%X+X+X+X+X+XOX X).(.(.(.].].'.'.'.~.r.u.u.7.7.7.7.:.:.>.>.>.>.>.-.&.-.-.-.-.-.+.+.+.X.X.X.X.U U U P P P K K K K K K A C C C C C C C C C C C C C C z z z z c c C n C C X.7.t.t.^.#X#X#X#X#X#X#X#X#X#X#X#X#X$X$X-X].;.#.X.X.;.$.X.X.;.$.$.$.L n C z z m X.-.X.L U U &.) R L.n.R.k.k.<.g t 9 2 * & 1 1 5 , , @ + . $ * G *.2.5.l.l.v.v.[.[.[.[.{.{.|..X.X+X+X%X1X1X1X1X1X1X1X1X%X1X1X3X2X2X8X8X8X2X3X3X2X1X3X3X3X3X3X2X8X8X8X8X8X8X8X8X8X9X7X9X9X7X8X7X7X7X7X7X7XuXuX7XuX7X7X8X8X8X8X6X2X&X*X*X*X*X6X8X*X&X%X$X'.~.q.-.K l l C v C K C C l K U P X.U X.X.U U &.U U U [ ~ ) / d.g.h.g.f.l.c.).].].`.`.`.`.`.`.`.`.`.`.`.`.`.`.`.`.].].].].].].`.`.`.`.`.`.`.`.`.`.`.`.`.`.`.`.`.`.`.`.`.`.W.t.q.q.q.:.>.#.K A n n k k k k k k k n o.$.$.$.;.;.;.;.;.;.;.;.7.7.;.;.;.$.$.;.8.8.8.8.;.;.8.0.0.0.0.r.0.9.;.-.;.8.8.8.9.9.9.9.;.#.X.X.X.$.%.0.0.0.0.0.9.9.9.9.0.r.r.9.] 7 ; # . X .     X       X X                       X                     X X X X X X X X X X X X X o o # # # o o # ",
"cXcXcXvXvXvXbXvXvXbXbXbXvXvXvXvXuXuXpXiX4X+XoX}.}.}.}.|.|.|.oXoX|.|.|.oXoXoX|.|.}.{.J.H.H.H.D.D.A.A.x.x.x.x.z.z.z.z.z.z.z.z.z.z.z.z.z.z.D.D.D.D.D.D.D.H.D.D.D.H.D.D.D.D.D.F.D.D.D.F.D.D.D.D.D.D.z.1.] s 2 j.I.U.U.U.U.U.U.U.U.U.U.U.U.U.Y.U.U.Y.> 6 V H H V 5 o I.U.U.Y.U.Y.Y.U.U.U.U.U.U.U.U.U.T.U.B.1 q d d N w % f.Y.I.U.Y.U.U.U.U.U.U.U.U.U.U.U.U.U.U.U.U.U.U.Y.U.Y.U.I.U.Y.I.3.o a F ( U V w r I.Y.Y.U.U.Y.U.U.U.U.U.U.U.U.U.P.% 5 A F F b # | U.Y.I.U.Y.I.U.U.U.U.U.U.U.U.U.C.  o   ' T.I.Y.Y.U.U.U.U.U.U.U.U.U.U.U.U.U.U.U.U.U.U.U.U.U.U.| ; V ] q.S._._._._.S.w.1.H s 5 $ g.U.I.U.Y.T.I.U.U.U.U.U.U.U.U.U.U.U.U.U.U.U.U.U.Y.T.T.Y.U.U.I...% 0 B *.1.w.e.1.] s 1 j.U.U.U.U.U.U.U.U.U.U.U.U.U.U.U.U.U.U.U.U.U.U.U.U.U.U.U.U.U.o w J =.w.D. X X_. XOX%X%X%X%X&X&X%X%X%X+XOXOX%X%X%XOXOXOX X[.D.(.(.D.{. X%XOX XOX%X&X2X2X6XuXuXuXuX7X&X&X&X7XiX6X6X&X%X%X+X+XOXOX+XOX X).D.(.~.~.(.].].].].y.u.~.y.i.:.7.:.7.:.:.>.>.>.-.-.-.-.&.-.-.-.+.X.+.X.X.X.U U U U P P P K K K K K K K C C C C C C C C C C C C n n n z z c c c C n m C o.7.r.t.`.#X#X#X#X#X#X#X#X#X#X#X#X#X#X$X-X].y.r.q.-.&.#.#.$.#.o.$.-.I C C n L L -.7.;.-.-.+.2.s.n.R.R.R.M.k.) * 2 y 1 2 & 1 1 1 # # + + + + u ) =.2.5.l.v.v.D.[.[.[.[.{.XX{..X.X+X+X%X1X1X1X%X%X1X1X%X%X%X1X2X2X2X8X8X8X2X3X3X2X1X1X3X3X3X8X3X8X8X8X8X8X3X3X8X8X8X7X8X7X9X8X7X7X8X7X8X8X8X8X7X7X7X7X8X8X8X7X8X6X6X2X&X&X*X6X6X*X*X%X$X-X].y.q.7.v v l z l c K C z N K K P K U X.U U &.&.U U ( ( ) | x.h.f.g.x.f.5.c.(.(.].].`.`.`.`.`.`.`.`.`.`.`.`.`.`.`.`.].].].].`.`.`.`.`.`.^.^.^.^.`.`.`.`.^.`.`.`.`.`.`.`.^.W.W.^.y.q.:.&.I n n k k k 4 4 k k k n I o.o.#.#.$.7.7.7.7.7.7.7.9.9.9.9.9.7.7.7.7.8.7.;.;.8.8.0.0.t.t.r.r.9.8.;.8.8.9.0.0.9.9.;.;.-.-.$.$.8.0.t.t.0.9.9.0.9.9.r.9.>.Z - X o . . . o     X                                                       X X X X X X X X X X X O O o o o # o o o # ",
"uXuXcXvXcXvXbXvXvXvXvXbXvXvXbXbXcXvXvXbXvXiX1X@X|.|.}.|.}.}.|.oX|.|.|.|.|.|.|.|.}.{.J.J.D.D.D.D.z.z.z.z.w.5.w.5.5.5.6.6.5.5.5.5.5.l.z.z.z.z.z.x.F.F.A.D.D.D.D.F.F.F.x.x.z.z.z.z.S.z.z.S.z.v.F.z.5.1.( B & | Y.U.U.U.U.U.U.U.U.U.U.U.U.U.U.Y.U.Y.h ; q F V q , : U.U.U.Y.U.Y.I.U.U.U.U.U.U.U.U.U.Y.I...# 5 s q q o | I.I.I.U.Y.I.U.U.U.U.U.U.U.U.U.U.U.U.U.U.U.U.I.Y.Y.U.U.I.I.I.Y.Y.' # q F F V w . Z.I.Y.I.U.Y.U.U.U.U.U.U.U.U.U.Y.j & q A s 9 o B.I.T.I.I.Y.U.U.U.U.U.U.U.U.U.U.| + #   | T.I.Y.Y.U.U.U.U.U.U.U.U.U.U.U.U.U.U.U.U.U.U.U.U.U.U.d.o s U :.e.(.(.(.y.w.:.H d l . d.Y.U.I.U.U.Y.I.U.U.U.U.U.U.U.U.U.U.U.U.U.U.U.U.I.I.Y.Y.I.U.U.U.T...o p V ] 4.4.=.( p , j.Y.U.U.U.U.U.U.U.U.U.U.U.U.U.U.U.U.U.U.U.U.U.U.U.U.U.U.U.U.X 5 V *.4.S.D.).)._. XOX%X+X+X%X%X+X+XOXOX X X XOXOX XOX X{.).c.c.).)._. X X X X X+X%X%X%X&X6XiXuX7X4X&X%X%X&X6X2X&X+XOXOX XOXOX X X X).D.c.c.c.c.~.(.].(.W.r.u.(.~.q.q.7.:.7.:.:.>.>.>.-.-.&.-.&.&.-.&.+.X.X.X.X.X.U U U P P P P K K K K K K K C C C C C C C C C C C c z z z z z c c c C n L L L 9.t.^.#X#X#X#X#X#X#X#X'.'.'.#X#X#X-X$X-X].].(.`.y.-.U X.X.o.#.-.#.X.C n L o.o.-.r.Q.r.>.*.b.n.M.k.R.M.R.a.g $ 2 9 * + 1 1 1 , @ + + $ $ 2 D =.2.2.5.z.v.v.D.H.[.[.[.[.XX{. X.X.X+X+X%X%X%X%X%X%X1X%X%X1X2X2X2X3X8X8X8X2X3X3X1X1X1X3X3X3X8X8X8X8X8X8X8X3X3X8X8X8X8X9X9X7X9X8X8X7X8X8X8X8X8X7X7X7X8X6X6X8X8X7X6X6X2X&X&X*X6X2X*X*X*X$X-X'.y.u.u.:.k z v l v K c c z c C c C P P U X.U U &.&.*.*.[ ,.,.<.d.x.h.f.f.x.c.(.(.(.`.`.^.`.`.^.^.`.`.^.`.`.`.`.`.`.`.`.].].].`.`.`.`.`.^.^.^.^.^.`.`.`.`.`.`.`.`.`.`.`.`.^.^.(.y.r.:.&.U n k k k k 4 k k k k n L I o.o.#.$.9.9.9.9.9.9.9.9.9.0.0.0.9.9.9.9.9.7.;.;.8.8.8.0.t.t.t.t.9.7.;.8.9.0.0.0.9.9.9.7.;.;.8.;.8.0.0.0.9.9.9.7.9.9.:.U 5 # & o % o                                                           X           X X X X X X X X X X O X X o X o # # # ",
"uXuXuXvXcXvXvXvXvXvXvXbXbXbXbXbXbXvXvXvXvXcX2X+X|.|.|.|.|.|.|.|.oX|.|.oX|.|.}.|.}.}.J.J.D.x.z.z.f.5.5.5.6.1.,.,.,.,.,.,.,.,.,.,.,.4.4.,.3.5.5.5.e.z.z.v.x.z.z.f.5.5.5.5.5.5.5.6.1.4.1.5.5.l.z.z.6.,.! B & D Y.U.U.U.U.U.U.U.U.U.U.U.U.U.U.U.U.U.' # w B y w , D U.U.Y.U.U.U.U.U.U.U.U.U.U.U.U.U.Y.I.' + 1 w 4 . j P.I.I.Y.U.Y.U.U.U.U.U.U.U.U.U.U.U.U.U.U.U.U.U.U.U.U.U.U.U.U.Y.U.I.P.u 9 w V d ; 1 3.I.Y.U.Y.I.U.U.U.U.U.U.U.U.U.Y.' + 5 0 w 1   Z.I.T.U.I.T.U.U.U.U.U.U.U.U.U.U.> @ O   d.U.I.U.U.U.U.U.U.U.U.U.U.U.U.U.U.U.U.U.U.U.U.U.U.U.U.C.X w B ] 1.w.w.e.4.=.( s w + ..I.Y.U.Y.T.Y.Y.U.U.U.U.U.U.U.U.U.U.U.U.U.U.U.U.U.I.U.I.Y.Y.Y.Y.Y.Y.U.' # 6 S &.{ ] H 7 # j.U.Y.U.U.U.U.U.U.U.U.U.U.U.U.U.U.U.U.U.U.U.U.U.U.U.U.U.Y.U.X 1 d *.4.z.c.D.).)._. X XOXOXOXOXOX+XOX X X_.{. X X X X{.D.c.z.z.c.S.D._._._. X XOXOXOXOX%X6X7X7X6X&X%XOXOX%X%X%X+XOX{.{._.S.D.S.S.S.S.c.z.w.w.y.~.~.~.W.q.q.y.(.(.y.u.i.7.:.:.:.>.>.>.-.-.&.-.&.&.&.&.&.X.X.X.X.X.X.U U P U P P K K K K K K K C C C C C C C C C C c z z z n C C C c C C m m m L 7.W.].#X#X#X#X#X#X'.#X'.'.#X#X#X#X#X$X#X#X'.'.-X'.9.X.X.#.-.7.7.X.U L I &.-.X.8.^.`.u.>.1.s.k.M.R.R.M.k. .t 6 5 1 & + 2 2 , # + + + $ $ u ) 1.2.5.l.z.v.v.D.D.H.[.[.[.[.{..X.X.X.X+X%X%X+X%X%X%X%X%X1X1X2X2X2X2X2X8X8X3X2X1X1X1X1X3X3X3X8X8X3X3X8X8X8X8X3X8X8X9X9X9X9X7X7X8X8X8X7X8X8X8X8X8X7X6X6X6X6X2X2X8X6X6X2X&X&X*X2X6X&X*X*X%X%X#X~.u.u.q.L k l z C l 9 c c N z 8 z C A K U P P X.&.*.*.=.1.,.<.<.<.h.x.x.v.D.).(.(.^.^.^.^.^.^.^.^.^.^.^.`.`.`.`.`.`.`.].`.`.`.`.^.^.^.^.^.^.^.^.^.`.`.`.`.`.`.`.`.`.`.`.^.`.(.y.q.>.>.` A l k k 4 k k k k k n I I #.#.$.;.9.0.r.r.9.9.9.;.-.8.9.0.0.0.0.0.9.7.;.;.8.8.8.0.t.t.0.0.;.;.;.8.0.0.0.r.9.9.9.9.7.7.7.8.0.r.0.9.9.7.7.:.:.&.N     & o o o .                                                           X             X X X X X X X O O O X O o o o o # # ",
"uXuXuXvXvXvXvXvXvXvXvXbXbXbXbXbXbXbXbXvXvXcX2X+X|.|.|.|.|.|.|.|.oXoX|.oX|.|.}.}.|.}.J.H.D.x.z.5.5.<.| [ [ [ ~ ~ ~ ~ ' [ ] ] [ [ [ [ [ [ [ [ [ ,.4.4.e.z.z.g.g.3.<.,.| | | | | [ { [ [ ,.,.6.4.5.5.,.( s ; > Y.I.U.U.U.U.U.U.U.U.U.U.U.U.U.U.Y.Y...X ; t 6 = # ' Y.U.Y.U.Y.U.Y.U.U.U.U.U.U.U.U.U.I.U.h o & 3 < % Z.Y.U.U.Y.Y.U.T.U.U.U.U.U.U.U.U.U.U.U.U.U.U.U.U.Y.I.Y.Y.Y.Y.Y.I.U.U.U.C.. 0 7 y ; < h Y.I.Y.Y.U.U.U.U.U.U.U.U.U.U.U.d.. X # - o . I.T.Y.Y.U.T.U.U.U.U.U.U.U.U.U.Z.  X <   h.U.U.U.U.U.U.U.U.U.U.U.U.U.U.U.U.U.U.U.U.U.U.U.U.U.U.Z.. 3 s J ( *.=.=.[ H d a   t P.U.U.I.Y.Y.I.Y.Y.U.U.U.U.U.U.U.U.U.U.U.U.U.U.U.U.T.T.Y.Y.U.I.I.Y.U.I.P.r o 7 s J H Z w o d.U.U.U.U.U.U.U.U.U.U.U.U.U.U.U.U.U.U.U.U.U.U.U.U.U.U.U.Y.U.  # s ( 4.w.c.c.c.c.D.).). X XOXOXOXOX X{.{._.).).).).).D.z.w.F.,.[ e.c.c.).). X X X X X X%X&X6X2X&X+X X X_.OXOX X X_.S.z.5.e.5.5.4.4.w.w.w.w.q.u.~.W.~.y.q.u.(.].].(.y.7.7.7.:.:.>.>.-.-.-.-.&.&.&.&.&.&.&.X.X.X.X.U U U P U P P P K K K K K K C C C C C C C C C C C c C C C C C C C C C C m L o.t.#X#X#X#X#X#X#X#X'.'.'.'.#X#X#X#X#X$X#X#X#X-X$X'.W.;.-.7.9.r.0.-.X.-.7.9.8.-.t.`.^.y.1.*.s.L.R.R.M.k.j.} : 6 & + 1 + 2 2 , + + . . $ $ B =.2.2.5.b.x.v.v.D.D.H.[.[.[.[.{. X.X.X.X.X+X+X+X.X.X+X%X%X1X1X2X1X2X3X2X2X3X3X1X1X1X1X3X3X3X3X8X3X3X3X3X8X8X8X8X8X8X8X9X9X7X8X9X8X8X8X8X8X8X8X6X8X6X2X6X6X6X6X8X2X2X2X2X&X&X&X&X8X&X&X&X%X%X$X].y.W.7.-.L l z L C 9 l c c l 8 l z Z C K U P P U *.*.*.[ [ ,.,.,.s.v.H.H.D.D.S.(.W.W.^.^.^.^.^.^.^.^.^.`.`.`.`.`.`.`.`.`.`.^.^.^.^.^.^.^.^.^.^.^.^.^.`.`.`.`.`.`.`.`.`.`.`.(.y.9.7.:.&.N q 0 k k k k k n n L I o.o.$.;.8.0.t.t.t.r.9.;.X.o.$.8.0.0.0.r.9.9.;.;.-.;.;.8.0.t.0.9.7.-.;.7.9.9.0.0.r.0.0.r.0.9.9.9.9.r.t.r.9.r.9.9.>.P #       . . o   . X .     X o                                             X X     X X       X X X X X O O o o o o o o o o o # ",
"uXuXuXvXuXvXvXvXvXvXvXvXvXbXbXbXvXbXbXbXbXcX2X+X.X|.|.|.|.|.|.|.|.|.|.oX|.}.}.}.}.{.J.H.A.A.x.z.5.3.,.} ' ' / / / ^ ^ ^ / ' ' ' / ' ' ' ' } 5.H.! f [ ,.z.z.g.3.<.| } { ' ' ' ' { ' ' | ,.4.[ [ ,.=.( s ; . P.U.U.U.U.U.U.U.U.U.U.U.U.U.U.U.U.U.d.X - 6 6 =   | Y.U.U.Y.U.U.Y.U.U.U.U.U.U.U.U.U.U.Y.: X o @ # ' U.Y.Y.Y.Y.U.Y.Y.U.U.U.U.U.U.U.U.U.U.U.U.U.U.U.U.U.U.U.U.U.Y.Y.U.Y.T.I.Y.' o q q 7 X + E.I.Y.Y.U.U.U.U.U.U.U.U.U.U.U.C.. X # o o h U.T.I.Y.Y.U.U.U.U.U.U.U.U.U.U...@   @ . Z.Y.I.U.U.U.U.U.U.U.U.U.U.U.U.U.U.U.U.U.U.U.U.U.U.U.U.I.& , t d D ~ { [ ~ S t o o B.U.Y.Y.I.I.Y.Y.Y.Y.U.U.U.U.U.U.U.U.U.U.U.U.U.U.U.U.T.T.U.I.Y.Y.Y.U.U.I.U.3.  ; s S J B = X d.U.U.Y.U.U.U.U.U.U.U.U.U.U.U.U.U.U.U.U.U.U.U.U.U.U.U.U.Y.U.  1 ; S =.w.w.w.w.5.w.c.c.S.)._. X X{.{.{.).).).).).D.D.v.l.F.4Xf.$ u 1.y.c.S.).)._. X X XOX%X&X%XOX X).).D._._.{.{.D.e.6.6.| | | *.[ =.1.4.w.:.:.u.W.W.y.u.y.(.'.$X'.y.7.q.q.7.:.:.>.-.-.-.-.-.&.&.&.&.&.&.X.X.X.X.U U U U U P P K K K K K K K C C C A C C C C C C C c c b n C C C C C C C m L X.Q.#X#X#X#X#X#X#X#X'.'.'.'.#X#X#X#X#X#X#X#X#X#X-X'.(.9.7.7.0.0.9.8.8.t.^.W.t.r.^.`.^.~.1.) m.m.R.R.R.R.j.^ & : & + 1 , 1 1 < + + . . * 2 ( 2.=.2.l.v.x.v.v.D.D.[.[.[.[.[.XXXX.X.X.X.X.X.X.X.X.X.X.X1X1X1X1X2X2X3X2X2X3X3X1X1X1X3X3X3X3X8X8X3X3X3X8X8X8X8X8X8X8X9X9X9X9X9X8XlX8X8X8X8X8X8X2X2X2X2X2X2X2X2X2X2X2X2X2X&X&X&X&X&X*X*X&X%X$X-X'.(.q.7.-.X.C 8 c C l q l l c q q l C N C P P P U ] *.*.] *.,.1.2.2.l.H.|.{.D.c.S.S.W.W.W.W.W.W.W.^.^.^.^.^.`.`.`.`.`.`.^.^.^.^.^.^.^.^.^.^.^.^.^.^.`.`.`.`.`.`.`.`.`.`.`.`.`.t.r.u.q.&.Z b q 0 k 4 4 k n m L o.o.#.;.9.0.Q.Q.Q.t.t.7.#.o.#.8.9.0.t.r.0.9.7.;.-.$.$.$.$.8.9.9.9.7.;.9.9.9.9.0.0.t.r.r.r.r.t.r.0.r.r.t.r.7.9.r.>.N     X         o . o # X       X                                 X           X X X X X X       X X X X X O o o o o o o o o o @ @ ",
"iXuXuXvXuXvXvXvXcXvXvXvXvXvXbXbXbXbXbXvXbXcX2X+X.X|.|.}.|.|.|.|.|.|.|.oX|.}.}.}.J.J.J.D.A.A.H.{.H.{.oX+XoXoXoXoX:X}.J.}.oX:X>XoXoX>X>X:X>X>X>X>X* . { 6.S.J.}.@X>XoXoXoX}.oXoX@XoX+XoXJ.l.,.h h *.,.( V ; o Z.U.U.U.U.U.U.U.U.U.Y.U.U.Y.U.U.U.U.B.o 5 y y a # d.Y.Y.U.U.U.U.U.Y.U.U.U.U.U.U.U.U.Y.P.O   . @   Z.U.U.U.I.T.T.U.I.U.U.U.U.U.U.U.U.U.U.U.U.U.U.U.U.Y.Y.I.U.Y.Y.U.U.Y.U.Y.I.Z.* , 0 7 ; < j.U.T.Y.I.U.U.U.U.U.U.U.U.U.Y.Z.. # 5 # o | U.U.I.U.U.I.U.U.U.U.U.U.U.U.U.R @ o   + E.Y.U.U.U.U.U.U.U.U.U.U.U.U.U.U.U.U.U.U.U.U.U.U.U.U.U.I.7 8 S { z.{.}.J.z.,.J k : I.I.U.U.Y.Y.Y.I.U.U.U.U.U.U.U.U.U.U.U.U.U.U.U.U.U.U.I.I.U.U.U.T.I.Y.U.T.U.P.% l S ( J B =   d.U.U.U.U.U.U.U.U.U.U.U.U.U.U.U.U.U.U.U.U.U.U.U.U.U.U.U.Y.U.  5 X 6 *.4.5.z.w.*.] :.4.q.c.S.).).).).).).S.).).D.S.c.z.6.D.4X>X,.$ B =.q.c.S.S.D.)._._. XOX%XOX X).D.S.S.S.S._.{._.F.H.@XK.J.{.D.w.,.=.=.1.U U i.y.W.y.u.u.(.$X=X'.W.q.u.y.q.:.:.:.>.-.-.-.-.-.&.&.+.X.X.X.X.X.U U U U U P P P K K K K K K K C A C A C C C C C C c c N z z C C C v C C C L L X.W.#X].#X#X'.'.#X#X'.'.'.'.'.'.#X#X#X#X].#X#X#X$X#X^.9.9.;.9.0.7.8.0.^.`.`.(.W.`.`.].(.w.2.m.n.R.R.R.C.f.u : 2 1 O < 1 , + + + + . . 2 u *.2.=.5.l.v.v.v.v.D.D.[.[.[.[.[.[.XX|..X.X.X.X.X.X.X.X.X.X%X1X1X1X2X2X2X2X2X2X3X1X2X1X3X3X3X3X8X8X8X3X8X8X8X8X8X8X8X9X9X9X9X9X9X8XlXlX8X8X8X8X2X&X&X&X&X%X%X%X&X&X&X&X&X&X&X&X&X&X&X*X*X*X=X$X-X'.'.y.9.-.-.X.k 9 q q 9 l l l q 5 q c N C C K U P D ] *.*.( *.1.1.,.,.f.J.H.x.z.c.S.y.y.W.W.W.W.W.W.^.^.^.^.^.`.`.`.`.^.^.^.^.^.^.W.W.W.W.W.^.^.^.^.^.^.`.`.^.^.^.`.^.^.`.^.^.W.y.y.u.>.U Y N 8 4 4 4 k x m M o.o.;.9.r.t.Q.W.W.t.t.7.$.$.;.8.0.Q.t.r.9.9.;.;.-.$.$.$.$.$.$.;.8.7.7.9.7.8.9.0.t.Q.r.r.r.t.Q.t.r.t.r.9.9.9.7.U q X X               o # X                                           X X         X X X X X         X X X X X o o o o o o o o o @ @ X ",
"uXcXvXvXvXvXvXvXuXvXvXvXvXvXvXvXvXbXbXbXvXcX2X+X+X|.}.}.|.|.|.|.|.|.oXoX|.|.}.K.J.J.H.H.D.x.l.5.,.,.3.>X<XT.<X<X<XP.K.}.:X,X<X<X>X<XrXrX,X,X,XK.o . *.1.6.3.,.} x.<X<XoXj ' oX<XT.<X:X^ . B ] =.,.=.&.j 5 # B.U.U.U.U.U.U.U.U.U.U.U.U.U.U.U.U.U.Z.X o ; , ; o h.U.U.U.U.U.U.U.U.U.U.U.U.U.U.U.U.U.Z..       h U.U.U.U.U.U.U.U.U.U.U.T.U.I.U.U.Y.I.j.j.P.U.I.T.Y.U.U.U.U.U.U.U.U.Y.U.Y.U.Y.j # 8 9 o # { U.Y.Y.U.U.U.U.U.U.U.U.U.Y.I.Y.. # - + X j.T.Y.U.Y.U.Y.U.U.U.U.U.U.Y.U.I.  o @ . % U.U.U.U.U.U.U.U.U.U.U.Y.U.Y.U.U.I.Y.Y.U.U.U.U.U.U.U.U.Y./ 2 f =.g.H.K.J.c.| Y & ..I.Y.U.U.U.U.U.U.U.U.Y.I.T.U.U.U.U.P.j.j.P.I.I.I.U.U.U.U.U.U.U.U.U.U.Y.I.T.I.' 8 5 . # 6 5 o d.Y.U.U.U.U.U.U.U.U.U.U.Y.U.U.Y.U.Y.I.U.U.U.U.U.U.U.U.U.I.I.O # 5 V =.1.5.D.@Xx.r * ( =.q.u.S.S.F.D.S.D.(.D.S.S.c.c.w.1.A.<X<XeX' % s *.q.e.y.S.).(.)._. X X X).).S.c.c.c.c.).D.S.5.6.D.:XP.P.G.H.d   H 5.e.w.u.u.y.y.u.q.(.$X=X$X(.y.(.(.u.:.:.>.>.>.>.&.&.&.&.&.&.X.X.X.X.X.U U U U U P P P K K K K K L K K L A A A C A C C C C C C C C C C C C C C A C L 7.`.#X].'.#X#X'.#X'.].].].'.].].].#X#X#X#X#X#X#X$X].u.-.$.-.8.9.-.8.0.^.#X].W.t.^./.#X].w.3.k.R.L.R.L.h.,.; : & # , , @ , 1 + + . . $ u D *.2.2.5.b.x.v.v.v.D.H.H.[.[.[.[.[.[.XX|.|.XX.X.X.X.X.X.X1X%X1X1X1X3X2X3X2X2X3X8X3X3X8X8X8X8X8X8X9X9X8X8X3X8X8X8X8X8XlX9XlX9X9X9XlXlXlX8X8X8X2X%X%X%X$X%X%X X X X%X%X%X%X%X%X%X%X%X&X&X&X&X&X&X$X_.(.].i.&.;.7.L k k 8 q q 9 l q 5 9 9 l c N N C K K U &.,.*.[ *.,.=.*.2.5.1.4.4.e.c.y.y.^.W.W.^.Q.Q.W.^.W.^.^.W.^.^.^.^.^.^.^.^.W.W.t.t.W.t.W.^.^.^.^.^.`.`.`.`.`.(.^.^.(.`.(.^.W.t.t.q.1.>.U N 5 4 z k n m m o.%.0.t.Q.W.^.^.W.W.t.r.7.7.9.r.t.r.0.9.9.8.;.;.-.$.$.-.#.o.#.$.$.;.8.8.0.0.r.Q.Q.t.t.t.t.t.t.t.t.t.q.i.q.:.V X     X               + X                                                                   X X X X X X X + o o X o X o o X X X X X o ",
"uXuXcXvXvXvXvXvXuXvXvXvXvXbXvXvXbXbXvXbXvX8X%X.X+X|.}.}.|.|.|.|.|.|.oXoX}.}.}.K.J.J.J.H.D.z.l.5.,.[ ' J.<X<X<X<X<X<Xg.,.5.g.h.x.D.A.B.K.:X,X,XK.. & *.4.5.5.3.,.} | K.<Xg.e g.<X<X,X<X[   7 H { =.*.( f 5 # ..U.U.U.U.U.U.U.U.U.U.U.U.U.U.U.U.U.Z.X o # , # o B.U.U.U.U.U.U.U.U.U.U.U.U.U.U.U.U.Y.B..     . 3.U.U.U.U.U.U.U.U.U.Y.U.Y.U.I.U.U.P.u . . r P.U.Y.I.U.U.U.U.U.U.U.U.Y.U.U.Y.Y...& & 6 5   r I.Y.I.Y.U.U.U.U.U.U.U.U.Y.I.I.J + o + X Z.Y.Y.U.Y.U.Y.Y.U.U.Y.U.U.Y.U.B.o   @ o g Y.U.U.U.U.U.U.U.U.U.U.I.Y.I.U.U.Y.U.Y.U.U.U.U.U.U.U.U.U...5 d ] 3.g.A.5.,.^ s 1 B.U.U.U.U.U.U.U.U.U.U.I.U.T.Y.I.T.P.r   . $ P.T.U.I.U.U.U.U.U.U.U.U.U.Y.I.Y.I.d.1 o . ; 7 5 o d.Y.U.U.U.U.U.U.U.U.U.U.U.I.U.U.Y.Y.U.U.U.U.U.U.U.U.U.U.T.U.@ ; B ] 1.*.,.3.:X>X:X3.r t ( 1.e.e.c.S.c.D.S.S.S.c.y.e.4.,.z.rX,X,X:X^ o F *.1.e.e.c.S.(.D.[.[.).).).).S.c.c.c.).S.S.e.1.5.:X<XP.oX5.. ; *.e.c.e.u.u.u.u.y.(.'.=X$X$X`.(.'.(.y.q.:.>.:.:.:.-.&.&.&.&.&.X.X.X.U U U U U U U P P P P I K K K K K A A A A A C C C C c C N N N C C C C C C C A C -.W.].].].'.#X].].#X#X].].].`.`.(.`.].#X#X#X#X#X$X$X'.u.-.$.-.X.X.o.O.8.W.#X`.q.7.Q.].].(.z.f.n.wXR.R.R.f.D & & % & 1 , , + + + + . . 2 g ! *.2.2.l.z.x.v.v.v.D.D.H.[.[.[.[.[.[.XX|.|.XX.X.X.X.X.X1X1X1X1X1X1X3X8X3X3X3X8X8X8X8X8X8X8X9X8X8X8X9X8X8X8X8X8X8X9X8X9X9XlX9XlXlXlXlXlXlX8X&X%X%X%X$X$X%X%X-X X X_. X X.X%X%X%X$X%X%X&X&X&X&X&X$X].y.u.q.>.X.-.K c l 9 9 q 9 q q 9 8 8 9 l l l N C K P ( *.,.,.=.[ ) ) ) ! ! *.,.5.y.y.u.y.y.t.t.W.W.W.W.W.W.^.^.^.^.^.^.W.W.W.W.Q.W.t.t.t.t.t.W.W.W.^.^.^.^.^.^.^.`.^.^.^.`.`.^.^.^.t.q.q.:.U s w 0 k k x m L $.8.t.Q.^.^.^.^.W.W.t.t.t.r.t.t.t.t.9.8.;.;.;.-.#.#.$.$.#.X.#.#.$.;.8.9.0.t.Q.Q.Q.t.t.t.t.t.t.t.0.9.q.:.] 5   o X                 X X X                                                                     X X X X   X X o o X o X # # o o o o # # ",
"uXuXiXuXuXuXuXuXuXuXvXvXvXvXbXbXbXvXvXbXbXuX%X.X|.|.}.}.|.|.|.|.|.}.|.oX}.}.}.K.J.J.H.H.v.z.z.5.1.[ ' G.<X<X<X,X<X<X^ . r f j h D ^ E ^ } A.5XH.. : *.4.5.5.6.3.,.[ 3.<X:X^ r oX,X<X<XH.* # J { { =.( S 7 @ { U.U.U.U.U.U.U.U.U.U.U.U.U.U.U.U.U.I.O o # # o X Z.U.U.U.U.U.U.U.U.U.U.U.U.U.U.U.U.Y...O X     G.U.U.U.U.U.U.U.U.U.U.U.Y.U.U.U.Y.j.O O     B.U.I.U.U.U.U.U.U.U.U.U.Y.T.U.U.T.Z.# ; 7 8 . . Z.Y.I.Y.U.U.U.Y.U.U.U.U.Y.Y.U.|     .   I.Y.Y.U.Y.U.Y.Y.U.I.Y.U.U.U.Y.' o   @ o { U.U.U.U.U.U.U.U.U.U.U.I.Y.Y.I.Y.U.U.U.U.U.U.U.U.U.U.U.U.j.o . ; d ! ~ ^ G t .   Z.U.I.U.U.U.U.U.U.U.U.Y.U.U.Y.I.T.B.  O     3.Y.I.Y.U.U.U.U.U.U.U.U.U.U.I.U.U.Z.#     5 7 5 o d.Y.U.U.U.U.U.U.U.U.U.U.Y.Y.I.I.Y.U.Y.I.U.U.U.U.U.U.U.I.T.Y.% 7 F *.1.=.} g.<X<X<X<XH.h % J *.q.y.e.S.c.c.c.c.e.e.w.1.=.A.<X<X,X<X:XQ . Z *.:.w.e.c.S.c.).).D.)._._.S.c.e.c.S.S.S.z.6.,.H.K.K.oX,.. 7 1.e.c.e.u.u.y.y.(.$X=X*X$X#X].'.$X~.u.q.7.:.:.:.:.-.&.&.&.&.&.+.X.X.X.U U U U U U P P P K I K K K L K K A A A A A C C C C C C C N C C C C C C C K X.r.#X#X].].].].].].].`.`.`.`.^.^.^.^.`.].#X#X#X#X$X-X].r.-.X.-.X.L L o.o.0.`.W.7.$.0.^.`.e.z. .k.R.M.k.G.,.r t + * 1 1 1 1 + + + + + $ u G *.2.2.5.z.z.x.v.v.v.D.D.H.H.[.[.[.[.[.XXXX|.XX.X.X.X.X%X1X1X1X1X1X3X8X8X8X8X8X8X8X8X8X8X8X8X8X8X8X8X9X9X8X8X9XlXlX9XlX8XlX8X8XlXlX8XlX8X8X*X*X$X$X-X$X$X-X#X X'.'._.).)._. X X$X%X$X%X%X&X&X&X&X%X-X(.u.q.:.&.X.P K z 8 9 l k 9 9 k 8 8 9 l l l l N Z P U &.*.=.*.[ f.5.} Q ^ *.[ =.q.y.y.u.y.y.y.W.t.;.L x m L -.Q.W.^.^.W.W.W.W.Q.t.t.t.t.t.t.t.t.W.W.^.^.^.^.^.^.`.^.^.^.^.^.^.^.W.y.u.e.:.U N N k k k x m o.$.0.Q.Q.W.^.^.^.W.W.t.t.t.W.t.t.t.r.9.;.;.;.;.-.#.#.#.#.o.X.#.#.#.$.8.9.0.t.t.t.t.t.t.r.0.0.0.9.9.7.:.J ; .       X               X X                                                                       X X X X X X X + o o o o o o o o o # # # ",
"uXiXiXiXiXiXiXiXuXuXuXvXvXvXbXbXvXbXbXvXbXvX2X.X|.}.}.}.}.}.}.|.|.}.oX|.}.}.}.J.J.H.H.D.A.z.z.g.6.,.' A.<X,X<X,X<X>X^   7 S ! ( ( ] { ' ^ } oXJ.: : =.5.5.z.g.5.1.1.[ A.,XF.* 5.<X<X<X<X[ . 7 ] { { ( F 7 @ h U.U.U.U.U.U.U.U.U.U.U.U.U.U.U.U.U.U.1 . o # . X E.U.U.U.U.U.U.U.U.U.U.U.U.U.U.U.U.U...O o X   P.I.U.U.U.U.U.U.U.U.U.U.Y.U.Y.Y.U. .        ..U.Y.Y.U.U.U.U.U.U.U.U.U.U.Y.I.T.E.  ; 7 9 o + 3.I.U.Y.U.U.U.U.U.U.U.U.I.Y.Y.d.      t U.U.U.U.U.U.U.Y.Y.I.Y.I.U.U.I.r X X X . 3.U.Y.U.U.U.U.U.U.U.U.U.U.U.Y.I.Y.U.Y.U.U.U.U.U.U.U.U.U.U.B..   5 F ] *.( F c -   P.Y.U.U.U.U.U.U.U.U.U.Y.U.Y.I.U.T.|         ' I.I.U.Y.U.U.U.U.U.U.U.U.U.U.U.T.P.%     5 7 ; o d.Y.U.U.U.U.U.U.U.U.U.U.U.Y.Y.U.U.I.U.Y.U.U.U.U.U.U.U.U.I.Y.% s ( *.2.,.| J.<XT.<XT.,X}.D . F =.q.e.e.c.c.z.z.e.w.w.1.*.A.K.,X,X<X,XK.^   B *.:.4.e.c.c.c.c.S.S.D.S.c.e.e.c.S.(.S.c.e.1.J.}.L.J.*.o y 4.y.c.c.y.u.W.(.'.=X*X*X$X-X$X$X$Xy.i.:.q.q.7.:.>.-.-.&.&.&.+.+.+.X.U U U U U U U P P P K K K K K L K K A C A A A C C C C C C C C C C C C A A A L -.W.#X].].].].].].`.`.`.].`.^.W.t.t.t.W.^.].#X#X$X$X-X].u.:.-.;.X.L L L L 0.`.W.9.-.r.W.(.c.<.h.R.M.M.k.<.! B : * & 1 + + < + + + + + * G ) 2.2.2.l.z.z.x.v.v.v.v.v.D.H.H.[.[.[.[.{.|..X.X.X.X%X1X1X1X1X1X3X3X3X8X8X8X8X8X8X9X8X8X8X8XlXlX8X8X8XlX9X9X9XlXlXlX8XlXlXlX8XlX8X8X8X8X*X*X*X%X$X-X-X-X-X#X'.'.].'.-X X'.).).'. X X X X%X&X&X&X&X%X%X'.~.q.:.&.U P C c l 9 l l 9 k k 8 8 9 l l l q l B N P ( ( ) [ ,.g.n.f.} ) ) ( ) *.q.u.u.u.:.P 8 3 < O O < x -.W.W.W.W.W.W.W.Q.t.t.t.t.Q.Q.t.t.t.Q.Q.W.^.^.^.^.^.^.^.^.^.^.^.^.^.W.^.y.e.:.] Y A k 4 x x m o.$.0.0.Q.Q.Q.W.^.W.W.^.Q.Q.W.y.y.t.9.:.;.;.;.;.-.#.#.#.#.X.#.#.#.$.%.8.0.t.t.t.t.t.r.r.0.9.7.9.9.7.:.` >   .                       X X                                                                       X X X X X X X + o o o o o o o X o o o # ",
"uXiX6X6X6X6X7X6XiXuXuXuXvXvXbXvXbXbXvXvXbXvX2X.X|.}.}.}.}.}.}.}.|.}.|.|.}.}.}.J.{.H.D.D.x.z.z.5.5.,.' A.,X,X<X<X<X>X^   0 J ( ] *.{ { ,.=.' A.J.g : 1.e.z.z.z.z.w.,.,.} J.5X,.r K.<X<XrX}.> . S ] ] ( F 7 @ % I.U.U.U.U.U.U.U.U.U.U.U.U.U.U.U.U.I.V   # o     I.U.U.U.U.U.U.U.U.U.U.U.U.U.U.U.U.I.' # .   > Y.I.U.U.U.U.U.U.U.U.U.U.Y.Y.Y.Y.Y.' +       | U.Y.U.U.U.U.U.U.U.Y.Y.Y.U.U.I.T.I.o ; w w # # h I.Y.U.U.U.U.U.U.U.U.U.U.Y.Y.C..     { U.U.U.U.U.U.U.U.U.I.Y.U.U.U.Z.    # X . j.I.Y.U.U.U.U.U.U.U.U.U.Y.I.Y.Y.Y.I.Y.U.U.U.U.U.U.U.U.U.Y.Z.  # b U =.:.*.U k o & U.U.U.U.U.U.U.U.U.U.U.Y.U.U.Y.I.U.}     O   ] U.I.U.Y.U.U.U.U.U.U.U.U.U.Y.U.T.I.f     ; 6 = o d.Y.U.U.U.U.U.U.U.U.U.U.U.Y.Y.U.U.Y.B.B.B.B.B.C.C.C.Z.Z.Z.Z.f P &.:.1.,.,.g.<X<X<XT.<X<XJ.j : F &.q.w.w.e.e.w.w.q.4.,.[ g.<X<X<X,X<X<X{.f . F ] 1.q.q.y.e.c.c.c.c.e.e.e.c.S.(.(.c.e.e.6.oXoXL.K.]   B q.y.(._.(.u.W.`.#X$X*X*X*X=X=X*X'.u.:.:.q.q.:.>.>.-.&.&.&.&.+.X.X.X.X.X.U U U U U U P P P K K K K K K C C C C C C C C C C C C C C C C C A K A A L -.^.].`.`.].`.`.`.^.`.`.`.^.t.r.t.0.9.t.^.`.#X#X#X#X$X#X(.r.7.;.$.I L o.$.Q.`.Q.9.8.t.(.y.f.s.k.k.k.R.k.) s B t * 1 1 + + + + + + . + : ( *.2.2.5.l.z.z.b.v.v.v.v.v.D.H.H.[.[.[.{. X.X.X.X.X%X1X1X1X1X1X3X3X8X8X8X8X8X9X9X8X9X9XlXlXlXlXlXlX9X9XlXlXlXlX8XlXlX8X8XlX2X&X8X&X*X8X%X$X X'.'.-X-X'.'.'.].'.).(.].'.#X'.].).).).)._._. X%X&X&X&X%X%X X(.(.:.&.U Z C K C k k k 9 k k 8 8 8 k l q q 9 c c C U ( ( ! ^  .f.f.2./ ) ( ) ( *.q.q.*.y # o O O < O 4 $.Q.Q.Q.Q.Q.t.t.t.t.t.Q.t.t.t.t.t.t.r.Q.Q.W.W.W.^.^.^.^.^.^.^.^.^.^.^.W.^.y.u.4.>.U N b z n m M o.$.8.0.0.t.Q.Q.W.Q.^.^.Q.Q.W.W.y.t.9.;.;.-.;.;.#.#.#.#.#.X.#.#.#.#.$.8.9.0.t.t.r.9.9.7.7.8.8.7.7.:.>.J %         X               X X X X                                                                     X X X X O X X X o o o o o o o o o o o o ",
"iXiX6X6X6X6X6X6XiXuXuXuXvXvXbXvXbXvXvXbXbXiX%X.X|.}.}.}.}.}.}.}.|.}.|.}.}.}.}.J.J.H.D.A.x.z.z.5.1.,.[ A.<X<X<X,X<X<XH   w U ] *.=.,.,.,.1.,.g.F.~ f 6.l.z.z.z.z.l.5.1.,.<.oX@Xr / <XrX,XrX6.% & H ! ( F 7 # . P.U.U.U.U.U.U.U.U.U.U.U.U.U.U.Y.U.U.{   # .   & I.U.U.U.U.U.U.U.U.U.U.U.U.Y.Y.U.U.Y.f   o   d Y.U.U.U.U.U.U.U.U.U.U.U.U.U.T.U.Y.' .     @ ' U.U.Y.U.U.U.U.U.Y.Y.Y.Y.U.I.U.T.Y.: # w 7 5 . + P.U.U.U.U.U.U.U.U.U.U.U.I.Y.P.      ..U.U.Y.U.U.Y.U.U.Y.U.Y.Y.U.U...    # X o C.I.Y.U.U.U.U.U.U.U.U.U.Y.U.U.Y.I.Y.Y.U.U.U.U.U.U.U.U.U.T.I.. , N ` :.4.>.U q - g U.Y.Y.U.U.U.U.U.U.U.U.U.U.U.Y.I.I.' X + , + h Y.I.Y.U.U.U.U.U.U.U.U.U.U.U.U.T.I.' X   ; 6 # o d.Y.U.Y.U.U.U.U.U.U.U.U.I.I.U.Y.Y.T.R       o o + # & & t g P &.=.4.5.1.*.<.A.;X<X<XT.<X<X}.r   U =.1.w.w.5.5.4.4.1.=.[ A.K.<X,X<X<X<XK.D.f . F &.:.q.q.w.e.e.e.w.w.q.w.c.c.c.c.y.e.w.1.J.:XG.oX]   B 4.e.c._.(.u.W.].'.$X*X*X*X*XkX=X].q.:.:.7.7.>.-.-.-.&.&.&.&.+.X.X.X.X.X.U U U U P U P P K K K K K K K Z C C C C C C C C C C C C C C C C A A A L I -.`.].`.`.`.`.`.^.W.^.^.W.r.9.r.9.9.7.r.`.].#X#X#X-X$X-X].y.7.-.X.I o.7.t.`.`.W.r.r.`.(.e.<.L.R.k.R.wXk.D y 6 6 * 1 1 1 + + + . . . * u *.2.2.2.l.b.x.z.z.x.v.x.v.v.H.H.H.[.[.[.{..X.X.X.X.X1X1X1X1X1X1X3X8X8X8X8X8X9X9X9X9XlXlXlXlXlXlXlXlX9X9XlXlXlXlX8X8X8X2X*X8X%X%X&X-X-X-X'.).~.y.c.(.(.~.u.y.u.y.y.~.'.'.#X'.'.'._.).).).(.). X&X*X*X&X%X$X).c.q.&.P K Z P K k 8 k 8 l 8 8 8 8 9 l k 9 9 q q N Z ( ( D G / / } ,.) Q Q ( ] ] =.1.H %     @ @ O k 8.Q.Q.W.Q.Q.Q.t.t.t.t.t.t.t.t.t.r.r.t.r.t.Q.Q.W.W.W.W.^.^.^.^.W.^.^.^.^.^.^.y.y.u.:.&.Y Z A A m M L o.$.8.8.0.0.t.Q.Q.Q.W.Q.W.W.t.t.r.9.;.;.-.;.-.-.#.-.#.#.X.o.o.#.$.%.8.8.0.t.t.0.9.7.-.8.8.8.7.;.;.&.J 7 .   .                     X X X                                             X         X             X X X X X X X X o o o X o o o o o o o o ",
"iX6X6X2X2X2X6X6XiXiXpXuXuXvXvXvXvXvXvXvXvX2X+X|.}.}.}.}.}.}.}.}.}.|.|.|.}.}.}.J.J.H.D.A.x.z.z.5.5.,.' A.<X<X<X<X<X<X^   w J ] *.2.=.,.1.1.<.6.6.,.[ 5.z.z.z.A.z.z.6.4.1.,.A.>X<.$ A.,X,XeXoXf . s H H G 7 3 . Z.U.U.U.U.U.U.U.U.U.U.U.U.U.U.U.U.U...  # .   f U.U.U.U.U.U.U.U.U.U.U.U.U.Y.Y.U.U.U.X   % X ^ Y.U.U.U.U.U.U.U.U.U.Y.U.U.I.U.I.I.^ .     + ' I.Y.U.U.U.U.U.U.U.U.Y.U.U.U.Y.I.Y.j # 9 a 0 o . B.Y.U.U.U.U.U.U.U.U.U.Y.U.Y.I.o     B.U.Y.U.Y.Y.U.U.U.Y.Y.I.T.U.P.S #   O .   Z.I.T.U.U.U.U.U.U.U.U.U.U.U.Y.E.Y.Y.U.U.U.U.U.U.U.Y.U.U.T.U.f , B ] 1.4.=.U q # ^ I.U.Y.U.U.U.U.U.U.U.U.I.Y.U.I.U.Y.^   o . o h U.U.U.U.U.U.U.U.U.U.U.U.Y.U.Y.U.I.| O   = ; # o d.Y.U.Y.U.U.U.U.U.U.U.U.I.U.U.I.U.Y.D O   X = 5 w 7 y s K P >.=.4.w.w.1.=.[ z.:X<XT.<X<X<X:Xl.% . U =.:.1.4.4.1.1.1.*.] g.<XT.<X<X<XP.K.oXA.f % Z >.*.1.4.w.w.w.w.q.q.w.e.c.c.y.y.e.5.,.J.<XK.oX[ . B :.e.c.c.(.y.~.].'.$X*X*XxXkX*X$X(.q.:.:.:.>.-.-.-.&.&.&.&.&.+.X.X.X.X.X.U U U U P P P K K K K K K K K K Z A C C C A C A C C C A A C C C A A A L o.7.`.].`.^.(.^.W.W.W.W.t.r.7.7.9.7.7.9.t.`.#X'.#X$X$X$X-X'.(.q.-.X.X.;.W.`.`.`.`.t.t.(.c.H.L.k.T.R.R.R.s.r c c + + + + + + + . . . $ : H =.,.2.5.b.b.z.z.z.x.x.x.v.v.H.H.H.[.[.[.{. X.X.X.X%X%X1X1X2X3X8X8X8X8X8X8X9X9X9XlXlXlXlXlXlXlXlXlXlXlX9XlXlXlXlX8X8X2X%X-X2X-X-X-X).].~.q.i.i.q.1.>.>.:.*.>.*.1.q.y. X-X X'.'.'._.).).).).(.). X&X*X*X*X&X'.u.q.1.U P Z K K k 8 9 8 9 8 9 8 1 8 9 k q q 8 5 0 N U U ! ( G ^ *.2.[ ) ) ) ! ( *.=.S o   # O O I 9.t.t.t.t.t.t.t.t.r.t.t.t.r.r.r.r.r.r.t.t.t.t.Q.Q.Q.Q.W.W.^.^.W.W.^.^.^.^.^.^.^.y.t.9.>.&.U U A m m M o.o.$.$.8.9.0.t.Q.Q.Q.Q.Q.t.t.t.r.9.;.;.;.-.$.#.#.#.#.X.o.o.I o.$.8.8.9.0.r.r.9.7.;.-.;.8.8.;.;.&.#.J s #     X   X                                                                 X         X X X         X X X X X X X o o # o o o o o o o o o o ",
"6X6X6X&X2X2X6X6XiXuXuXuXuXvXvXvXcXvXvXcX8X%X.X|.}.}.K.K.}.|.}.}.}.}.}.}.}.}.K.J.J.H.D.A.z.z.f.5.4.*.' A.<X<X<X<X<X,X^   l H ] [ 2.,.,.1.5.6.,.5.z.l.l.z.z.z.S.z.g.g.5.i.=.| oX>Xg Q >XeX<XrXz.. ; P D S 7 # . j.U.U.U.U.U.U.U.U.U.U.U.U.U.U.U.U.T...  +     ' Y.U.U.U.U.U.U.U.U.U.U.U.U.Y.U.U.U.Z.O X . X ' T.Y.U.U.U.U.U.U.U.U.Y.I.U.U.T.U.I.~ O     O ' U.U.U.U.U.U.U.U.U.U.U.Y.I.U.Y.U.T.^ , 9 q 6 % o | Y.I.U.U.U.U.U.U.U.U.Y.I.Y.U.h     Z.U.Y.U.Y.Y.U.U.Y.U.Y.I.T.U.E.+ - # O .   I.U.T.U.U.U.U.U.U.U.U.U.U.U.U.B.Y.U.Y.U.U.U.U.U.U.U.U.U.U.I.{ # N ] :.:.=.F 7 O { U.U.Y.U.U.U.U.U.U.U.U.I.T.U.Y.U.U.^ < # =   f U.T.T.I.U.U.U.U.U.U.U.U.Y.U.Y.U.I...O   # : # o d.Y.U.U.U.U.U.U.U.U.U.U.U.Y.Y.I.I.Y.h O # 5 y V F H ( ( ] 1.4.w.e.e.w.u.4.[ [ oX<X<XT.T.<X<X+Xg o s ( :.:.1.1.1.:.=.*.( 5.P.T.<X<X<X<X<XP.oXD.u . F &.=.1.4.w.e.u.w.q.q.w.e.c.e.e.w.1.,.J.G.T.<X[   N =.w.c.y.(.~.(.].$X$X*X*XxX*X$X#XW.q.:.>.:.-.-.-.-.&.&.&.&.&.+.X.X.X.X.X.U U U U P U P P K K K K K Z Z K Z C C C C A A A A A A A A C C Z K K L I X.W.#X`.^.^.(.W.y.t.t.t.t.q.7.;.7.;.9.r.^.].].].#X#X-X$X$X#X(.q.&.X.$.9.^.`.`.^.^.^.`.~.1.,.a.k.R.R.R.a.E g G 2 o % . + + + . . . . $ u ( =.2.2.l.b.b.b.x.z.z.x.x.v.D.D.H.[.[.[.[.{. X.X.X+X%X1X1X1X3X8X8X8X8X9X8X9X9XlXvXlXlXlXlXlXlXlXlXlXlXlXlXlXlXlX8X&X&X%X-X X%X X-X_.~.).w.:.&.>.1.i.i.1.>.+.+.+.:.:.:.y.~.~.~.~.~.~.(.).'.'.(.c._.OX%X*X*X*X$Xc.q.u.:.P Z z C 8 k l 8 8 8 9 8 , 1 8 9 q k l 8 8 q Z B F U G G ~ 2.5.,.) ) ) ! ] =.H %   , 0 ;.t.t.t.t.r.Q.r.t.t.t.t.t.t.t.t.t.r.r.0.r.r.r.t.t.Q.Q.t.Q.W.W.W.W.W.W.^.^.^.W.^.^.W.y.y.u.q.>.U U Y C L L o.o.$.$.%.8.0.Q.Q.Q.t.t.0.9.r.r.r.r.9.:.;.-.#.#.#.#.#.I I I I o.$.8.8.8.9.9.;.-.#.$.$.$.$.#.o.X.I I B ; # #                                                                                 X X X X         X X X X X X O o # # # # o o # o # # o o ",
"7X6X2X&X&X2X2X6X6XiXuXuXcXcXvXvXcXcXcX6X1X+X|.{.K.K.}.}.}.}.}.}.}.}.}.}.}.}.J.J.J.H.D.x.z.l.5.6.1.,.~ A.,X<X<X,X,X>X^   5 U ] [ *.,.1.1.1.w.5.5.w.z.z.F.x.D.x.z.g.g.5.5.,.[ 5.yX{.* z.yXdXyX4X^   c F f 7 < % ..I.Y.U.Y.Y.Y.U.U.U.U.U.U.U.U.U.U.U.j.. X   X } I.U.U.U.U.U.U.U.U.U.U.Y.U.U.U.U.U.Z.. @ .   } U.U.U.U.U.U.U.U.U.U.Y.U.U.U.U.U.U.^ o       ' Y.U.Y.U.U.U.U.U.U.U.U.U.U.U.Y.I.Y.' o 7 N 0 ; & ; I.T.U.U.U.U.U.U.U.U.U.I.Y.I.'   $ I.U.U.U.U.U.U.U.U.U.U.Y.Y.U.j.O 6 q X   r I.Y.U.U.U.U.U.U.U.U.U.U.Y.I.Y.| T.I.Y.U.U.U.U.U.U.U.U.U.U.U...X q ] :.:.*.J w o ..U.Y.U.U.U.U.U.U.U.U.U.U.Y.U.U.Y.U.^ o # # # f U.I.Y.I.U.U.U.U.U.U.U.U.Y.Y.T.U.T.j.    - ; # X d.T.U.U.U.U.U.U.U.U.U.U.U.Y.Y.U.U.U.^ X ; y F ( *.=.1.4.w.e.z.z.z.c.c.e.q.=.] 6.<X<XT.T.T.<X<XH.* . U &.=.:.1.:.:.:.*.] 5.oX<XT.<X<X<XT.<X<XK.A.r % V &.*.4.1.w.w.1.q.q.w.u.u.y.e.w.4.*.D.G.P.J.[   B 1.e.c.y.(.(.].'.$X=X*X*X*X'.].(.y.q.:.>.>.>.>.-.-.-.&.+.+.&.&.X.U X.X.U U U U U P P P K K K K Z K K Z C Z K Z C C Z C C C C A A L K C A L L L X.7.`.`.^.^.W.W.t.t.r.r.q.9.:.;.;.;.;.7.r.W.].'.#X#X#X#X$X$X'.(.9.X.#.7.Q.Q.W.W.W.t.~.~.c.j  .wXL.p.a.k.<.D B c & & + + + + + . . . % 6 B ( *.2.l.b.z.b.l.z.z.z.x.x.v.D.H.D.).[.[.[.[.XX.X.X%X%X%X1X8X8X8X8X8X9X9XlX9XlXlXvXvXvXlXlXvXlXlXlXvXlXlXlXlXlXlX8X1X%X-X X X X%X X~.~.c.w.1.1.1.1.1.>.*.*.1.i.w.c.c.c.c.~.).c.y.y.y.y.(.'.$X X).). X%X&X*X*X$X Xw.1.1.:.C C b k 8 8 q 8 8 8 8 1 1 8 8 9 l C c 8 8 N Z B y G d d S ~ ) *.) ) ~ ( =.:.:.-.>.9.r.r.r.r.r.r.0.t.r.r.r.t.t.r.r.r.r.r.r.r.r.r.t.t.t.t.t.t.t.Q.Q.t.Q.W.W.^.W.W.^.W.W.W.W.y.u.q.4.*.U U I K I X.o.o.#.;.9.0.t.t.t.9.9.9.9.0.0.r.r.9.9.:.;.;.#.#.#.I I I I I o.#.$.$.$.$.$.-.#.X.I X.X.I A A Y A b ; % o .                                                                                     X   X X X X X X X X O + o o o o o # o o o o o o o o ",
"6X4X2X&X&X&X2X6X4X6XiXuXvXvXvXcXcXuX6X&X+X|.|.|.}.}.}.}.}.}.}.}.}.}.}.}.}.}.}.J.H.H.D.A.z.z.5.5.1.=.~ A.,X,X,X,X,X>X^ . 6 U ( [ =.,.,.6.5.5.5.g.v.F.z.A.v.D.v.x.z.z.5.5.1.,.} oX4X,.% oXsXgXaX@X: + s t 7 5 % ' U.Y.U.Y.Y.Y.U.U.U.U.U.U.U.U.U.U.U.B..   o   ..I.U.U.U.U.U.U.U.U.U.Y.U.U.U.U.Y.Y.B.. # o . | U.Y.U.U.U.U.U.U.U.U.Y.U.U.U.U.U.U.^ o       ' Y.U.Y.U.U.U.U.U.U.U.U.U.U.U.U.U.T.} # 6 A s 6 5 & Z.U.U.U.U.U.U.U.U.U.U.U.Y.I...  h U.U.U.U.U.U.U.U.U.U.U.I.Y.I.E w q q = X ^ U.Y.I.U.U.U.U.U.U.U.U.U.U.U.U.' U.I.Y.U.U.U.U.U.U.U.U.U.U.Y.j.X p H *.:.*.Y w # ..U.Y.U.U.U.U.U.U.U.U.U.U.Y.U.U.Y.U.^ + # # X a U.Y.T.U.Y.Y.Y.Y.Y.Y.Y.Y.U.Y.U.I.U.j.    - ; # X d.T.U.U.U.U.U.U.U.U.U.U.U.Y.Y.U.U.U.^ X 6 V ( =.4.w.e.e.c.S.S.S.S.c.y.e.q.1.] { oX<X<X<X<X<X<X:X[ . 0 U &.*.=.=.:.=.*.] z.K.<X,XK.:X<X<X<XT.<X>XD.r ; B ( :.:.1.1.1.1.q.q.w.w.u.e.q.1.*.J.K.K.A.H   V 1.e.e.c.].].'.$X=X=X=X$X$X`.y.y.u.9.:.>.>.>.-.-.-.-.&.+.+.&.&.+.X.X.X.U U U U U U P P K K K K Z Z K Z A Z K C C C Z C C C A A A L K K I L I L X.u.`.`.W.W.t.y.r.r.9.9.q.7.;.-.;.;.8.9.t.`.].#X#X-X$X-X$X$X'.].y.7.7.0.Q.Q.Q.W.W.(.u.c.*.e h.wXk.a.k.k.} u c c & + + + + + . . . . & t B ( =.2.l.b.z.b.l.l.x.x.x.x.v.D.D.D.[.).).[.[.XX X X%X%X1X3X3X8X8X8X8X8X8X9XlX9XlXlXvXvXvXvXvXlXlXlXvXlXlXlXlX8X8X&X%X X X%X X_..X X). X_.c.e.e.c.c.c.c.(._.$X%X*X*X8X8X8X8X*X*X$X-X X'.].(. X$X X_._. X&X*X*X&X%Xc.1.>.&.U C z l 8 8 q 8 8 5 1 , , , 5 8 9 N C l 0 N F F F u u t d D ) [ [ [ ) ~ &.:.:.7.q.9.9.0.0.9.9.9.9.0.0.0.0.r.0.9.0.0.r.r.r.r.t.t.t.t.t.t.t.t.t.t.t.t.Q.W.W.^.^.W.^.^.W.^.W.W.y.u.q.:.&.U U X.X.X.o.o.#.8.0.0.t.r.r.9.9.9.9.9.0.r.t.t.r.9.7.;.-.#.#.U I I I I o.#.$.#.o.o.X.#.#.#.#.I I A A A A q = % % X                                                                                         X X X X     X X X X o o o o X o o o o o o o o o o ",
"2X2X2X&X&X&X&X2X4X6XiXuXuXvXvXcXuX*X%X+X.X{.{.}.}.}.}.}.}.}.}.}.}.}.}.}.}.}.}.J.H.D.A.A.z.z.5.5.1.*.~ A.yXeXyXyXeX5X^   6 H ( [ *.,.,.6.4.6.l.g.z.F.z.D.D.D.v.v.z.z.w.5.5.,.' 5.5X{.r ,.aXdXgXyX=.. & 7 : B & f U.U.U.U.Y.Y.U.U.U.U.U.U.U.U.U.U.U.Z.    X   d.U.U.U.U.U.U.U.U.U.Y.Y.Y.U.U.U.U.U...o , o . | U.Y.U.U.U.U.U.U.U.U.Y.U.U.U.U.U.U.^ o       ' Y.U.Y.U.U.U.U.U.U.U.U.Y.U.U.U.U.T.| # 6 A d 6 6 # ..U.U.U.U.U.U.U.U.U.Y.I.Y.U.B.  ' U.U.U.U.U.U.U.U.U.U.U.I.Y.I.$ ; # ; - X | U.Y.I.Y.U.U.U.U.U.U.U.U.Y.Y.U.r E.U.U.Y.U.U.U.U.U.U.U.U.U.Y.Z.+ q F ] =.*.Y w # ..U.Y.I.U.Y.U.U.U.U.U.U.U.Y.U.U.Y.U.^ o # ; # f U.U.T.U.U.U.U.U.U.U.U.U.I.U.U.I.Y.j.    - ; #   d.Y.U.U.U.U.U.U.U.U.U.U.U.Y.Y.U.U.Y.^ o 6 J *.4.e.c.S.F.)._.).).D.c.e.w.1.1.] ^ g.,X,X,X<XtXsXyXF.% X P ] *.=.=.=.=.*.] A.oX<X<X/ oX:X<XT.T.T.<X:XA.> % F ] *.:.1.1.:.4.q.q.q.w.w.4.1.*.J.:X<XK.! o V =.q.q.y.].'.#X$X$X=X=X$X-X].y.W.r.:.:.>.>.>.>.>.-.-.&.&.&.&.&.X.X.U U U U U U U P P P P K K K Z Z K K Z Z C C Z K K C C K K L L L L I L L L X.7.W.].`.^.W.y.u.q.9.7.7.9.7.;.-.;.;.9.t.^.].'.#X#X-X$X$X$X$X$X'.`.t.Q.r.r.r.W.W.(.`.y.:.u i K.k.k.k.k.j./ g B y + + + + . . + . . . & 6 G ( =.5.l.l.l.l.l.l.x.x.x.v.v.v.v.v.).).).[.). X X-X%X%X&X&X2X2X2X2X&X8X8X8XlXlXlXlXvXvXvXvXvXlXlXlXvXlXlXlXlX8X2X2X%X X X$X X X X X X%X$X_. X X X$X%X%X2X8X2X8X8X8X8XcXcX8X8X8X8X&X%X$X-X).(. X-X X_. X%X&X*X*X*X'.u.>.&.&.C l l q 5 9 9 8 8 5 , , , , 5 8 k N N l N V F H g g u u f D D [ [ *.[ ( *.;.;.7.7.9.9.9.7.7.9.9.9.9.9.9.9.9.9.0.r.r.r.r.r.t.r.r.r.t.t.t.t.t.t.t.t.t.t.Q.W.W.W.W.W.W.W.W.W.t.u.q.:.#.X.#.#.#.#.#.$.;.7.0.0.0.9.9.9.9.0.0.0.0.t.t.t.r.9.7.7.;.;.#.#.X.I I I o.o.#.X.o.I o.o.I I I I Y A Y A q = o o X .                                                                                           X X       X X X o X o o o + o o o o o o o o o o ",
"&X&X&X&X%X%X&X&X4X4XiXuXuXvXvXcXuX&XOX X|.}.}.}.K.K.}.}.}.}.}.}.}.}.}.}.}.}.}.J.J.H.A.x.z.l.5.5.1.*.) D.gXdXdXdXyXyX!   5 J ( *.*.,.,.1.,.5.e.z.z.A.z.A.D.D.D.v.x.z.z.5.5.,.,.[ D.yXg.* +XdXyXgX:X: # % S H 7 o I.U.U.U.U.Y.U.U.U.U.U.U.U.U.U.U.U.P.        h.U.U.U.U.U.U.U.U.U.Y.U.Y.U.Y.Y.U.U.} o # & . ..Y.Y.U.U.U.U.U.U.U.U.Y.U.U.U.U.U.U.^ o       ' Y.U.Y.U.U.U.U.U.U.U.U.Y.U.U.Y.U.T.| # 7 A f 7 y 5 ^ I.U.U.U.U.U.U.U.U.Y.I.T.Y.Z.O ..Y.U.U.U.U.U.U.U.U.Y.U.U.U.B.+ w -       d.U.Y.U.Y.U.U.U.U.U.U.U.U.U.Y.U.o Z.Y.U.U.U.U.U.U.U.U.U.U.I.T.P.. 5 F ] =.&.F w o ..U.Y.U.U.U.U.U.U.U.U.U.U.U.U.I.Y.U.^ o o ; # f U.U.U.U.U.U.U.U.U.U.U.U.U.Y.T.U.Y.h.    - ; #   d.Y.U.U.U.U.U.U.U.U.U.U.U.Y.Y.U.U.U.^ # 7 J *.4.z.F.D.D.D.[.).).S.c.e.5.q.1.*.~ / >X,X,XrXtXsXyX+X:   A U &.*.*.*.*.] ( A.<X<X>Xr f oX<X<X<X<XR.T.oXF.r . s ( &.>.:.=.:.1.4.q.q.q.4.1.*.}.,X,X>X(   s =.1.q.u.(.'.$X$X$X$X=X#X].`.(.`.u.:.:.:.>.>.>.-.&.-.-.&.&.&.X.X.X.U U U U U U P P U P P K P K K K K K K K Z K K K K K K K L L L L L L L L X.7.W.(.].(.(.y.u.q.:.7.7.7.7.7.7.;.7.9.r.W.].'.'.#X#X#X#X#X#X$X$X'.`.t.0.8.-.7.9.t.].y.q.B * R n.L.R.M.k.s.^ S B 9 + + + + + + + . . . & 6 G ( =.w.l.l.l.l.l.l.x.x.x.v.v.v.v.v.v.v.~.).)._. X-X$X%X%X%X%X%X%X%X%X%X8X8X8X8X8XlXvXvXlXlXvXlXlXlXlXlXlXlX8X8X2X&X&X$X X X X X%X X X%X%XOX%X%X%X&X&X2X2X2X8X8X2X8X8X8X8XcXuX8X8X*X&X%X%X$X-X X X_.)._.$X&X*X&X*X$X_.1.+.+.K l k q 5 8 8 8 8 5 , 1 , , , 8 8 8 l N A B B H D Q D u t d G ! ,.2.2.( ( -.;.;.;.;.;.;.8.7.8.;.7.7.7.7.7.7.9.0.0.0.0.r.r.r.r.t.r.r.r.r.r.r.r.r.t.t.t.t.t.Q.Q.W.W.W.W.W.W.t.u.r.:.;.-.-.#.#.-.;.7.7.9.0.0.r.9.9.7.9.9.0.0.r.t.Q.t.r.r.9.9.9.9.;.-.#.I I I o.o.o.I I I o.I I I I K Y Y N w o   X                                                                                                             o X . X o o o X o # o o o o o o o o ",
"%X&X&X%X+X+X+X%X&X4X7XuXpXuXvXcXuX2X%X X{.}.}.K.K.}.}.}.}.}.}.}.}.}.}.}.}.K.J.J.J.D.A.x.z.g.5.5.1.*.) D.gXgXgXgXdXpX(   w Y ( *.*.=.,.,.1.5.5.z.z.z.A.A.D.D.F.v.x.z.z.5.5.4.,.] [ :XaX! D yXdXhXgXc.. t ,.( 7   Z.Y.U.U.U.Y.Y.Y.U.U.U.U.U.U.U.U.U.U.  X     C.U.U.U.U.U.U.U.U.U.U.Y.U.U.Y.Y.U.U.^ X # & . ..U.U.U.U.U.U.U.U.U.U.Y.U.U.U.Y.U.U.^ o       ' Y.U.Y.U.U.U.U.U.U.U.U.Y.U.U.Y.I.Y.| o 7 N d y B w % E.U.U.U.U.U.U.U.U.Y.I.Y.Y.E.  j.Y.U.U.U.U.U.U.U.U.U.I.T.I.{ 1 8 ; . O . B.U.T.Y.U.U.U.U.U.U.U.U.U.U.Y.P.  Z.T.I.U.U.U.U.U.U.U.U.U.I.T.I.& - Z ] *.] F w o 3.U.Y.U.U.U.U.U.U.U.U.U.U.Y.U.I.Y.U.^ o ; w 1 f I.U.U.I.Y.Y.Y.Y.Y.Y.Y.Y.U.Y.U.I.Y.B.    = ; #   d.T.U.U.U.U.U.U.U.U.U.U.Y.Y.Y.U.U.U.^ o 6 F *.1.w.c.S.D.D.).D.D.c.c.e.5.q.1.=.[ h J.,X<XeXrXeXyXyXH   l U ( *.*.*.*.] ( A.>X>X5Xf   ~ oX<X<X<XT.R.<X>XA.u % y +.&.&.*.=.1.1.1.1.1.1.1.*.oXyXeXyX]   A =.i.u.q.u.].$X$X$X$X$X(.y.y.(.].u.:.:.:.>.>.>.&.-.&.&.&.&.&.X.X.X.X.X.X.X.U U P P U U P P P K K K K K K K K K K K K L L L L L L K L L L o.7.^.].`.(.W.W.u.q.q.:.7.;.;.7.9.q.7.r.t.t.^.].'.'.#X#X#X#X#X#X$X$X#X].W.;.X.X.-.>.u.c.w.( e e E R.R.M.M.m.} h G y 2 + + + + + + +     + 1 t J ) 2.w.l.l.l.l.l.z.x.x.v.x.v.l.l.l.l.v.).~.c.c.~.).).).'._.c.c.~.).).[.-X1X2X1X8X8X9X9XlXlXlXlXlX9XlXlX9X9X9X8X2X&X&X%X-X X.X$X%X%X%X%X%X&X%X%X%X%X%X&X2X2X8X2X8X8X8X6X8X8XuXuX8X8X8X*X*X8X8X$X'.).(.). X%X&X&X*X*X$Xu.&.U U z q 9 8 1 8 8 5 1 , , , , , , 1 5 8 l N y B F ( ! Q g u d ( Q ^ [ [ ~ ( -.;.$.;.-.-.-.;.;.;.;.;.;.;.;.7.7.7.0.0.9.9.r.r.r.r.r.r.r.r.r.r.r.r.0.t.t.r.r.t.t.t.Q.Q.W.W.W.W.Q.t.r.r.9.9.7.;.-.;.;.7.9.0.r.r.0.9.7.8.8.8.0.0.r.t.t.t.t.r.9.9.9.9.;.;.#.I I K I I o.I I I I I I K K K Y b w X     o                                                                                                             o X X X o X X O + o o o o o o o o o ",
"+X+X%X%X+X+X+X+X&X4X7XiXuXuXvXvXuXiX2X+X{.}.}.K.}.}.}.}.K.}.}.}.}.}.|.}.}.}.K.J.H.D.A.x.z.z.5.6.1.*.~ J.gXgXgXgXgXbX]   w V U ] *.*.=.=.,.,.1.w.e.z.F.A.D.D.D.D.F.z.z.5.5.6.,.=.[ z.pX).> e.aXgXgXpX( z.6.] s   B.Y.U.U.U.Y.U.U.U.U.U.U.U.U.U.U.U.U.>       Z.I.U.U.U.U.U.U.U.U.U.U.U.U.Y.U.Y.Y.r X # & . ..U.Y.U.U.U.U.U.U.U.U.Y.U.U.U.Y.U.U.^ o       ' Y.U.Y.U.U.U.U.U.U.U.U.Y.U.U.U.I.U...X 6 B V d B s . B.U.U.U.U.U.U.U.U.Y.Y.Y.U.U.% Z.Y.U.U.U.U.U.U.U.U.Y.I.T.I.:   1 ; o # o Z.U.Y.Y.U.U.U.U.U.U.U.U.U.I.Y.Z.  B.Y.U.U.U.U.U.U.U.U.U.U.I.T.U.h # V ( &.] F w . 3.U.Y.U.U.U.U.U.U.U.U.U.U.U.U.I.Y.U.^ o & 5 & f I.Y.U.I.U.U.U.U.U.U.U.U.U.U.U.I.Y.B.    = : #   d.T.U.U.U.U.U.U.U.U.U.U.U.Y.Y.U.U.U.^ X 5 B ( *.1.5.w.e.c.c.c.c.c.c.e.w.q.1.=.[ ^ 5.,X<XeXeXeXeXyX,.. , J U ] *.*.*.] ( D.<X<X>Xg   : | :X>X<X<XK.P.<XoXD.* % Z U &.&.>.=.1.1.1.1.1.=.] }.,XrXyX[   Z >.:.q.i.i.(.'.'.#X-X(.u.7.q.u.W.q.:.q.:.>.>.>.&.&.&.&.&.&.&.+.X.X.X.X.X.X.U U P P P U P P P K K K K K Z K K K K K K K K L L L K K L U L X.t.'.].].(.y.u.r.q.7.>.:.;.;.9.r.q.q.r.W.^.`.'.'.'.#X#X#X#X#X#X$X$X-X].t.7.+.X.U >.4.2.2.i e E j.R.R.M.k.} R G S y & + + + + + + +   . # 9 c U &.1.5.l.b.l.l.l.l.z.x.x.z.l.5.2.5.w.c.c.l.1.1.1.1.1.1.1.1.w.w.w.c.c.c.~. X%X%X1X8X8X9X9X9X9X9X9X9X9XlX9X9X9X8X8X2X2X%X%X%X$X%X%X%X2X1X%X&X%X%X%X%X%X&X2X8X2X3X8X8X6X8X8X8X8X8X8X8X8X2X2X*X&X%X-X'.).). X$X%X&X8X*X%X~.-.+.&.C q 9 8 8 1 8 8 5 5 1 , , , , 1 5 8 8 q c N Z ( ! ^ Q g S [ ~ ^ ~ Q Q ( &.-.-.-.-.-.-.;.;.;.;.-.$.$.-.;.;.8.7.9.0.0.0.0.r.r.9.0.0.0.0.0.0.0.0.0.r.r.r.r.t.t.t.Q.t.W.W.W.t.t.t.t.r.r.9.7.7.7.7.0.r.r.r.9.7.7.;.7.7.8.8.0.r.t.Q.t.t.9.9.7.7.;.;.-.-.#.U I K I X.I I I I I K Y A Y N 5 @                                                                                         X                         X X X X X X X O X @ @ o o o o o o o o ",
"+X+X+X+X+X+X+X+X%X4X4XiXuXuXvXvXcXuX6X+X{.{.}.K.}.}.}.}.K.}.}.}.}.}.|.}.}.}.}.J.J.D.A.x.z.l.5.5.,.*.~ {.gXgXgXBXgXBX(   ; s S H ( ( ] ] [ [ 5.1.w.5.z.z.D.D.D.D.D.z.z.z.g.5.,.,.{ [ 1XpX{ f 2XBXgXaXoX{.z.] o O d.Y.U.U.U.U.Y.I.U.U.U.U.U.U.U.U.U.I.S       P.U.U.U.U.U.U.U.U.U.U.U.U.U.U.Y.Y.I.o - = 5 . 3.U.Y.U.U.U.U.U.U.U.U.Y.U.U.U.Y.U.U.^ o       ' Y.U.Y.U.U.U.U.U.U.U.U.Y.U.U.U.I.U...X 6 V F d F d ; } U.U.U.U.U.U.U.U.Y.U.Y.I.Y.j U.Y.U.U.U.U.U.U.U.U.Y.U.T.Z.o X 9 6 ; @ . E.U.Y.Y.U.U.U.U.U.Y.Y.Y.Y.I.Y.j.  d.Y.U.U.U.U.U.U.U.U.U.U.U.T.I.{ # s H &.] Z w . d.U.Y.U.U.U.U.U.U.U.U.U.Y.U.Y.I.Y.U.^ o ; w y J Y.Y.Y.Y.U.U.U.U.U.U.U.U.Y.Y.Y.U.Y.C.    = : #   d.Y.U.U.U.U.U.U.U.U.U.U.U.Y.U.U.U.U.^   # q V U ] *.=.1.4.w.e.z.c.c.z.w.q.4.1.*.] | >X,X,XeXrX,X,XA.. O F U ] &.*.&.( ! D.eXrXyXS   6 h ,.@X>X,X<X<XK.<XoXA.r   P U &.&.=.:.:.:.:.:.=.] oXeXrXyX(   Z *.:.:.>.:.W.].].`.].u.:.:.:.7.7.7.q.q.i.>.>.>.&.-.&.&.&.&.&.&.X.X.X.X.X.X.U U U P P P P K P K K K K K K K P P P K K K I K K I I K I U U 8.^.].].`.(.y.q.q.:.:.-.-.-.;.9.r.q.r.t.^.`.].'.'.#X#X#X#X#X#X$X$X$X#X`.t.u.>.U H ( *.} s._ ' ' j.R.wXk.a./ g ! G 7 + + , < + + + +   + 1 y B J ] 1.4.l.l.l.l.g.l.z.z.l.f.2.2.2.1.1.1.*.( +.( &.*.+.( ( ( *.1.1.1.w.c.c.).-X%X%X&X2X3X7X9X9X9X9X9X9XlXlX9X9X9X8X8X8X&X%X&X%X%X%X%X1X%X%X%X+X+X+X+X%X%X%X%X2X8X9X8X8X8XuXuXvXcX7X8X8X2X2X&X8X2X%X-X X'. X$X%X&X*X*X%X(.:.&.&.Z l 9 8 8 , 5 8 8 w 5 1 , , , , 8 5 5 9 l N N F ! ) ^ f d ! [ [ ) Q ~ ] :.&.#.#.#.#.#.#.#.#.#.#.#.#.$.-.-.-.7.;.7.9.9.0.0.9.9.9.9.9.9.9.9.0.9.0.r.r.r.r.t.t.t.t.t.Q.W.t.t.t.t.r.r.9.9.r.r.0.9.9.9.9.9.7.7.7.7.;.;.;.;.8.0.t.t.t.t.0.9.9.7.7.;.-.-.-.#.I I I I L L L L A A C N q = X                                                                                           X         X X X X   X . X X X o X X X X @ @ o o # # o o o o o o ",
"+X+X+X+X+X+X+X+X%X4X4XiXiXuXuXvXvXuX2X+X{.}.}.J.}.}.}.}.}.}.}.}.}.}.}.}.}.}.}.J.{.H.A.x.z.g.5.5.1.*.~ {.aXgXgXgXgXBX(   ; t d S h J H ^ ^ ' z.1.y ! z.D.A.D.D.D.A.z.x.z.z.5.l.,.{ ) 2.gX+X7 4.bXgXyX5X}.S.J     ..T.U.U.U.U.Y.I.U.U.U.U.U.U.U.U.U.I.]       P.U.U.U.U.U.U.U.U.U.U.U.U.U.Y.Y.I.Z.  = = 1 . 3.U.U.U.U.U.U.U.U.U.U.Y.U.U.U.Y.U.U.^ o       ' Y.U.U.U.U.U.U.U.U.U.U.Y.U.U.U.U.Y...o 6 V F g J V w r U.U.U.U.U.U.U.U.Y.Y.Y.I.T.{ Y.Y.U.U.U.U.U.U.U.U.U.Y.I.d.X = : 9 : # . I.U.Y.I.Y.U.U.U.U.Y.Y.Y.U.I.Y...  ..U.Y.U.U.U.U.U.U.U.U.U.U.U.I...# 7 H &.] Z w . d.I.U.U.U.U.U.U.U.U.U.U.Y.Y.Y.U.Y.U.^ o : q y V Z.B.B.B.j.j.j.j.j.j.j.j.j.j.j.j.C.j.    5 : #   d.Y.I.U.U.U.U.U.U.U.U.U.U.Y.U.U.U.U.Q   X # w s V F U ] *.1.4.w.z.z.z.e.e.4.1.=.! [ :XtXeXeX,XtXeXJ.. @ F H ( &.&.] ( ! H.>XrXeXg + w d S e.>X>X<X<XT.K.:X:Xz.; # K U +.&.>.>.=.=.:.=.] {.,XrXaX[   Z =.:.>.>.7.y.`.'.`.`.q.:.7.:.:.:.7.q.r.q.>.&.&.&.-.-.&.&.&.&.&.X.X.&.X.X.X.X.U U U U U P P P P K P K K K P P P P P I P P P P P P I U I -.W.].].'.(.W.u.7.9.:.>.-.-.-.;.7.r.q.t.W.^.`.`.].'.'.#X#X#X#X#X$X#X#X-X].`.W.q.+.! g ^ g.K.s._ ' L.R.k.L.k.[ g ( B : $ + < < + + + +   + 5 c Z F ( ,.1.l.l.l.l.l.l.z.z.5.2.*.2.=.*.*.) ! ( ( ( &.*.( ( +.*.:.4.1.2.w.l.c.~. X X-X%X%X2X3X3X7X9X9X9X9XlXlXlX9XlX9X8X8X8X2X&X%X&X%X%X%X+X+X.X+X+X+X+X%X+X%X%X%X%X%X%X%X%X&X&X8X8X8X8X8X2X&X2X2X*X&X*X&X$X X$X%X%X&X&X*X'.q.&.X.K c 9 9 8 , , 8 w 5 5 , < < , 1 , , 8 8 8 0 N S Q ) ^ t t g ) ] ) h Q H =.#.U X.X.o.o.X.X.X.o.X.I o.#.#.#.#.;.;.;.7.9.9.9.7.9.9.9.7.7.7.9.9.9.9.0.0.9.0.r.t.t.t.t.t.t.t.t.t.t.t.r.r.q.r.9.9.9.7.7.7.7.7.7.;.;.-.-.$.$.8.8.0.t.t.t.r.r.9.7.7.7.-.;.-.#.U I L m L C M L A b w = X X X X X                                                                                                 X X X X X o X X X o o X X X X @ o o @ # # @ o o o o o ",
"OXOX@X@X@X@X+X+X+X&X4XiXiXuXuXvXcXiX&X|.}.}.}.}.}.}.}.}.}.}.}.}.}.}.}.}.}.}.}.J.J.H.D.x.z.f.5.4.1.*.] H.gXdXdXdXsXdXA.[ =.3.,.,.3.6.5.g.J.K.F.F   ( e.F.D.D.D.D.D.D.F.z.z.e.6.1.*.[ ( _.BXz.. iXgXaX,XoXz.;   X ( U.U.Y.I.T.U.Y.U.U.U.U.U.U.U.U.U.Y.}     o T.I.U.U.U.U.U.U.U.U.Y.I.T.U.U.U.U.B.X ; w - o d.U.U.U.U.U.U.U.U.U.U.Y.U.U.U.U.U.U.^ o + X X ' Y.U.Y.U.U.U.U.U.U.U.U.U.Y.U.U.Y.U...o 6 V H g ( ( q # Z.U.Y.Y.I.U.Y.U.U.Y.Y.Y.Y.j.U.Y.U.U.U.U.U.U.U.U.U.T.U.D , 6 > 0 y   j I.U.U.T.U.U.U.U.U.U.U.U.U.U.I.|   { U.I.U.U.U.U.U.U.U.U.U.U.Y.U.j.4 7 P ] ] F w X d.Y.U.U.U.U.U.U.U.U.U.U.U.Y.Y.U.U.U.^ # 0 B V F y 9 1 @ o   X o o     # = o 6 6 B F .   w 6 #   d.Y.U.U.U.U.U.U.U.U.U.U.Y.Y.Y.I.I.Y.D O   + # & 5 6 y B P ] *.4.w.e.z.e.w.4.1.*.] ~ :X,XeXrX,XrX,XoX% O B U ] ] &.&.( H J.yXeXyXH   q U H h S.>XyX<XoXK.<X>Xe.] 7 ; Z ( &.&.>.>.=.>.>.( {.yXdXyX]   Z =.:.&.>.q.y.(.].`.u.q.:.:.:.:.:.:.q.q.:.>.>.-.>.>.&.&.&.&.&.+.X.X.+.X.X.U U U U U U P P P P P K K K K P P P X.X.X.K P P P P P P X.X.X.7.`.].].`.~.W.r.7.;.-.&.#.-.;.:.9.r.t.t.^.^.^.`.`.].'.#X#X#X#X#X#X$X$X$X#X'.(.q.*.) R <.L.R.k.k.k.;X;XR.tXR.Q D ! u & 1 + @ @ + + + . + + 9 B B F ( *.1.l.l.l.l.l.l.z.l.4.2.=.*.*.) ( ( ( ( ( ( ( ( ( ( *.*.1.w.w.w.w.w.c.~.).XX X.X.X%X1X1X2X3X8X9XlXlX9XlXlXlXlX9X8X8X8X2X2X2X%X%X+X.X X.X.X X.X+X.X[.D.v.).[.). X X X.X_.[.[.{.%X3X2X&X&X&X2X2X*X*X&X%X%X%X&X%X&X=X$Xq.&.+.U C k 8 k 1 < 5 9 9 1 1 1 + < , 5 , 8 8 9 8 p C G ! ~ u y u Q ~ Q g ! ) &.U U I I L I I I I o.I I o.#.#.#.#.#.$.;.7.7.7.;.;.;.8.8.;.8.7.7.7.9.7.9.9.9.9.9.r.t.t.t.t.t.t.t.t.r.r.r.r.r.r.0.9.7.9.7.7.;.;.;.;.-.#.o.o.#.$.8.0.t.t.Q.Q.0.9.9.r.r.9.>.&.>.&.I A n C m A A q X   # o o X                                                                                                         X X X     X o o X o X X     X o o o o O O O o # # ",
"{.{.oXOXoXOX+X+X+X%X4XiXiXuXuXvXvX8X%X|.{.{.J.}.}.}.}.}.}.}.K.K.}.}.}.}.}.}.}.J.J.H.D.A.z.g.5.6.4.*.~ D.dXsXdXsXsXdXaXpXaXgXgXgXaXaXyXyXeX>X@XS . ( e.F.D.D.D.D.F.D.A.z.z.e.5.4.,.[ ] =.uXuXJ J aXgXyX:X5.% o   > Y.I.Y.U.T.U.Y.U.U.U.U.U.U.U.U.U.U...    > Y.U.U.U.U.U.U.U.U.U.U.U.Y.U.Y.Y.I.j.o ; # X   ..U.U.U.U.U.U.U.U.U.U.Y.U.U.U.U.U.U.^ # # # o ' Y.U.Y.U.U.U.U.U.U.U.U.U.Y.U.Y.Y.U...o w V H S ] ] s = d.Y.U.U.I.Y.Y.U.Y.U.U.Y.Y.Z.Y.Y.U.U.U.U.U.U.U.U.Y.U.E.o @ 6 g A s X ' I.U.U.T.U.U.U.U.U.U.U.U.U.U.Y.^   ' U.U.U.U.U.U.U.U.U.U.U.U.Y.U.Z.< w P ] ] S w X d.Y.U.U.U.U.U.U.U.U.U.U.U.Y.Y.U.U.U.^ # ; V V V V s 7 w 5 = = = # # # w c q d V U (     w 6 #   d.Y.U.U.U.U.U.U.U.U.U.U.I.I.I.U.U.T.E         X X o # 5 r g ( =.1.w.z.z.w.q.1.=.] ! @X,XeXsXeXtX<X>X>   V ( &.*.*.*.] ( J.yX,XyXH   q ( ( ] H F.aX>X>X>X:XH.t : 1.d 7 V U U &.&.*.&.&.( {.yXsXyX(   Z &.&.>.7.q.i.q.y.y.q.7.:.:.:.:.:.:.7.7.>.>.>.-.>.&.-.&.&.&.&.X.X.X.+.X.U U U U U U U P P P P P K K K P P X.+.;.-.+.X.P U X.P X.:.r.r.7.t.`.].].`.W.y.r.9.>.-.-.&.-.-.;.9.r.r.t.t.t.^.`.].].].].'.'.#X#X#X$X$X#X#X'.].).1.2.2.s.k.n.R.R.wXwXqXtXtX .j ] [ u & + + + + + + + . . + 9 c c F ( *.4.w.l.l.l.w.l.5.2.*.,.*.*.*.) ( ) +.( ( ( ( ( ( *.1.w.l.c.c.c.z.l.v.~.).[.[.[. X.X%X1X1X3X3X8X9XlX9XlXlXlXvXlX9X9X8X8X3X1X%X.X.X X X X{..X.XD.l.l.c.v.[.[. X.X.X$X%X&X X[.[._.). X%X%X%X&X&X8X8X6X*X&X%X&X%X&X*X$Xu.&.( U Z z 8 8 1 1 8 8 9 9 8 1 , 1 , < @ 5 5 w w q l S h D H d u ) *.D h ~ [ ] Y Y K A L L I L L I I I I X.#.#.#.#.$.-.;.;.;.;.;.;.;.;.;.;.;.;.;.;.7.9.9.9.9.9.r.r.t.t.t.t.t.t.t.t.r.r.r.r.0.9.9.9.9.7.;.;.;.;.;.-.#.#.X.X.#.-.8.9.0.0.0.0.r.t.r.r.t.9.7.:.&.U I K K n b p ; o   o o X                                                                                                   X         X X X   X o o X   X X X X o o o o o o o O o o # ",
"{.{.{.|. X XOX+X+X%X4X7XiXuXcXvXcX6X+X{.}.J.J.K.}.}.}.}.K.K.K.K.}.}.}.}.}.}.}.{.J.H.D.x.z.z.5.5.1.[ ~ D.yXyXgXdXtXsXaXgXaXpXpXpXaXaXaXyXrXeX4Xg   ] w.F.D.H.H.D.D.D.A.x.z.z.5.6.4.,.[ ~ e.bX).% F.DXaX:XD.d       P.U.Y.U.U.U.U.U.U.U.U.U.U.U.U.U.U.j.    h U.U.U.U.U.U.U.U.U.U.U.Y.U.I.Y.U.U...# o X     ..U.Y.U.U.U.U.U.U.U.U.Y.U.U.U.U.U.U.^ # # # o ' U.U.Y.U.U.U.U.U.U.U.U.U.Y.U.Y.Y.U...o w B H S *.=.F ; j Y.U.U.I.U.I.U.Y.Y.U.U.Y.U.Y.U.U.U.U.U.U.U.U.U.I.U.B.  5 B H H s X 3.I.Y.U.T.U.U.U.U.U.U.U.U.U.U.U.t   J U.Y.I.U.U.U.U.U.U.U.U.U.Y.U.P.. 5 F H ( S w X d.T.U.U.U.U.U.U.U.U.U.U.U.Y.Y.U.U.U.^ o 5 y F U F s d 7 w 5 5 ; ; # # q c B V J ] ]     w 6 # . d.Y.U.U.U.U.U.U.U.U.U.U.U.Y.Y.Y.Y.Y.Y.Y.U.U.U.U.U.U.U.U.Y...h ] :.w.e.c.e.w.4.1.*.! @XyXeXdXtXeX,X>X>   V ( *.*.=.*.] ( {.yX,XaX(   y ] ] ] ! D {.pXyX+X|.D.r z.&X+X6 & V Y U ] *.&.&.U {.yXyX5X(   A &.&.>.:.:.>.>.:.7.:.:.:.:.:.:.:.:.:.:.>.>.>.-.>.-.-.-.&.&.&.+.+.+.&.+.X.U X.X.U U U U P P P P K K K U X.X.-.7.7.-.X.X.X.P X.:.~.`.(.~.`.].`.`.^.y.q.7.:.&.#.#.#.-.-.;.9.r.r.t.t.t.W.^.`.`.`.].'.#X#X#X#X-X$X-X#X#X'.].w.1.) / _ ;XR.wXR.R.R.R.wX} h ,.~ t : . + + O O +   . + + 9 c c G H *.4.w.l.l.w.5.5.2.*.=.2.1.1.*.*.( +.*.>.1.q.w.z.c.c.).).).).).).~.v.v.).D.).[.[.[..X.X%X1X1X2X8X9X9X9X9XlXvXvXvX9X9X7X8X2X%X.X.X X{.[.[.[.v.b.5.w.c.v.).[. X_._. X X X%X&X$X X XD.c.).%X%X%X&X&X6X6X*X*X&X&X%X&X*X&X(.&.U U Z c 8 8 1 1 9 8 9 8 1 1 9 2 , , 5 8 1 8 9 9 l B D ~ ( S D *.,.D Q ! *.] Y Y A A A C M M C L I I I o.X.o.X.X.#.$.-.-.-.$.-.-.$.$.$.$.-.-.;.;.8.7.7.7.9.9.0.0.r.t.t.t.t.t.t.t.r.r.r.0.9.9.9.9.9.7.;.;.;.;.;.-.#.#.X.X.#.#.I n k x m X.8.0.0.9.0.r.r.9.>.&.U K m b b q - o                                                                                         X X                       X X X X     X X X X X o # - # X o @ @ @ o o o o # ",
"{.{.{.|. XoXoXOX+X&X4XiXiXuXuXvX8X&X X{.}.K.K.}.}.}.}.}.K.K.K.K.}.}.}.}.}.}.}.{.J.D.D.x.z.z.5.5.1.[ ~ D.yXyXgXgXdXyXg.[ { ,.,.5.5.6.z.D.oXaX>Xf   *.e.D.H.J.J.H.D.D.F.x.z.z.5.6.,.1.[ ( !  XbX=.J iXpXyX{.4.;     Z.U.Y.Y.Y.U.Y.U.U.U.U.U.U.U.U.U.U.B.    ' Y.U.U.U.U.U.U.U.U.U.Y.U.U.U.Y.I.Y.{ X . o X o d.U.U.U.U.U.Y.U.U.U.U.Y.U.U.U.U.U.U.^ o o o X ' U.U.Y.U.U.U.U.U.U.U.U.U.Y.U.Y.Y.U...# 6 B H J =.4.( w $ E.Y.U.U.Y.I.Y.U.U.Y.U.U.Y.U.U.U.U.U.U.U.U.U.U.T.U.' # 7 U ] ( s X g.U.Y.Y.U.U.U.U.U.U.U.U.U.U.U.U..   s U.Y.I.U.U.U.U.U.U.U.U.U.Y.U.Y.> ; Z H U V w X d.Y.U.U.U.U.U.U.U.U.U.U.U.Y.Y.U.U.U.^ o ; t B q p s 7 5 7 ; ; ; ; o # q d d B J ( &..   w 6 = . d.Y.U.U.U.U.U.U.U.U.U.U.U.Y.I.U.Y.I.Y.I.U.U.U.U.U.U.U.U.U.| s U =.4.w.w.w.w.4.1.=.( oXdXyXyXeX,X,X:X> X S ( *.=.=.=.&.( J.yX>XaX( X q ] *.&.*.( ! c.e.~ g ( ,.&XiXiXD.> o q U U U ( U F D.aXsXyX!   C U U &.&.&.>.>.>.>.>.>.:.:.:.:.:.:.:.>.>.>.-.&.>.>.-.-.&.&.&.&.&.&.+.+.X.U X.X.X.U U P P P P K K K K X.X.X.-.7.7.-.X.+.X.X.:.~.].].].`.].].`.(.y.u.q.>.-.&.#.X.#.-.-.;.7.9.9.r.r.t.W.W.^.`.`.].'.'.'.#X#X$X$X#X#X#X-X'.c.=.,.} R.wXR.M.R.k.R.R.R.' ^ *.D t 6 + o # O   +   . . # 9 y y B F *.4.w.l.l.5.2.2.2.2.1.1.1.1.*.*.*.1.w.c.). X.X.X.X X X X X{.).[.[.v.v.D.[.[.[.[.[.XX.X+X%X1X1X3X8X9X9X9X9XvXvXvX9X9X8X8X1X%X.XXX[.[.[.D.v.l.l.l.z.v.c.z.w.1.*.( +.+.>.:.u.].-X X).).c.v. X+X%X&X2X6X6X6X*X*X%X%X&X*X'.>.P P Z c k 8 8 1 8 9 9 9 9 9 2 < , , 1 1 1 5 8 9 l d D ) J f g [ *.u g G ( U A A A n n m n n M L K L I I I I I o.X.#.#.#.#.#.#.#.#.#.#.$.$.$.-.;.;.8.8.8.7.9.0.0.0.r.t.r.t.t.r.r.r.0.0.0.9.9.9.9.7.7.;.;.;.;.;.;.;.-.#.U U A 3   O O x O.8.9.9.0.0.0.r.9.:.>.U A b C A s ; o .                                                                                       X                 X X       X X X X X       # o # ; ; # X o @ @ o o o # # # ",
"J.{.{.}.oXoX@X@X+X4X6X7XiXuXuXuX2X+X{.{.}.K.K.}.}.}.}.}.K.K.}.}.}.}.}.}.}.}.{.{.J.H.D.x.z.z.5.5.1.*.] D.yXyXdXdXyXaX] . : d d D D ~ ~ h { }.4Xu   :.z.D.D.J.{.{.H.D.D.A.z.z.5.6.4.,.[ ~ h [ bXpXd *.gX+X}.e.U     B.I.Y.Y.Y.U.U.U.U.U.U.U.U.U.U.Y.U.Z.    { U.U.U.U.U.U.U.U.U.U.Y.I.Y.Y.U.I.Y.j   o # # # d.U.U.U.U.U.U.U.U.U.U.Y.U.U.U.Y.U.U.^ X       ' U.U.Y.U.U.U.U.U.U.U.U.U.Y.U.Y.Y.U...# 6 V H J ,.w.] s 2 B.U.U.U.Y.U.U.U.Y.U.U.U.U.U.U.U.U.U.U.U.Y.U.U.T.P.% o 7 ] { H p & B.Y.U.U.U.U.U.U.U.U.U.U.U.U.Y.P.    # U.Y.U.U.U.U.U.U.U.U.U.U.U.U.Y.D & B H U V w X d.Y.U.U.U.U.U.U.U.U.U.U.U.Y.Y.U.U.U.^ X # % : 9 w ; o 2 1 + # + + + + 1 = w l N V J o   6 6 # . d.Y.U.U.U.U.U.U.U.U.U.U.U.U.I.U.Y.U.U.U.Y.Y.Y.Y.Y.Y.Y.Y.I.} 5 K *.4.w.w.e.w.w.4.=.( }.yXyXeX,X,X,XoX%   F ( *.:.:.=.*.] {.yX>X4X(   y ] &.=.&.*.( &.( H ( F ] 6XgXyXpX@X& # q Z U U U U H.gXdXyX!   N U U &.&.&.&.&.>.>.&.>.:.:.:.:.:.>.:.-.>.>.>.&.&.-.-.-.&.&.&.&.&.&.X.X.X.X.X.U U U U P P K K K K K K U +.-.-.7.7.-.X.X.+.i.~.].].].].].].`.(.W.u.q.7.>.&.&.X.U U &.;.;.9.9.9.9.r.r.t.t.W.W.`.].'.'.'.#X#X-X#X#X#X#X-X#X'.c.3.x.k.R.R.wXwXwXR.R.k.R / [ Q u & & + .     O     + & 9 y y y S ) 1.w.l.w.2.2.2.2.2.2.=.1.1.1.1.c.).-X&X%X%X%X%X+XOXOX.X.X X{.{.[.D.D.D.D.D.D.H.[.[.{..X.X+X1X1X3X9X9X9XvXvXvXvX9X9X8X2X%X.X X[.[.[.v.v.b.5.5.5.w.w.*.G 2 + 1 1 l C z P +.X.*.w.~.v.).[.[.|.+X%X&X6X6X8X6X*X&X%X&X*X$Xq.P Z C z k 9 9 2 1 9 9 9 2 2 1 1 1 1 1 , 8 1 + 9 0 7 F ! g u u ! ! u g u H B A p b b b n n n n n n M L I I I I I I X.X.#.X.X.X.X.X.X.X.#.#.$.$.$.$.;.;.8.8.7.0.0.0.0.r.r.r.t.t.t.r.0.0.0.0.9.7.7.7.7.;.;.;.-.;.7.;.:.:.>.U q     3 #.0.0.8.8.9.8.0.0.9.9.:.-.U A b C A p ; .                                                                                                             X X X   X X o o X X X X # o o ; ; o X o + o o o # # # @ ",
"H.J.{.}.oX+X+X+X&X4X7XiXiXuXuX7X%X.X{.}.K.J.K.K.}.{.}.K.K.K.K.K.K.}.}.}.}.}.{.{.J.H.D.A.z.z.5.6.1.*.] D.yXyXdXgXsXgX(   5 V ( ( ] ] [ [ [ z.4X!   1.c.D.H.J.{.J.[.D.D.F.x.z.5.5.,.1.] ' D {.aXBXw.$ D.yX{.z.] 5   3.I.U.Y.I.U.U.U.U.U.U.U.U.U.U.Y.U.Z.    | Y.U.U.U.U.U.U.U.U.U.Y.I.U.Y.Y.U.Y.. @ & 5 = # d.U.U.U.U.U.U.U.U.U.U.Y.U.U.U.Y.U.U.^ X       ' U.U.Y.U.U.U.U.U.U.U.U.U.Y.U.Y.Y.U...# 6 V H J ,.z.*.d 8 ' U.U.T.U.U.U.U.U.U.U.Y.U.Y.U.U.U.U.U.U.U.U.U.I.Z.  # V { ] J 7 % Z.T.U.U.U.U.U.U.U.U.U.U.U.U.U.Z.      I.U.U.U.U.U.U.U.U.U.U.U.U.T.U.| # c J U V w X d.Y.U.U.U.U.U.U.U.U.U.U.Y.Y.U.U.Y.U.Q   @ o . o O X o O X       X     X o o # & 7 d     5 6 #   d.Y.U.U.U.U.U.U.U.U.U.U.T.Y.U.U.U.Y.U.I.U.U.U.U.U.U.Y.Y.I.' 5 Z &.:.w.y.c.e.w.1.*.~ J.eXeXsXrXtX,XH.$   J ( *.:.=.*.*.] J.4X:X4X]   s ] *.=.1.*.*.&.*.&.&.&.( S.pX@XyXaX{.:   N Z P P N _.gXsX>XJ   l J U &.&.&.&.&.&.>.>.>.:.:.:.:.>.>.>.>.>.>.>.>.-.-.-.-.&.&.&.&.&.&.&.+.X.X.X.X.U U U U P P P K K P P X.&.;.7.7.-.+.+.X.:.~.].].'.].].].(.(.^.y.u.q.>.&.&.U U U U #.-.;.;.7.;.7.7.9.9.q.t.W.^.`.].'.#X#X#X$X$X$X$X$X#X#X'.).z.x.s.R.wXwXwXwXR.R.a.R } ~ Q d & o o +     +   + + & 6 y y y u ( 2.w.l.5.2.=.=.*.*.) @.*.1.c.). X%X%X%X&X&X&X2X1X&X&X%X+X+X.X X[.[.H.v.v.v.v.v.H.[.[.{..X.X.X1X3X8X9X9XvXvXvXvX9X9X2X&X%X X X[.).v.v.b.s.5.5.2.1.1.G + v :.:.C r.].X.$.=XQ.P c ( 1.v.[.[. X.XOX%X&X6X6X8X6X*X%X%X&X&Xc.+.Z c l 9 9 9 1 1 c 9 2 2 2 2 + + + 2 , 1 1 , 1 9 9 F B D g g D f g g G H B A w p l b z k z z n n n M A M C L L I I I I I I I o.o.X.X.o.X.#.#.#.$.$.$.;.;.8.9.0.9.0.r.r.r.r.r.r.r.0.9.9.9.7.7.7.7.7.7.;.;.;.;.9.9.9.7.:.&.P P U #.$.$.$.$.8.8.7.8.9.9.:.&.U Z N b q w ; o o .                                                                                             X X         X o o o X X o o # # o o # # o # # # # # o o o + o # # @ @ ",
"H.J.{.{.oX+X%X4X4X4X6X6X7XuX7X&X+X{.{.}.J.J.}.J.{.{.K.K.K.K.}.}.K.}.}.}.}.}.{.J.J.H.D.D.z.z.5.6.1.*.~ D.yXyXdXgXsXaX( o w F ] ] =.=.=.1.,.z.4X] . 5.c.D.H.{.{.H.H.D.D.D.A.z.e.5.4.[ ] ~ l.yXgXgX2Xf ] 4XoXA.1.N   } I.U.Y.I.U.Y.U.U.U.U.Y.U.Y.Y.U.I.I.    ..U.U.U.U.U.U.U.U.U.U.T.I.Y.Y.Y.U.P.  # 6 6 = + d.U.U.U.U.U.U.U.U.U.U.Y.U.U.U.Y.U.U.^ @       ' U.U.Y.U.U.U.U.U.U.U.U.U.Y.U.Y.Y.U...o 6 V H J 4.S.1.J ; u I.U.T.I.Y.U.U.U.Y.U.U.Y.U.U.U.U.U.U.U.U.U.U.U...# & U { { H 5 o E.T.U.I.Y.U.U.U.U.U.U.U.U.U.Y.j.X     Z.U.U.U.U.U.U.U.U.U.U.U.I.T.U...# t V J B w X d.Y.U.U.U.U.U.U.U.U.U.U.Y.U.U.U.Y.U.Q   j T.U.T.T.Y.U.T.U.U.U.U.U.U.U.U.U.U.U.Y.Y.G.* . 5 ; #   d.Y.U.U.U.U.U.U.U.U.U.U.I.I.U.I.Y.Y.Y.T.U.U.U.U.U.U.U.U.T.} 5 p ( 1.e.5.z.w.5.1.*.( K.,XrXsXeXeX,X5.  # J ( *.=.*.*.] ( H.>X>XaX=.  c ] *.1.:.1.1.:.=.=.>.>.*.H +X>X>XgXaXz.o o K c P A D.aXsX>XS   q J &.&.&.&.&.&.&.&.>.>.>.:.:.>.>.>.:.:.:.&.-.>.>.>.&.&.&.&.&.-.-.>.>.&.+.+.+.U U U U U U U P P P P X.&.-.:.9.7.-.-.-.:.u.].].].#X].].`.(.(.y.u.q.7.-.&.X.U U U X.#.-.;.;.;.;.;.7.;.;.7.r.W.^.^.`.`.#X#X#X#X#X#X#X$X-X$X#X_.).|.k.a.R.R.R.R.R.k._ ) ,.^ ! B &   # +     +   . + % 6 7 7 y y ! 1.w.l.4.=.*.*.*.) ( *.w.(. X.X.X%X%X&X1X2X1X2X2X2X2X2X%X%X+X.X{.[.[.v.v.v.v.v.v.v.D.[.[..X.X.X1X3X8X9X9X9X9X9X9X8X2X&X$X X X[.).v.v.l.l.2.*.1.'.(.P 2 q.$X(.K r.$XX.X.kXmX].:.G G 2.c.D.{.|. XOX&X6X6X8X6X*X&X%X%X%X'.:.B c l 8 8 1 2 9 * 1 ( c. X~.*.2 . 1 # # , 8 8 w 9 B G Q g D S r h g G F V c 8 p 0 0 0 0 k z n n n n n n n m C L L L C C L I I I I I I o.o.#.#.#.#.#.-.;.;.7.9.9.9.9.9.9.9.9.9.9.9.9.9.7.7.7.;.7.7.7.7.7.8.7.9.9.9.9.:.&.U A C m M M I #.;.8.8.$.;.:.>.U A l l w 5 o o o o X                                                                                             X X         X X # # o o o + # o o o # # # & & & & & o X X + o o # @ # ",
"D.H.J.{.}.+X%X4X2X4X2X&X6X6X2X+X{.{.{.}.K.J.}.{.K.K.K.}.}.}.}.K.}.|.|.}.}.}.{.J.J.H.D.D.z.z.5.6.1.=.( H.aXdXyXsXdXaX~   6 U ] [ :.1.4.4.,.z.@X,.t z.F.D.H.H.{.[.D.D.D.F.A.z.e.5.1.=.[ [ :XyXyXrXpX_.> D.@XD.=.Y , j I.Y.T.U.U.Y.U.U.U.U.Y.Y.Y.Y.U.I.U.    j.U.U.U.U.U.U.U.U.U.U.T.I.U.Y.Y.I.Z.X # 6 0 = # d.Y.Y.U.U.U.U.U.U.U.U.Y.U.U.U.Y.U.U.^ X       ' U.U.Y.U.U.U.U.U.U.U.U.U.Y.U.Y.Y.U...o 6 V H H 6.).5.] a + Z.I.T.I.Y.U.U.Y.Y.Y.I.Y.I.Y.U.U.U.U.U.U.U.U.Y.r @ 6 ( | *.F w % Y.T.U.I.Y.U.U.U.U.U.U.U.U.U.Y.d.      Z.Y.U.U.U.U.U.U.U.U.U.Y.I.T.Y.B.# t d F B 5 X d.Y.U.U.U.U.U.U.U.U.U.U.Y.Y.U.U.U.U.Q   f Y.I.U.Y.I.I.U.Y.Y.Y.Y.Y.Y.Y.U.T.U.U.I.I.Z.  O ; ; #   d.Y.U.U.U.U.U.U.U.U.U.U.I.Y.T.U.Y.I.I.U.U.Y.Y.Y.U.U.U.U.Y.} o p ] i.u.e.z.w.4.:.&.( K.,XeXrXtX<X,X[   5 U ( &.=.*.*.] ( H.>X>XpX=.  y &.=.:.1.1.:.1.1.:.1.:.*.] ,.J.:X,XyX4Xc.&   c q Z F.yXdX4XS   8 U &.] ] &.&.&.&.>.&.&.>.>.>.>.>.:.>.:.&.P U -.-.&.&.&.&.&.-.-.:.:.:.-.+.+.+.U U U U X.U U P P P P X.-.&.:.r.r.:.7.i.u.W.].#X#X'.].].`.(.(.y.q.q.>.&.X.U U U U U #.-.-.-.-.-.;.-.#.#.-.7.t.^.^.`.`.#X#X#X#X-X-X-X#X#X#X$X'.[.H._ p.R.M.R.R.R.C./ 2.) ) ( B &   1 + O O     . o + 1 6 6 t y ! 1.w.w.4.=.*.*.*.+.*.w.c.). X.X.X+X%X%X%X1X2X7X7X2X2X1X1X%X+X+X|.{.[.D.v.v.b.b.v.v.v.[.[.XX.X.X1X3X3X8X8X9X9X9X9X8X*X%X&X%X.X X).v.z.l.2.=.*.c.nX$XP C &.+.Z l U -.k X.kXmX$X).*.( ) *.5.v.[.|.OX&X2X6X8X8X2X&X%X%X%X Xw.F A c 9 1 2 9 2 2 ( ).8X8XlX%X=.2 & 1 , < , 8 8 9 c ( D g ! t u Q g g B V q 8 8 8 8 0 k k k k n n z z z n m C C C M m m C L L K I I I I o.X.#.#.#.#.-.;.;.7.9.7.9.9.9.9.9.9.9.9.9.0.9.7.7.7.7.7.7.7.7.7.8.7.9.0.9.q.7.&.U A n n n n M I o.o.O.#.$.;.-.Y q q 9 3 X . & o .                                                                                     X X       X X X       . o % % o o o o o X o o o & & & o % & # o X X + o o # # # ",
"H.J.J.{.oX+X>X>X+X&X4X2X2X&X+XOX{.{.}.}.J.K.K.}.}.}.}.}.}.}.}.}.}.}.}.oXoX}.{.{.{.D.D.F.z.z.5.6.1.=.) H.gXsXyXdXsXaX(   9 H ] *.=.1.4.4.6.5.e.e.w.c.D.D.H.H.[.[.[.F.F.z.S.c.w.5.=.[ ^ J.,X>X4XD F.uX*.u oXD.1.J 6 o I.T.Y.U.Y.U.U.U.U.U.U.U.U.U.I.Y.U.r   B.Y.Y.U.U.U.U.U.U.U.U.Y.U.Y.U.T.I.B.+ - 6 7 ; # d.U.U.U.U.U.U.U.U.U.U.Y.U.U.U.Y.U.U.^         ' U.U.Y.Y.Y.U.U.U.U.U.U.U.Y.U.Y.Y.U...o 7 V H ! 6.J.z.[ B = ..U.Y.U.T.U.U.U.U.U.U.U.U.U.Y.Y.U.U.U.Y.U.U.Z.. , > ] ,.{ V # ^ I.I.Y.U.Y.I.U.U.U.U.U.U.U.U.U...    X B.U.Y.U.U.U.U.U.U.U.U.U.U.Y.T.Z.@ 9 s V A ; o d.U.Y.U.U.U.U.U.U.U.U.U.U.Y.U.U.Y.Y.D   f U.Y.U.U.U.Y.U.U.U.U.U.U.U.U.U.U.U.U.I.Y.B.    - 1 o X d.U.Y.U.U.U.U.U.U.U.U.U.Y.Y.Y.Y.U.T.U.Y.Y.Y.Y.Y.U.U.U.U.Y.{ # N ] ,.w.e.z.5.4.=.*.~ }.<XeXeXeXeX>Xg   q U &.*.*.=.*.&.( {.>XyXgX=.  y ] =.1.1.1.1.1.1.1.1.1.*.] H 3.oX<XeX<X>Xz.. % 6 y 5.yX>X@Xd   8 A U U &.&.&.&.>.>.>.>.>.>.>.:.:.>.:.:.U c K -.>.&.&.-.-.-.&.-.>.:.>.-.+.+.+.X.U U U U U U P U U X.+.;.-.7.r.r.i.r.c.~.~.].].'.].].].`.W.y.q.q.>.>.&.U P P P K U X.#.#.#.X.#.#.#.X.U #.7.r.W.^.W.`.].#X#X#X#X#X$X$X$X#X$X X[.s._ R.R.M.R.R.R.d./  .^ / ,.u &   # ,             o & 6 6 6 t ! 1.l.w.1.*.) =.*.*.1.c.).[.{. X.X+X+X+X&X2X1X7X3X1X3X1X1X1X+X.X.X.X[.[.D.v.v.b.v.v.v.v.D.[.XX.X+X1X1X1X2X8X9X8X8X2X2X%X%X%X%X Xv.~.l.5.2.2.c.=XcX*X>.l P P B v U U c u.nX*X'.c.w.w.l.5.l.z.D.{..X%X&X2X6X6X6X&X&X%X%X$X).+.c C 8 9 2 9 9 U u.-X%X1X9X0X3X1.* + , , , 1 3 q N U ( ( J t g g h g d N q 8 8 8 8 8 8 0 8 8 0 0 0 k k b n m m n n n n n m C C L I L I I I o.#.#.$.$.-.;.7.9.9.9.9.9.9.9.9.9.9.9.9.7.7.;.;.7.;.7.7.;.;.;.9.0.r.9.r.q.>.U Y b z n n n M m m o.$.-.;.` V 7 ; o @ X X o .                                                           X                           X             X X     o & & # # X X   X o o X o & # # & & & o o o X + o o # # # ",
"D.H.H.{.oX+X+X+X+X+X&X&X%X+XoX{.{.{.K.K.J.J.K.}.}.}.}.}.}.}.}.}.}.}.}.oXoX}.{.{.{.H.D.D.x.z.l.6.1.=.] H.dXyXyXsXsXyX^   q H ] *.=.1.4.4.6.5.z.z.F.D.D.D._.[.H.D.D.D.F.F.z.z.z.4.=.~ x.>X,X>X1.. ^ 6X X> [ H.6.] 7 o E.T.Y.U.Y.U.U.U.U.U.U.U.U.U.U.Y.U.h   C.U.U.U.U.U.U.U.U.U.U.Y.U.Y.U.T.I.d.+ ; 7 y ; # d.U.U.U.U.U.U.U.U.U.U.Y.U.U.U.Y.U.U.^ o       ' U.U.Y.Y.Y.U.U.U.U.U.U.U.Y.U.Y.Y.U...o 7 V H ! 6.J.z.{ S w h I.Y.I.T.Y.U.U.U.U.U.U.U.U.Y.U.Y.U.Y.Y.Y.U.d.% 1 a =.1.] V ; } U.I.Y.I.Y.I.U.U.U.U.U.U.U.U.U.'       j.U.U.U.U.U.U.U.U.U.U.Y.I.Y.U.I.  5 s V N ; o d.Y.Y.U.U.U.U.U.U.U.U.U.U.Y.U.U.Y.Y.D   f U.Y.U.U.U.Y.U.U.U.U.U.U.U.U.U.U.U.U.I.Y.B.    - 1 o X d.U.U.U.U.U.U.U.U.U.U.U.I.I.I.U.Y.U.U.U.U.U.U.U.Y.Y.Y.Y.Y.' , C ] 4.w.w.e.w.4.:.*.[ oX<X,XeXeX>XoX%   Z U &.*.=.=.*.&.( oXyXyXBX=.  q ] *.1.q.q.q.4.1.1.q.:.=.*.z.x.:X<XrX<X,X5Xe.. . ; 6.>XoXoXd   0 Z U U &.&.&.&.&.&.>.>.>.>.:.:.:.:.-.P c q Z >.>.>.&.&.&.-.&.&.-.>.>.-.&.+.X.X.X.U U U U U U U U X.+.-.-.:.i.7.i.u.~.~.].].].].].].`.(.W.y.q.:.>.&.&.U P K K K P U U U U U X.X.U U X.-.7.r.t.W.W.^.`.].].#X#X#X#X#X#X#X#X'.{.s.s.wXM.R.wXM.R. .} _ R } } u #   o @ O O     .   o & 6 6 6 6 J 1.l.w.*.) *.1.w.c.).[.[.[.[.{.|..X+X%X%X1X1X1X%X1X1X+X.X.X.X.X{.XX[.v.v.v.v.v.v.v.v.v.v.[.[.XX.X.X%X1X%X2X3X3X2X2X&X%X%X%X%X.X[.[.b.2.5.[.).*XmXmX=X+.P ( H F F G i.lX*X'.).).~.c.v.D.v.v.v.).{.OX&X6X6X6X6X2X&X&X%X%X X>.Z C l 9 1 9 2 U w..X1X.Xn.XX8X.X( * 1 < 1 @ 5 9 N H ( U G t D g h g B y 8 8 8 4 4 4 4 8 8 8 0 0 0 0 0 k k k z z b b b b n m M C L L L I I o.X.#.#.$.$.;.;.7.7.7.9.9.9.9.9.9.9.7.7.7.7.;.;.;.;.7.7.7.;.8.8.0.0.9.q.9.&.P N l z n n n n n M o.#.-.;.` s o X o @ X                                                                 X           X               X             X X   o o & & o X X X X X   o . X # o & & & & & & o X X o o # # # ",
"D.H.H.{.{.@X@X@X@X@X+X+X+XoX{.{.J.{.}.K.K.K.K.K.{.{.}.}.}.}.|.|.|.|.oXoXoX}.}.}.{.H.D.D.x.z.z.5.1.=.] D.sXyXyXsXsXyX^   q H ] *.=.1.4.5.5.e.z.z.S.F.D._.D.D.D.D.D.F.F.A.z.z.6.1.[ 5.<X,X>XJ.r . > z.aX,.u z.e.( y o Z.T.Y.U.Y.U.U.U.U.U.U.U.U.U.U.U.Y.^   Z.U.Y.U.U.U.U.U.U.U.U.U.Y.Y.U.T.I.| # 5 f s w # d.U.U.U.U.U.U.U.U.U.U.Y.U.U.U.Y.U.U.^         ' U.U.Y.Y.U.U.U.U.U.U.U.U.Y.U.Y.Y.U...o 6 V H ! 5.oXA.,.H 7 $ E.Y.U.U.U.U.U.U.U.U.U.U.U.U.U.U.Y.Y.Y.U.I.E # 8 s 1.4.] d ; 3.U.U.Y.U.Y.U.U.U.U.U.U.U.U.U.Y.h O .   ..Y.Y.U.U.U.U.U.U.U.U.U.I.Y.U.Y.: 1 7 B N ; o d.U.Y.U.U.U.U.U.U.U.U.U.U.U.U.U.Y.Y.D   t U.Y.U.U.U.Y.U.U.U.U.U.U.U.U.U.U.U.U.I.Y.B.    # 1 o X d.U.U.U.U.U.U.U.U.U.U.U.T.U.I.U.U.I.I.I.I.I.I.I.I.I.I.I.Y.' ; Z ( =.w.z.w.w.1.=.[ | oX<X<X<X>X>Xz.% # Z &.*.=.=.:.*.&.] oXaXdXDX4.  0 ] =.:.1.1.1.q.q.q.1.1.1.*.D.>X;X<X,XeX<X,X>X6.. . ,.>X:XoXd   w A U U U &.&.&.&.>.>.>.:.:.:.>.-.+.U c c c X.:.>.>.&.&.-.-.-.&.-.-.-.&.+.+.+.+.X.U X.U U U P P U X.+.+.+.-.7.7.q.~.~.].].].].].].].`.(.W.r.9.-.&.&.U P K Z Z Z K P P P P I P P P K X.-.;.9.r.r.t.W.^.`.`.'.'.#X#X#X#X#X'.'.+X;XwXk.M.wXR.E.k./  . . .s./ u #   & , O O O O +   . + 6 6 6 : G 1.w.w.[ ~ *.4.l.v.v.).D.[.[.[.XX|.|.+X+X%X+X.X[.).v.c.l.l.2.5.z.v.v.~.c.v.v.v.v.v.v.v.v.D.[.[.XX.X.X.X.X%X1X1X1X1X%X%X%X.X%X X[.b.b.b.~.3X X-X8XnXAX-X=.G G G D *._._.).(.)..X.X X X{.[.[.[.[.{.OX%X2X6X6X6X6X&X&X%X%X%Xq.F A C q 1 9 t P i..XXXb.) @.[.9Xl.$ * + 2 , 1 9 B F ( H B y D g g g y 0 5 5 w 3 3 3 4 4 8 8 4 0 8 4 4 0 k k k k k k k z n n n n A M C I I I o.X.#.#.$.;.;.;.7.;.7.7.9.9.9.9.7.7.7.7.;.;.;.;.;.;.;.;.;.8.8.0.0.0.r.:.&.Z N b n n n n n n M o.#.-.&.V #     X X                                                                               X X X           X             X X X o & & o .   X X X o o . . X X X o & & & & & # X X o o o # # ",
"D.H.H.{.{.}.}.oX@XoXOX|.}.{.{.{.{.}.}.}.K.K.}.}.}.}.}.}.}.}.|.oXoXoXoXoXoX|.|.}.{.{.D.D.F.z.z.5.4.=.~ D.yXeXsXdXsXyX(   q H ] *.=.1.4.6.5.e.z.S.D.F.)._.D.D.D.D.D.F.F.z.z.e.6.=.[ K.rX<X>X[ . % u r +X4Xf ! e.{ d o j.T.U.I.Y.U.U.U.U.U.U.U.U.U.Y.U.U.'   P.U.U.U.U.U.U.U.U.U.U.U.Y.Y.U.T.U.^ # w d s w o d.U.U.U.U.U.U.U.U.U.U.Y.U.U.U.Y.U.U.^         ' U.U.Y.Y.U.U.U.U.U.U.U.U.Y.U.Y.Y.U...o 6 V H ! 6.oXA.3.] 7 , B.I.Y.U.T.U.U.U.U.U.U.U.U.Y.Y.Y.Y.Y.I.U.P.o # 0 h 4.,.] f o h.U.U.Y.U.Y.U.U.U.U.U.U.U.U.U.Y.r O . X | Y.Y.U.U.U.U.U.U.U.U.U.U.Y.U.Y.^ & w s N ; o d.U.U.U.U.U.U.U.U.U.U.U.U.U.U.U.Y.Y.D   t U.Y.U.U.U.Y.U.U.U.U.U.U.U.U.U.U.U.U.I.Y.B.    # 1 o X d.U.U.U.U.U.U.U.U.U.U.U.T.T.Y.U.I.U.Y.T.Y.Y.Y.Y.Y.Y.Y.Y.T.' % V ] =.w.w.e.q.1.*.) <.oX<X<X<X<X>X! . y U &.*.=.:.:.=.*.] @XyXaXDX4.  0 ] =.:.1.1.1.1.1.1.q.q.1.] [ z.>X<X,XtX<X,X,X>X6.. ' >X:XoXu   8 A P U &.&.&.&.&.>.:.>.>.&.+.P Z C c l c l >.:.>.>.&.&.-.&.&.&.-.-.-.#.&.X.U U +.U U U U U U U U X.+.+.-.7.r.W.~.~.~.).].].].`.`.(.(.y.u.:.:.>.Z w A A Z A A A A A K A A A A L K K U #.#.-.;.;.r.t.^.^.`.'.'.#X#X#X'.#X'. X|.;XwXR.R.R.M.Z.| [ d.V.k.k.' u 5   + , O O O O +     + 5 5 2 : B 2.w.w.*.[ 5.c.v.v.b.v.D.H.H.H.[.|..X.X X[.).).[..X%X-X X|.).l.1.1.l.v.z.c.c.v.v.v.v.v.v.v.v.[.[.{..X.X.X%X1X1X1X1X%X%X.X X XXX[.2.5.b.l.v.l.l.c.~.).[.c.l.1.1.z.c.c.). X.X+X.X.XOX.X{.[.|..X.X.XOX%X2X6X6X6X6X2X&X%X%X%Xc.H c Z c 1 9 2 H 1.XX.X~.2.@.m..X.Xu 2 1 1 1 5 9 B F U H B S S u g g y w 5 w 3 3 3 3 3 3 8 8 4 4 8 8 0 0 0 0 8 0 k 0 0 z b b n b n n M L L I I I o.X.#.$.-.;.;.;.;.7.7.7.7.7.7.7.7.7.;.;.;.;.-.$.$.#.$.8.8.0.0.0.9.:.&.Y A N C C b b n n L I #.U B o     o                                                                                   X                       X         X # # o .       X X X o . . X . X & & & o & & # # X o o o # # ",
"D.D.H.J.J.{.}.oX@XoX}.{.{.}.}.K.}.}.}.}.}.}.}.}.}.|.|.|.|.|.oXoXoXoXoXoXoXoX|.}.{.{.D.D.S.z.z.5.4.=.] F.rXrXeXsXtXyX^   q H ] *.=.1.4.5.5.e.z.x.D.D.D.D.D.D.D.D.F.F.z.S.z.6.5.{ A.,X<X<X3.. % d u j | H.,.> =.{ d # ..U.U.I.U.U.U.U.U.U.U.U.U.U.Y.Y.U.|   I.U.Y.U.U.U.U.U.U.U.U.U.Y.U.U.U.Y.r # 7 f B w o d.U.Y.U.U.U.U.U.U.U.U.U.U.U.U.Y.U.U.^ o       ' U.U.Y.U.U.U.U.U.U.U.U.U.Y.U.Y.Y.U...o 6 V H ^ g.oXJ.g.{ s 8 } I.Y.I.U.U.U.U.U.U.U.U.U.U.Y.U.Y.T.I.U.B.X 5 7 ] 6.1.] t o Z.U.Y.U.U.U.Y.U.U.U.U.U.U.U.U.U.. X o O ' U.U.U.U.U.U.U.U.Y.U.I.Y.Y.U.Y.| # 6 s q ; o d.Y.Y.U.U.U.U.U.U.U.U.U.U.Y.U.U.Y.U.D   t U.Y.U.U.U.U.U.U.U.U.U.U.U.U.U.U.U.U.U.Y.B.    # 1 o X d.U.U.U.U.U.U.U.U.U.U.U.U.U.U.Y.U.Y.T.T.Y.U.U.U.Y.Y.Y.Y.T.} 6 V ] 1.5.5.w.q.1.=.^ g.K.P.<X<X:XD.% . F ] *.=.:.:.1.:.*.] oXyX,XgX1.  w &.=.1.i.i.i.q.q.q.w.1.q.1.] ~ x.:X,X<X,X,X<X:XyX,.} oXoX{.r   q Z U U U U U U P P Z Z K Z C l N A N A q C >.-.&.&.>.-.&.&.+.+.+.+.-.$.$.&.+.+.X.U U U P U U U X.X.&.:.r.W.W.~.~.~.`.].].].].].`.`.(.u.q.q.:.&.Z N A A A A A A A N C N b N C C A K I U U #.#.-.9.r.t.^.`.].'.#X#X#X#X'.].'.[.;XwXE.E.T.wXR.R 5.P.C.j.d.} t 5 . + 1 O O O O +     + 1 2 2 2 u 2.w.w.) ,.w.l.l.z.v.D.D.D.H.H.[.[.[.D.c.). X_.).c.c.e.e.c.c.c.c.w.2.5.w.l.b.v.v.v.b.b.v.v.v.v.[.[.XXXX.X.X:X1X1X%X%X.X.X X X{.XXb.b.b.b.b.l.b.l.l.z.z.v.v.).[. X X X%X%X1X1X%X+X+X+X+X.X+X%X%X+X%X&X2X8X6X8X6X2X&X%X%X%X).&.y c A 9 2 $ P 1.c..X.Xb.s.m.n.MX2.* 1 1 , 5 9 N Z U U S S S g h g y 6 5 5 3 3 3 3 3 3 3 3 4 4 8 8 8 8 4 8 4 8 8 8 8 0 k k b k b b n M A I L I o.X.#.#.-.-.;.;.7.7.7.7.7.7.7.7.7.7.;.;.;.-.-.$.#.$.$.$.8.7.0.0.9.9.-.U A N l C C n b b A I Y q X           X                                                                               X X                     X         X # # X .       X X X X o . X X o & ; & & & ; ; # # # o o o # ",
"D.D.D.J.H.{.{.}.}.{.{.{.{.}.{.{.}.}.}.}.}.}.}.}.|.oXoXoXoXoXoXoXoXoXoXoXoXoXoX|.|.{._.D.S.z.e.5.4.=.' A.,X,XeX,XeXrXH   q H ] =.,.1.4.5.5.e.z.z.c.F.F.F.D.D.D.D.A.F.S.c.w.4.' g.>X<X<XJ.f % t d S r D [ ^ r d *.S ; { Y.Y.I.U.U.U.U.U.U.U.U.U.U.Y.U.U...- U.U.Y.U.U.U.U.U.U.U.U.U.Y.U.Y.U.U.$ # y g V 7 o d.U.Y.U.U.U.U.U.U.U.U.Y.U.U.U.Y.U.U.^ o       ' U.U.Y.U.U.U.U.U.U.U.U.U.Y.U.Y.Y.U...o 6 V H ! g.oXK.g.| F ; r U.Y.I.U.U.U.U.U.U.U.U.U.I.Y.U.U.T.U.Y.{ , ; t ,.6.4.( t o E.I.T.Y.Y.U.Y.U.U.U.U.U.U.U.U.P.  o X o h U.U.U.U.U.U.U.U.U.U.U.Y.Y.I.Y.d.X ; t q ; o d.Y.Y.U.U.U.U.U.U.U.U.U.U.Y.U.U.Y.U.D   f U.Y.U.U.U.U.U.U.U.U.U.U.U.U.U.U.U.U.U.Y.B.    # 1 o X d.U.U.U.U.U.U.U.U.U.U.U.I.U.T.T.Y.I.I.I.U.U.U.U.U.U.U.U.I.{ 6 P >.1.w.5.e.q.1.*.^ J.K.K.<X<XoX! . y ( ] =.=.:.1.1.=.*.] }.,X,XyX,.  w &.:.1.1.q.q.q.:.*.1.u.w.1.:.*.) D.>X>X<X<X<X<X>X:XG.<XK.J.:   q A K Z C N C C b l N C Z A N q N A 0 q 0 &.>.:.>.&.P K C C C C C C z L X.-.:.>.&.+.+.+.+.U U X.+.&.7.r.u.~.W.~.~.`.].].].`.`.`.`.(.y.q.&.>.&.U U Y A A A N N N N N b p b b C A K K P U U X.#.-.7.9.r.Q.^.`.'.'.'.#X].'.#X'.D.;XdXM.M.tXwXG.' <XP.V.j.j.<.f w % % + O O O O + O   + 1 1 & 2 u 2.w.5.) 2.z.z.z.v.v.v.v.v.H.H.D.z.z.c.).e.1.H B 6 9 & & 6 *.q.>.*.2.*.,.2.l.v.H.v.b.b.v.v.v.n.[.[.XXXX.X.X.X1X1X%X%X.X.X.X{.[.XX[.[.[.v.v.b.l.z.v.v.v.v.[.D.[. X.X+X X.X+X%X%X%X+XOX+X%X%X%X%X%X1X2X2X8X8X6X6X6X2X&X%X%X X1.B 9 B c c 2 +.w.c.1XXXb.m.s.b.zX~.* 1 8 , 1 9 B Z P U F S S D D g t q 5 5 3 5 5 3 3 3 3 3 3 3 3 3 3 3 3 w 4 8 8 8 8 0 0 0 l 0 b b n M A K I I I X.#.#.-.;.-.;.;.;.8.8.7.7.7.7.7.7.;.;.;.;.;.$.#.$.#.o.$.8.0.0.9.:.-.#.Z N l b l 0 k b n A = X               X                                                                       X X X X X X X X   X   X     X X X       X # o . . . X   X X X X X X X X # & ; & & & ; ; # # # o # o # ",
"D.H.H.J.H.{.{.{.{.{.{.{.}.}.}.{.}.}.}.}.oX|.|.|.oXoXoX+XoX+X@X@XoXoX+X+XoXoXoX|.|.{.[.D.D.z.e.5.1.=.' A.,X,X,X,X,X,XH   q H ] *.1.1.4.5.w.e.z.z.c.F.S.c.F.D.D.D.D.S.x.z.5.,.| K.<X<X>X[ . & d D h ! h D z.z.> H J w f U.U.U.T.U.U.U.U.U.U.U.U.U.Y.U.U.j.7 I.U.U.U.U.U.U.U.U.U.U.Y.Y.U.Y.U.Z.. ; s S V w # d.U.Y.U.U.U.U.U.U.U.U.Y.U.U.U.Y.U.U.^ o       ' U.U.Y.U.U.U.U.U.U.U.U.U.Y.U.Y.Y.U...o 6 V H ! f.:XoXA.3.! ;   Z.Y.U.U.U.U.U.U.U.U.U.U.U.Y.U.U.T.U.P.r , & D 5.5.,.U : & I.I.T.U.Y.I.U.U.U.U.U.U.U.U.U.Z.  o X o > U.Y.U.U.U.U.U.U.U.U.U.U.Y.I.Y.B.X & 6 0 ; o d.U.U.U.U.U.U.U.U.U.U.U.U.U.U.I.Y.U.D   f U.Y.U.U.U.U.U.U.U.U.U.U.U.U.U.U.U.U.U.Y.B.    # 1 o X d.U.U.U.U.U.U.U.U.U.U.U.U.Y.T.Y.U.U.U.Y.Y.Y.Y.U.U.Y.Y.Y.Y.<.V U >.i.q.e.w.1.:.[ 3.K.K.K.P.oXz.. # U ] =.:.:.1.1.1.=.*.[ }.<X,X,X,.. 6 &.=.1.q.q.q.i.*.F :.u.q.q.q.*.] H F.+X:X<X<X<X<X;X<X<XK.H.>   8 q 0 q l N Z K C C N N N q q q N A N N N #.X.U K N C z k q q l l q 0 8 z X.9.r.7.:.r.i.:.+.X.&.i.q.u.W.W.W.~.~.~.~.`.~.`.`.`.`.`.^.q.r.:.&.U U U C N N p p b p p b q p p b C A K K K I U I X.$.;.7.9.t.W.`.].].].].].'.]._.{.G.wXR.a.p.a. .' R.j.a.j.a. .t & . .   O O O O + O O + + & & : u 1.w.5.2.5.l.b.v.v.v.v.x.v.x.l.w.w.w.w.*.G 2 + 8 P q o &.P u.nX*X1.( ( ) *.2.b.v.b.l.b.b.v.v.n.[.[.XXXX.X.X%X1X1X%X%X%X.X.XXXXX[.XX[.[.).~.v.b.v.v.v.[.[.XX[..X+X.X%X1X1X2X1X%X&X&X&X&X&X&X1X2X2X2X2X2X8X8X6X6X6X6X&X%X$X Xc.( 9 v A v y *.c.c.1X~.b.b.m.m.0X%Xu 1 2 # 5 9 c A F P H F G S D g t 7 5 1 , , , , , 3 3 3 3 3 3 3 3 3 3 w 4 4 8 8 8 0 0 0 k 0 l b n m n C L I I I X.#.#.#.$.-.-.-.-.;.;.;.;.;.;.;.;.-.;.;.-.#.#.#.X.o.#.8.7.7.-.#.#.U K b q 0 8 4 k b w 5                                                                                             X   X X X X X X X X X     X           X o X . . . X     X X X X X X o # & & & # & ; ; # # X o # # # ",
"D.H.H.J.J.}.}.}.{.{.J.J.{.{.{.{.|.|.|.|.oXoX|.|.oXoX+X+X+X+X+X+XoX+X+X+X+X+XoX|.|.{.[.D.D.z.z.w.4.,.[ A.<X<X,X,X,X,XD   q H ] =.1.1.4.5.w.e.z.z.z.z.5.4.z.F.F.D.F.x.z.w.1.[ J.<X<X,XA.r . U ( ~ ^ h D h A.@X*.& J 0 . I.U.U.T.Y.U.U.U.U.U.U.U.U.Y.I.U.B.d I.U.U.U.U.U.U.U.U.U.U.U.Y.I.U.Y.Z.+ = d S F 7 # d.U.Y.U.U.U.U.U.U.U.U.Y.U.U.U.Y.U.U.^ o       ' U.U.Y.U.U.U.U.U.U.U.U.U.Y.U.Y.Y.U...o 7 V H ( g.>X:XH.5.~ f   j.I.Y.U.U.U.U.U.U.U.U.U.U.T.I.Y.T.I.Z.. < r | z.f.=.H ; t U.U.T.Y.U.I.U.U.U.U.U.U.U.U.U.B.O .     . I.Y.U.U.U.U.U.U.U.U.U.Y.Y.U.Y.Z.X & 6 0 ; o d.U.U.U.U.U.U.U.U.U.U.U.U.U.U.U.Y.U.D   f U.Y.U.U.U.U.U.U.U.U.U.U.U.U.U.U.U.U.U.U.B.    # 1 o X d.U.U.U.U.U.U.U.U.U.U.U.U.U.I.I.I.Y.h           X o o # r B P &.=.4.w.w.4.:.1.[ J.K.L.J.K.K.f   K &.*.,.1.1.1.1.1.=.*.[ K.<X<X<X|   5 &.>.1.q.q.q.u.q.i.q.u.q.q.i.:.:.] ] S.oX<X<XT.<X;X<XT.T.H.>   3 = l c N c C C C C C C A B N N N q l N b q N l k l z k k q k l l 9 5 8 8 8 l z X.7.W.u.r.q.r.u.u.i.&.:.:.t.W.W.~.~.~.~.`.`.`.`.`.y.u.:.>.X.U P C Z b q q p N p q q q q p b b A K K K K I K I #.-.7.9.r.W.`.].].`.`.].#X'.].F.<.R.wXM.a.k.R a.p.a.k.k.a. .g 6 . .   O     O O O O + + + + & u 1.w.5.2.5.l.v.v.v.x.b.x.b.f.2.4.w.=.D F 9 2 9 :.$X9.w `.:.7.mXmX).w.1.*.) 2.l.v.b.l.l.b.b.v.v.n.[.[.XX.X.X1X1X1X%X%X.X%X.X.X XXX.X.X X[.[.[.[.[.v.[.[.[.XX.X.X%X1X2X%X2X2X1X2X7X2X2X2X2X2X8X2X2X2X2X8X8X8X8X6X6X6X&X%X$X$X_.:.y c c v c i.).c.XXb.~.b.m.m..X9X( 2 + 1 6 q y V Z J U H J D D u t 6 5 # , , , , , , , 3 3 3 3 3 3 , 3 3 3 3 3 8 8 8 8 8 0 8 k k b b b n L L I I o.X.#.X.X.#.-.-.-.;.;.;.;.;.;.;.-.-.-.-.#.-.#.X.X.X.X.X.#.o.I A I I A k 8 0 0 8 0 w #         X X                                                                                                   X X X             X   X X .     o       X o X o X X & ; ; ; & # & & ; # X X o # # # ",
").).[.H.H.J.{.{.{.}.{.}.}.}.{.J.}.}.}.|.|.|.|.|.|.|.|.oX+X@X@X+XoX+X+X@X+X+XoX.X{.{.[.D.S.c.z.w.4.,.' A.>X,X<X<X<X,X^ . 7 ] *.=.1.4.4.5.e.w.5.5.F.{.] f e.c.S.S.S.z.e.1.,.g.<X,X<XoXu % B ] *.*.! ^ R R / {.c.> 5 a + Z.U.I.U.Y.U.U.U.U.U.U.U.U.U.U.U.Z.^ U.U.U.U.U.U.U.U.U.U.U.U.Y.U.U.Y.B.X # y g S 7 o ..Y.U.U.U.U.U.U.U.U.U.Y.U.U.U.U.U.U.^ X       ' U.U.Y.U.U.U.U.U.U.U.U.U.U.Y.Y.I.U...X 7 V H ^ x.>XT.K.g.[ g . ! Y.I.U.U.U.U.U.U.U.U.U.U.U.U.I.I.T.4.. & J 3.f.5.=.B @ ' U.I.T.Y.I.U.Y.U.U.U.U.U.U.U.U.j.+ X     . E.T.U.U.U.U.U.U.U.U.U.T.T.Y.U.I.. 3 ; 6 - X d.U.U.U.U.U.U.U.U.U.U.U.U.Y.U.U.U.U.Q   > ,.,.,.B.U.I.U.U.U.U.U.U.U.U.U.U.U.T.I.Y.B.    # 5 # . d.Y.U.U.U.U.U.U.U.U.U.U.U.Y.Y.U.Y.U.E     o X # ; ; w q Z U ] =.1.w.4.w.4.=.[ 5.oXK.J.J.H.[ . y ( >.:.1.1.1.,.:.1.:.*.[ J.T.T.T.,.. 5 &.=.q.q.q.q.u.q.u.u.u.q.&.J U U U H g z.oX<XT.<XK.K.K.K.}.r   1 8 8 0 l A C N C K A C N N A A V s N N l l q l N N l q 0 8 8 8 8 5 5 5 5 8 8 8 8 8 X.7.q.q.y.q.>.q.C q 9 q C X.7.Q.W.W.`.].].`.W.t.q.>.#.U P Z C N q 8 5 5 w 0 0 q q w 3 , 8 n A A A Z Y K I X.#.-.7.9.t.`.(.(.].`.`.].`.].D.<.C.tXR.E.d._ a.a.j.M.a.a.} u :   . .             O + @ + & 2 y 1.w.5.2.l.b.v.v.x.b.b.l.f.,.*.1.( u ( 1.F 9 y =.:.G 2 P Z :.cXcX-X~.v.l.5.2.2.b.b.f.l.b.b.b.v.v.n.[.XX.X.X.X1X1X1X.X.X.X.X.X.X.X.X+X.X.X.X X X XXX X X.X.X.X%X%X%X&X2X2X2X2X2X2X2X6X6X8X8X8X8X8X8X8X8X8X9X8X6X8X8X&X&X$X$X Xq.c c P +.:.~.).u.~.~.XXb.m.m.XXzX*.$ 1 2 8 c Z y Z P U U J G D h t 6 9 , , # # = # @ @ , , , , , , 3 3 3 3 3 3 3 3 4 8 8 8 8 0 0 k b b b m A I I I o.o.X.X.#.#.#.#.#.-.;.;.;.;.-.-.-.#.#.#.#.#.X.o.X.X.o.I M b n n n n q 0 0 8 w 5 = X                                                                                                               X X                   X X . . . .   X     o # o # & ; & # & & % o & ; # X X o # # # ",
").[.{.J.J.{.{.}.}.}.}.}.}.}.{.{.{.{.{.}.}.}.}.}.|.|.|.oXoX@X@X+X@X@X@X+X+X+XoX XoX{.).D.S.z.c.e.w.=.[ x.<X<X<X<X<X>X[ . 5 P &.1.1.4.6.4.4.w.6.,.{.D.f d e.e.z.z.c.z.5.,.,.:X,X<XK.,.. t ] *.,.,.[ ~ R R h 6.).(   ; 1 Z.I.U.I.U.U.U.U.U.U.U.U.U.Y.U.U.Z.' U.U.U.U.U.U.U.U.U.U.U.I.U.U.U.Y...# ; t g g 7 # ..Y.U.U.U.U.U.U.U.U.U.Y.U.U.U.U.U.U.^ X       { U.U.Y.U.U.U.U.U.U.U.U.U.U.Y.Y.I.U...X 5 V ( ~ x.>X<XP.g.,.S X . I.U.Y.U.U.U.U.U.U.U.U.U.Y.U.I.U.U.g o s { 5.g.6.] ;   | Y.I.T.Y.I.U.U.U.U.U.U.U.U.U.U....     O   B.Y.U.U.U.U.U.U.U.U.U.T.T.Y.U.Y.t # ; 6 - X d.Y.Y.U.U.U.U.U.U.U.U.U.U.Y.U.U.U.U.Q     %     j.Y.U.Y.U.U.U.U.U.U.U.U.U.U.T.I.U.B.    # 5 = o d.Y.I.U.U.U.U.U.U.U.U.U.U.Y.Y.U.U.U.Q     X 5 w s N F U U *.=.1.4.e.e.1.1.*.] J.oX<XJ.D.[ . 6 ( >.:.q.1.1.1.1.1.1.:.=.[ H.K.<X<X,.  w &.=.1.q.u.u.u.u.w.u.y.1.c.*.F q s q 6 r g.<X<XP.K.T.K.K.J.>   1 9 q q N N N N N C N N q 0 q A V V l l l l q q q q q 0 0 8 9 q q q 8 w 8 8 8 5 5 8 , 8 8 8 z q 1 y 5 # # # < , < k v L o.X.-.-.-.-.U K C l 8 5 5 0 q 8 5 5 5 w w w w w 3 @ 3 0 N b N N Y K I X.#.-.-.9.W.W.(.(.^.`.`.^.`.(.D.L.wXtXT.k.a.j.k.M.k.a.a. .' u : . .             O O O @ 1 1 2 y 1.w.5.5.l.v.v.v.b.b.l.f.*.) *.! y ( (.(.+.u u u u u c Z q y.nXcX'.w.w.2.5.2.s.l.l.f.b.b.b.b.v.v.v.n.[.XX.X.X%X1X%X.X.X.X.X%X%X1X1X%X%X%X%X%X.X.X.X.X.X.X%X%X%X%X%X2X2X2X2X2X2X2X8X8X8X8X8X8X9X9X8X8X8X8X8X8X6X8X8X*X&X%X&X$Xc.U v +.>.u.c.i.@.-X1XXX~.m.m.~.zX2.+ 1 2 8 c Z N V J H U J G D g u t 7 5 3 # o o # , , , , , , , , 3 3 3 3 3 3 3 3 3 8 8 8 8 0 0 0 k b b n M L I I I I I o.o.o.X.#.$.-.-.-.;.;.-.-.$.#.#.X.X.I I o.o.I L m n z n n b b l 0 8 w 3 # X   X                                     X                                                                 X                         X X . . X X X o o   o X o & ; 5 o X X # # # ; ; ; # o X # # # # ",
"D.H.H.H.{.}.}.}.}.}.}.}.}.}.{.{.{.}.}.}.|.|.}.|.|.|.|.|.oXoX@X+X@X@XoXoX@X+XoX X}.[.).D.F.x.z.e.w.,.[ J.<X,X<X<X,X>X6.. ; U ( &.*.=.,.4.4.=.,.,.>XS.% d w.z.S.z.w.w.,.' oX<X,X<XoXr . H *.,.4.1.[ ~ ~ R R h S.4.: o , j.I.Y.U.U.U.U.U.U.U.U.U.U.U.U.Y.I.} U.U.U.U.U.U.U.U.U.U.U.I.Y.U.U.Y.{ & 6 s g d 7 & ..U.U.U.U.U.U.U.U.U.U.Y.U.U.U.Y.U.U.^ X X     ' U.U.Y.U.U.U.U.U.U.U.U.U.U.Y.Y.I.U...X w V U ~ A.>X<XK.g.,.H 5   B.Y.Y.U.U.U.U.U.U.U.U.Y.U.U.U.U.P.  & g =.g.z.4.f     d.Y.I.T.Y.U.U.U.U.U.U.U.U.U.U.U...f : : u u j.Y.U.U.U.U.U.U.U.U.U.U.Y.U.I.U.' X ; 6 - + d.Y.U.U.U.U.U.U.U.U.U.U.U.Y.Y.U.U.U.^ X , + X   h.Y.U.Y.U.U.U.U.U.U.U.U.U.U.T.I.U.B.    # = # . d.Y.U.Y.U.U.U.U.U.U.U.U.U.Y.U.U.U.U.^ X X o s Z U ( ] =.=.1.4.w.q.i.q.1.) [ oXP.P.<XoX,.> . ( :.:.q.q.q.w.4.1.q.q.:.:.*.D.oX<XoX6.  5 ] :.i.u.u.u.y.u.u.u.y.(.&.B V s N N 7 6 > F.:XK.<XK.K.oX{.> o 1 ; w w 0 q l l l q l N A A A A N s q q q l N b p q 0 q q 0 9 q q q 5 5 5 5 5 # , , 8 , , , , , # # # o # , , , < < < < < O O O O O O X         O # 8 8 8 0 0 w w 5 w w w 8 w q b N N A Y K I I I X.#.;.r.^.W.W.W.W.^.^.W.u.,.K.R.W M.d.j.R.M.a.M.a.a.a./ d 5 & .           O O O O + 1 & 2 6 =.l.5.w.b.v.v.v.b.l.f.2.} ) ! u H q._.$Xq.u u g G u y y ( $XlX).1.2.2.2.5.l.l.l.l.l.b.b.b.b.b.b.b.v.[.XX.X.X.X%X%X.X.X.X.X%X1X2X8X2X2X2X2X1X%X%X%X%X%X%X%X%X%X&X2X2X2X2X2X2X2X8X8X8X8X9X8X8X8X8X9X9X8X8X8X8X8X6X2X*X&X%X&X$X).*.c U +.q.:.v i.-X.X.X~.m.m.~.zXl.2 2 2 9 c Z A N F J J U H D G g u t 6 6 & & 5 5 # # , @ # , , , , , , , , 3 3 3 3 3 3 8 8 8 0 0 k k b b n M C L L I I I I o.o.X.#.#.#.-.-.-.-.$.#.#.#.#.I K I I I A n b k k n b b n A Z N q 5 o                                                                                   X X                             O O       X X X     X X X . X X X   X o # o # & & & & o X # ; ; : 6 # # o o o o # # ",
"D.H.H.J.{.}.{.{.{.}.}.}.}.}.}.}.}.}.}.}.|.|.|.|.|.|.|.|.oXoX@X+X@X@XoXoX@X+XoX X}.{.[.D.D.z.z.e.5.,.[ J.<X<XT.<X<X<XoX>   s H ( ] *.[ ( *.) [ A.4X,.. B 4.e.e.z.z.,.} A.<X,X<X:X^ . d *.1.4.,.5.[ [ ) ) R h { e.( o O | U.Y.U.Y.U.U.U.U.U.U.U.U.U.U.U.I...U.Y.U.U.U.U.U.U.U.U.U.U.Y.U.U.Y.j & 7 d h d a & ..U.U.U.U.U.U.U.U.U.U.Y.U.U.U.Y.U.U.^ o O     ' U.U.Y.U.U.U.U.U.U.U.U.U.U.Y.Y.I.U...o w B H ^ A.<X<XP.A.| H w X j.Y.Y.U.U.U.U.U.U.U.U.U.Y.Y.U.U.Z.  5 J ,.z.6.S   o X B.U.I.Y.U.U.Y.U.U.U.U.U.U.U.U.U.I.U.Y.U.I.U.U.I.U.U.U.U.U.U.U.U.U.U.Y.Y.I.U...o ; 5 - + d.Y.Y.U.U.U.U.U.U.U.U.U.U.Y.Y.U.Y.U.^ o # # -   j.Y.I.U.U.U.U.U.U.U.U.U.U.Y.T.I.Y.B.    # = # . d.Y.U.U.U.U.U.U.U.U.U.U.U.Y.U.U.U.Y.^ o   & F U *.=.1.:.4.1.4.1.1.1.=.] <.H.K.P.P.oX[ $ r ( =.:.1.q.q.w.w.4.w.q.i.:.*.[ J.oX<X>X5.o o ( >.1.q.q.y.u.u.u.u.q.&.U B 7 B y q q y & u g.oX<XT.<X<XoX&   # 5 0 N A A A Z A A N N N c q q q q q q 0 0 q q q q 0 0 0 8 w 8 9 9 5 5 5 5 5 5 5 5 5 , 8 8 # # 5 # 5 # # # o # @ # @ @ @ @ O @ @ @ @ O O O O @ O X   X o # # o X     # 8 0 q b b b N N A A Y L L I X.;.7.W.W.t.W.W.W.W.y.=.<.T.R.wXR.d.a.M.k.a.a.M.M.s.^ y 6 2 + O O   O O O   O O O + * 2 : *.l.w.w.x.v.v.v.l.f.f.2.@.! g G +.w.).$X&X1.u e g g G ~ 2.w.w.2.2.5.2.5.s.l.l.l.l.b.b.l.b.b.b.b.b.n.~.XXXX.X.X.X.X.X.X.X%X%X%X1X3X8X8X2X8X2X%X%X%X&X&X%X%X%X%X2X2X2X2X2X2X8X8X8X9X9X9X9X8X8X8X8X8X8X8X8X8X8X8X8X6X*X*X&X&X%X X1.c Z P +.v P l.-X.X0X~.m.m.~.zXl.2 9 9 c C Z V s V F F P H D D D g g B u u d B B s w 5 @ @ # , , , , , , , , 3 3 3 3 3 8 8 8 0 0 0 k k b b n n M L L I I I o.o.o.X.#.#.-.$.$.#.#.#.#.X.#.I I K L n b k l 0 0 k k n A Y V B 7 o     X               X                                                                                                   3 5 w q q 0 5 1 # # # # # # # # # # o o # ; & & & o # # ; ; # & # # # # # # # # ",
"D.H.J.{.[.{.J.{.{.{.}.}.}.}.}.}.{.}.}.}.|.|.|.|.|.|.|.|.|.oXoX+X@X@XoXoX@X+XoX|.}.{.[.D.D.F.z.e.4.[ { K.,X<X<X<X<X,X<XJ.h % r j h Q ^ / ^ } H.>X>X] . J 4.w.l.w.,.{ d.<XrX<X<Xg.. : ( =.4.4.w.,.[ ' [ ~ ) R j 3.*.>   / Y.U.U.U.U.U.U.U.U.U.U.U.Y.U.U.T.j.U.Y.Y.U.U.U.U.U.U.U.U.U.Y.U.U.Y.% & t g h g 7 & ..Y.U.U.U.U.U.U.U.U.U.Y.U.U.U.Y.U.U.^ o # X X ' Y.U.Y.U.U.U.U.U.U.U.U.U.U.Y.Y.I.Y.| # 7 V ! Q A.<X<XP.B.,.H w . B.Y.U.U.U.U.U.U.U.U.Y.U.U.Y.U.U.Z.- 0 S 4.[ > % w &   Z.U.U.Y.Y.Y.Y.U.U.U.U.U.U.U.U.U.Y.U.U.I.U.U.T.Y.U.U.U.U.U.U.U.U.U.Y.U.U.U.I.j.. # 1 o + ..Y.Y.U.U.U.U.U.U.U.U.U.U.Y.Y.U.Y.U.^ o ; : o . j.Y.I.U.U.U.U.U.U.U.U.U.U.Y.U.I.Y.B.    # = # . d.Y.U.Y.U.U.U.U.U.U.U.U.U.Y.U.U.U.U.^ o . ; V &.1.4.w.q.5.1.,.=.*.( ' 3.K.K.K.oX4X^ $ B ( :.:.q.q.w.w.q.e.e.w.1.1.1.[ { oXK.K.J.z.% . H *.1.1.w.e.w.y.y.:.U V V w B y V K q q 7 % u A.,X<XT.<X@X:   # q q N V V B N y 0 q q q q q q y y y q q w 0 0 w 6 6 6 w 5 5 8 9 8 9 8 w 5 5 5 5 5 1 # , 5 o o # - o o # o o # # # X X X o X X     X X X   X X       X X X X X X X O , 8 0 b b b N b b b A K K K K X.X.9.r.r.q.t.t.W.u.q.w.,XwXT.T.R.a.p.p.a.a.a.R.k.<.D B 9 2   O O O         O O O + + 6 6 *.l.l.l.v.D.v.x.l.f.<.} ) Q Q ( @.=.w.c. X).1.) @.2.2.l.c.l.w.w.5.5.s.l.l.l.l.b.b.b.b.b.b.b.b.b.b.v.n.~.XXXX.X.X.X.X.X%X%X%X%X1X3X2X8X8X8X8X2X2X2X8X2X%X%X%X1X2X3X8X2X3X3X8X8X8X8X9X9X9X9X9X9X8X9X8X8X8X8X8X8X8X6X8X*X*X%X%X Xq.F c F P v >.~.-X1X9XXXm.m.~.qXw.6 2 c N C Z A N B F F U ( ( Q Q D D ! ~ ,.4.*.J V q ; @ @ @ @ , , , , , , , 3 3 3 < < 3 3 8 8 8 0 0 0 k b b n n n C C L I o.o.X.X.#.#.#.#.#.#.X.#.#.U I I I K Y A b b 0 0 k k n n I Y V s ;       X                                                                                                       O @ @ 8 N K U U U U U Y Z Z N N A A N N N N 0 w = # o o o # o X # # ; ; o o o o o # # # # # ",
"H.H.{.{.[.J.{.{.{.J.{.{.}.}.}.}.}.{.}.}.}.}.|.|.|.|.|.|.|.|.oXoXoX+XoXoX@X@XoX|.}.{.[.D.D.F.z.w.1.' | <X<X<X<XT.T.<X,X<X,X>XH.H.A.A.G.G.oX,X<X,XyXD . ( 4.6.5.3.,.3.<XrX<X,X,X} . : ] =.4.5.5.5.| [ ' ' / / j ' ,.S   r Y.U.I.U.U.U.U.U.U.U.U.U.U.T.U.T.Z.U.Y.U.U.U.U.U.U.U.U.U.Y.I.U.Y.I.. & r h h g 7 1 ..Y.U.U.U.U.U.U.U.U.U.Y.U.U.U.Y.U.U.^ X & # X ' Y.U.U.U.U.U.U.U.U.U.U.U.U.U.Y.U.Y.| # 6 s H { K.<X<XK.A.3.~ s % B.U.I.U.U.U.U.U.U.U.U.U.U.U.U.U.Z.  w V f > t B c &   P.U.U.Y.U.Y.Y.U.U.U.U.U.U.U.U.U.I.U.Y.U.T.Y.Y.I.U.U.U.U.U.U.U.U.Y.Y.U.U.U.I.C.. # 1 o + ..Y.Y.U.U.U.U.U.U.U.U.U.U.U.U.U.U.U.^ o o : # # h.Y.Y.T.U.U.U.U.U.U.U.U.U.U.U.I.Y.B.    X # # . d.Y.U.Y.U.U.U.U.U.U.U.U.U.Y.U.U.U.U.^ o 6 7 y ] q.w.w.w.1.4.,.,.,.z.A.oXK.K.K.5.r u ! *.:.1.q.q.w.w.w.w.q.w.w.4.4.=.' 3.<X;XK.G.D.g . B &.=.1.q.q.u.&.U Z N V B B s V F q y c q y % r g.<X<X<XoXr + 1 w q N V N y q 0 w q q y N N N y q y q q q q q q w 0 0 6 w w 6 9 6 5 5 5 1 1 , # # # # o # # # # # o o , # o o X X o . . . o   X X     X X   X X X                 X @ # # 3 w q b N A A A K A M K I #.7.7.9.q.#.8.t.u.q.+X<XrXT.k.a.k.R.M.R.L.k.k. ./ d c 9 2   O O O             O + + 6 6 ( w.l.l.v.v.v.z.f.3.2.2.) ) ~ [ 2.2.2.2.1.w.w.c.c.b.v.v.l.l.l.l.l.l.l.b.l.l.b.b.b.b.b.b.b.b.b.b.b.v.n.~.XXXXXX.X.X.X.X.X.X%X1X1X3X8X8X8X9X8X8X8X8X8X8X3X3X3X3X8X8X8X8X3X3X8X8X8X8X8X8X8X8X9X9X9X9X8X8XlX8XlX8X8X8X6X8X2X%X%X Xq.( y c v >.w.).%X8XlXXXm.m.XX9X1.c 9 l C Z Z Z A A Z F Z J J D D D ! ( 1.1.=.J d s w o @ @ @ @ @ @ # , , , , , 3 3 3 3 3 3 w 8 4 8 8 0 0 k k b b n A C m C L I o.X.X.X.X.X.#.#.I U X.I I I I U #.X.U K b b k x m I #.` J s ; .                                                                                                   @ 3 8 b K X.#.#.#.U U U U Y K A A C C C A A A N q q q b q w w 5 # X . . X # # ; - # # o o o o # o # # ",
"H.H.{.}.J.J.{.{.J.{.J.{.{.{.{.{.{.{.{.{.{.}.|.|.}.|.|.|.|.oXoX|.oXoXoXoXoXoX|.|.|.{.{.H.D.z.l.z.<.,.D.<X<X<X,X,X,X<X,X<XoXoX<X>X,X,X<X<X<X<X<X<X:Xr . &.4.6.6.g.J.,X,X<X,X<X,Xz.r r ] =.4.e.z.l.2.[ } ' ' / ^ ~ ,.H = . P.U.Y.U.U.U.U.U.Y.U.U.U.U.T.U.T.I.U.Y.U.U.U.U.U.U.U.U.U.Y.Y.U.Y.Z.O ; u S Q g 6 # ..Y.Y.U.U.U.U.U.U.U.U.Y.U.U.U.Y.U.U.^ X & % X ' U.U.Y.U.U.U.U.U.U.U.U.U.U.U.Y.U.Y.| # 7 d ] f.:X<X<XK.A.3.^ 7 % j.Y.U.U.U.U.U.U.U.U.U.U.U.U.U.U.Z.  & o 7 S ( J s # o U.U.U.U.U.U.Y.I.U.U.U.U.U.U.U.U.U.U.Y.U.T.I.Y.U.U.U.U.U.U.U.U.U.Y.U.U.Y.I.Y.P.. o 1 o o ..Y.Y.U.U.U.U.U.U.U.U.U.U.U.U.U.U.U.^ o 6 6 , O j.U.U.T.U.U.U.U.U.U.U.U.U.U.T.I.U.B.X o # ; # . d.Y.U.Y.U.U.U.U.U.U.U.U.U.Y.U.U.U.U.^ o 6 V F ] 1.e.w.5.D.D.A.{.H.{.oXoXoXf.r > F +.>.=.1.q.e.q.w.e.w.e.u.w.5.6.4.=.6.oXoX<XK.K.D._.] * S *.:.1.w.q.U J P P V s N Y U N c V c 0 w ; % u z.@XrXoX% + 5 6 w q s q q q y y B s y q q q y y q q q q q 0 w w q q q q 9 6 6 5 5 5 5 ; ; & & & # # X # & o # X # o # # # # o # X X       X X X   X                 X X X             O @ 3 q N b b b n n b n C X.#.-.-.b Z @ < U 9.4.2. .dXwXR. .R.wXM.R.R.a.a.^ g y q 9 1 + + O                 + + 2 6 J 4.w.l.x.x.z.z.f.<.,.} ) ,.2.5.5.l.b.b.v.[.D.[.[.v.b.b.l.z.l.l.b.b.b.b.b.b.b.v.b.b.b.b.l.l.l.b.b.v.~.[.XX.X.X.X.X.X.X.X.X.X%X1X1X2X3X8X8X8X8X8X8X8X8X8X8X8X8X8X8X8X8X8X8X8X8X8X8X8X8X8X8X9X9X9X9X9XlX9XcXcX8X8X8X8X8X8X&X&X$Xc.=.B y 2 q.'.w.8XlX9X.Xm.b.;X0X@.Z c 9 C P P U Z A Z F Z P H G g u u g f f f u 6 ; # @ # # # # # # # # # # , , , , 3 3 3 3 4 4 4 4 8 8 8 0 0 k b b n m n m M L I I I I X.I X.#.I I I I I I I X.#.#.#.I N b z x L #.-.` s ;                                                                                               X # 3 4 4 k n C I X.#.#.X.U P K A b b b b b z N b N l q w 8 8 8 8 q q p 7 w ; X X # # # X X X o X X o # o o # ",
"A.A.D.{.D.D.J.H.J.J.J.J.J.{.{.{.}.}.}.}.{.{.}.|.|.|.|.|.|.oXoXoX|.oXoXoXoX|.|.|.{.{.{.H.D.z.D..X+XoX}.}.K.K.J.K.K.K.oXK.J.A.K.oXoXK.oX:X<X<X<XoXg.% B 1.5.@XoXoXoXoXK.K.K.oXJ.@X{.OXD r =.z.z.z.3.,.} } ' ' ' ,.} S p + Z.I.Y.U.U.U.U.U.U.U.U.U.U.T.U.U.I.I.Y.U.U.U.U.U.U.U.U.U.U.Y.U.Y.B.< ; r D Q g 7 + ..Y.U.U.U.U.U.U.U.U.U.Y.U.U.U.Y.U.U.^ X # o X ' U.I.Y.U.U.U.U.U.U.U.U.U.U.U.Y.U.Y.| o s *.4.D.J.K.K.G.z.,.H p # B.Y.U.U.U.U.U.U.U.U.U.Y.U.U.U.U.Z.. + 7 S ] *.H 7 % S Y.U.U.U.Y.Y.Y.I.U.U.U.U.U.U.U.U.Y.U.Y.I.T.I.Y.Y.U.U.U.U.U.U.U.U.Y.I.Y.Y.I.Y.U.  o 1 . o ..Y.Y.U.U.U.U.U.U.U.U.U.U.U.U.U.U.U.^ o # 6 3 X j.U.I.U.U.U.U.U.U.U.U.U.U.Y.T.I.Y.B.# ; q p w o d.Y.U.Y.U.U.U.U.U.U.U.U.U.Y.U.U.U.U.^ o & V ( =.1.4.1.S.{.H.g.J.A.A.A.,.S : S *.>.:.i.q.w.u.e.e.w.z.e.e.w.w.5._.+X@XoX{.J.J.H.A.A.{.c.S.).D.d : :.U J U P A N N V Y Z N B w w 0 w w w 5 > g.+X@X:   # ; w w q w 7 y B V y y y y y y y B s y y q q q q q q y s y 0 9 6 6 5 ; ; ; & # # # & & X # . X ; # & X X o o # X @ @ @ @ @ O O O O               X                             O # w w 4 8 k b n K U I -.&.w O C L L :.=.h j.jXT.k.k.R.M.a.k.R. .j.H F B 9 w 1 + + O O             + + & 2 6 S 1.w.l.v.x.z.l.5.<.} 2.<.<.<.f.x.v.D.D.D.H.H.H.H.).D.).v.v.v.v.v.b.z.v.v.v.b.v.v.b.b.l.l.l.l.b.b.n.~.XXXX.X.X.X.X.X.X.X.X.X%X%X%X2X2X8X8X8X8X9X8X8X8X8X8X9X9X8X8X8X9X8X8X8X8X8X9X8X8X8X8X9X9XlXlXcXvX9XvXcX8X8X8X8X8X*X*X&X&X(.q.F y t *.w.u.8XlXAX1Xm.n.0X.XG P C 8 C U P U P A C Z Z P U H G G B c y u t 6 & o @ @ @ # # # # # # o # # # , , , , 3 3 3 3 3 3 3 8 8 8 8 0 0 0 k k k n m M M L I I I #.X.#.#.I I o.I I I I I I X.U K b b k x o.#.#.Y > o                                                                                     # 8 l A N q w 3 , < z L I o.X.X.U U U Y C l 8 3 w 0 k k l q w w 8 8 w 0 k k l w q s p w 5 5 5 ; # o X X X X X X o o o # ",
"oX{.|.{. X{.{.{.J.J.J.J.{.{.{.[.}.}.{.}.}.{.{.|.}.|.|.|.|.|.oXoXoXoXoXoXoXoX|.}.{.{.{.H.D.D.z.z.g.3.| [ [ ' ~ ~ ~ ~ ~ ' ' ' ' ' ' [ [ ,.=.,.,.| ] [ ,.w.z.z.z.5.2.,.,.*.,.,.,.,.1.4.,.1.5.z.x.S.f.<.| } } } ) ^ f t . . B.I.T.U.U.U.U.U.U.U.U.U.U.U.U.U.U.U.U.U.U.U.U.U.U.U.U.U.I.Y.I.T...o & f ^ Q g y $ | U.U.U.U.U.U.U.U.U.U.U.U.Y.I.I.I.Y.^ O o o   ' I.U.U.U.U.U.U.U.U.U.U.U.I.U.Y.U.I.{ o y J [ { { ' ' ^ J d 6 = o B.Y.U.U.Y.U.U.U.U.U.U.U.U.U.Y.U.Z.X ; N ( *.*.( p 3 ' U.U.U.U.U.U.U.U.U.U.U.U.U.U.U.U.I.Y.U.U.U.Y.Y.I.U.U.U.U.U.U.U.U.U.Y.I.Y.T.U.U.j @ o o + ..I.Y.Y.Y.U.U.U.U.U.U.U.Y.I.U.T.I.U.~ o 8 & 5   h.Y.I.T.U.U.U.U.U.U.U.U.U.U.T.I.U.B.  # ; 9 - o d.U.U.U.U.Y.U.U.U.U.U.U.I.U.U.Y.U.U./ < ; B ( *.=.1.1.4.l.5.^ ' ' ~ ! J ] *.=.:.4.w.w.e.e.e.c.c.y.e.e.e.e.e.e.e.e.w.1.=.[ [ ~ [ ] ] =.=.1.4.=.{ D ( *.>.U U Y Y V y q y 7 q B s 7 q q 5 & r { ,.> . q ; 6 q y y B B s s q s s y y y y y 7 y y 7 7 7 7 7 y y q q w q w w 5 & ; ; ; & & & ; # X o ; # o & # X o o o o   X @ O O @ X X           X X X X X X                       X     X         O @ 4 0 C X.I &.&.U Z C X.( ] ~ L.tXT. .j.R.a.a.a.s.s. .S B q 6 6 1 +           O O O O O O 1 1 2 G 1.w.z.v.v.x.f.<.2.,.<.s.f.l.x.x.v.D.D.D.[.[.[.[.[.[.[.D.v.v.v.v.v.v.v.v.v.v.v.b.b.b.l.l.m.l.b.v.n.XXXX.X;X.X.X.X.X.X.X.X.X%X%X%X1X8X8X8X8X9XlX8X8X9X8X8X8X8X8X8X8X8X8X8X9X8X8X9X9X9X9X9X9XlXlXlXlXlXlXvXvX9X8X8X8X8X6X*X*X&X).4.F F v +.1.c.%X1XlX1Xm.n.qXXXP U P c c K U U P V V B Z F P J S d y y 6 ; ; # X o @ @ # , , , # # # # # # # # # , , , , , , , 3 3 3 3 4 8 0 0 l l k b n n n n M I o.o.X.X.X.X.I I K L L C L L I K A A b k 0 z L K b 5                   X                                     X                       O @ , k Y U Y p w w # < @ 4 n I X.X.I P U U A C p w , , 3 4 8 k 0 0 w q q 8 8 8 0 8 l A A A b q w w 0 8 k q 5 ; # @ X X o # o o ",
"+X+X+X+X+X|.{.{.{.{.{.J.{.{.{.{.{.{.{.{.}.{.{.}.}.|.|.|.|.oXoXoX}.oX|.|.|.|.}.{.{.{.{.{.D.D.A.z.l.5.2.,.,.=.[ [ [ [ [ [ [ [ [ [ [ [ [ [ *.=.,.,.6.5.e.c.z.z.z.5.5.6.5.6.6.4.4.4.6.e.z.z.D.D.F.D.A.f.<.| | | ' ) h t o   d.I.U.U.U.U.U.U.U.U.U.U.U.U.U.U.U.U.U.U.U.U.U.U.U.U.U.U.U.Y.U.T...o 6 f ^ ^ h t $ { I.U.U.U.U.U.U.U.U.U.U.U.T.U.U.Y.Y.^       o { I.Y.U.U.U.U.U.U.U.U.U.U.U.U.U.U.I.] & s H { | ,.,.| { ( S t = o B.Y.U.U.U.U.U.U.U.U.U.U.U.U.Y.U.Z.X 5 V ] :.*.( p @ ..U.U.U.U.U.U.U.U.U.U.U.U.U.U.U.U.U.Y.U.T.T.U.U.U.U.U.U.U.U.U.U.U.U.Y.I.Y.T.U.Y.' @ # o + | I.U.Y.Y.U.U.U.U.U.U.U.Y.Y.I.T.I.U./ X = & 5 # j.U.U.U.U.U.U.U.U.U.U.U.U.U.T.I.Y.B.  # 5 9 - X d.U.U.U.U.U.U.U.U.U.U.U.U.Y.Y.Y.U.U.E X 5 y F ( ( ( ( &.( ] ( ~ [ *.>.:.4.4.w.w.e.e.e.c.c.c.c.c.c.c.c.c.c.e.e.e.e.w.4.1.1.1.*.=.=.=.=.=.1.1.z.=.{ =.*.U Z V N s y s s s s s B y w w 7 0 6 r > r > 6 5 w s y s B B y 7 7 y s y y 7 7 7 7 7 7 7 6 6 7 7 7 7 q q q q q w 5 6 5 ; ; & # # # o & # # # # X & # # # X X o # o o o @ X X       X X X X X                                         X O O       O @ < n U &.J # @ @ $ h j  .rXT.G.T.a.W W W / } R y 7 6 6 7 5 +         O     O O O O 2 1 6 B 1.w.l.x.v.x.g.5.3.3.f.l.l.b.v.D.H.H.|.{.|.|.|.{.[.[.[.).).D.D.v.v.v.H.[.[.n.v.b.b.b.b.l.l.b.b.n.~.XXXX.X;X:X.X%X%X.X.X.X.X%X%X%X2X8X8X8X8X8X8X8X8X8X8X9X8X9X9X8X8X8X9X8X9X9X9X9X9X9X9X9X9XlXlXlX9XlXlXlXlX9X8X8X8X8X6X*X&X&X Xe.( G G ( *.).%X%X8X1Xs.b.zX[.( +.U v c K P U P Z Z V Z F H H S y 7 6 & # X X X X O O # , , , # # # o # # # # # , , , , , , 3 3 3 3 3 4 4 8 8 8 0 0 0 k n m n M I I X.X.X.X.I I I A A C m M C A n b b 0 8 4 0 0 3                                                               X X             X O O 3 3 4 n I I Y 0 5 # # @ @ 4 n I I o.I I U Y N b w 5 # , 3 3 8 k l 0 w w 5 3 3 3 3 8 b Y K A b w p l q q N A N N q w 5 = # o o o ",
"&X&X2X2X+X{.[.{.{.{.J.J.J.J.{.J.{.{.{.}.{.{.{.{.}.}.|.|.}.oXoXoX|.oXoXoXoXoX|.{.{.{.{.{.H.D.D.F.z.z.e.5.6.4.4.4.1.1.1.1.1.1.1.,.4.4.4.4.5.5.w.e.z.z.S.F.F.F.A.S.S.z.z.z.z.z.z.z.z.S.F.D.D.D.D.D.H.D.f.<.| | | [ ^ u ;   | U.T.U.U.U.U.U.U.U.U.U.U.U.U.U.U.U.U.U.U.U.U.U.U.U.U.U.Y.Y.T.Y.' o t h ^ ^ D t % ] I.U.U.U.U.U.U.U.U.U.U.U.U.U.U.U.Y./ o o X o { U.Y.U.U.U.U.U.U.U.U.U.U.U.U.U.Y.U.h 5 s H =.3.6.5.6.,.*.( d ; o B.Y.U.U.U.U.U.U.U.U.U.Y.U.Y.Y.U.Z.O 5 Z ] 1.=.U 7 # j.U.U.U.U.U.U.U.U.U.U.U.U.U.U.U.U.Y.I.U.I.I.Y.U.Y.U.U.U.U.U.U.U.U.U.Y.I.U.T.I.U.3.  o o # { U.I.Y.U.U.U.U.U.U.U.U.I.U.I.Y.U.Y.' @ # ; #   B.Y.U.U.U.U.U.U.U.U.U.U.U.U.T.I.U.B.X # w q ; # d.U.U.Y.U.Y.Y.U.U.U.U.U.Y.Y.U.Y.U.U.^ @ X ; 7 s V F V F P P U ( *.=.1.4.w.e.e.e.c.c.c.c.c.c.c.c.c.c.c.c.c.c.c.e.e.e.e.w.q.q.q.q.q.q.w.q.5.w.c.=.] ] U y s s s s y s s y s s y y 7 7 7 q q 7 : 6 y q q s 7 y B F B s s s y s s y y y y y s s s y q 7 7 6 7 q q q q 0 6 5 5 ; ; ; # ; ; ; # ; ; & & & & ; & . o X o o X           X X X       X X   X X X                 X     X X                     O # < L L U U 5     g H.E  .tXZ.L.R.R.R.a.W _ R j t : & ; 6 & +         O     O O O O 1 9 t y =.w.l.x.x.x.l.f.f.l.z.x.x.v.D.H.[.[.|.|.|.|.|.[.[.[.[.[.[.).).[.[.[.[.[.[.v.v.b.b.b.b.l.b.b.v.~.~.XX.X.X%X%X%X%X1X1X1X%X%X%X%X%X%X2X3X8X9X8X8X9X9X8X8X8X9X9X9X9X9X9XlXlXlXlX9XlXlXlXlXlXlXlXlXlXlXlXlXlXlX9XlXlX8X8X8X8X&X*X$X(.+.G G ! *. X.X%X3X0Xb.b.9Xb.P &.+.K Z K K P U P F Z Z P U H V y 6 1 o X     X @ @ O , , , # # # # o # # # # # , , , , , , , , 3 3 3 8 8 8 8 8 8 0 0 k z n n C I I X.X.X.I I I Y A A n n b b b b 0 0 3 3 3 4 #     X                       X X X X                       X         X X   X X O O # # , , 4 z M M b w # # @ O @ < k m I o.U P Y A l 0 w = # , , < 3 0 8 3 3 , , , , 4 3 8 k k b A Y A q q q q b C N N Y A N p q q y y ",
"&X&X2X2XOX{.D.[.{.{.{.{.{.{.{.J.{.{.J.{.}.{.{.{.}.}.|.}.}.}.oXoXoXoXoXoX|.|.{.{.{.{.{.{.[.D.D.D.D.F.z.z.e.e.e.e.w.e.e.e.e.z.z.z.z.z.z.z.z.v.S.D.F.F.D.D.D.D.F.D.F.F.F.D.D.D.D.D.D.D.[.[.{.[.[.{.H.H.D.5.<.<.| } ~ f 6 X h Y.T.Y.U.U.U.U.U.U.U.U.U.U.U.U.U.U.U.U.U.U.U.U.U.U.U.U.U.U.T.U.f o u D / ) H t % f Y.U.U.U.U.U.U.U.U.U.U.U.U.U.U.U.Y.'     O   } U.Y.I.U.U.U.U.U.U.U.U.U.U.T.U.Y.Y.> ; V ] 1.5.z.x.z.5.,.] d 5 o B.Y.U.U.U.U.U.U.U.U.U.Y.U.U.Y.U.Z.o w F { =.=.J w 5 B.U.U.U.U.U.U.U.U.U.U.U.U.U.U.U.U.Y.T.T.U.I.T.T.U.U.U.U.U.U.U.U.U.U.Y.I.Y.T.I.U.h.  X # o ^ Y.U.U.U.U.U.U.U.U.U.U.U.Y.U.Y.U.Y.'   o & #   B.Y.I.U.U.U.U.U.U.U.U.U.U.U.T.I.U.B.X ; w y ; # d.U.U.U.U.U.U.Y.U.U.U.U.Y.Y.I.U.U.Y.D     X - 3 w w w w l N V U &.>.4.e.e.y.c.c.c.c.c.c.c.S.(.S.c.c.c.c.c.c.c.c.c.c.c.c.y.y.y.u.y.y.e.e.c.4.=.=.( d s B d s B V B s s y y y y y s s 7 s N q s V B c s 7 7 y B B y B V s y s d d d s s s y y y 7 7 7 7 w 7 7 7 w w 6 5 5 & & ; ; ; 5 w 5 # # # # # # # & . X & X o # o X   X X .     o # X X X X                                                           O l I >.&.Y = . R n.a.R.wXk.j.W a.k.a.a. .Q h 6 & o & ; & o X O     O O O + O O < 1 9 t 6 *.w.l.x.x.x.z.l.l.x.x.v.v.D.H.H.[.{.[.{.{.|.|.{.{.|.{.[.[.[.[.[.[.[.XX[.H.v.v.b.b.b.l.l.l.b.n.~.~.XX.X.X%X1X1X1X2X8X2X1X%X%X.X-X%X%X3X8X8X8X8X9X9X9X9X9X9X9X9X9X9XlXlXlXlXlXlXlXlXlXlXlXlXlXlXlXlXlX9XlXlX9XlX8X8X8X8X8X*X&X%X_.*.H G G i.[..X1X3XlX~.~.lX2.t P X.X.K K K P +.U P Z B F P H F B 0 5 # @ X X X o o o 5 , # O O o # # o # # # # # , , , , , , , , , , 3 3 3 4 4 4 8 0 k k k n M I I I o.I X.I I Y Y A n n k k 0 8 w 4 3 3 # o     X                                       O O     X o w w 5 = o X o o o X X O O O o # @ , 3 4 4 4 4 4 # # @ < < 4 n I o.I I K C b w w w 5 , , 3 , , 3 , , # , , , 3 3 8 0 b b b K P Z N A C N n C C Y P K Y A A A N N ",
"6X6X&X6X%X+X{.{.{.{.{.{.{.{.{.J.[.{.J.{.}.}.}.{.}.}.}.}.}.}.}.}.|.}.}.}.}.{.{.{.{.{.{.{.[.H.D.D.D.D.D.A.x.z.z.z.z.z.z.z.z.z.z.z.c.v.A.A.D.D.F.D.D.D.D.D.H.H.H.[.J.H.H.[.[.[.[.{.{.{.{.{.{.{.{.{.H.{.H.x.f.<.| } / h t X > U.T.Y.U.U.U.U.U.U.U.U.U.U.U.U.U.U.U.U.U.U.U.U.U.U.U.U.U.U.T.U.. % u D ' ) ^ u % & Y.I.U.U.U.U.U.U.U.U.Y.U.U.U.Y.Y.Y.'       . ..U.U.Y.U.U.U.U.U.U.Y.U.U.U.T.U.I.T.. ; S [ 6.z.F.D.v.z.1.[ S 5 # B.Y.U.U.U.U.U.U.U.U.U.Y.U.U.Y.U.Z.o 6 J { =.*.H w o Z.U.U.U.U.U.U.U.U.U.U.U.U.U.U.U.U.I.U.Y.Y.U.Y.Y.I.U.U.U.U.U.U.U.U.U.Y.U.Y.Y.I.U.Z.o # # X f U.U.Y.U.U.U.U.U.U.U.U.Y.U.U.U.U.T.|     @ # . Z.T.Y.U.U.U.U.U.U.U.U.U.U.U.T.I.Y.B.X ; q c ; # d.U.U.U.U.U.U.U.U.U.U.U.I.U.I.U.Y.U.R     . . . o o o + & > u Z X.>.4.5.y.c.S.c.c.c.S.D.(.(.(.(.S.S.S.S.c.c.c.c.c.S.S.c.S.c.S.y.c.c.c.c.5.1.=.=.d S y B V s d V d d d d y y y y s s y N V B N y B y t 7 y y y 7 t S F y s s s s s s y 7 7 7 6 6 6 5 6 w w w w w w w w 5 5 5 5 ; ; 5 5 & # o o # # o # & # . o # # # & 7 V 6 .   . .                     X                   X X X             X X X       , O O 8 P &.U ^ s.a.R.R.L.s.W T T T _ T E D t : & # ; 6 & o   O   O O O + + + O < 8 9 6 : ) w.l.x.x.x.x.x.x.x.v.D.H.H.[.[.[.XX[.[.[.[.XX{.{.[.[.[.[.[.[.[.{.{.[.[.H.v.v.v.v.b.l.b.b.b.~.[.[.XX.X%X1X3X8X8X8XlX8X8X1X%X%X.X.X.X1X3X2X8X9X9X8X9X9X9X9XlXlX9X9XlXlXlXlXlXlXlXvXvXlXlXvXvXvXlXlXlXlXlXlXlXlX9X8X8X6X6X*X%X&X X1.+.P P w.v..X1X1XzXXX~.lX@.: c P U P K Z P +.U P Z Z F P H P Z q 5 # @ @ X X @ # , 5 , o O O o o # # # # # # # @ , , , , , , , , , 3 3 3 3 4 4 0 0 8 0 z z b n L I I I X.I I I Y A n b 0 8 8 4 = # 3 # X                                           O , z K I X.#.] U A 5 # # o o # o o @ @ O O @ @ O , , , 3 4 0 0 # # # < < 4 m I I I K A b q w 5 w 5 , , 3 , @ # # # , , # , , , , 4 0 0 0 b A q N N b q q l n K C m m M K Y A A ",
"iX6X6X6X2X&X%X+X{.{.{.{.|.}.{.{.J.{.J.J.{.}.}.{.{.}.}.}.}.}.}.}.|.}.}.}.}.}.|.|.}.{.{.{.[.{.H.H.D.D.D.D.D.D.S.x.z.z.x.z.z.x.x.x.v.D.A.A.D.D.D.D.H.D.[.H.H.J.{.{.{.{.{.{.{.{.{.{.{.{.{.{.{.{.{.{.{.{.{.[.x.d.<.<.' R u # . E.Y.Y.U.U.U.U.U.U.U.U.U.U.U.U.U.U.U.U.U.U.U.U.U.U.U.U.U.U.T.I.  ; u Q ' ' ^ f > . P.U.U.U.U.U.U.U.U.U.Y.U.U.U.Y.Y.I. .        ..U.Y.U.U.U.U.U.U.U.U.U.U.U.Y.I.Y.P.. 5 J *.5.x.D.D.D.z.4.[ S w X B.Y.U.U.U.U.U.U.U.U.U.U.U.U.Y.U.Z.o 6 J { ,.] H ;   I.U.U.U.U.U.U.U.U.U.U.U.U.U.U.U.U.T.Y.U.Y.Y.U.I.T.U.U.U.U.U.U.U.U.U.Y.U.U.Y.U.U.E.  o o X % Y.Y.U.U.U.U.U.U.U.U.U.U.I.Y.U.U.T...    + O   P.U.Y.U.U.U.U.U.U.U.U.U.U.U.T.I.Y.B.X 5 q c ; # d.Y.U.U.U.U.U.U.U.U.U.U.T.Y.I.I.U.Y.C.B.B.B.B.B.Z.Z.Z.Z.Z.Z.Z.{ Z ` :.u.y.c.(.S.S.S.(.).).).).(.(.(.(.(.(.(.c.c.c.c.S.S.S.c.c.c.c.c.c.z.1.S.4.] g F B V s d B d f d d f s d B B B d s B V V B q y 6 6 y y y B B B V V d y y y y 7 7 7 7 y q 7 7 7 5 5 7 w w w w w 5 5 5 5 ; ; ; ; ; ; # 5 # ; ; # % & & ; # # # # y ( 1.4.( ;   . .   o X X     X X & 5 5 ; # X X           X                                 #     5 Z D.qXwXR.a.W _ W p.W T T E R u 7 & # # 1 1 1 +       +   + + + + + + 2 6 6 : [ l.l.z.x.x.x.x.x.v.v.H.[.[.[.[.[.XX[.[.[.{.{.{.[.[.{.{.XX{.{.XX XXX{.[.H.v.v.n.b.l.l.b.b.v.~.[.XX.X%X1X8XlXlXlXlXlX8X8X8X1X%X.X.X.X.X%X%X8X9X8X8XlX9X9X9X9X9X9X9XlXlXlXlXlXvXvXvXvXvXvXvXvXvXvXvXlXlXlXlXlXlXlX9X8X8X8X*X%X%X Xw.:.P ( w.v.XX.X1XzX%XXX3X( y c C P U U P U +.U P Z Z Z F P U F q & , o X X @ o , w 3 # @ @ o o @ @ @ @ # # @ # @ @ , , , , , , , , 3 3 3 8 8 8 8 0 0 0 0 l k n n M I o.X.X.U I I I A b 0 w 4 3 = # #             +                     X X O O @ @ , k L #.$.#.#.` U s # X o X O o o @ @ O O O O O O @ @ @ 3 0 0 8 5 , < < < 4 n M I M n b 0 w w 3 5 # # # , , , # # # # # # # , , 8 8 0 8 8 p p 7 ; ; # # , , 3 0 z z n L I X.X.#.",
"6XiXiX6X6X6X6X2X%X+X@X@X@XoX{.{.J.J.J.J.J.J.J.J.J.K.{.{.{.{.}.}.}.}.}.}.}.}.}.}.}.}.{.{.{.{.{.H.D.D.D.D.D.D.D.F.F.F.F.F.D.F.D.D.F.D.D.D.D.D.[.H.{.[.[.{.H.J.{.[.{.{.{.{.{.{.{.{.|.}.|.}.}.|.oXoX}.}.{.|.J.x.f.<.[ ^ f & + Z.Y.U.U.U.U.U.U.U.U.U.U.U.U.U.U.U.U.U.U.U.U.U.U.U.U.U.U.U.Y.Z.. ; f ^ ' } ~ h : X C.Y.U.U.U.U.U.U.U.U.Y.U.U.I.Y.U.I.j.  O   . B.I.Y.I.U.U.U.U.U.U.Y.U.U.Y.Y.I.Y.B.& 7 ! ,.z.A.D.H.D.z.6.*.D 7 o B.Y.U.U.U.U.U.U.U.U.U.U.U.U.Y.U.Z.o w F { =.] F ; : U.U.U.U.U.U.U.U.U.U.U.U.U.U.U.U.U.I.T.U.I.U.U.U.I.U.U.U.U.U.U.U.U.U.Y.U.U.U.Y.Y.I.% . # o   E.U.I.U.U.U.U.U.U.U.U.Y.U.T.U.U.U.B..   O   j U.I.Y.U.U.U.U.U.U.U.U.U.U.U.T.I.U.B.o 5 q c ; # d.U.U.U.U.U.U.U.U.U.U.U.T.Y.U.Y.U.I.I.Y.Y.Y.U.Y.U.U.U.U.U.I.Y.' d ` =.5.c.(.).).).).)._.).).).).(.(.).).).(.(.(.(.S.c.S.(.S.S.c.c.c.c.4.,.4.H d J d d B d d B d d f f f d S F F V B V B V s y y y y s y B V F J V y t y t t t t 7 y y s w w 7 q q 7 w q 7 7 w w w 5 5 w 6 ; ; 5 ; 5 1 # # # # & & 6 6 # o o 6 c &.q.u.q.:.>.] U V w 5 0 s q w 5 5 5 w w ; ; ; - ; ; - # ; 5 5 5 5 w w 0 q q w # X X     @   . o       # ' L.tXwXa.W p.p.k.k.a.m. .m.r % # # # # 1 1 + @ O + + . y v u u 2 * 1 2 : * *.l.l.z.z.b.x.x.x.v.v.H.[.[.[.[.[.{.{.|.|.|.XX.X{.[.XXXXXXXXXX.X.XXX{.[.H.n.v.v.b.l.m.l.b.v.[.XX.X%X1X8X9XlXlXvXvXlXlX8X8X2X1X%X%X%X%X.X%X1X8X8X9XlX9X9XlXlXlXlXlXlXlXlXlXvXvXvXvXvXvXvXvXvXvXvXvXvXvXvXvXlXlXlX9X8X8X8X8X%X%X Xc.q.P +.c.[.~.[..X9X1X.X0X! t 9 c K P P P U U P P Z Z Z F P P F B 6 5 # o # # , 3 w # o X @ # o @ @ @ @ @ @ @ @ @ @ @ @ @ @ , , , , , , 3 3 3 3 3 4 0 0 8 0 k z n n I o.#.#.#.X.U I K A l 8 w 4 3 = X                     X   X O O # # o o # # < < 4 z o.$.;.-.#.U A q 5 = # # # # @ @ O O O O O O # # @ @ @ , , , 5 , , < < 4 n L K n b q w 5 5 5 , # # # # # , , # # # # # , , 3 3 4 0 k 0 0 w ; - - # # 1 , < < k z m I I U X.X.",
"iXiXiX6XiXiXiX6X6X&X%X+X@X|.{.{.J.J.J.J.J.J.J.J.J.J.J.J.J.{.}.}.}.}.}.}.}.}.}.}.}.}.J.J.J.J.{.J.[.[.D.D.D.D.D.D.D.D.D.D.D.D.F.F.D.D.D.D.D.[.[.D.{.[.{.{.H.J.{.{.{.{.{.{.{.{.}.|.{.}.oXoX|.oXoX|.oXoX|.{.}.}.x.<.} E g # < j.U.U.U.U.U.U.U.U.U.U.U.U.U.U.U.U.U.U.U.U.U.U.U.U.U.U.Y.I.U.B.+ 5 j ^ ' | ' h : o j.U.U.U.U.U.U.U.U.U.Y.I.Y.U.Y.T.U.P.% O   u Y.I.I.T.U.U.U.U.U.U.U.U.U.Y.T.I.U...& p ( 1.z.A.D.H.D.A.5.=.J 7 . B.Y.U.U.U.U.U.U.U.U.U.U.U.U.Y.U.Z.o w F [ { ] B - ( I.U.U.U.U.U.U.U.U.U.U.U.U.U.U.U.U...  <     O % Y.U.U.U.U.U.U.U.U.U.U.U.Y.U.Y.Y.U.V o , X + B.Y.Y.U.U.U.U.U.U.U.U.U.U.T.I.U.Y.T.f       A.I.I.Y.U.U.U.U.U.U.U.U.U.U.U.T.I.U.B.o 5 q c ; # d.U.U.Y.U.U.U.U.U.U.U.U.U.I.I.Y.T.U.U.U.Y.U.Y.Y.Y.Y.U.U.T.U.T.' q Y >.w.c.(.).).)._.)._.).)._._.).).).).).).).).(.S.S.S.c.c.S.S.S.S.S.:.=.J g d d S S y V s s d f d d J U H H F d s B V s s y y s B F P V B s s s y t t t t y y y y y y y y s s s y q q 7 w 6 6 6 w q y q 5 ; 5 5 1 & # 1 # # # 6 B y + & o Z &.u.q.q.q.>.*.&.` U Y Y P A s q 0 w w w 5 5 ; ; ; 5 5 ; ; # ; 5 5 5 0 p s A Z Y Y Z Z Z A l 6 6 y B b w q ' R.dXwXE. .W M.a.wXwXd. .f.* & O # # @ + + + + . . . * P *.( ! u * * : : * ) l.z.x.x.x.x.v.v.H.v.H.[.[.[.[.[.{.|.|..XXX{.XX{.{..X.XXXXX.X.X.X{.XX[.H.v.v.b.b.l.l.b.v.~.[.XX.X%X8XlXlXlXvXvXlXlX8X8X2X3X8X3X3X1X1X%X%X%X3X8X8X9XlXlXlXlXlXlXlXlXlXlXlXvXAXvXvXvXvXvXAXAXAXAXvXvXvXvXvXvXlXlX9X8X8X8X2X%X%X.X(.u.( @. XXX~.~.XX1X0X1X1XQ t 9 9 v c C Z K P P P P A A Z F P F Z s w 1 # 5 w 5 , , # o X @ @ @ o # @ @ @ @ @ @ @ @ @ @ @ @ @ , , , , , 3 3 3 3 3 4 4 4 8 8 8 4 k n M o.#.#.#.#.X.U #.I C l w 4 = @ X X       X X       X X O @ # # , , # # # # < < < x L $.$.$.X.Z N q 5 , , , # @ @ @ @ O O O O O X X @ # o @ # 8 5 , # @ @ 4 k n n 0 l q w 5 5 # , , # # # # # < < , # # 3 3 , , 4 0 b A b w ; - - ; ; # o O @ 3 4 k m K I I I U ",
"iXiXiXiX6XiXiXuX6X*X&X+X+X@X{.[.{.H.H.H.J.J.J.J.J.J.{.{.{.}.}.}.}.}.}.}.}.{.}.{.}.J.J.J.J.J.J.J.J.J.H.H.H.D.D.D.D.D.D.D.D.D.D.D.D.D.H.D.D.H.J.J.{.{.{.{.{.{.{.}.{.{.{.{.|.}.}.}.oXoXoXoXoXoXoXoX@XoXoXoX|.|.[.x.,.~ h 6   3.I.U.U.U.U.U.U.U.U.U.U.U.U.U.U.U.U.U.U.U.U.U.U.U.U.U.Y.U.U...< > h ' }  .} Q t 1 R U.Y.I.Y.U.U.Y.U.Y.U.U.U.U.U.U.U.U.P.j.j.P.Y.U.Y.U.U.U.U.Y.Y.U.U.U.I.T.Y.U.Y.j k f { 6.z.D.J.J.D.A.5.,.J w o B.U.U.U.U.U.U.U.U.U.U.U.U.U.Y.U.Z.O 5 J ] [ ] s 1  .U.U.U.U.U.U.U.U.U.U.Y.U.U.U.U.U.U.... +         I.U.U.U.U.U.U.U.U.U.U.U.U.U.U.U.U.} + 1 . o | I.Y.U.U.Y.U.I.U.Y.Y.U.U.U.U.U.U.I.I.j.j.Z.Y.U.U.U.Y.U.Y.U.I.U.T.T.U.U.U.Y.I.U.B.o 5 p s 5 # d.Y.U.U.U.U.U.U.U.U.U.U.U.U.U.U.U.U.U.U.U.U.U.U.U.U.U.U.Y.U.Y.^ 6 S *.w.c.)._._._.)._._._._._.).).).).).).).).).(.c.S.S.S.).S.c.).S.w.] J B B V S d d f S f d S d S D ^ ] ( U J Z V B s y s s B F F B B d d s s y y y y 7 7 y y y y q c y y q q y q 7 7 w w 6 6 6 w 7 7 6 : & & 5 1 # # # # # # # ; ; & 5 l &.y.y.u.u.:.:.>.&.U P V p A N 5 # 5 0 w 5 5 5 ; 5 5 ; 5 5 5 ; # # = 3 w q p A Z A 3 o 0 Z P Z 0 I &.>.;.&.,.s.j.k.M.k.W a.p._ k.wXd.p.) 2 < O # , , # 1 + + + . . : ) ( G ! u : & 2 & * @.l.l.z.x.x.v.v.v.v.v.H.[.[.[.[.XXXXXX{.XXXXXX[.{. X.X.X.X.XXX{.XXXXXX[.[.v.x.b.l.l.l.v.v.v.[.XX X1X8XvXvXlXvXlX8X8X8X%X3X3X8X8X8X8X8X8X%X%X%X8X8XlXpXvXvXvXlXlXlXlXlXvXMXMXMXvXvXAXvXAXAXnXbXbXAXvXvXvXvXlXlXlXlX8XlX8X&X&X%X Xc.y.@.+.-X%X~.~.[.1X0X0X1XQ 9 c 9 c c N Z 9 N P P P F P P F F J H F B N 5 w @ @ o # X X X X @ @ @ @ O O @ @ o o o o @ @ @ @ , , , , , , , 3 3 3 3 8 3 3 8 w 0 0 z n M o.X.#.#.#.X.#.-.U A 0 3 = # , # @ X     X X @ o o o o o @ @ @ @ @ o o o # # # @ 4 m o.#.o.L C l l w 3 , , = # o X X @ @ @ @ @ O @ @ @ @ @ @ @ o O O @ @ @ < 4 8 8 0 w w 3 # o # # # , # # < , # , 5 3 , , , , 8 4 0 A N w - - - % # # # @ , 3 n n A I I I I U ",
"6XiXiXiX6XiXiXiXiX6X&X&X%X+XOX{.{.H.J.J.J.J.J.J.J.J.J.{.{.}.}.}.}.}.}.}.}.}.}.}.}.}.{.{.J.{.{.J.J.J.J.J.H.H.H.H.D.D.D.D.D.D.H.H.D.H.J.H.H.J.{.{.{.{.{.}.}.}.}.{.|.|.{.|.oX|.|.oXoXoXoXoX+XoXoXoXoX+XoXoXoXoX|.H.f.[ h 7 . { U.U.U.U.U.U.U.U.U.U.U.U.U.U.U.U.U.U.U.U.U.U.U.U.U.U.Y.U.U.| , > h '  .<.} ^ f % $ Z.I.Y.Y.U.Y.Y.Y.U.U.U.U.U.U.U.U.U.Y.U.Y.Y.Y.U.Y.I.U.U.Y.Y.Y.U.U.U.Y.Y.U.I.Z.. 6 H =.5.A.H.J.J.D.F.5.,.J w # B.U.U.U.U.U.U.U.U.U.U.Y.U.U.Y.U.Z.O 5 S ] ] U s + 3.Y.U.U.U.U.U.U.U.U.U.Y.Y.U.U.U.Y.U...  + @ o     E.U.U.U.U.U.U.U.U.U.U.U.U.U.U.U.U.3.  # ; # % Y.I.Y.Y.Y.I.Y.U.Y.Y.U.U.U.U.U.U.U.I.Y.Y.Y.Y.U.Y.U.Y.I.Y.Y.U.Y.Y.Y.I.U.U.Y.I.U.B.o 5 s s w # d.Y.U.U.U.U.U.U.U.U.U.U.U.U.U.U.U.U.U.U.U.U.U.U.U.U.U.U.Y.U.Y.^ w V &.q.c.)._._._._._._._._._._._.).).).).).S.).(.(.(.c.(.y.c.).S.e.] H J S S S B S ] u f H H S J ( ! ! ] ] ( F y y s s y B V J F B s y d s y y y y y y s s y 6 w y y q q y y y 7 6 5 w 7 w w 6 6 6 6 6 ; ; ; ; 5 5 & & 5 ; # X o # # X # q >.^.y.;.X.7.:.-.&.U q - 5 N s q q q 0 w 5 5 ; 5 5 5 5 5 5 5 5 ; 5 3 w w p N A Y Y N w w p A Y I U U U A U *.n.a.W a.T a.R.a.p.W R.j.a./ : # @ , 1 + @ 1 + + . . $ u @.Q G G u t 2 2 & : *.w.l.b.x.v.v.v.v.v.v.H.[.[.[.[.[.XX{.XXXX[.XX{.XX X.X.X.X.X.XXXXX.X{.[.[.v.b.b.l.b.b.b.v.[.v.[..X%X8X8XlXvXlX8X8X8X1X3X8X8X3X3X8XlX9X8X8X%X%X1X8XlX9XvXvXvXvXvXlXlXlXlXMXMXMXvXvXAXAXAXAXAXAXAXbXbXvXvXvXvXvXlXlX8XlX2X%X&X%X-X~.u.2.@. X%X[.~.~.1X0X0X%XQ 9 9 9 c N C Z c C Z Z Z Z V Z B B F F F N q X o @ @ # # X X X X X X X X X X @ @ @ o o o @ @ @ @ , @ # # # # , , , 3 3 3 3 3 3 w 8 8 k z M I o.o.#.#.#.#.#.I b 0 3 # # # # # # @ O @ o o o o @ @ @ @ @ @ @ @ o o o o # # , < k m I I C l b l 0 8 4 3 3 # # o @ @ @ O @ @ @ @ @ @ @ @ @ @ @ O O O @ @ , 4 3 3 3 3 # # # = # # # # # # < < , , 5 5 3 , , < , 0 A K Y s w o - o X o O # 3 k l n A K I U X.X.",
"iXiXiXiXiXiXiXiXiXiX6X&X&X&X+XOX{.{.{.J.J.J.J.J.J.J.J.J.J.J.}.}.J.J.J.K.}.J.J.}.}.}.}.}.{.J.J.J.J.{.{.{.{.{.J.J.H.H.H.H.H.H.J.{.{.{.J.J.J.{.{.{.{.{.{.}.}.}.}.}.}.|.|.|.oXoXoXoXoXoX@X@X@X@X@X+XoX+X+X+XoXoXoX}.D.2.D t o f Y.T.U.U.U.U.U.U.U.U.U.U.U.U.U.U.U.U.U.U.U.U.U.U.U.U.U.U.U.E # t h [  . .| ' h y % { U.Y.Y.Y.I.I.Y.U.U.U.U.U.U.U.U.U.Y.Y.Y.Y.U.U.Y.I.U.Y.Y.Y.U.U.U.U.Y.T.Y.I.' 9 d ( 2.z.D.H.J.J.D.D.e.,.H 7 # B.Y.I.U.U.U.U.U.U.U.U.U.U.Y.Y.U.Z.O 5 S ( ] Y q + B.Y.U.U.U.U.U.U.U.U.U.Y.U.U.U.Y.Y.Y.{ . & 3 ; X   Z.U.U.U.U.U.U.U.U.U.U.U.U.U.U.U.U.j.X o 1 8 o h.I.Y.I.Y.Y.U.Y.U.U.U.U.U.U.U.U.U.U.I.Y.U.U.Y.U.U.U.U.T.Y.Y.U.U.U.U.U.U.Y.I.U.B.o 5 s s w # d.Y.U.U.U.U.U.U.U.U.U.U.U.U.U.U.U.U.U.U.U.U.U.U.U.U.U.U.Y.U.Y.^ 5 d &.4.c.). X'._._._._._._._._._.).).)._.(.).).D.(.c.(.S.w.*.c.1.] ! H F J S J J H S J J S H ( ( H ] *.] ( S s y s B B V V V V d s s s d d s y y s y y q y s s y y s q 6 q 7 q q 7 y s q 7 6 5 5 ; 6 6 ; ; 5 5 5 1 & # o o # & & & # # # , w U 9.r.:.:.:.&.#.P p q s Z s N N q w w w 5 5 5 5 5 5 5 5 5 5 5 w w w w q N A A A A A b p N A Y K U Y U :.4.H.j.k.W W a.R.R.M.a.M.s.k.Q . , # 8 8 + + 1 1 1 + + $ G 2.G G G t t 2 & * u =.l.l.b.v.v.v.v.v.v.n.n.[.[.XXXXXXXXXXXXXXXXXXXX.X.X.X.X.X.X.X.X.X.XXX{.XXv.l.l.b.b.v.v.v.v.v.v.[..X1X8X8X9XlXlX8X&X2X2X%X%X1X8X8X8X9X9X8X2X%X1X8XlX9XlXvXvXvXvXvXlXlXlXvXMXlXlXAXAXAXAXAXAXAXAXAXAXvXvXvXvXvXvXlX8X8X2X%X%X%X%X~.c.~.w.XX.X~.~.[.1X0X1X.XG 9 9 2 l c C Z A Z P F Z Z B B B B S F F y w o o @ @ # o X X X X X X X X X X @ @ @ o o o o @ # # < < # # # # # , , , , 3 3 , 3 3 8 8 k z n L L I o.X.X.U U Y b 0 5 # # # # # # o o o o o @ @ @ @ @ @ @ O O @ @ @ @ @ @ @ @ < < k n n 0 w 8 8 8 8 0 0 w w 5 # o @     @ @ O O O O O O O O X X X O @ @ @ , 3 3 3 3 3 # # # # # # # # # < # # # , , , , , < 8 l n b b N p ; o o # # 5 w l n n n A A K K I U ",
"iX6X6X6XiXiXiXiXiXiXiX6X2X&X%X+X+X{.{.H.H.J.J.J.J.J.J.J.J.J.J.J.J.J.J.J.J.J.J.J.J.J.}.J.J.J.}.}.{.}.}.{.[.J.J.J.J.J.J.J.J.{.{.J.{.{.{.J.}.}.}.{.{.{.}.}.}.oX|.|.|.oXoXoXoXoXoX@X@X@XoXoXoXoXoXoXoXoX+X@XoXoXoX|.D.5.( d o . U.U.U.U.U.U.U.U.U.U.U.U.U.U.U.U.U.U.U.U.U.U.U.U.U.U.U.T.U.r ; y R [ <.<. .} R y 6   C.Y.I.U.U.Y.U.Y.U.U.U.U.U.U.U.U.Y.I.I.U.Y.U.I.U.Y.Y.Y.U.U.U.U.U.Y.T.I.B.o 7 G [ 5.z.D.J.J.J.H.F.e.,.H w # B.U.U.U.U.U.U.U.U.U.U.U.U.U.Y.U.Z.O 5 F H ( Z 7 % Z.U.U.U.U.U.U.U.U.U.U.U.U.U.U.Y.U.U.' + ; w 7 # X Z.U.U.U.U.U.U.U.U.U.U.U.U.U.U.U.U.Z.X X 1 1 X r Y.I.Y.U.Y.Y.Y.U.I.U.U.U.U.U.U.U.U.U.I.U.Y.U.I.U.U.I.U.U.Y.Y.U.U.U.U.U.Y.I.U.B.o 5 s s w # d.Y.U.U.U.U.U.U.U.U.U.U.U.U.U.U.U.U.U.U.U.U.U.U.U.U.U.U.U.U.Y.^ 5 s &.q.c.[. X X X X[._._._._._._.).).).(.(._.)._.).(.S.S.c.5.4.*.] ( D J V S f S ! *.=.{ ! H ! J D ] ] ] J s V F F Z V V s s s y s B d d d s s s s y y s s y y q 7 s s s y q 7 y t 6 6 y 7 w 7 6 6 6 7 6 6 5 5 5 5 ; ; ; # # # # o o # # O   3 A ;.9.:.&.&.Y p Z Z q A s s q w 5 w w ; 5 5 5 5 ; ; 5 5 5 5 w 8 w w q b A N N N N q q q p K K Z -.;.&.4.d.a.a.wXj.k.R.M.M.M.a. .j.Q % @ , q 9 + + 2 2 1 + + . G 1.( ( ! u t 2 * * u 2.l.l.b.v.v.v.v.v.n.n.n.[.[.[.XXXXXXXXXXXXXX.X.X.X.X.X.X.X.X.X.X.X.X.XXX[.v.f.l.b.v.~.[.v.v.v.v.v.[..X%X2X8X8X2X8X&Xu.*.F D ( 2.v.8X8X8X8X2X1X1X3X8X9XlXvXvXvXvXvXlXlXlXvXMXlXlXAXAXAXAXAXAXnXnXnXAXvXvXvXvXvXvXlXlX8X8X&X%X%X$X~.~.-X~.[.[.v.[..X9X1X1X.XG 9 9 2 9 l N Z K Z P P P F Z B B B P H P B q # # @ # o X X X X X X X X X X X @ @ @ @ @ o @ @ # # # # # # # # # # , , , 3 3 3 3 3 4 8 8 k z m M M I I I I I A b q 5 # # # # # # o o @ @ O @ @ @ @ @ @ @ @ @ @ @ @ O @ @ @ @ @ , < 3 3 3 w 3 3 3 4 0 b p q 5 # o @     @ @ O O O O O O O O X X X O O O @ < 3 3 w w 3 # o @ # # # # # # , < # # # # , 3 3 < 0 k k 0 w w q s s s N N b b 0 0 l b b n n A A A ",
"6X6X6X6X6XiXiXiXiXuXiX6X6X&X&X&X%XOX X{.{.J.J.J.J.J.J.J.J.J.J.J.J.J.J.J.J.J.J.K.J.J.J.J.J.J.J.J.J.{.{.{.{.{.{.{.J.J.{.{.{.{.J.J.}.}.}.}.}.}.{.{.|.|.oXoX|.oXoXoXoXoX+XoX+X+X+X+XoXoXoX+X+X+X+X+X:XoXoX+X@XoXoXoX[.z.=.d %   P.U.U.U.U.U.U.U.U.U.U.U.U.U.U.U.U.U.U.U.U.U.U.U.U.U.U.T.I.. % u Q }  .<. . .' G y # R P.I.I.U.U.U.Y.U.U.U.U.U.U.U.U.U.Y.Y.U.U.Y.Y.Y.U.U.U.U.U.U.U.U.I.U.T.f o 7 ( <.g.A.H.J.J.J.H.F.e.,.H 7 # B.Y.U.U.U.U.U.U.U.U.U.Y.U.Y.Y.U.Z.o 5 V H H V 5 . P.U.U.U.U.U.U.U.U.U.U.U.U.Y.Y.U.U.U.h , 6 p y ; X C.U.U.U.U.U.U.U.U.U.U.U.U.U.U.U.U.I.  3 9 y - % 3.Y.I.I.U.Y.Y.U.U.U.U.U.U.Y.U.U.U.Y.I.U.U.U.U.U.I.U.U.U.U.U.I.U.Y.U.T.Y.U.U.B.o 5 s s 5 # d.Y.U.U.U.U.U.U.U.U.U.U.U.U.U.U.U.U.U.U.U.U.U.U.U.U.U.U.U.U.U.^ 5 s &.q.c. X X X X X X X'._._._._._.).).).).D._.).D.(.c.).z.1.1.*.D g D S S g H 4.*.z.1.^ ( ! ! ( ] ] H H S V J J V B s s s s V V V B y s s s s s s y 7 7 7 y s B s s y 7 y y s N N s t w 7 6 7 7 6 6 ; 7 6 6 ; ; & & # & # # # & # # # # o 5   4 :.7.;.>.U U U A Z Z q q 0 w w w 6 w ; 5 5 5 5 5 5 5 5 w 5 4 4 w w w q b b b p w w w b p K U U ;.;.U ,.s.a.a.tX3.T.tXM.M.M.M.s.j.u 1 O 1 c 6 + + 2 2 1 + + + G 1.@.*.( u u : & : g 2.l.l.b.v.v.v.v.v.n.n.n.[.[.[.XX[.[.XXXXXX.X.X.X.X.X.X.X.X.X.X.X.X.X.XXXn.b.l.b.v.n.v.v.[.[.v.~.).[. X%X3X1X2X2X8Xc.t $ * $ $ e ( v.1X1X3X1X1X1X2X8X9XlXvXvXvXvXvXvXlXlXlXvXlXlXAXAXAXAXAXAXAXAXAXAXvXvXvXlXvXcXlX8X8X8X*X&X$X$X~.~. Xw.l.[..X1X1X9X.X%X.XG u y 5 9 l N Z P P P P P Z Z B B F H U P Z N w o @ @ @ X X X X X X X X X X X X X @ @ @ @ @ # # # # # # < # # # # , , , , , , 3 3 3 3 4 0 k m L M n M I I A n b 0 = # # # < < # # o # @ O @ @ @ @ @ @ @ @ @ @ @ @ O O O O O @ @ @ @ @ 3 w 4 4 4 8 0 0 w w = o @ @ X X @   O O O O O O O @ X O O O O O O @ , , 3 , # # # # # # # # # # # # , # , , 3 3 3 3 4 8 0 0 3 3 0 A Z A A C C b 0 8 l b n n C A C b ",
"6X6X6X6X6XiXiXiXuXuXuXiX6X6X6X6X2X&X2X%X|.{.J.J.J.J.J.J.J.J.J.J.J.J.J.J.J.J.J.J.J.J.J.J.K.K.}.}.}.}.}.}.}.}.{.{.}.}.{.}.}.}.}.}.}.}.}.}.}.}.}.|.|.|.oXoXoXoXoXoXoXoXoXoXoX@XoX:X+X+X:X:X:X:X+X:X:X+XoX:X+XoXoXoX{.x.,.D ; . Z.Y.U.U.U.U.U.U.U.U.U.U.U.U.U.U.U.U.U.U.U.U.U.U.Y.U.U.Y.Z.  % d ^ } ..d.s. .} ~ t q . | I.Y.U.I.U.T.U.U.U.U.U.U.U.U.I.U.U.Y.U.Y.Y.Y.U.U.U.U.U.U.U.Y.I.U.' % 6 J [ 3.x.D.H.J.J.J.H.D.e.,.H w # B.U.U.U.U.U.U.U.U.U.U.U.U.U.Y.U.Z.o 5 d U H s w . Y.U.U.U.U.U.U.U.U.U.U.U.U.Y.Y.U.U.U.: , t N B 5 X B.U.U.U.U.U.U.U.U.U.U.U.U.U.U.U.U.Y.: , 9 s a 1 . Z.Y.U.U.I.Y.U.U.U.U.U.U.Y.Y.Y.U.U.Y.Y.U.U.U.I.U.P.Y.U.I.U.I.Y.Y.U.T.Y.U.U.B.# w B d w # d.Y.U.U.U.U.U.U.U.U.U.U.U.U.U.U.U.U.U.U.U.U.U.U.U.U.U.U.Y.U.Y.^ 5 d &.w.S.'. X X X X X X X X_._._._._._.).).).(.w.S.e.c.S.S.*.! S S D D d D ] 1.5.[ ,.! [ ( S J J ] ] J V V V V s B V d B B V V B B B s d s y y y y y y y y y 7 y s y y t y y t q 7 6 7 7 y 7 7 6 6 6 6 6 6 6 6 6 6 5 ; & ; ; & # # # # # o w Z &.q.:.&.&.` U P Y N q N q w w w 5 5 5 5 5 5 5 ; 5 5 5 5 8 w 4 4 4 8 w q q p p p 0 w 0 l p b U -.;.;.:.3.d.a.R.L.' R.tXR.R.M.p. ._ g + < 1 c & % 2 9 9 1 + + . * ! g Q Q u u 2 2 : g 2.l.b.b.v.v.v.v.v.v.n.n.[.[.[.[.[.XXXXXX.X.X.X.X.X.X.X.X.X.X.X.X.X.X.XXXv.b.l.b.n.H.[.[.).z.2.2.1.). X.X%X%X%X&X%X( * $ u r r u ) l..X1X1X1X%X%X2X9X9X9XvX9X9XvXvXvXlXlXvXlXvXlXAXAXAXAXAXAXAXAXAXAXvXvXvXlXvXlXlX8X8X8X*X*X%X%X~.~.%X1.w.%X3X3X0X.XXX%X.XG t c 9 9 l c K U P U P P A V B c Z H U J N N N 3 @   X o X X X X X X X X X X X X X X @ @ @ @ O @ @ @ o # # # # # # # , , , , 3 3 3 3 4 8 z m C L L M M n n p 0 w = # # # # # # # # # @ O o @ @ @ @ @ @ @ @ @ @ @ O O @ O O @ @ @ @ , 4 w 4 4 8 8 0 0 8 w = o X o X X     X X O O O O @ @ O O O O O O O O @ # , , , # o o # o o # # # # # , , , , , 3 3 3 4 4 8 8 8 0 q q l b b C Y K Z A Y A A A L K K K ",
"6X6X6X6X6X6X8XiXiXiXiXiXiX8XiXiXiXiX7X6X%X.X{.{.J.J.J.J.J.J.J.J.J.J.J.J.J.J.J.J.A.x.g.x.x.G.G.L.J.K.}.}.}.}.J.}.}.}.{.{.}.}.}.}.}.}.}.oX}.}.}.oX|.oXoXoXoXoXoXoXoXoXoXoXoXoXoX:X:X:X:X:X:X:X:X:X+X:XoX:X:X+X+XoX}.D.4.! w % d.Y.U.U.U.U.U.U.U.U.U.U.U.U.U.U.U.U.U.U.U.U.U.U.U.U.U.U.B.o ; g /  ...s.d...} ' h t ; % 3.T.Y.U.U.Y.U.U.U.U.U.U.U.U.Y.U.Y.Y.Y.U.Y.U.U.U.U.U.U.U.Y.Y.T...o 7 S ] ,.l.A.D.H.J.H.H.H.D.e.,.H 7 # B.U.U.U.U.U.U.U.U.U.U.U.U.U.Y.U.Z.o 5 d U J y 5 f U.U.U.U.U.U.U.U.U.U.U.U.Y.Y.U.U.U.I.o 5 f V V w @ j.U.U.U.U.U.U.U.U.U.U.U.U.U.U.U.U.Y.^ # y f f c 5 r J.T.U.I.U.Y.I.Y.U.U.U.U.Y.Y.U.Y.U.U.U.Y.U.Y.Y.' Z.Y.U.Y.U.Y.U.U.T.Y.U.Y.B.& 7 V B 0 & d.Y.U.U.U.U.U.U.U.U.U.U.U.U.U.U.U.U.U.U.U.U.U.U.U.U.U.U.Y.U.Y.^ 5 V *.w.(._. X X X X X X X X X X X_._._._._.).1.( c.c.D.e.4.] S d S d J S ,.4.*.( ! H [ S d S ! S ] ( f V V V d d V F S V V B s y s s d s s s y y y y y y 7 s y y y 6 F *.*.] U P V B s s V V B y y 7 6 6 6 7 : ; ; ; & ; ; & # # & & # 0 >.i.q.q.q.q.>.&.U U Y Y A N A s 0 w w 5 5 w w ; ; 5 5 5 5 5 w 8 8 8 8 8 8 8 w b b q 0 q q w 8 q A K U -.#.&.,.K.R.E.k.' E.R.R.M.R.p._ _ u + + 5 y & & t t 9 1 + + + 2 ) g i e u u 2 2 2 u =.w.b.b.v.v.v.v.v.n.n.~.~.[.[.XXXXXXXX.X.X.X.X.X.X.X.X.X.X.X.X.X.X.X.XXXv.b.b.v.[.H.[.b.) u * $ * *.[. X.X%X%X.X-Xc.2.G e r u Q 2.~.;X:X:X:X%X%X2X8X9X9XpX9X9X9XlXvXvXlXlXvXvXvXvXAXvXAXAXAXAXAXAXAXAXvXvXlXvXlX8X8X8X8X*X*X%X$Xc.).lXc.'.8X8X8X1XXXXX3X.XG y A l 8 9 9 K U U X.U P Z V B B B F H J 0 q N w #   X o X X X X X X X X X X X X X X X X X X X O @ @ @ @ o # # # # # # , , , 3 3 3 3 4 8 l k n C L M n b b 0 w 5 = # # # @ @ @ @ @ @ @ O @ X @ @ @ @ O O O O O O O O O O @ @ O @ , 3 3 3 3 3 4 8 0 0 w w = X X X X X X   X X X O O O O O O O O O O O O O O # , 3 , # @ X @ o @ @ @ @ @ # # # , , , 3 3 8 0 8 3 8 l b z 0 z b n A K I P Y A C b z C L K P ",
"6X6X6X6X6X6X6X6X8X8XiXuXuXuXuXuXuX6X6X7X2X%XoX{.J.J.J.J.J.J.J.J.J.J.J.J.J.J.J.J.}.H.x.g.g.g.h.A.J.J.K.}.}.}.}.}.}.}.}.}.}.}.}.}.}.}.oXoX}.}.|.oX|.oX+XoXoXoXoXoXoX+XoXoXoX+XoXoX+X:X:X:X+X+X:X:X+X:X:X:X+X+X:X@XoX).6.{ s % ..Y.U.U.U.U.U.U.U.U.U.U.U.U.U.U.U.U.U.U.U.U.U.U.U.U.U.U.j.& 5 D /  .a.d.d.<.<.' / D 7 1 $  .U.U.Y.U.U.U.U.U.U.U.U.U.I.U.Y.U.U.Y.Y.U.U.U.U.U.U.Y.Y.U. .% w d ( =.5.z.x.A.D.H.H.H.D.A.5.,.! p & B.U.U.U.U.U.U.U.U.Y.U.U.U.U.Y.U.Z.o 5 s F d y 1 { I.T.U.U.U.U.U.U.U.U.U.U.U.U.U.U.I.I.  8 f A B 7 @ j.U.U.U.U.U.U.U.U.U.U.U.U.U.U.U.U.Y...% y B J S w - j Z.U.U.U.Y.U.Y.U.U.U.U.U.U.U.U.Y.U.U.U.Y.T.j.  j.Y.T.T.Y.U.I.U.T.Y.I.Y.B.; q A V q & j.Y.U.U.U.U.U.U.U.U.U.U.U.U.U.U.U.U.U.U.U.U.U.U.U.U.U.U.U.U.U.^ 6 V =.e.).'. X X X X X X X X X X X X_._._._.).z.1.5.c.z.,.] H S H J ] ( ~ ! ] ~ ( D ! D S S S ( H ] S s B V F J F V V B s B s s B B y y y y y y y y y y s 7 s 7 y s J e.S.S.S.S.(.y.u.q.q.c.).(.c.y.q.1.=.*.&.H s : ; & ; 5 y U =.q.=.( >.:.:.>.>.q.:.:.&.` U Y Z Z A p p w w w w w 5 ; ; ; 5 5 5 5 w w 0 0 w w w w w w 0 w w w 5 w w 0 q b n Y I I F ) L.R.T.R.s.R.M.M.R.R.R. ._ g 1 1 5 y & : y y t 1 2 + + u 2.) G G v B u 2 $ u =.w.l.b.v.v.v.v.v.H.~.~.[.[.[.XXXXXXXX.X.X%X.X.X.X.X.X%X.X.X.X.X.X.X.XXXb.b.b.n.[.H.v.} e * : r $ g w.[. XXX.X%X[. X.Xl.G e r 2.XX1X1X;X.X.X.X1X3X3X9X9XpX9X9X9X9XlXvXlXlXvXvXvXvXvXvXAXAXAXAXAXAXAXAXvXvXlXvXlX8X8X8X8X*X&X$X$Xc._.&X%XlXlXvXlX1XXX.X8X Xv y P c 1 8 5 C P U X.X.P P Z B B B F F F s 0 q # # # o X X X X X X X X X X X X X X X X X @ @ @ @ @ @ # # o # # # # # # # # , , , 3 3 8 8 4 4 k n n n n A b 0 4 3 # @ o # # @ @ @ @ @ @ O @ X @ O O O O O O O @ @ @ O O X O @ @ @ , , , @ 3 3 4 8 8 8 8 w # X X X X X @   X X X X O O O X O O O X X O O O @ # # # o @ o # @ o @ @ O O @ # @ # , , 3 3 8 0 8 8 0 l b b z z z z k k b A A A N q 0 k k k k l ",
"6X6X6X6X6X6X6X6XiX8XiXiXiXuXuXuXiXuXiXiX6X2X%XOX{.J.J.H.J.J.H.J.oXK.J.J.J.J.J.J.J.J.J.H.x.h.f.d.A.H.K.}.K.}.}.}.}.}.}.}.}.}.}.}.|.|.|.oXoXoXoXoXoXoXoXoXoXoXoX+XoX+X:X:X:X:X:X:X:X:X:X:X:X:X:X+X:X:X:X:X:X:X:X:X@XJ.w.=.S 6 [ I.U.U.U.U.I.U.I.I.U.U.U.U.U.U.U.U.U.U.U.U.U.I.I.U.I.I.3.% r h }  .s.d.d.d.<. .' Q g u ; o D P.I.U.T.Y.Y.U.U.U.Y.U.Y.U.U.U.Y.Y.U.U.I.Y.Y.U.I.Y.Z.R o ; d ( *.4.l.z.A.A.D.D.D.D.D.x.5.| ] C % B.U.U.U.U.U.U.U.U.U.U.U.Y.I.T.I.E.. w V S V q 6 ..I.I.U.U.Y.Y.U.Y.Y.U.Y.Y.Y.U.Y.Y.U.E.o w Z Y S c & ..Y.U.U.Y.Y.Y.Y.T.Y.Y.Y.Y.Y.Y.Y.U.U.B.& p S ( ^ Z w % > B.Y.I.U.T.I.U.U.U.U.Y.U.U.I.Y.T.T.I.I.B..   ~ Y.U.I.I.T.U.Y.Y.U.T.Y.B.; N J V C t j.I.Y.I.U.U.U.Y.U.U.U.U.U.U.U.U.U.U.U.U.U.U.Y.Y.Y.U.U.Y.I.I.Y.' q Y =.c.). X X X X X X_.'. X X X X_._.)._.)._.{.4.[ 5.,.] ( H S H ! D ( S J g ! ( ] S S V H J H ] H d f J F S V B d B B B B d d y y y y y B y y B y y y s 7 s s 7 V q.c.y.c.~.y.c.u.>.u.).(.'.OXOX'._.'.'.'.OX_.w.V F 7 y y.:.Y u.(.y.w.q.:.:.:.:.:.q.:.-.` U Y Z A N p p q q 0 w w 5 5 ; 5 ; 5 3 w w w w 0 q q w 5 w w w w w w w w w 0 b b N A L I F f  .wXR.k.a.R.M.M.M.M.a.a. .c 1 6 k 9 : t B u c 2 1 . $ d 2.@.) ) Q @.Q 2 e * *.l.l.z.v.v.v.v.n.n.n.[.[.~.XXXX.X;X.X.X.X.X.X.X.X.X%X1X1X%X.X.X.X.X.XXXv.b.b.n.H.[.5.Q g r e r u ! 2.v.[.[. X.X.X.X.X.Xb.@.5.[..X3X0X:X.X.X%X%X1X9X9X9X9X9X9X9X9XlXlXlXlXlXvXvXlXvXlXvXbXAXAXAXAXAXAXvXvXlXlXlX8X8X8X8X2X*X%X$X_.'.%X&X8XcXcXvX8X.X%X1X[.v 9 c c < 1 1 q K +.U U U U B B B B B F F N w w = # 3 o o @ X X X X X X X X X X X X X @ @ @ @ @ X @ @ @ @ o o o # # # # < # @ , 3 4 0 8 3 3 3 3 8 z n b n b 0 8 3 # # # @ o o o o O O O @ O @ @ @ @ @ @ @ O O O O @ O O O @ @ @ , 3 3 , , # , 3 3 4 3 , # # @ o # @ X @ X O O O O X X X X O O O O O O     O O o @ @ o @ O @ @ @ @ @ @ @ @ o # # # 3 3 3 8 0 8 l A C k 0 b l k k k b n Y Y s 0 5 8 8 8 8 8 ",
"*X2X6X6X6X6X6X6X8X8XiX8XiXiXiXuXuXuXiXiX6X2X%X+X{.{.J.J.J.H.A.g.G.J.K.J.J.J.J.J.J.J.K.J.H.G.G.G.H.J.K.}.K.}.}.}.}.}.}.}.}.}.}.}.|.|.}.|.oXoXoXoXoXoXoXoXoXoX+X+X+X+X+X:X:XoXoX:X:X:X:X:X:X:X:X+X:XoX+X+X+X:X:X:X@XJ.v.,.H 6 r Y.U.U.Y.Y.U.Y.Y.U.U.U.U.U.U.U.U.U.U.U.Y.Y.Y.U.T.Y.I.U.| : f ^ } ..s.d.d.d.<.| | ' ~ f > 7 % . 3.P.I.U.U.I.I.I.Y.U.U.U.Y.U.Y.Y.U.Y.T.I.I.U.P.3.% # 7 B H [ 4.e.z.z.x.A.D.D.A.D.D.A.z.,.( Z > B.U.I.U.U.U.U.U.U.U.U.T.U.I.T.U.P.2 l V J Z B 9 B.Y.T.I.U.U.U.U.Y.U.U.I.I.I.I.U.U.U.Z.- q F J J N 6 ..I.I.I.U.U.I.I.I.U.I.I.U.U.U.I.I.U.Z.% Z U &.] U J 9 1 o { P.U.I.Y.U.Y.Y.U.Y.U.U.U.I.U.I.I.B.% @ X . P.Y.Y.I.Y.I.U.I.I.I.U.B.u F U ` K 6 h.T.T.Y.U.U.U.U.U.U.U.U.U.U.U.U.U.U.U.U.U.U.U.U.U.U.U.U.T.U.T.' N ` 4.y.). X X X X X X X X'._._._. X_._._.).D.S.D.D.w.~ ( ! ( H S J ] ^ h ! ] ( [ H H H S d H H H d S J J S V B B B B B B B d d y y d d y y d y y y y s 7 y 7 y F 1.S.y.y.c.c.~.(.(.(.OX'.$X$X=X$XOXOX$X*X$X%X X(.(._.w.1.].'.>.U S.c.u.:.:.:.:.-.-.:.>.&.U P Y Z A N N s q 0 q w w 5 5 5 ; 5 5 5 w w 0 q p b q w w 5 w 5 w w w w w w 0 8 q s C M m V D E  .a.d.j.R.M.a.k.a.p.M. .u 9 6 9 y t t g u c 6 + $ $ g 2.2.2.m.@.) ) G e * @.w.l.z.v.v.v.v.H.n.n.[.[.XXXX.X;X;X.X.X.X:X:X%X1X%X1X1X1X1X.X.X+X.X.XXXv.b.b.n.n.n.2.^ ) Q e e g 2.2.b.).[.XX.X%X%X1X1X1X1X1X8X1X1X.X.X.XXX.X1X3X3X7X9X9X9X9X9X9X9X9X9X9X9XlXlXlXvXvXvXbXAXAXAXAXAXAXvXvXvXlXlX8X8X8X8X8X*X%X$X_. X&X*X8XlXcXvX8X1X%X%X~.v 2 9 k < 1 1 9 Z X.U U P &.V y B B B G V V w 5 # o # o o @ @ X @ X X X X X X X X X X X X @ @ @ @ @ @ @ @ @ @ @ o o o # # # # , 3 0 0 3 , , , , 4 0 k k n l 0 w w 3 = # @ o @ @ O O O O O O @ @ @ @ @ @ @ O O O O @ O O O # , 3 8 8 w , @ @ @ , 3 3 3 3 w 3 = = = o X @ @ X O O O O X X O O O O O O O     O O @ @ @ @ @ O O O O O O O O O @ o # # , , 3 3 8 0 0 0 l n C C l b l 0 0 n K Y N q q k l k 0 9 ",
"*X*X2X6X6X6X6X6X6X8X8X8X8XiXiXuXiXiXiXiX8X6X&X%X|.{.H.H.J.J.H.A.g.h.h.G.J.J.J.J.J.J.J.J.J.J.K.K.K.K.J.J.J.}.}.}.}.}.}.}.}.}.}.}.}.}.}.}.}.|.}.}.oXoXoXoXoXoXoXoXoXoXoXoX+XoXoXoX+XoXoX:X:X:X:X:X:X:X+X+X+X+X:X:X+X{.D.5.{ F > P.Y.Y.Y.U.Y.Y.Y.Y.Y.U.U.U.U.U.U.U.U.U.U.U.U.Y.U.Y.Y.T./ t h ~ } ..d.d.d.d.d.| | { / ^ g 6 6 % . % ..B.Y.Y.Y.Y.U.I.Y.Y.Y.Y.Y.Y.Y.Y.Y.T.G.| $ o . > d H *.1.6.l.z.x.z.z.z.z.z.z.z.z.w.1.[ J f B.U.T.U.U.U.I.I.U.U.U.I.U.I.Y.I.P.r 7 V J F f r Z.I.I.U.U.U.U.U.U.U.I.Y.Y.Y.U.Y.U.Y.Z.; N J ] H Z y | U.U.U.U.U.Y.Y.Y.Y.Y.Y.Y.I.U.Y.Y.I.P.r Z U &.{ *.X.U 7 ; , . ..Z.Y.Y.Y.Y.U.U.U.Y.I.Y.Y.P.{ % O X X . ..B.B.B.B.B.B.B.B.B.Z...g ( &.*.U h B.Y.Y.I.U.U.U.U.U.U.U.U.Y.U.Y.U.U.U.U.U.U.U.U.U.U.U.U.U.U.I.U.| J ] w.(._. X X X X X_._. X X_. X X X_.)._.).).{.D.w.^ D ~ J H H H h ~ D ] ] ( ] ! H ] H H d H ( J f H J F V d s d B d s d d d d d d d d d y d d y y 7 s s V ( q.u.y.c.(.(.~.c.(.~.(.(.$X=X*X*X*X*X*X*X*X*X*X=X$XOX'.S.(.'.$X$X'.].(.(.u.i.:.:.:.&.&.:.>.#.U U Y A N N N s q 0 0 w 5 5 5 5 5 5 5 5 w w w p b p q w w w w 5 w w w w w w 0 0 q q b M n J { ' W a.'  .M.a.p.p.p.a.R.k.g 9 6 9 c y u d G B t & + $ u 2.2.@.b.s.@.) ! g u ) l.l.l.b.v.v.H.n.n.~.[.XXXXXX.X.X:X.X.X:X%X:X:X1X1X1X1X1X%X.X.X.X.X.XXXH.b.b.v.n.v.s.2.5.2.Q Q *.l.l.b.v.).[..X+X%X%X2X8X8X1X2X1X.X.X.X.X%X%X%X%X1X3X8X9X7X9X9X9X9X9X9X9X9X9XlXvXvXvXvXvXAXbXAXAXbXbXvXvXvXlX8X8X8X8X8X6X2X%X%X_. X&X2X8X8X8XlX8X1X%X%X~.v 2 2 < < 1 8 q C U U U U &.B y B y B F Z Z w ; o o # o o @ @ @ o X X X X X X X X X X X X X X X X X X X X @ @ @ @ @ @ @ @ @ # , 8 0 w , # @ @ < < 4 4 0 n b b 0 8 w 3 # @ o @ O O O O O X X O O O O O O O O O O O O O @ o 3 3 8 0 8 3 , @ @ @ @ 3 3 3 4 w 5 3 5 = o X @ @ X X O O O O O O X X O O O O X X O O O O O @ O O O O O O O @ @ @ # o @ @ @ @ , 3 3 8 8 4 0 n A b l k l k b A Y Y V N N b b l l l ",
"2X2X2X&X&X2X2X6X6X6X8X8X8XiXiXuXiXiXiXiXiX7X2X&X+X|.D.D.D.J.J.A.g.d.d.h.G.K.K.K.J.J.J.J.J.J.J.J.J.J.J.J.K.K.}.J.}.}.}.}.}.}.}.}.}.}.}.}.}.}.}.}.oX|.}.|.oXoXoXoXoXoXoXoXoXoXoXoX@XoXoXoXoX+X:X:X:X+X+X+X+X+X+X:X+X}.[.z.1.( u | ..| | | | | | | } } } } } } } } | | | | | | | | ....j g ^ ' | ..d.d.d.d.3.<.<.| [ ^ ^ h f > ; 3 @   > { g.B.Z.U.I.U.Y.U.I.Z.B.j.' > . + . ; > t S ( =.5.5.z.z.l.l.5.5.g.5.5.5.6.4.| ] J f { | } { { ' { ' { { { { { | | ....6 s V F V f t g.B.B.h.j.j.d.j.d.j.d.j.j.j.j.h.h.B...s F H ( U Z s ^ B.B.j.j.d.j.j.j.j.j.j.j.j.j.h.j.B.B.f S ] *.{ *.&.J g t 9 1 # . E d.Z.P.I.I.I.E.Z.j.' . # # w = k l ; : + + + $ # + 1 1 7 V U &.=.*.] ( S y & % # o o o o o o o @ @ @ o o @ o @ X X X o o X o o 1 > u B +.4.z.v. X XOX X X X_. X_. X'._._._._.).)._.).z.5.^ ^ D H D J ! [ ~ ] ~ ] ^ ] S f ( ] V H H J H V J ] S V V s s s d s s s s s s s s s s y B d y t d B V U :.q.e.y.S.(.(.).~.(.(.(.].].$X*X*X*X*XiX*X*XiX*X*X*X$X$X$X'.'.'.$X$X$X'.].(.y.q.q.:.:.>.>.:.>.&.U U Y A N N s y q 0 0 w 5 w 5 5 5 5 5 5 5 w 0 q q w w w w 5 w 5 w w w w w w 0 q q q b n b Z [ n.K.R. .j.M.M.p.W p.a.a.s.g c 2 c c B B g g G t 2 * $ e 5.m.@.s.b.2.@.@.Q g ( l.l.l.b.v.v.n.n.n.~.[.XXXX.X.X.X%X.X%X.X%X:X:X1X1X1X1X%X.X.X.X.X.X.XXX[.n.b.b.b.b.b.v.[.v.b.b.v.v.v.v.v.).{. X.X%X1X2X1X%X%X.X X X[.XX X X X.X+X+X1X2X3X3X7X9X9XpXvXvX9X9X9XlX9XvXvXvXvXMXbXbXbXbXbXvXvXvXlX8X8X8X8X8X8X2X%X%X). X2X2X8X8X8X8X8X2X1X1X[.G 9 2 2 8 5 q q c P U P U ( Z y y y y F F Z q ; # # # # o @ o o @ X X X X X X X X X X X X X X X X X X X X @ @ @ @ @ @ @ @ @ # , 8 w 3 # @ @ # @ < 3 3 4 0 n b 0 8 4 3 = @ o @ O O @ @ O O X O O O O O O O O O O O O @ o # , 3 3 3 3 , @ @ @ @ , , , 3 4 w 3 # # # O X O O X X O O O O O O X X O O O O X X X O O O O O O O O O O O @ @ o o # # o o @ @ , , 3 w 8 8 8 0 b b b 0 l A K K K K N N b b b b b N ",
"2X&X2X2X2X2X6X6X6X6X6X6X8XiXiXiXiXiXiXiXuX7X6X&X%X+XD.D.A.D.J.D.h.g.d.d.g.G.J.J.J.J.J.J.J.J.J.K.J.J.J.K.}.}.}.}.}.}.}.}.}.}.}.}.}.}.}.}.}.}.}.}.oXoX}.}.oXoXoXoXoXoXoXoXoXoXoXoXoXoXoXoXoXoX:X:X:X+X+X+X@X+XoX:X+XoX{.F.5.=.( j 6 ; & o o # o # o o o o o o o o o X X o o o % & > f f ^ ' } <.d.d.d.3...3.3.| | ' ' E h d t t > & & o . . .               O O O     # - > > t G h ( ,.4.6.6.6.5.4.,.,.=.[ [ =.,.{ ] ] F s : : % X X . .     X X o @ + + ; : 5 7 g f s s 8 6 % o o + o X o X # #   o # o o # 5 q s F H ( H F s r ; & # o o o X X X     X X   # 5 % s B F U ( ( &.] H F G y y ; - -       .   O < . o . # = > a l a > 7 ; 5 5 # ; ; w q b A J ] *.1.1.=.*.J P Z p w w 5 5 w 5 5 5 5 5 5 5 5 5 5 5 5 5 5 5 ; 5 5 w C N S &.:.w.S.{. X XOXOXOXOX X X X X X_._._. X[.).{.z.2.~ ~ h D ( D D D H ] ] ] [ 1.h h { =.U ( J ( ] S S J ( B B B s s d s s s s s s s s s s s y B y d B U =.q.=.q.e.e.c.c.y.(.(.~.(.(.`.$X$X*X*XiXxXkX*X*X*XkX*X*X*X*X*X$X#X].'.$X$X$X].(.q.y.r.q.:.>.&.-.>.&.&.U P Y A V B s y q w w 5 5 5 w ; 5 5 5 5 5 w w w w w w w 5 5 5 5 w w w w w w w 0 l l b b l s F ,.L.<X .k.M.M.p.p.j.L.wXn.G 9 9 c A B g h i g u : & $ $ 2.n.2.@.s.s.2.2.Q g ) 5.l.l.b.v.v.v.n.v.[.XXXXXX.X.X%X%X%X1X1X1X1X1X1X1X1X.X.X.X.X.X.X.X.X[.[.n.v.b.f.m.b.b.v.b.b.v.[.[.H.D.).[. X|.OX%X%X%X X).c.e.w.w.5.1.w.c.). X X X+X%X1X2X3X7X9X9XpXvXpX9XpXpXvXvXlXvXvXvXbXbXbXbXvXvXvXvXcX8X8X8X8X8X6X*X%X%X{. X2X2X3X2X8X8X8X3X1X3X~.v 9 9 2 1 8 l l l Z P K U U B y y t t B Z V q 5 # # # # @ @ o o o X X X X X X X X X X X X X X X X X X X X @ @ @ @ @ @ @ @ @ # , 8 5 # O o O @ @ @ @ , , 4 0 0 4 8 w 4 3 = # # # # @ O O @ O X O O O O O O O O O O O @ o # @ @ # # @ @ @ @ @ # , @ , 4 8 4 , @ @ o O O O O X O O O O O O O X X O O O O X X X O O O O O O O O O O O O O @ @ @ # # # # , , 3 3 3 w 8 3 4 l A C b n K K A A A w 0 q b b b b b ",
"&X&X2X2X2X2X6X6X6X2X2X6X7XiX6X6XiXiXuXuXiX7X6X2X2X&X+X{.H.J.}.J.H.G.A.B.A.G.J.J.J.J.J.J.J.J.J.J.J.J.J.J.K.K.K.}.K.K.K.}.}.}.}.J.}.}.}.}.}.}.}.}.oX}.}.}.oXoXoXoXoXoXoXoXoXoXoXoX@XoXoXoXoXoXoXoX:X:X+X+X+XoX:X:X+X+XoXH.S.w.1.~ S f t t t t t t t t t t r r r r t 6 t t t t t u S S ^ ' }  .<.s.s.d.d...3.<. . .' E E h j g t t : % % % X X X o . o o o o o X ; & : ; 6 6 f f r ^ ^ ] *.4.=.[ ,.[ ( ! H H H H J H V F s s ; # # o X X . . X X X . o o & % % t > f f t r 9 ; 5 1 o - o o o - - = ; 5 5 5 7 p 7 f d S g f f d r > : % o X # # # o o - # X # ; 5 5 l 9 V f h h h D h h d s 7 : > > , , # # o o o # # @ o > > 7 2 u y : B ; 6 6 : 6 t t y g ( &.=.1.4.4.4.:.:.*.&.U U U P P U P P P P P U U P P P P P P P P J P U U ( &.=.4.w.c.(.'. X XOX XOX X X X X X X X X X[.).{.D.5.[ ^ ~ h ( ] ( ( ) ] ] ^ { 6.] h ,.w.] ( U H ] =.d S B B s d d d B d d d d d d s s s s s s B y B G d *.y.e.q.y.S.y.y.y.c.(.(.(.(.`.'.$X=XxXxXcXkX*X*X*X*X*XxX*X*X*X*X=X#X:.(.=X$X$X'.].(.^.u.q.9.>.&.&.&.>.&.` P Y V V B s y 7 w w 5 5 5 5 ; 5 5 5 5 5 w w w w 5 5 5 5 5 5 5 5 w w w w w 8 q l l b N b q N h <.d.| j.M.a.p.W j.wXwXb.G c q c Z B u h i i u & % $ * Q v.b.@.2.m.2.5.) Q ! 2.l.l.b.v.v.v.v.n.[.XXXXXX.X%X%X%X1X1X1X1X1X1X1X1X:X.X.X.X.X.X.X.X|.[.[.H.v.b.l.l.l.l.l.b.b.l.[.[.[.[. X X X XOX+X%X%X Xc.1.*.1.1.*.( ( 1.). X X X.X%X%X%X2X3X8X8X9XvXvXvXpXvXvXvXvXvXvXvXvXbXvXvXvXvXvXvXlX8X8X8X8X8X8X&X$X%X X{.2X8X8X3X1X1X1X1X%X3Xl.y 9 c 8 1 9 l l l C Z A P +.Z 9 y y 7 y Z V y 5 # # = 3 X o o o @ X X X X X X X X X X X X X X X X X X X X X X X X O O O O # # , 3 # O O o @ o o O @ @ @ 3 3 3 4 8 8 w 3 = , , , # o O O O O O O O O O O X O O O O O O @ o   O @ @ @ @ @ @ @ # @ @ , 4 8 4 3 # o o @ @ o O O O O O O O O O X X O O O O X X X O O O O @ @ O O O O O @ @ @ @ O @ @ # , , 3 3 3 w 8 8 8 0 l b b A K Y A C b q 5 w l b n n b b ",
"&X&X&X2X2X6X2X6X2X2X2X6X6X7X6X6XiXiXiX8X6X6X6X6X7X7X2X+X}.K.J.J.K.H.H.J.K.J.J.J.J.J.J.J.J.J.J.J.J.J.J.J.J.J.J.J.K.K.K.K.}.}.K.K.}.}.}.}.}.}.}.}.}.}.}.}.}.}.}.}.oXoXoXoXoXoXoXoX@XoXoXoXoXoXoXoX:X+X+X+XoX+X+X:X:X+X@X{.D.F.z.6.*.] ^ Q Q Q R R Q D D D D D D D D h h R R R R Q ' / } | ..3.d.<.d.d.d..... . .f.K.J.A.3.A.6.3.w.6.{ { { ( ! ( ! H J S J S s t f U ( ,.5.S._.F.@X{.[ > D ] ! ( 6.S.S.e.w.:.&.H B J B 6 ; d s p q q q q q q q q q t d d S H ( *.,.,.5.z.6.5.3.,.{ [ [ ] ] ( ( F y . y F V f f ~ ,.z.D.J.J.J.A.B.f.3.,.[ [ ] ] ( ( H ! J J ( U y : q S { ,.3.6.6.5.5.5.w.4.| { [ ( ! H S S S d d d d J ( ] ,.5.l.z.z.A.z.g.5.6.<.,.,.,.5.{ u B ' 5.F.S.U t =.w.4.4.1.,.=.,.1.,.,.1.1.1.1.1.1.1.1.1.:.:.=.=.=.=.1.1.1.w.e.c.S._._.OXOXOXOXOXOX X X X X X X X X X).D.D.S.{ ] ^ ( [ [ ] ! H D ( ^ ] ,.,.~ { H g ] ] H ! ] ] d d d d B d d d d B d d d s d d s s s s s y S *.q.c.4.&.1.y.y.S.c.c.y.y.~.~.(.(.(.].=X*X*XlXiX*X*XkXkX*X*X*X*X*X=X*X$X$X=X$X$X(.:.~.(.y.y.y.u.q.:.&.&.&.>.&.` U Y V V N q q w w w 5 5 5 ; = ; 5 5 5 3 5 w w w 5 5 5 5 5 5 5 5 w w w w w 8 0 0 0 0 q q N N G ^ R ' j.a.a.p.p.p._ T T d B 1 y Z Z d R } R u 6 & . $ e 2.b.2.s.b.s.5.*.) Q =.l.l.b.v.v.v.n.n.XXXXXX.X.X%X1X1X1X1X1X1X1X1X1X1X:X1X1X.X.X.X.X|.XX[.[.H.H.v.b.l.l.2.2.2.5.w.D.D.).{. X X XOXOX X X X(.e.1.( *.1.=.+.( *.w.). X X X.XOXOX%X&X&X&X2X7X9X9XvXvXvXvXvXvXvXvXvXvXvXvXvXvXvXcXlX8X8X8X6X8X*X&X%X%X X).%X8X9X0X1X1X1X1X1X1X2.2 c C 8 1 9 9 l c c C N P &.P y y c y y F Z N 5 # # w w o o o o X X X X X X X X X X X X X X X X X X X X X X X X X X O O O # @ # @ @ O O O o o # O # @ @ # , , 3 3 4 3 3 # 3 3 , @ # @ O O O O O O X X O X O O O O O O O O X O O @ @ @ O O @ @ @ @ , 3 3 3 3 @ o # @ @ o @ @ O O O O O O O O O O O X X X X X O O O O O @ O O @ @ @ @ @ @ o O @ # # @ , 3 3 3 8 0 0 0 0 0 0 l C A A A A N q l N C A K Y Y A ",
"&X&X&X2X2X2X2X&X2X6X6X7X6X7X6X6X6XiX7X6X6X6X6X6X2X2X2X.X}.J.H.J.J.J.J.H.L.H.J.J.H.J.J.J.J.J.J.J.J.J.J.J.K.J.J.J.K.K.K.K.}.K.}.}.K.}.}.}.}.}.}.}.}.}.}.}.}.}.}.}.oXoXoXoXoXoXoXoXoXoXoXoXoXoXoX@XoXoXoX@X@X+X+X+XoX@XoX+X|.J.F.S.z.5.,.[ [ { { ' { ' { { ' ' ' ' ' ' ' ' } } } }  . .<.<.d.d.d.d.s.d.3..... .} f.,XoXK.H.J.G.d.B.x.g.g.5.3.6.6.,.=.] ] [ =.*.=.,.6.z.S.{.oX+X>X%XiX[ r 5.*.g g 4.4.1.=.H 7 # & 5 % 6 % o % ; # 5 ; ; ; ; ; > > > 6 q t f d H ^ *.| 6.5.h.x.x.g.z.g.g.6.5.6.,.g   d H H H ! [ z.H.J.K.<X<X<XP.P.L.A.A.z.z.z.5.4.4.,.,.[ [ ( u % y ( [ ' | ,.,.,.,.,.,.,.,.[ [ ( ] ~ ^ H J S H H ^ ! ] [ ,.6.d.B.J.K.K.oXP.K.J.J.D.F.S.*.% B >...J.D.Q * 1.c.S.S.S.S.c.c.c.S.S.S.S.S.S.S.S.S.c.c.c.c.c.c.c.c.c.c.c.S.(.).). X X X XOXOX XOXOX X X X X X X X_. X X XJ.| ,.~ D S S H ! S H ~ ^ D [ [ ^ ~ h ^ [ ] ] ( ] =.S S u d B d d d d d B d d d s s s s d d B B d F c.S.y.c.w.q.e.y.(.(.u.c.y.~.(.(.(.`.`.=X*XkX*XiXkX*X*X*X*X*X*X*X*X=X=X=X=X$X$X#X$Xu.(.'.`.`.^.u.q.>.&.&.&.&.` U U Y Z V B p q w w w 5 5 5 = = ; 5 5 = = 3 w 5 5 5 5 5 ; 5 5 5 5 w 0 w w w w w 8 0 l q q N N y S j g  .a.M.p.W j.k.j. .Q u t t B B g ' h./ h 6 6 + . * g v.b.2.2.m.m.@.) Q *.w.l.b.v.v.v.n.~.XXXXXX.X.X1X1X1X1X1X1X1X1X1X1X.X.X1X1X1X.X.X.X|.|.XX[.H.H.v.v.l.*.@.) *.1.w.c.e.c.). X_. XOX XS.e.(.1.( &.+.( +.&.( ( &.>.1.u.). X X X X XOXOX%X%X2X8X8X9X9XvXvXvXvXvXvXvXvXvXvXvXvXvXcXlX8X8X8X8X8X8X%X%X$X XS.XX1X9X3X1X1X1X1X1X%X( + C C 1 1 9 9 l N l A N K U ( Z 9 y y y F J V 5 # 3 w q # o o @ X X X X X X X X X X X X X X X X X X X X X X X X @ @ @ @ @ @ @ @ @ @ o @ X o o X O @ @ @ @ @ @ , , , 3 3 3 , @ @ @ # # @ O O O O X X X O O O O O O O O O O O O O O O O O O @ @ @ , , @ @ 3 # @ @ @ O O o o @ @ @ O O X X O O O O O X X X X X O O X O O O O O O O O O O O O # # @ @ @ @ , , 3 3 8 0 8 4 0 b C b l b n A A N Z Z K K K K I Y ",
"&X&X&X&X&X&X2X2X2X&X2X2X6X6X6X6X6XiXiXiX6X2X2X2X3X2X1X+X{.H.H.J.J.J.J.J.J.J.J.H.J.J.J.J.J.J.J.J.J.J.J.J.J.J.J.K.J.K.K.J.J.J.K.}.}.J.}.}.}.}.}.}.}.K.oX}.}.}.}.}.oXoXoXoXoXoXoXoXoXoXoXoXoXoXoXoXoXoXoXoX+X+X+X+X+XoX@XoXoXoX{.{.H.H.x.3. ...d.<...d.<. ..... ..... . . . . .........a.d.d.d.d.d.d.s.3.<. . .} d.<X<XJ.A.P.K.L.G.G.A.G.J.g.H.A.f.5.3.6.5.e.D.S.F.H.J.J.+X+X>X>X>X>X{.[ S.z.=.] J ] V ; X   X # o X X X X     X O o X X X o o o o # ; & ; 7 t s J ( ] =.3.6.g.B.B.G.G.J.J.6.t o V U *.] { ,.J.oXK.T.<X<X<X<X<X<XP.K.K.K.J.D.F.F.z.e.,.] J ;   s V S S S S J J J J H J J S S S S S d d f d d d d d S S ( [ =.g.h.L.K.K.<X<XT.T.oXoXF.[ * B *.,.c.F.] t 1.S.)._._. X X X X{.{.{.{.{. X X X X X X X X{.{.{. X X X X X X X X X XOXOXOXOXOXOXOX X X X X XOX X X X_.@XH.g.5.[ 1.=.H S ] ] H ] ^ J [ ] ^ ~ D ] [ ] 4.*.( ] D d d d d B B s V s s B d s s y B B s s B B B ( q.c.q.e.y.U ] y.c.(.(.c.c.y.~.(.(.(.(.].=X*XiX*X*X*X*X*X*X*X*X=X*X=X=X=X$X-X#X#X'.].#X$X'.`.(.y.y.r.:.>.>.>.&.] U P Y V V N p q 0 w 5 5 5 5 5 ; ; ; ; 5 5 5 5 5 5 5 ; ; 5 5 5 5 5 5 w w w w w 8 0 0 0 0 l C A Z N S h R W k.a.p.p.a.a.} Q t 1 y c u i / s. .R y & 2 . % * *.[.s.@.s.m.@.Q Q ) l.l.b.v.b.v.n.[.XXXXXX.X.X1X1X1X1X1X1X1X1X1X1X1X1X1X+X+X.X.X|.[.[.H.H.v.b.l.w.*.G G *.=.1.4.4.5.z.F.D.D.{. X Xc.4.w.1.*.*.( U U +.>.( U ( +.&.u.c.c.c.c.).).). X X X%X%X8XlXuXvX9XvXvXvXlXvXbXvXvXvXcX9X8X8X8X8X6X6X*X*X%X%X%Xc.).1X3X0X0X1X1X1X1Xb.9 1 k Z 9 1 8 9 l l l N C N P &.P 9 c B y H F F 5 , q q q 3 @ @ @ X X X X X X X X X X X X X X X X X X X X X X X X X X X X X @ @ @ @ O O O @ X X X X X @ @ @ O @ # # @ @ , 3 # # @ @ @ @ @ O @ O X O O O X O O O O O O X X   O X X X X O O O @ @ @ @ @ @ X @ @ @ O O X O O @ O O O O X X X   O O O O O O X X O O O O O O O O O O O O O O @ @ @ @ # # # < , 3 3 3 3 , 3 0 z z k k 0 l C A K A Z Z A A L K Y Y ",
"&X&X&X&X&X&X&X2X2X2X2X2X6X6X6X6X6X6XiXiX6X2X2X2X&X+X%X1X+X}.H.J.K.K.L.G.J.J.H.J.J.J.J.H.J.J.J.H.J.J.H.J.}.K.J.J.J.K.J.J.K.}.K.J.{.{.}.}.}.}.}.}.J.}.}.}.oX}.J.oX}.oXoXoX}.oXoXoXoXoXoXoXoXoXoXoX@X@XoXoXoX+X+XoX+X+X+XoX@XoXoX|.|.oX{.H.h.d.h.x.A.G.h.d.d.d.d.d.d.d.d.d.d.d.d.d.d.d.d.d.d.d.d.d.s.s.d.<. . .' ..>X:X:X:XK.:XoXoXG.oXK.K.oXK.g.g.6.6.g.5.{.{.{.{.OX@X{.&X@X>X@X&X+X] 1.w.1.] S S 7 ; o   # U y.$XcXcXnXPXLXLXLXKXLXLXLXLXPXnXmXcX=X].:.s   o ; : 6 d H ] | ,.g.B.H.K.}.6.r & U ] *.{ ,.F.oX>XoX<X<X<X<X<X<X<X<X<X>X@X>X>X@X@XD.F.6.*.:   X 5 5 7 ; ; 6 6 6 6 6 6 6 6 6 : ; ; ; ; : ; ; ; ; ; ; 6 : y s S ] ,.g.A.K.oX>X,X<X>XoX,.u r H =.,.).F.h g 1.D.S._.OXOX+X%X%X%X%X%X%X%X%X&X&X&X%X%X%X%X%X%X%XOXOX+X+X+X+XOXOXOX+XOXOXOXOXOXOXOXOXOXOXOXOX X X'. X_.{.F.3.3.{.=.).=.H ! ! =.] ^ { ( ,.^ h ^ ] [ ] 1.).=.( H g d d B d d s s d s B B y s B V y B B B y F =.y.c.e.e.y.y.1.y.y.y.S.~.c.c.y.~.~.(.].`.'.=X*X*X*X*X*X*X*X*X*X*X=X=X=X=X=X$X#X].].`.`.].#X'.`.(.^.y.u.q.:.>.&.&.] U Y Z V V s q q 0 6 5 5 5 5 5 = = ; ; 5 5 5 5 5 5 5 ; ; 5 5 5 w 5 5 w w w w w w w w 0 q b C A A N V g E  .a.k.p.p.p.a.' h t 6 t v G R  .a. .R q t & . . . u v.b.2.2.b.2.) G ! 5.l.l.b.v.v.v.[.XXXXXX.X.X1X1X1X1X1X1X1X1X1X1X1X+X.X.X.X.X|.{.[.H.[.v.b.l.5.=.G F ( ( *.=.1.4.1.w.z.z.S._. X Xc.5.*.*.&.*.+.( U P *.&.P ( +.( :.w.w.q.1.e.(.(.(.).). X_.&X8X8X8XvX9XvXvXvXlXvXvXvXvXuX9X8X8X6X2X6X6X*X*X%X%X%Xw.1.[.%X1X1X%X1X8X~.G 1 9 8 C l 1 8 9 q l l N A N Z &.U q c y y J U F w w N l q # @ @ @ X X X X X X X X X X X X X X X X X X X X X X X X X X X X X X X @ @ X X X X X X X X X @ @ @ @ # # # @ @ , , # # @ @ @ @ @ @ @ O X O O O O O X X O O O X X   X X X X O O O O @ @ @ @ @ O     @ @ O O X O O O O O O O O X X X O O O O O X X X X X O O O O O O O O O O O O @ @ @ @ @ # # # , 3 # # , 3 4 0 k l l 0 0 0 l C A A b b n n n A A A ",
"&X&X&X&X&X&X&X2X2X2X2X2X2X2X6X6X6X6X6X6X6X6X2X2X2X&X+X{.[.J.H.G.G.K.K.J.J.J.J.G.K.L.J.K.J.J.J.}.J.K.J.J.J.J.J.K.H.J.J.H.H.J.J.K.J.J.}.}.}.}.K.J.K.K.}.}.K.K.}.}.}.}.|.|.}.|.|.|.}.|.oXoXoXoXoXoXoXoXoXoXoXoXoXoXoXoXoXoXoXoXoX+XoXoXoXoX}.H.J.}.K.L.h.j.j.j.j.j.j.j.j.d.j.j.j.j.d.d.d.d.d.d.d.d.s.s.s.<.<.<.} } g.,.| ,.,.' 4.,.,.| ,.,.,.} [ ^ ~ h H ] { 1.4.,.=.1.1.1.=.,.,.1.{ r S s & 7 # X X &.'.nXLXKXKXKXKXKXKXKXKXKXKXKXKXKXKXKXKXKXKXKXKXKXKXKXPXcXS.J # ; 6 f J [ ,.5.A.D.=.$ t U &.=.=.4.5.e.5.6.<.,.<.<.<.<.<.,.,.,.| ,.1.,.1.=.*.! S t . X   o     X X X X X                 X X X X X X X     X X   X o 6 g ] ,.g.f.' ,.oX{.,.r r H ( [ 4.D.S.D S e.)._. XOXOX+X%X&X&X&X&X&X&X2X2X2X2X2X2X4X4X4X&X&X&X&X&X&X&X&X&X%X%X+XOXOX+X+X+XOXOXOXOX X X X X XOX X X{._.5.6.&X4X{ 4.e.J ] ] =.*.{ ] =.H g f ~ ,.^ =.w._.=.F S d d B B d B s d d s d B s B d B s S d d J J J *.q.y.c.y.c.c.y.y.y.y.c.~.~.W.(.(.].'.'.$X*X*X*X*X*X=X*X*X=X=X*X=X*X=X$X$X$X'.(.(.W.~.].'.].`.(.^.y.u.u.q.>.&.&.U P Z A A N s q q w w 5 5 5 5 5 ; ; ; ; 5 5 5 5 5 5 5 5 5 5 5 5 5 5 5 5 5 5 5 w w w w 0 q p N A q N Z F ) _ _ p.a.a.p.W / h t 2 : G Q /  .a._ R y y + + . $ . @.~.m.2.m.l.) Q Q 2.l.l.b.b.v.v.[.XXXXXX.X.X1X1X1X1X1X1X1X1X1X1X1X.X.X.X.X|.XX[.H.H.H.z.l.w.2.( B P ( U +.*.*.*.=.1.4.w.c._. X{.z.4.,.*.( ( ( ( ( U +.+.U ( U U >.&.1.e.w.1.q.q.i.c.c.).(._.%X%X2XvX9X9XvXvXvXvXvXvXpXuX9X7X7X2X2X&X6X2X*X%X%X%X=.u 1.[.1X1X1X%X).( $ 2 9 8 l 9 9 8 8 9 q l c N N C X.U c c y c F F F N A C q 5 # X X X X X X X X X X X X X X X X X X X X X X X X X X X X X X X X X X X X X X X X X X X X O @ @ @ o o # @ @ @ @ # @ @ @ @ @ @ O O O O X O O O O O X X X O O X X X O O O O O O O O O O O O O X X X @ X X O O O O O O O O O O O O O O O O O     X X X X X X X X X X O O O O O O O O @ @ # # # # # , , 3 w w w 0 0 0 0 0 l l z b b z b C A C b b b b ",
"&X&X&X&X&X&X&X&X2X2X2X2X2X2X2X6X6X6X6X6X6X6X2X2X2X2X2X.XH.H.A.h.h.h.;X<XK.}.}.K.L.K.J.H.H.K.K.J.H.J.J.J.J.K.K.J.K.K.J.H.J.J.J.J.J.K.K.K.K.K.K.}.}.K.K.}.}.}.oX}.}.}.oX}.}.}.}.}.}.|.oXoXoXoXoXoXoXoXoXoXoXoXoXoXoXoXoXoXoX+X@X+XoXoXoXoXoXoX}.}.J.h.j.j.j.j.j.j.j.j.j.d.j.j.j.j.d.d.d.d.d.d.d.d.s.d.d.<.<.<.| } { ] { { { ] ] ] &.` ] ] ] ( ] ( ( ( &.=.=.:.:.*.*.*.*.*.] ] S d t t o X #   N '.PXKXKXKXKXKXKXKXKXKXKXKXKXKXKXKXKXKXKXKXKXKXKXKXKXKXKXKXLXKXKXLXnX].q & t g H { ,.S . y U *.&.:.:.:.:.=.*.] ( ( H H H H H J J S J ! d ( H J S d 7 # &.KXKXKXKXKXKXKXKXKXKXKXKXKXKXKXKXKXKXKXKXKXKXKXKXKXKXKXKXKXKXKXKXKXuXS ] ^ r h F.H.t : S H ] [ 4.S.4.f *.w.S.S.). XOX+X+X%X%X%X&X&X&X&X&X2X2X2X2X4X4X&X&X&X%X%X&X&X%X%X&X2X&X&X%X+X+X+XOXOXOXOXOXOX X X X X XOXOX{.{.e.6.@XBX+X^ { +X! D J ] H ] ! ] S g h ' ,.,.4.] ] U s S V B B d B B d d d d d d d B y d F H ] ( ( ( 4.e.y.c.(.y.y.y.e.y.y.(.(.~.W.W.(.(.'.$X$X=X*X=X*X=X$X$X=X=X=X=X*X=X=X$X$X$X'.`.(.u.u.y.(.].`.(.^.W.y.u.q.:.>.&.&.U Y Z Z A N s q q w w 5 5 5 5 5 5 5 5 5 5 5 5 5 ; ; ; 5 5 5 5 5 w 5 5 5 5 w w w w w w w 0 p N b q c N B Q / W a.a.a.p.W E G & 6 6 u ^ _  . .T g c 9 1 + + & $ u 5.b.s.s.b.@.@.! [ w.l.l.b.v.H.H.XXXXXX.X.X1X1X1X1X1X1X1X1X1X:X.X.X.X.X|.|.[.H.H.D.v.5.4.1.+.G F P P U +.&.( ( *.1.w.l.).[. X Xc.2.1.4.*.U H H ( ( P ( U P P U &.( =.q.e.:.*.*.>.1.i.w.u.q._._. X8X8XvXvXvXvXvXcXpXpX9X7X7X7X6X2X2X2X*X&X%X$X%X( $ * ! w.c.w.*.2 + 2 c 2 9 8 8 q 8 8 9 9 q l N N l K P P c y c F V F Z A N 5 # # X @ X X X X X X X X X X X X X X X X X X X X X X X X X X X X X X X X X X X X X X O O O O O O @ @ @ @ @ @ @ @ @ # @ @ @ @ O O O O X X X X X X X X X X X O O O X X O O O O O O O O X X         X X X X X X X X O O O O O O O O O O O O O O     X X X X X X X X X X X X X X X X X X @ @ @ # o o # , # # 3 5 5 w w 8 3 8 l b b l k 0 n A A A A n N A ",
"&X&X&X&X&X&X&X&X&X2X2X2X2X2X2X2X2X2X6X6X6X6X6X2X6X&X2X+X|.J.J.oX<XsX,X<XoXH.J.;X;XK.L.K.K.J.H.H.J.K.J.H.H.H.H.J.H.A.x.G.J.J.J.K.J.K.K.K.K.oX:XoX}.}.}.oXoX}.}.}.}.oXoX}.}.}.oXoX|.|.|.|.|.|.}.}.oXoXoXoXoXoXoXoXoXoXoXoXoXoXoX+XoXoXoXoX}.oX}.}.H.x.g.j.j.j.j.j.j.j.j.j.j.j.j.d.j.j.j.d.d.d.d.d.d.d.s.<.<.<.<.| | | =.{ =.*.=.=.&.*.*.] *.*.*.*.=.:.=.1.1.1.:.:.:.=.:.*.*.( H B w ; o   N =XLXKXKXKXKXLXKXKXKXKXKXKXKXKXKXKXKXKXKXKXKXKXKXKXKXKXKXKXKXKXKXKXKXKXKXKXLX$Xq & s s & o y J *.*.=.=.:.*.*.[ *.] ] ( ] ] ( H H H ] U ( J ] ] ] ] J s ; # =XKXKXKXKXKXKXKXKXKXKXKXKXKXKXKXKXKXKXKXKXKXKXKXKXKXKXKXKXKXKXKXKXKXcX7 B . D F._.D $ B H *.*.5. X=.f =.c.S.S._. XOX+X+X+XOX%X%X&X4X4X4X2X2X2X2X4X4X4X4X&X&X2X&X%X&X2X2X%X%X%X&X%X+X+X+XOX+XOX+XOXOXOXOXOXOXOXOX XOXJ.,.6.yXBX%X] ! S.4.! { 4.4.S S d V J ] [ 5.e.( ] J B V S B B d d d B s d d B d d d B B d G J ( *.1.c.c.y.u.y.c.c.y.u.u.y.y.(.(.y.W.y.W.(.'.#X$X$X=X=X=X$X$X$X=X=X=X=X=X=X$X$X-X'.].(.W.q.q.y.W.(.`.(.u.y.u.u.q.:.>.&.U Y Z Z Z A N p q w w w 5 5 5 5 5 ; ; 5 5 w 5 5 5 ; ; ; 5 5 5 5 w q 6 5 w 0 0 0 w w w w w q q p p q N B Z g /  .p.a.a.p.W / u y $ ; u [ /  . .E g c t 2 1 + & 2 $ Q 5.2.2.~.2.2.) Q 2.l.l.b.v.v.H.[.XX.X.X.X+X1X1X1X1X1X1X1X:X.X.X.X|.|.XX[.H.D.v.v.5.2.=.+.U F P C P ( U ( ( +.2.1.w.c.).).{. XS.1.*.1.1.( U ( +.( P U U H U P +.( +.&.=.=.( H ( &.*.>.i.>.c.).).$X8XvXcXpXpXpXvXvXpX7X7X7X8X6X2X2X2X2X&X%X$X$XU . * $ * 9 +   , 8 9 2 9 9 1 l 8 9 8 9 9 8 9 c N c C P &.c 9 B F J Z N N l w # o X X X X X X X X X X X X X X X X X X X X X X X X X X X X X X X X X X X X X X X X O O O O O O O @ @ X X X @ @ @ @ @ @ @ @ O   O O X X X X X X X X X X X O O O   X O O O O O O O O X       X X X X X X     X X X X O X X X         O O O X       X X X X X X X X X X X X X X X X X @ @ @ o # o # , # # , , 3 5 4 w 3 w w 0 l l l l b b C C N N N N ",
"&X&X&X&X&X2X2X&X&X2X&X2X2X&X2X&X2X2X6X6X6X6X6X6X6X2X6X&X@X{.H.H.K.K.K.L.g.g.g.h.h.G.K.K.K.}.K.J.J.G.G.L.K.J.J.K.H.A.h.h.h.h.x.G.J.K.K.K.oXyXaX}.|.{.+X4X>XoX}.}.}.}.}.}.}.}.}.oX}.}.}.}.}.}.}.oX}.oXoX}.}.}.}.}.oXoXoXoXoXoXoXoXoX}.oXoXoXoX}.oXoXK.G.h.j.j.j.j.j.j.j.j.j.j.j.d.d.j.d.d.d.d.d.d.d.s.<.d.3.| <.| ,.| } ,.[ [ ,.[ =.| [ | [ { ,.,.{ ,.1.4.4.4.=.4.4.4.:.4.&.U B B w X   N.PXKXKXKXKXKXKXKXKXKXKXKXKXKXKXKXKXKXKXKXKXKXKXKXKXKXKXKXKXKXKXKXKXKXKXKXKXKXKXKXLX(.X # . & s U ] =.=.=.{ { { ' ' ' [ ] ' [ [ ] ] ] ] ~ ] [ [ *.] ( F s # # nXKXKXKXKXKXKXKXKXKXKXKXKXKXKXKXKXKXKXKXKXKXKXKXKXKXKXKXKXKXKXKXKXKX=Xo   V 4.4.f > S ( [ =.e.S.] f { e.S.S.)._. X X+X+X%X%X+X+X&X&X2X2X&X2X4X2X2X2X2X&X&X&X2X2X2X2X2X&X&X&X%X&X%X%X+XOXOX+XOXOXOXOXOXOXOXOXOXOXOX+Xg.' 6.@X&X6XH ( 6.4.=.{ ] S S d B S J D [ e.1.! H F V V V d d B d d d d S d d d B B d B B S S 4.=.w.c.c.e.c.c.y.y.y.u.u.u.y.y.y.y.y.y.y.(.].'.'.$X$X$X$X$X$X$X$X=X=X$X$X$X$X#X].(.`.(.y.q.q.u.W.^.W.y.u.q.q.9.9.:.&.U Y Z V Z Z N p q q w w w 5 5 5 5 5 5 ; 5 5 w w 5 5 ; ; ; 5 5 5 w q s q w w q q w w w w w w w w 0 0 p B B B u [ b.j.a.p.M.a./ G 2 : & G / ' <.<.} D y y 2 1 + + : : u 2.2.2.v.5.2.) ! 2.l.l.l.b.v.H.[.XX.X.X.X:X1X1X1X1X1X1X:X.X.X|..X|.XX[.[.D.v.v.w.1.*.( H H G c K P U U ( ( ( 2.w.l.v.).).[.[.D.c.2.*.*.( ( ( ( ( P P U +.+.F >.&.&.( *.1.*.H H ( ( ( &.+.:.~.S._.%X8XcXvXuXuXvXvXvXuX7X8X8X8X2X8X2X2X&X%X%X-XU + 9 1 + 2 2 1 9 l 8 1 1 1 9 9 9 9 9 9 9 9 9 c c c c P >.Z c Z F J V N A N w # X X X X X X X X X X X X X X X X X X X X X X X X X X X X X X X X X X X X X X X X X O O O O O O X X O O O O O @ @ @ @ @ @ @ @ O O O @ o o @ X X X X X X X O O O O O O O O O O     X X       X X X X X X     X X X X   O X X         O X X X     X X X X X X X X X X X       X X X X @ X X o o o # # 5 5 3 3 , 3 3 3 3 w 8 8 w q q l b l l q q q q p ",
"&X%X&X&X&X&X&X&X&X2X2X2X2X2X&X&X&X2X6X6X6X6X6X6X&X6X6X2X1X+X|.J.H.x.A.H.x.g.h.h.h.h.h.h.h.A.K.<X<XK.G.G.G.L.H.L.K.G.h.g.h.h.h.A.J.K.K.K.oXaXBX+X X X2X4XoX}.oX}.}.}.}.}.}.}.}.}.}.}.}.}.}.oXoXoXoXoXoXoXoXoXoXoXoX}.}.oXoXoXoXoXoX|.oXoXoXoX}.}.}.oXK.G.h.j.j.j.j.j.j.j.j.j.j.d.d.j.j.d.d.d.d.d.d.d.3... ...K.>X:X:XoXoXz.+X{.oX}.}.}.oXoX}.}.}.F.S.z.e. X{.D.F.&XOX6XOXS.7 s J 5 ; *XKXKXKXKXKXKXKXKXKXKXKXKXKXKXKXKXKXKXKXKXKXKXKXKXKXKXKXKXKXKXKXKXLXKXKXKXKXKXKXKXKXKXLXcXo o # s V =.5.F.F.@XoX@XoXoX}.}.{.oXoXoX@X>X@X:XoX&X+X2X=.  y J w # U LXKXKXKXKXKXKXKXKXKXKXKXKXKXKXKXKXKXKXKXKXKXKXKXKXKXKXKXKXKXLXKXKXKX*X  q ] U . 7 ( ( ] [ _._.S > ,.S.S.c.).).). X{.+XOXOX%X%X%X&X4X4X4X2X2X4X2X4X4X4X4X4X2X&X2X2X2X&X&X&X2X2X2X2X&X%X%X%X+X+X+XOXOXOX XOXOXOXOX}.D.} ] 4.z.OXD.] *.w.] J J V S s S J S g h 4._.] ] J F B V V d d S d d d d S S S d B S d B B J ] ] 1.&.q.c.c.c.y.y.y.y.e.u.e.e.y.u.u.y.y.y.(.].].].].'.$X#X'.'.#X-X$X$X$X$X$X#X'.(.W.^.W.y.u.7.q.y.y.r.r.r.:.;.:.:.>.&.U U Y Z V V B s p q w w 5 5 5 5 5 5 5 5 5 5 w w w 5 5 5 5 5 w w 0 s N s 0 w 0 0 w 5 w w w w w w 8 0 0 b B Z N *.c.b.;XR.a.k.) c 2 e u g R E 3.} } Q y y 2 1 1 + & : * ) 5.2.l.2.*.) ) 2.5.l.l.b.v.H.[.[..X.X.X:X1X1X1X1X1X:X.X.X|.|.|.{.[.[.D.v.l.w.1.*.*.! D F F c B Z P U U H ( 2.l.l.v.).[.).).).).c.2.*.*.2.1.:.+.! ( =.4.1.*.q.:.*.U ( 1.=.( H F J ( ( ( +.q.c.c. X2X7XcXvXuXuXvXvXlX8X8X8X8X8X8X2X*X&X%X&X XU 2 1 2 2 < , 8 l 8 1 1 O @ 8 1 9 9 8 9 9 9 9 y c c q c +.P B Z B B B V A p 5 o X X X X X X X X X X X X X X X X X X X X X X X X X X X X X X X X   X X X X X X X X O O O X O O O O O O O X O @ @ @ @ @ @ @ @ @ O O @ o o @ X X X X X O O O O O O O O O O O     O X X X   X X X               X X X O O O O       X X X X X       X X X         X   X   X X X X X X X X X @ o o # # 3 , , # # # # , w w w w w 8 w w 8 w 8 0 0 0 q q ",
"%X&X&X&X&X%X&X2X&X&X2X2X2X2X&X&X&X2X6X6X6X6X6X*X6X&X&X2X2X%XoX}.J.H.H.A.g.x.x.h.h.h.h.h.g.g.h.h.G.K.<X;XK.L.L.K.H.J.H.G.x.h.B.A.K.K.K.K.K.5XDXpX7XbXCX7X|.}.{.}.}.}.}.}.}.}.}.}.}.}.oXoX}.}.}.}.}.}.}.}.}.}.}.}.}.}.}.oXoXoXoXoXoX|.oX|.|.oX}.oXoX}.K.K.K.G.g.g.j.j.j.j.j.j.j.j.j.j.j.j.j.j.d.d.d.<.<.d... .G.oX{.J.D.D.g.H.A.A.H.A.A.A.D.z.A.z.{ ,.S.D.z.c.S.S.F.S.e.4.*.7 y 7 X cXKXKXKXKXKXKXKXKXKXKXKXKXKXKXKXKXKXKXKXKXKXKXKXKXKXKXKXKXKXKXKXKXKXKXKXKXKXKXKXKXKXKXKXKXKXnX0 X 5 V =.{ 6.F.D.D.D.D.D.A.A.A.A.D.A.D.D.D.D.D.F.z.H h ] U V w X '.LXKXKXKXKXKXKXKXKXKXKXKXKXKXKXKXKXKXKXKXKXKXKXKXKXKXKXKXKXKXKXKXKXKX=XX # w s F +.+.*.z.+Xe.% u 1.e.c.S.).OX_.] e.{.OX+X%X%X%X%X&X4X4X2X2X2X4X4X&X4X2X2X&X&X2X2X2X2X&X2X&X&X&X&X%X%X%X%X%X+X+X+X+XOXOXOXOXOX+X|.H.6.' { e.e.'.S.4.:.] V S V S S S V d S D [ D.OX] J B F V B S d d d d d d d S ] *.J V F S H U H =.] U U q.y.y.c.c.y.y.y.y.e.e.e.y.y.u.u.u.y.(.(.(.W.^.`.'.'.].].].'.#X$X$X-X#X].(.W.y.y.y.y.q.7.9.q.9.q.q.9.>.>.:.:.>.` U Z Y A N N s p q 7 w w 5 5 5 w 5 5 5 ; ; 5 w w 5 5 5 5 5 w w w q N V s q 0 0 w w w w 0 0 0 0 0 0 0 k b N N b U :.1.3.h.d.} ) y 2 e u Q E T / / E h y 6 y 2 1 + 2 : * G 5.2.l.l.2.) ) @.2.l.l.b.b.v.[.[..X.X.X.X.X.X:X+X+X+X.X|.{.{.{.[.D.D.v.w.2.=.*.*.) H D G G B c F P P G G *.1.5.5.l.v.).v.v.v.c.).v.v.l.c.[.~.:.+.w.~.).).z.e.y.u.1.1.w.1.1.*.H H ( H U H ( 1.,._.6X8X8X8X8XuXcXlXlX8X8X8X8X8X8X6X2X&X%X&X'.F 1 2 2 1 9 8 , 8 8 @ , @ @ < 1 2 5 1 9 9 9 9 y c y c y Z A y B y s y N q 5 o   X X X X X X X X X X X X X X X X X X X X X X X X X X X X X X X X X X X X X   X X X O O O X O O O O @ O X     @ @ @ @ @ @ @ @ @ O O @ o o @ X X X   O O O O O O O O O O O O     O X X X X X X X                 X X O O O O O O X X X X X X       X X X             X X X X X X X X X X X @ o o o # , @ , , , 3 3 4 w 8 w w 8 w w w 8 8 w 0 w w w w ",
"+X%X+X+X%X%X&X&X&X2X2X&X2X2X2X2X&X2X2X2X6X6X6X6X6X6X&X&X&X+XoX{.{.{.H.H.A.A.A.A.x.x.h.g.h.h.h.g.h.h.j.h.h.G.J.J.J.L.J.J.J.J.K.K.}.K.K.K.}.+XpXDXHXHXbX+X{.|.oX}.}.}.}.}.K.K.K.}.}.}.}.}.}.}.}.}.}.}.}.}.}.}.}.}.}.}.oXoX}.}.oXoXoXoX}.}.}.|.oXoX|.|.|.}.}.K.J.G.g.j.j.j.j.j.j.j.j.j.d.j.j.d.d.d.d.d.d.3.3.3.f.f.3.3.,.,.1.1.1.,.,.1.1.1.1.1.1.4.w.w.e.y.e.u.u.e.y.q.q.>.( V = o '.KXKXKXKXKXKXKXKXKXKXKXKXKXKXKXKXKXKXKXKXKXKXKXKXKXKXKXKXKXKXKXKXKXKXKXKXKXKXKXKXKXKXKXKXKXKXKXnXo 5 0 Y ] ] =.=.1.,.,.1.1.4.1.1.,.=.=.=.=.=.=.,.=.=.,.[ H s #   nXKXKXKXKXKXKXKXKXKXKXKXKXKXKXKXKXKXKXKXKXKXKXKXKXKXKXKXKXKXKXKXKXKXKX=X  X q K U ] [ e.+X4.% g =.e.z.S.)._. X).)._.OX+X%X+X+X&X&X&X&X&X4X4X4X2X2X2X2X2X2X2X&X2X2X&X&X2X2X2X2X&X&X%X%X&X&X%X+X%X%X+X+XOXOX+X@X{.{.F.| | z.6.e.S.e.=.J S S d J S S S V J g h ,.{.{.( ! S V V B H ] S d d d d d S H ( B S d J *.w.=.S V =.w.q.1.y.y.y.y.y.y.e.e.e.e.u.y.y.u.y.y.y.y.y.y.y.^.(.`.`.].(.(.(.].'.'.].'.(.u.q.q.u.q.q.9.:.7.9.7.:.:.>.-.:.:.>.` U V Z V A B N p q q q w w 5 5 5 5 5 5 5 5 5 5 5 5 5 5 5 5 5 w w q N B q w w w 5 5 w w 0 0 0 q p q q 0 p C q l U &.>.U H ! D G t & $ u R R Q i E / y t t t 2 + * 2 2 u e @.2.m.b.2.) ! Q 2.l.l.l.v.v.H.[.XX.X.X.X.X.X+X+X.X.X.XXX[.{.H.).c.l.w.1.,.*.*.) ) ! D D G G G G D H D Q 2.2.2.l.v.).v.c.v.).).[..X%X.X.X.X%X X.X1X8X&X%X-X X X X X_.).c.1.=.+.( ! ! G ! ( ( *.c.7XuXiXuXuX8XlX8XlX8X8X2X2X2X2X8X2X&X%X&X_.c 2 2 1 2 1 1 1 8 1 @ + 1 < < , < 2 2 2 2 1 1 6 9 9 9 q y y y y y q 0 w # X X X X X X X X X X X X X X X X X X X X X X X X X X X X X X X X X X X X X X X X X X X X X X O O O O O @ @ @ @ O O @ @ @ @ @ @ @ # # # @ @ X X X X X X   O O O O O O X X O X O O O X X X X X X X     X   X X X X X X X       X X X X X X   X X X   X     X X X X X X X X X X   X X X X X X X O O O @ # # , # # , , = 3 5 5 w w w 0 q 0 w 5 5 # # # # ; ; ",
"+X+X+X+X%X&X%X&X%X%X&X&X&X2X2X&X&X&X2X2X2X6X6X6X6X6X6X&X&X%X+X|.oX|.{.D.A.D.H.H.D.A.x.h.g.g.h.j.h.j.h.h.h.h.K.,XeX:XJ.J.}.oXoX:XoXoX}.}.|.oX%X6XCXCXbX2X+X+XoX}.}.}.}.}.}.}.}.}.}.}.}.}.}.}.oXoX}.}.}.}.}.}.}.}.}.}.}.}.}.}.}.}.oX}.}.}.}.}.oXoX|.|.|.|.oXoX}.K.L.h.j.j.d.j.j.j.j.j.j.j.d.d.d.d.d.d.d.d.d.f.g.x.g.g.5.5.w.w.5.4.6.w.w.w.e.w.e.e.c.c.c.c.c.S.S.S.y.y.1.>.U q # :.LXKXLXKXKXKXKXKXKXKXKXKXKXKXKXKXKXKXKXKXKXKXKXKXKXKXKXKXKXKXKXKXKXKXKXKXKXKXKXKXKXKXKXKXKXKXKXKXLX*X  w A U =.:.4.w.w.e.e.e.e.w.e.e.e.w.w.w.w.w.w.e.w.1.*.U 0 o P LXKXKXKXKXKXKXKXKXKXKXKXKXKXKXKXKXKXKXKXKXKXKXKXKXKXKXKXKXKXKXKXKXKXKX$X  X q V ] { S.OX*.% H 1.w.z.S.D._.)._.{.{.OXOX+X%X+X+X&X&X&X&X&X&X4X4X2X4X2X2X2X2X&X2X2X2X2X2X2X2X2X2X&X&X&X%X%X&X%X%X%X%X+XOX+X+X@X+X+XJ.6.6.z.S.4.S.S.] H S V V H S V S F S S d D 6.{.z.g J J S V S S d V d d d d S f V F 1.( S U 4.w.1.q.q.y.S.y.q.1.y.c.y.y.u.y.e.e.e.u.u.u.u.y.N.y.y.y.u.y.y.y.^.(.(.^.N.^.(.`.].].'.(.y.q.9.q.q.:.:.:.:.:.>.>.>.>.-.>.:.>.] U Z V V B s p p p p s q w w w w 5 5 w 5 5 5 5 5 w 6 w w w w 0 q y s q w 5 5 5 5 w w w q q 0 p b q q 0 b A K P U #.U Y V B S S 6 * * g } / Q E  .Q y t t 6 : + * 2 9 u * ! 2.l.b.l.2.) Q ) l.l.l.b.v.H.[.{..X.X.X.X.X.X.X.X|.|.XX[.D.v.c.5.5.=.*.) ) *.( ! D D H G ! ( ) ) ~ ! ) l.v.~.XX.X.X[.[.[..X1X1X1X1X%X.X%X1X%X%X1X2X%X.X.X X X.X X X X[.v.l.[ ( ! ! ! ! ) *.[ z.2XvXuXuX8XuXlX8X8X8X8X2X2X2X2X2X2X&X%X*X).y 2 2 1 1 8 8 8 8 8 , < 1 < < , , 1 1 1 2 1 1 1 9 9 9 9 9 q y y y w 5 5 o X X X X X X X X X X X X X X X X X X X X X X X X X X X X X X X X X X X X X X X X X X X X X X X O O O O O O O O     O @ @ @ @ @ # # # # # o @ X X X X X X O O O O O O X X O X O O O X X X X X X X     X   X X X X X X X X     X X           X X X X X         O X X X X X   X     X X X X X X O O O O o # # # # , # = 3 5 w w w w w w w 5 # & # # 5 5 6 w ",
"@X+X+X+X%X%X%X%X%X%X&X&X&X&X%X%X+X&X&X4X2X2X6X2X6X6X6X6X6X2X%X+X+X+X|.H.J.}.}.{.[.D.A.x.h.g.j.g.j.j.j.g.h.h.h.L.<XeXyX:XoXoX4X>X4X1X:X:X>X+X+X%X&X6X6X2X&X+X@X@X@X@X@XoXoXoXoXoXoXoXoX}.}.}.oX}.}.}.}.}.}.}.}.oX}.}.}.}.}.}.}.}.}.}.}.}.}.}.}.}.oX}.}.}.|.}.}.}.}.H.G.h.j.j.j.j.d.j.j.j.j.j.d.d.d.d.d.d.g.x.A.D.F.F.S.c.c.z.e.w.z.c.S.S.S.S.S.).).).).)._._._.).(.y.q.>.Z w o nXKXLXKXKXKXKXKXKXKXKXKXKXKXKXKXKXKXKXKXKXKXKXKXKXKXKXKXKXKXKXKXKXKXKXKXKXKXKXKXKXKXKXKXKXKXKXKXKXKXLXy.o 0 V &.1.w.c.(.).).(.(.S.(.(.(.(.(.(.(.(.(.S.e.1.*.F 6 , (.KXKXKXKXKXKXKXKXKXKXKXKXKXKXKXKXKXKXKXKXKXKXKXKXKXKXKXKXKXKXKXKXKXKXKX$X  X w S ( 4.{.,.& ] 1.w.z.S.S._._.{.OXOXOXOX+X+X%X+X%X%X&X4X&X&X&X4X4X4X2X4X7X6X2X2X2X2X2X4X4X&X&X&X&X%X&X&X&X%X%X&X&X&X&X&X%X%XOX+X+X@Xg.A.@X&X=.=.OX1.J S J U H H S S V d S H ~ ^ 1.D.6.J H F B B B S s d d d S d d S d H 1.1.( J F J *.=.*.e.c.y.c.S.(.y.c.y.e.y.y.e.e.e.e.e.e.y.(.y.N.y.y.u.u.u.y.N.y.y.y.u.y.^.(.].'.y.q.q.9.:.:.:.:.:.:.:.>.>.>.&.&.>.:.&.] U Y U U Y V N s s s s s p q 0 w w 6 w 5 5 5 5 w 0 0 q 0 w 0 q q q q 0 w 5 5 5 w w w 0 p p q p p p b w N C X.&.#.-.#.#.Y Z J B 6 * $ Q  .) Q _ } g t y u r : & 2 6 t y 6 g 5.l.m.l.2.2.Q ) 5.l.l.b.v.H.[.[.{..X.X.X.X.X.X|.|.|.XXD.z.c.w.1.2.) ) ( ) ( ! ( ! ( ) ) 2.2.5.w.5.2.w.[..X.X:X1X1X.X.X1X1X1X1X%X%X.X.X.X.X.X.X.X.XXXXXXX[.~.[.[.[.[.v.w.2.! ! ~ ) ) ) ) *.*.c.2XvXcXuX8XuXlX8X8X8X2X2X2X2X2X*X&X2X%X*X~.2 2 1 1 2 8 9 k k 9 1 1 1 < < , , 1 1 1 1 1 1 8 8 9 9 9 y c B B y 5 # o X X X X X X X X X X X X X X X X X X X X X X X X X X X X   X X X X X X X X     X X X X X X X O O O O O O O O O X       O O @ @ @ # 3 3 3 , o o X X X X X X O O O O O O O O O O O O X X X X O X X X             X X X X X X                     X X X       X X O O X X             X X X X X X X O O O o # # # # # # # = = 5 5 5 = = ; ; - 1 ; ; ; 5 5 6 w ",
" X@X+X+X+X+X+X%X%X%X%X%X%X%X%X+X+X&X&X&X&X2X2X2X2X2X2X6X6X2X&X%X%X+X+X{.}.+X+XoX{.{.D.x.x.h.h.h.h.h.h.h.x.A.h.h.J.J.}.>X5X4X>X4X7X7X4X4X4X2X2X4X2XiXuXuX7X4X2X4X4X4X4X1X+X+X@X@XoXoX}.}.oXoXoX}.oX}.}.}.}.}.}.}.oX}.}.}.}.}.}.}.}.}.}.}.}.}.}.}.}.}.}.}.}.}.}.}.}.}.}.K.G.h.j.j.j.j.j.j.j.j.j.d.d.d.d.g.h.A.D.H._._.).).D.S.c.z.c.D.).)._._._._._.'.'.'.'. X'.'._.S.q.&.A 5 q.KXKXKXKXLXKXKXKXKXKXKXKXKXKXKXKXKXKXKXKXKXKXKXKXKXKXKXKXKXKXKXKXKXKXKXKXKXKXKXKXKXKXKXKXKXKXKXKXKXKXKXPXl & V &.:.e.(.'. X X'. X X X X X'.'.'.'._.'.S.y.q.&.Z #   nXKXKXKXKXKXKXKXKXKXKXKXKXKXKXKXKXKXKXKXKXKXKXKXKXKXKXKXKXKXKXKXKXKXKXKX=X  X 6 d 4.D.] > ] 4.u.e.S.S.)._._. XOX XOX+X+X+X&X&X%X%X&X&X4X4X4X4X2X7X4X7XiXiX6X6X6X2X2X2X4X&X&X&X&X&X&X2X&X%X&X&X&X&X%X&X+X%X&X4X4X}.oXA.OX@X] 5.).J ! ( ( ( ( S S S S S S H ] ^ 2.@X,.S S V B S d s S S d S H J S S d S =.] *.] w.1.*.q.1.q.c.S.y.y.y.y.y.y.y.e.y.e.e.e.e.e.e.y.S.(.(.N.y.u.u.u.y.y.y.y.u.u.u.u.N.`.'.y.q.q.9.:.:.:.>.>.>.>.>.*.&.&.>.:.>.&.` U U ] ` U Y Z V A B Z Y Y V s q w 6 w w w w w w 0 0 w w w 0 q q q w q q w 5 5 w w w w p p q p b N A N A Z &.;.;.:.-.$.#.U U y 6 * * i T g Q s.Q y : u t r 6 6 6 9 9 t t u 5.l.2.5.s.l.2.2.5.l.l.b.v.D.[.[.{..X.X.X.X.X.X|.|.|.[.c.5.w.=.*.) ( ( ( [ ( ! *.*.*.1.w.z.v.v.).[.~.[.XXXX.X.X.X:X1X1X0X0X1X.X.XXXXXXXXXXXXXXXXXXX[.~.~.~.b.b.l.w.2.) Q Q [ *.*.2.5.5.5.5.2.).uXvXuXuXuXuX8X8X8X8X2X&X2X2X&X&X&X2X%X2Xy.1 1 2 1 2 9 l l q 8 1 1 1 1 < , , 1 1 8 2 9 9 9 q q l c c N V V B 5 o X X X X X X X X X X X X X X X X X X X X X X X X X X X X X X X X X       X X     X X X X X X X X X O O O O O O O O O O O O O @ @ @ # , 3 3 3 o @ X X X X X X O O O O O O O O O O O O X X X X O X X               X X X X X                         X X X     X O O O X               X X X X X X X X X X o o # # # # o o # # , , # # # # # # ; ; ; ; ; ; 5 6 ",
"{.oXOXOX@X+X+XOX@X+X+X+X%X&X&X%X%X&X&X1X&X2X2X2X4X2X6X6X6X2X2X2X%X+X+X+X+X4X4X+X+X|.H.A.A.x.A.A.A.A.x.A.H.A.A.G.A.J.oX:X4X4X7XiX7XuXuX7X4X4X7XiXiXuXuXuXiXiXiXiXuXpXuXiX4X4X&X1X+X@XoX@X+X+X+XoXoXoX}.}.}.}.}.}.}.}.K.}.}.}.}.}.}.}.}.}.}.}.}.}.}.K.K.oXoX}.}.}.}.}.}.}.K.L.x.h.g.j.j.j.j.j.d.d.d.j.j.h.x.H.H.{.{.{._._.).).F.D.D._.{. X X X X X'. X XOXOXOXOXOX'.y.1.U 9 # mXKXKXKXKXLXKXKXLXKXKXKXKXKXKXKXKXKXKXKXKXKXKXKXKXKXKXKXKXKXKXKXKXKXKXKXKXKXKXKXKXKXKXKXKXKXKXKXKXKXKXKXKX$X# q P =.q.(.'.$X$X$X$X$X$X$X$XOX X'.'.'._.(.y.:.U N # A KXLXKXKXKXKXKXKXKXKXKXKXKXKXKXKXKXKXKXKXKXKXKXKXKXKXKXKXKXKXKXKXKXKXKXKX$X  ; N ] 4.! f &.w.w.c.S.)._._.{.{.{.OXOX+X%X+X+X&X%X%X&X&X1X4X2X2X6X6X7XiXiXiXiXiXiX6X2X2X2X2X&X&X&X&X&X2X2X&X&X&X&X&X%X%X4X%X&X4X4X@Xg.A.| OXe.! ] ! H H J H J S S G S D S S g ^ ^ ,.4X,.S S F B B d S d d S *.w.1.d d d J *.( S S 4.! ( ( q.c.c.c.y.c.y.y.y.y.y.w.w.e.e.e.e.e.u.u.y.N.y.y.u.y.u.u.y.u.u.u.u.r.q.u.u.(.'.(.q.4.1.:.:.:.>.:.:.>.*.>.>.>.>.>.&.` ] &.&.&.&.&.U U Y Z V Z Y Y Y B s q 7 w 5 w w w w w w w 6 w 0 q q 0 0 q 0 w 5 5 w w w 0 b b p p N Z P A A Y &.;.:.:.:.-.-.*.] 6 : & : E E i Q s.Q u d y t 6 6 6 9 9 9 2 t 2 =.5.2.2.l.v.l.l.f.5.l.b.b.v.H.[.[..X.X.X.X|.|.{.XXXXD.w.,.*.( ( H D H ( ) ( Q =.2.1.l.b.v.v.v.~.~.~.~.~.~.~.~.XXXXXXXX.X.XXXXX~.XXXXXXXXXXXXXXXX~.~.v.v.b.b.b.l.5.2.2.5.v.{.[.v.b.D.D.v.l.l. X9XuXuX8XiX8X8X8X8X6X*X&X*X*X&X&X*X2X%X2Xq.1 1 2 5 8 q c c q 8 1 1 1 1 1 , 1 1 2 8 k k k l l c C N c c Z Z V 5 # O @ X   X O X X X X X X X X X X X X   X X X X X X X X X X X X X X X       X X X X X X X X X X X X X O O O O O O O X   O O O   @ @ @ # # # , o @ X X X X X X X X O O O O O O O O X O X           X   X X X       X X X X     X X X X                 X X X X   X O X X X     X X X   X X X X X X o X X o o o # # o X X X o o # # o o o # # # # # & & ; ; 5 6 ",
"{.|.|.{.{. X{.{.{.{.@X+X+X&X%X%X&X&X&X&X&X&X2X2X4X4X6X6X6X2X&X2X+X@XoX+X1X4X4X&X+XoXH.A.A.H.J.K.oX}.|.oXoXJ.H.}.oX@X:X4X4X7XiXuXuXcXuXuXuXuXiXiXuXuXuXiXuXuXuXuXuXuXpXuXiXiX7XiX4X&X+X+X+X>X%X+XoXoXoX}.}.}.}.}.K.K.K.K.K.K.}.}.K.K.K.K.}.K.K.}.}.K.}.K.K.}.K.}.}.}.K.K.K.K.K.H.A.g.d.j.j.j.j.j.j.j.h.A.A.H.H.{.{.{.{._._.).).).).{. X XOXOX X XOXOXOXOXOX$XOXOX).y.*.Y w N KXKXLXKXKXKXKXLXKXKXKXKXKXKXKXKXKXKXKXKXKXKXKXKXKXKXKXKXKXKXKXKXKXKXKXKXKXKXKXKXKXKXKXKXKXKXKXKXKXKXKXKXKXLXq w Z *.q.(.'.$X$X$X$X$X$X$X%XOXOX'.'.OX_.S.w.*.J 7 # (.KXKXKXKXKXKXKXKXKXKXKXKXKXKXKXKXKXKXKXKXKXKXKXKXKXKXKXKXKXKXKXKXKXKXKXKX$Xo q U ] > : :.q.c.).(.).)._.{.{.OX@XOX+X+X%X+X+X&X+X&X&X&X1X4X2X6X6XiX6XiXiX6XiXiXiX6X7X6X6X6X6X&X&X&X2X2X2X2X&X&X&X&X%X&X&X&X2XpX4XH.5.oX6.D.! S [ ] H S S g S d S g S S d d g ^ ^ [ 5.D d V V d d S S d g D d *.] S S H S ( S 4.w.] J ( ] q.y.c.e.y.y.q.=.q.y.u.u.e.e.e.u.e.e.u.u.u.u.u.u.u.y.y.y.e.u.q.q.q.q.q.q.q.^.'._.q.:.:.:.:.:.>.>.>.>.>.:.:.:.:.>.&.&.&.&.&.&.&.&.] U U Y V V Y Y Y V V s p q w w w w q q 0 w w 0 q q 0 q q w w 5 5 w w w q b N N b b N A K A q Y #.;.:.:.:.:.:.1.*.u * $ r } _ R g Q g u y y t 6 ; 6 9 y 7 9 9 * ! 2.2.2.b.v.v.v.l.5.l.l.b.v.v.H.[.{..X.X.X|.|.{.[.XXv.2.( ) ( D F c ! ( ) ( ! 2.l.l.l.b.v.b.b.v.v.v.~.n.~.n.n.~.~.v.~.~.~.~.~.~.~.~.~.~.~.b.~.~.~.~.v.v.v.v.v.b.b.v.[..X+X+X.X[.D.[..X.X[.[.OX8X8XcX8X8X8X8X8X8X6X*X*X2X2X*X2X2X2X&X2X1.1 2 1 8 8 l c c q 8 8 1 < < 1 1 8 1 8 8 k l k z c N C Z C Z P F Z 5 o o @ X   X @ X X X X X X X X X X X X   X X X X X X X X X X X   X   X       X X X X X X X X X X X   X O O O O   X X X X       @ @ @ @ @ @ o o @ X X X   X X X X X X X X X X X X X X X                 X X X       X X X       X X X X                   X X X         X X X X X X X   X X X X X X X X X X o o # # o X X X X X X X X X o # # # # # ; ; ; 5 ; ; ",
"H.{.{.{.{.{._._.H.J.{.@X+X+X+X+X&X&X&X&X&X4X&X&X&X&X&X&X&X&X%X+XOX}.{.@X%X&X&X&X+X+X}.J.H.J.oX+X4X4X4X1X+X|.oX:X+X>X4XiXiXiXiXuXuXcXuXuXuXuXuXuXuXuXuXiXiXiXiXiXuXuXuXuXuXuXuXuXiX7X4X4X4X4X&X+X+X@XoXoX}.}.K.K.K.K.K.K.K.K.K.K.}.}.}.}.}.}.}.}.oX}.K.K.K.K.K.K.}.K.K.K.K.}.|.|.J.A.g.d.j.j.j.j.h.h.A.G.H.H.J.{.{.{.{.{.{.{.{.{.{.OXOXOXOXOXOXOXOX$X$X$X%X%XOX XS.q.&.5 & (.KXKXKXKXKXKXKXKXKXLXKXKXKXKXKXKXKXKXKXKXKXKXKXKXKXKXKXKXKXKXKXKXKXKXKXKXKXKXKXKXKXKXKXKXKXKXKXKXKXKXKXKXKXKX$X# y ] q.(.'.$X&X&X*X*X&X&X*X$XOXOXOXOX_.S.4.*.J # o nXLXKXKXKXKXKXKXKXKXKXKXKXKXKXKXKXKXKXKXKXKXKXKXKXKXKXKXKXKXKXKXKXKXKXKXKX$X# w s % t =.e.e.).).).).{.{.{.{. X+X+X+X+X%X%X%X&X&X4X4X&X4X4X&X2X6XiXiXiXuXuXuXuXuXuXuXuXiX6X6X6X2X2X4X4X4X4X2X2X&X&X&X&X%X%X6XbX>Xg.,.A.S.S.D J { ( h J J g J g S g d g S J S D ~ [ [ h S B V V d g d S S [ S H f S 1.w.y.e.4.] =.4.=.e.e.c.y.y.c.e.w.c.e.u.u.u.u.u.u.e.w.e.u.u.u.u.u.u.u.u.y.S.y.q.u.q.q.q.q.9.q.q.^.'.'.e.:.:.:.:.:.>.>.&.&.>.:.9.q.4.:.:.:.>.&.] U ` ] &.&.] ` U U U U U U U Y V V s s s s s s q w 0 q q w 0 q q 0 w 5 w w 0 0 p A N N b N A Z Z A A U #.&.;.:.1.q.q.q.=.t $ $ t } a.' G y d G c y 7 6 5 6 7 7 6 6 2 $ u @.2.5.v.v.v.v.b.s.l.l.b.x.v.D.[.[.{.|.|.|.|.{.[.[.l.[ D ! ! G G B ! ( ) *.*.5.b.l.l.l.l.b.b.b.b.b.b.b.b.b.b.b.b.b.n.~.n.b.b.b.m.m.m.b.b.b.~.~.~.XXXX[.[.~.v.v.~.{.+X%X+X+X+X+X.X|.+X%X+X.X%X6X8XvX8X8X8X8X8X8X8X*X2X8X8X&X8X2X&X&X8X>.1 2 1 8 q c N l q 9 9 1 1 1 1 8 c l 9 8 k l l z C N Z K K P U P V ; o o o X X X O X X X X X X X X X X X       X X X X X X X X   X             X X                       O O @ @ @ O X X X X     O @ @ @ @ @ O O O X X X   X X X X X X X X X X X X     X X X X         X X     X     X X X X                                   X X   X X   X X X X X X     X X X   X X X X X X o # o X X X X X X X X X X X X o # # & ; ; ; ; & ; ; ",
"F.D.H.[.{.{._.D.D.D.J.}.@X+X+X1X&X&X&X&X&X&X&X&X&X2X2X&X&X&X%X+X|.{.{.oX%X4X4X2X2X4X1X:X+X+X:X4X4X4X2X4X2X%X%X4X4X4X7XpXuXuXiXcXuXuXcXcXcXuXuXvXuXuXuXiXuXiXuXvXuXvXuXuXuXuXuXuXuXuXuXiX7X4X4X&X+X+X@XoX}.}.K.K.K.K.K.}.K.K.K.K.}.}.}.}.}.}.}.}.}.K.K.K.K.oXK.K.}.K.K.K.K.K.}.}.}.J.h.j.j.d.j.j.h.h.G.G.H.H.J.}.oXoX{.{.{. XOXOX+X+X+XOXOXOXOXOXOX%X&X%X&X&X$X'.c.=.F q X cXKXKXKXKXKXKXKXKXKXKXKXKXKXKXKXKXKXKXKXKXKXKXKXKXKXKXKXKXKXKXKXKXKXKXKXKXKXKXKXKXKXKXKXKXKXKXKXKXKXKXKXLXKXKXPXo w U :.c.'.%X*X*X*X*X*X*X*X%X%X%XOXOX_.c.4.] s 5 q KXKXLXKXKXLXKXKXKXKXKXKXKXKXKXKXKXKXKXKXKXKXKXKXKXKXKXKXKXKXKXKXKXKXKXKXKX$X# o   s *.4.e._._._.{.{. X XOXOX+X%X%X+X+X&X&X4X&X&X4X4X4X4X&X&X&X6XiXuXuXuXvXbXvXvXcXvXuXuXiXiX8X6X6X6X6X6X6X6X6X2X&X&X2X6XiXpXBXoX{ { 3.4.,.! D ,.] H H D J S g J S S d g H J D [ ,.] h g V V V d h g S f ( =.d S =.*.H 1.y.=.:.4.] H 4.y.y.y.c.e.c.e.e.y.e.y.y.u.u.e.u.q.u.u.u.u.u.u.u.e.u.y.S.u.q.q.q.q.q.4.9.q.q.t.'.$X(.4.:.>.:.&.-.>.&.&.>.q.y.u.u.q.q.:.>.&.&.&.&.>.:.:.>.*.&.U U U ] &.*.&.` U J V Y V V N q q q w w w w w w q w w w 0 w 0 p b b p b Z U P Y N C U &.:.q.q.q.u.u.u.&.2 $ $ r } k.} g y y G c 7 6 5 6 6 7 6 : 1 + $ r ) 2.l.b.v.v.v.l.s.l.l.b.b.v.v.H.[.XX|.|.|.|.{.XX[.2.D G ! ! F G H ( @.*.2.5.5.l.l.l.l.5.m.m.m.m.m.m.s.s.s.m.m.m.m.m.s.2.2.2.s.m.m.b.v.~.XXXX.X.XXXXX[.[.[.[.[..X.X+X%X1X%X%X%X+X+X1X1X%X+X2X7X8XcX8X6X8X6X8X8X6X8X8X6X8X&X8X*X&X2X8X*.1 2 1 9 l N N c q 9 9 1 1 1 1 9 A C l 9 l c c C C C K K K P U P N 5 # o @ X X X   X X X X X X X X X X   X     X X X X X X X X X                 X                 O O O O @ o o o O O O X O O O O O O @ @ O O O O X X X X X X X X X X X X X X X X     X X X         X X X X X X       X X                                       X   X X X X X X X X X     X X X   X X X X X X o # o o o o X X o o X X o o X X # # # # ; ; 1 1 5 5 ",
"A.D.H.H.H.H.D.D.H.D.H.{.oX+X+X%X&X&X&X&X&X&X%X%X&X&X&X&X&X&X+X+XOX{.|.+X%X4X2X2X4X2X2X4X2X2X2X2X6X6X6X7X6X2X2X3X7XiXiXuXuXuXcXcXuXuXcXcXuXuXcXcXcXvXvXvXuXuXuXcXvXuXuXuXuXuXuXuXuXuXuXuXuXuXiX4X+X+X@XoXoX}.K.K.K.K.K.K.K.K.}.}.}.oX+X+X+XoXoXoXoX}.K.}.K.K.}.}.}.}.}.}.}.}.}.}.}.}.J.x.g.j.j.j.h.h.A.G.H.J.{.{.oXoX{.{.OX@X+X+X%X%X%X+X+X%X%X%X&X&X&X&X&X&X%X_.e.*.F 5   LXKXLXKXKXKXKXKXKXKXKXKXKXKXKXKXKXKXKXKXKXKXKXKXKXLXKXLXnXnXLXKXKXKXKXKXKXKXKXKXKXKXKXKXKXKXKXKXKXKXKXKXKXKXKXKX:.5 Z >.y.'.&X*X*XiX*X*X*X*X*X&X%X%XOX).e.1.H s X ].KXKXKXKXKXKXKXKXKXKXKXKXKXKXKXKXKXKXKXKXKXKXKXKXKXKXKXKXKXKXKXKXKXKXKXKXKX$X  X 7 U :.e.S.)._. X X{. XOXOX+X+X+X+X%X&X&X4X4X4X4X4X2X2X4X2X2X6XiXuXuXuXbXbXvXvXcXcXuXcXcXcXuXuXiXiX6X6X6X6X6X6X6X6X2X6X&XiXBX@XJ.3.{ | { { H ! 6.{ h ] ! ! ( J S S g J d d D ~ [ ,.^ D S S S B d S g D ! D ( ] ( ] V V *.e.=.=.=.( :.e.e.y.y.y.y.y.e.e.e.e.e.e.u.u.u.u.e.e.e.u.u.u.u.y.u.q.u.u.u.q.4.i.i.i.:.:.9.q.^.#X'.'.y.1.:.q.>.*.&.&.>.q.u.u.q.q.q.4.1.:.:.:.4.q.q.4.:.:.>.] U P U ] *.>.:.>.&.] U U U Y Y V s y q q 7 7 w w w 7 q q q 0 p p b A U U U &.#.U N A &.:.q.y.y.W.(.(.c.! . + * u  .g.) u u B B y 6 6 : 2 6 6 6 & 1 + $ * ( w.l.b.b.b.b.l.l.l.l.b.b.b.v.D.[.{.|.|.XX{.[.|.D.*.g D ! D D G H ) *.2.2.2.2.2.2.2.@.@.@.@.@.@.@.@.@.@.s.m.m.m.b.n.~.~.XXXXXX~.XXXXXXXX.X.X.X.X.X.X X X.X.X%X%X&X1X&X&X2X2X2X2X2X2X2X&X%X8XuX7XuX8X6X8X8X8X8X6X6X8X6X8X*X*X8X2X&X&X( 1 9 9 9 c Z C c N c 9 1 1 8 1 9 Z Z c l q l C Z C C Z K U U X.X.C q 8 , # @   @ X X   X X X X @ O X       X   X X   X X X X X X X X X         X X X X X X   X X   @ @ @ @ @ # # # # o O O O O O X O O O O O O O O O O O X X X X X     X X   X         X X X X X               X X     X X X                                       X X X       X X X X X X X X X X X X   X X X X X X X X X O O o o X X X X X o o o # # # # # # # # ",
"A.D.D.D.D.D.D.D.H.H.J.{.oX+X+X%X&X&X&X&X&X&X+X+X&X&X&X&X&X%X+X+X+X@X@X+X%X4X&X&X4X4X4X2X2X4X6X6X6X6X7XiX7X7X7X7XiXiXuXuXuXuXcXcXuXcXvXcXcXcXuXcXuXvXvXvXuXvXcXcXvXuXcXvXvXuXpXpXvXuXvXvXvXuX6X4X4X+X+X@XoXoX}.}.K.K.K.K.}.K.}.}.oX+X4X4X4X>X+X@XoX}.}.}.K.K.}.}.}.}.}.}.}.}.}.}.}.}.K.H.x.j.j.h.h.h.A.G.H.J.{.}.oX@XoX@X@X+X+X+X%X%X%X%X&X&X&X&X&X&X6X6X6X&X$X).w.*.V ; A LXKXKXKXKXKXKXKXKXKXKXKXKXKXKXKXKXKXKXKXKXLXKXKXKXKX(.5     # ].KXKXKXKXKXKXKXKXKXKXKXKXKXKXKXKXKXKXKXKXKXKXKXKX$Xw N *.u.'.=X6XiXcXiXcXiXiX6X&X&X%XOXS.w.=.J ; o cXKXKXKXKXKXKXKXKXKXKXKXKXKXKXKXKXKXKXKXKXKXKXKXKXKXKXKXKXKXKXKXKXKXKXKXKXKX$XX # B ] 4.c.)._. X X X XOX+X+X+X+X%X+X+X%X&X&X4X4X4X4X7X7X6X6X6XiXiXuXuXvXbXbXbXvXcXcXcXvXcXcXcXcXiXiXiXiXiXuXuXuXiXiXiX&X4XpX4XD.6.3.{ { 6.e.^ ] z.,.D ( 6.] H H ! S S S J H D ~ 1.=.D S g S S B d g g D H ] *.S S S F U ] w.S.e.y.u.w.y.y.y.y.e.e.e.y.y.y.y.e.u.y.y.u.u.e.u.w.w.u.u.u.u.u.q.q.q.q.:.i.:.i.i.i.:.9.r.`.-X-X_.y.1.1.q.:.&.&.&.:.q.u.y.u.q.q.4.q.q.q.q.u.y.y.e.q.1.*.` P Z U &.>.1.4.1.:.=.&.&.` ` ] ` U F V s q w w w q p s p q q N Z U U &.>.>.>.&.U N &.:.q.y.(.`.].'.(.c.J * . u *.^ } Q r y c y 7 6 2 & & 6 6 6 & & + $ * Q 2.l.l.l.l.l.b.b.l.l.l.b.b.v.v.H.XX|.|.{.{.{.[.D.2.Q Q ~ ! Q ! ! ^ ~ ) ) ) ) ) ) @.@.@.@.2.2.s.m.m.b.b.n.n.~.~.~.XX~.~.~.~.~.~.XXXXXX.X1X1X1X%X%X%X%X%X%X%X1X1X1X1X1X&X2X2X3X3X4X7X2X&X%X8X8X8XuX8X8X8X8X8X8X8X8X8X8X6X8X8X8X*X&X%X( 2 2 9 9 N Z Z N V c 9 1 5 8 1 5 c c c c A N c c v Z C K P U U U K l 0 5 3 # X @ X X   X X   X O   X X X     X X X   X X X X X X X X X         X X X X X X       X X @ @ @ # , , # # o O O O O O O O O O O O O O O O O O X X X X X   X X X             X X X X X               X X       X X                                       X X X   X X X X X X           X X     X X X X X X       X O O o o o X o X X X o # # # # # ; ; ; ",
"D.A.A.D.D.D.D.D.H.H.{.{.oX@X+X%X%X%X&X&X&X+X+X+X%X%X%X&X&X%X+X+X+X+X+X+X&X4X2X&X&X2X2X2X6X6X6X6X6X6X6XiXiXiXiXiXiXiXuXuXuXuXcXcXuXcXvXvXvXcXcXcXcXcXvXvXvXvXvXvXuXcXvXvXvXvXvXuXvXvXvXvXcXuX6X2X4X4X+X+XoXoX}.oX}.K.K.}.oXoXoXoX:X4X4X7X4X4X&X+XoXoX}.oX}.}.}.}.}.}.}.}.}.}.}.oX}.|.}.J.G.g.j.h.h.x.G.G.H.J.}.|.oX+X+X+X+X+X+X&X%X%X&X&X&X&X&X&X&X&X6X6X6X&X%X_.q.*.B # q.KXKXKXKXKXKXKXKXKXKXKXKXKXKXKXKXKXKXKXLXKXKXKXKXKX$XX   &       $XKXKXKXKXKXKXKXKXKXKXKXKXKXKXKXKXKXKXKXKXKXKXKXCX# 0 ( q._.%X*XiXcXcXcXcXuXuX8X&X%X'.c.4.] d 5 p KXKXKXKXKXKXKXKXKXKXKXKXKXKXKXKXKXKXKXKXKXKXKXKXKXKXKXKXKXKXKXKXKXKXKXKXKXKX$Xo 5 F *.w.S._. XOXOXOXOX+X+X+X+X+X%X%X&X&X&X&X&X2X6XiXiXiXiXiXiXuXuXcXvXvXbXbXbXvXvXvXvXvXcXcXcXuXuXuXiXiXuXuXuXuXuXuXiXiXiX4XD.6.F.{.@X,.{ 4.*.( e.{ D =.iX6.] ! d J J ( ( H h R ,.( h g S S S S d g [ ,.*.J D S S S J ] ] :.c.y.y.y.y.y.e.e.y.e.e.e.e.e.e.e.e.u.u.e.u.u.e.u.w.w.q.q.u.u.u.u.q.q.q.q.:.:.:.:.:.:.i.r.].#X'.'.(.q.q.:.:.*.&.&.&.*.:.q.u.q.q.q.e.y.y.S.(.(.(.y.q.:.*.U U Y U &.:.4.q.w.q.1.:.>.>.>.>.>.&.] U F V s s s s B Y Y Y Y U &.&.>.:.q.q.i.:.&.F q.u.S._._.'.].#X_.y.B % . D 5.! H d 7 c c t 6 6 2 & 1 6 9 1 1 + . + $ g 2.5.l.2.5.m.n.b.s.l.l.b.z.x.v.H.[.{.{.{.{.{.[.[.l.) ~ ) ~ Q ^ ) ~ Q R Q Q Q Q ) @.2.2.2.2.s.m.b.b.n.n.~.~.~.XXXXXX~.~.~.~.~.~.XXXXXX.X1X%X%X%X1X1X8X8X2X2X2X2X1X1X2X2X2X4X7X7X7X7X2X2X2X8XuX8XuX8X8X8X8X8X8X8X8X8X8X8X8X8X*X&X&X%XG 6 6 6 6 c Z A V Z c 9 8 8 9 9 5 9 q q y N N l l C C P P K K P U P C l 0 8 3 o o X X X X X X X X X X X X X X X X X X X X X X X X X X X X X   X X X X X X X X X X X X @ @ # 3 3 , # # o @ O O O O O O O O O X X X X     O X X X X X     X X X X     X X X X X X X   X X                 X X X X                                     X X     X X X X X           X X       X X X X X X X X O o o o o X X X X X X X X o # # # # # # ; ",
"D.A.A.A.D.D.H.H.H.J.{.{.oX@X+X%X%X%X&X%X+X+X+X+X%X%X%X&X&X%X+X+X+X+X+X%X%X4X2X2X&X&X&X2X6X6X6X6X6X6X6X6X7X7XiXiXiXiXiXuXiXuXuXcXuXuXcXcXuXcXuXuXuXcXcXvXvXvXvXcXuXcXcXvXvXvXcXcXcXvXcXvXcXuXuXiX6X2X4X%X+XoXoXoXoXoX}.oXoX+X>X4X7X7X7X6X2X2X4X4X+XoXoXoXoXoXoXoX}.}.}.}.}.oXoXoXoXoX}.}.J.x.g.h.h.A.G.G.H.J.{.|.oX+X+X+X+X+X%X&X&X&X&X&X&X&X&X2X6X6X6X&X6X&X%X).4.] s # ].KXKXKXKXKXKXKXKXKXKXKXKXKXKXKXKXKXKXKXKXKXKXLXKXKXZ   & o ; # X A KXKXKXKXKXKXKXKXKXKXKXKXKXKXKXKXKXKXKXLXKXKXKXLXq w U 1.(.$X*XiXcXcXcXcXcXcXuX6X$X_.c.1.] B X (.LXKXKXKXKXKXKXKXKXKXKXKXKXKXKXKXKXKXKXKXKXKXKXKXKXKXKXKXKXKXKXKXKXKXKXKXKXKX$Xo w J =.e.).'. XOXOXOX+X+X+X+X+X+X%X&X&X&X&X&X&X2X6XiXuXuXuXuXuXvXvXvXvXbXbXbXbXbXvXbXvXcXcXcXcXiXiXcXuXcXcXcXuXuXuXcXiXiX&XF.F.{ 3.{.OX4.{ 4.=.{ {.{ ! S.+X=.( H S D ! ( ( H h ' ,.^ g g g S S S S g ( c.w.*.] S S J U ] ] ] e.y.y.e.c.e.e.e.e.e.e.e.e.e.e.e.u.u.e.e.e.e.e.u.w.w.q.w.q.q.q.q.q.q.q.q.4.:.:.:.:.:.q.y.'.'.'.'.].y.q.:.:.&.&.&.` ] >.q.u.q.u.e.N.(.(.]._._._.S.e.4.:.&.U U ` &.:.i.q.w.q.q.4.4.1.:.:.:.>.*.&.] U J Y Y ` ] &.>.>.>.:.4.1.u.e.y.y.u.q.>.] y.(._.'._.'.'.].'.q.d . . d 1.U s y 7 y y 6 : 6 & & 2 9 9 1 # @   + . : ( 2.2.l.m.m.b.b.l.l.w.b.b.x.v.H.H.[.{.{.[.[.{.XXD.,.) [ *.,.2.5.<.} } 2.} ) ) @.2.2.2.2.s.m.m.m.b.n.n.~.~.~.~.XXXXXXXX~.~.XXXXXXXX.X.X%X%X%X1X8X8X8X8X8X8X3X2X2X2X2X2X7X7X7X7X7X8X7X2X8XuXuX8X8X8X6X8X8X8X8X8X8X8X8X8X8X8X*X&X*X-Xc 6 9 6 6 q N N Z Z c c 9 9 9 9 9 5 5 q s Z P P C c k K K K K U X.U P K C C q 5 # @ X X X X X X X X X X X X X X X X X X X X X X X X X X X X X X X X X X X X X X   O @ @ @ 3 3 3 , # # o @ O O O O O O O O O X X X X     O X X X X       X X X X     X X X X X X X X X X X X       X     X X X X               X X X                 X X       X X X X X X X X X X X X X X X X o o X o o o o o # # # o o o o o o o o # # # # # # # # ",
"D.D.A.D.D.D.H.J.J.{.{.{.oX@X+X+X%X%X%X%X%X%X%X+X%X+X%X%X%X%X+X+X+X+X%X%X%X&X4X4X&X&X&X&X2X6X6X6X6X6XiXiXiXiXiXiXiXiXiXiXiXiXuXuXuXuXuXuXuXuXuXuXuXuXcXcXcXcXcXcXuXcXcXvXcXcXcXcXcXcXvXcXcXcXuXuXiXiX7X2X%X+X@XoXoXoX@X+X+X4X7XpXpXpXuXuXiXiX6X6X2X+X@XoXoXoXoXoXoXoX}.oXoXoXoXoXoXoX}.}.}.H.x.h.x.A.G.H.J.J.}.oXoX+X+X+X+X%X&X&X4X&X&X&X2X&X2X6X6X6X6X2X6X&XOXS.:.U y o $XKXKXKXKXKXKXKXKXKXKXKXKXKXKXKXKXKXKXKXKXKXKXKXKXPX  & 5 y s 5     CXKXKXKXKXKXKXKXKXKXKXKXKXKXKXKXKXKXKXKXKXKXKXKX:.5 Y :.S.$X*XcXvXcXcXcXcXcXcX6X%X).e.=.U w # cXKXKXKXKXKXKXKXKXKXKXKXKXKXKXKXKXKXKXKXKXKXKXKXKXKXKXKXKXKXKXKXKXKXKXKXKXKXKX$Xo w J =.e._. XOXOXOX+X+X+X+X%X&X&X&X&X&X&X&X4X2X2X6XiXuXvXvXbXbXbXbXbXbXbXbXbXbXvXmXmXvXcXcXcXcXiXiXuXcXuXcXcXuXiXuXuXuXiXF.F.6.3.w.F.z.4.1.w.] c.F.( { ,.! H ! S G D D g H Q h [ [ h g g g S d S S d J ( 4.w.=.( ! S ] H H S e.y.y.y.c.y.y.y.e.e.e.u.e.e.e.e.u.u.u.e.q.e.e.u.e.u.q.q.q.q.q.q.q.q.q.q.1.:.:.:.:.:.q.(.'.'.'.'._.(.y.q.:.&.] ] ] &.>.i.q.u.y.S.(.].'.'.'.'.'._.N.w.1.>.>.&.>.:.q.q.u.u.q.q.q.q.q.4.1.1.q.q.4.:.:.>.:.:.4.4.q.u.u.u.e.y.y.(.S.S.S.(.N.q.:.(.].'._._.'.'.'._.=.y . o t ,.( t t 7 7 6 6 > : : 2 6 9 9 , @ O     . . u G ! ) 2.s.b.b.5.5.l.l.b.x.x.v.H.[.[.[.[.{.H.{.{.5.[ / 2.f.z.z.f.<.<.s.3.<.2.2.2.s.s.s.m.m.m.m.b.n.n.~.~.~.~.XXXXXXXX;X;XXX.XXX.X.X.X%X1X1X8X8X8X8X8X7X7X2X2X2X2X3X7X7X9X9X7X7X7X7X7X7X8X8X8X8X8X8X6X8X8X8X8X8X8X8X8X8X2X*X&X8X Xt 9 t 9 6 y A Z F Z c q 6 9 9 9 9 5 5 q y V P P Z c l C C Z P P P P P P K K C q w 5 # X X X X X X X X X X X X X X X X X X X X X X       X X X X X X   X X         O @ @ # 3 4 3 , # # o @ O O @ O O O O O O O X X X     O X X X X       X X X X X X X X X X X X X X X X         X X   X X X X X                   X                 X X     X X X X X X X X X X X X X X X X X X X X X X o o o o o # # # # # # # # # # # # # # # # # ",
"D.D.D.D.D.D.H.J.{.{.{.}.oX+X+X+X%X%X%X%X%X%X%X+X+X+X+X%X%X%X+X%X+X+X%X%X%X&X&X&X&X&X&X&X2X2X6X6X2X6X7X6X6X6XiXiXiXiXiXiXiXiXuXuXiXiXuXuXuXuXuXuXuXuXuXuXuXuXuXuXvXvXvXvXvXcXcXcXuXvXvXvXvXvXcXcXuXuXuX6X4X+X+X+X+X>X>X4X4X7XpXpXvXvXuXuXuXuXuXiX6X2X+X+X@X@XoXoXoXoXoXoXoXoXoX}.}.oXoX}.}.J.H.G.A.A.G.H.J.K.}.oX@X+X+X+X+X&X&X&X2X4X4X2X2X2X2X6X6X6X6X6X2X%X Xc.:.U 7 # *XKXKXKXKXKXKXKXKXKXKXKXKXKXKXKXKXKXKXKXKXKXKXKXKXbX  o s B J N     cXKXKXKXKXKXKXKXKXKXKXKXKXKXKXKXKXKXKXKXKXLXKXKX'.5 Z >.y.$X*XcXvXvXvXvXcXcXcXiX&X_.y.=.V ; 0 KXLXKXKXKXKXKXKXKXKXKXKXKXKXKXKXKXKXKXKXKXKXKXKXKXKXKXKXKXKXKXKXKXKXKXKXKXKXKX$Xo w U :.c._. XOX+X+X+X+X+X%X&X&X&X&X&X&X&X2X6XiXiXuXuXvXbXbXbXnXnXnXbXbXbXbXmXvXvXcXcXcXcXcXcXcXiXiXiXiXUX*XiXuXcXiXUX&X&XS.F.F.S.z.=.1.[ =.S.4.e.! g D D J ] S H J g D S D ~ / 5.' D S S S g g g S V S d J 1.5.! D ! ] H H :.c.c.c.y.y.y.y.y.e.e.e.u.e.e.e.u.q.q.q.q.q.e.e.u.u.q.w.q.q.w.q.q.q.q.q.w.:.:.:.:.>.:.q.y.y.y.(.(.].].(.y.:.>.&.] ` &.>.:.u.N.(._._.'.'.'.'.'.'._.(.u.q.4.i.:.>.>.q.q.q.q.q.q.q.4.4.4.q.q.y.y.y.y.e.u.e.y.e.y.y.N.y.N.N.S.(.(.(.(.(.(.(.(.:.u.'.'.'._.'.'.(.e.&.; o . : ( H y t t 6 6 : % : & 2 6 9 1 + + O     . . . * u g G ) 2.5.2.2.l.l.b.b.x.x.D.[.{.[.[.{.H.{.|.D.5.,.f.v.D.v.x.f.f.f.f.f.f.s.s.m.m.m.m.m.m.b.b.b.n.n.~.~.~.XXXXXX.X;X;X.X;X.X.X%X1X2X8X8X8X8X8X8X8X6X4X3X2X3X3X7X9X9X9XuXuX7X7X7X7X7X7X8X8XuX8X8X8X8X8X8X8X8XlX8X8X*X*X*X&X8X).t t 9 6 9 B Z P P P c 9 5 6 6 6 9 9 q s y q q c l q c N l C P P K C C Z Z Z Z C C N w # X X X X X   X X X X X X X X X X X X X X X X     X X X X X X X X X       O @ @ # 3 4 4 3 , # # o @ O O @ O O X X X X X X X X     O   X X X X     X X   X X X   X X X X X X X X X     X   X X     X X X X                                     X X     X       X X         X X   X X X X O O O O O O X @ o @ o # # # # # # # # # # # = # = = 3 ",
"H.D.H.H.{.J.{.{.{.{.{.|.|.oX+X+X+X+X%X+X+X%X+X+X+X+X+X%X%X%X+X+X+X+X+X%X%X%X%X&X%X&X2X2X2X2X2X6X2X6X6X6X6X6X6X6X6X6XiXiXiXiXiXiXiXiXiXuXuXuXuXuXuXuXuXuXuXuXuXuXuXuXuXuXcXcXcXcXcXvXvXcXuXvXvXcXcXcXuX6X2X4X&X%X4X4X4X7XiXuXcXvXvXvXuXuXuXuXvXcXuX6X2X&X+X+X@XoX@XoXoXoXoXoXoXoX}.oXoXoX}.}.J.H.A.A.H.J.}.}.|.oX@X+X+X+X+X&X4X1X4X4X4X2X2X4X4X6X6X6X6X&X%XOX_.e.:.H 7 # cXKXKXKXKXKXKXKXKXKXKXKXKXKXKXKXKXKXKXKXKXKXKXLXKXiXX 7 J ( F       *XKXKXKXKXKXKXKXKXKXKXKXKXKXKXKXKXKXKXKXKXKXKXLX*X5 V >.y.OX*XcXcXcXvXvXcXvXcXiX&X'.e.&.B # y.KXKXKXKXKXKXKXKXKXKXKXKXKXKXKXKXKXKXKXKXKXKXKXKXKXKXKXKXKXKXKXKXKXKXKXKXKXKXKX$X# q U 1.c._.OX@X+X+X%X+X+X+X&X4X4X&X&X&X4XiXuXuXvXbXbXnXnXnXnXnXnXnXnXbXbXmXvXvXcXcXcXiXiXiXiX6X6X*X*X&X&X=X*X*X*X$XOX$XOX_.D.4.=.] ( S J 4.OX5.H S D g J ] =.! f ! H D D h ^ ,.A.] D S S S g g g S S d J J S H H ( ( H S [ S.S.S.S.c.c.y.w.e.e.e.e.e.e.e.e.u.q.w.e.q.q.q.e.w.w.q.q.q.q.q.q.q.q.w.q.q.4.:.:.:.:.:.9.r.q.q.y.N.(.(.y.q.:.>.>.&.&.>.4.e.S.]._.'.'.'.OX'.OXOX'.'.(.(.y.e.e.q.i.:.i.:.:.:.4.q.q.q.q.q.q.q.e.y.y.y.y.N.S.S.y.S.S.(.(.(.(.(.(.(.(.(.(.(._._.q.:.(.'.'.'.'.`.w.1.+..   o & u F t 6 t 6 9 6 : : & : 2 6 1 + + O O O . . . . + u v G G g r g 5.l.b.b.b.x.v.H.[.[.[.[.[.{..X|.[.H.H.H.H.H.A.x.x.x.x.z.l.l.l.m.b.b.b.b.b.b.v.n.n.~.XXXXXXXXXX.X.X;X.X.X.X X.X%X%X1X2X3X2X2X2X8X6X2X2X7X7X7X7X9XuXuXuXuXuX7X7X7X7X7X6X8X8X8X8X8X8X6X6X8X8XcXlX8X8X*X*X&X%X8X~.y t 6 9 q Z P U U P 9 5 5 6 5 6 q y s B V V q q q 8 q N N C Z Z A N q l N N C C K C q 3 @ X X X X   X X X X X X X X X X X X X X X           X X X X X X @ O @ @ @ @ = 4 8 8 w 3 3 , # @ @ O O O O O X X X X X X X X O @ O   X X X X X X X X X X X X X X X X X X X X X X     X X X X X X X X X X                                                 X X X X X     X X X     X X O O O O @ @ @ O @ o o o o # # # # # # # # # # # = = 3 3 ",
"D.D.D.[.{.{.{.{.{.{.{.{.{.|.+X+X+X+X+X+X+X+X+X+X+X+X+X%X%X%X%X%X+X+X+X%X%X%X%X%X%X&X2X2X4X2X4X2X7X7X7X6X6X7X6X6X6X6X6X6X7X7XiXiXiXiXuXuXuXuXiXiXiXuXuXuXuXuXuXuXuXuXuXuXuXcXcXcXvXuXuXuXuXvXvXvXvXcXcXiX6X4X6X4XiXaXiXuXuXuXcXcXvXvXvXuXvXvXvXvXcXuXiX4X+X+X+X@XoX@X@XoX}.}.}.oXoXoXoXoXoX}.K.H.H.H.J.}.oX}.|.|.@X+X+X+X+X4X4X1X&X4X2X2X2X4X6X2X6X&X&X&XOX X).e.=.F 6 X mXKXKXKXKXKXKXKXKXKXKXKXKXKXKXKXKXKXKXKXKXKXKXKXKX*Xo w H V . .     $XKXKXKXKXKXKXKXKXKXKXKXKXKXKXKXKXKXKXKXKXKXKXKXcX# N &.u. X*XcXvXvXcXvXcXvXcX6X$X).4.U q o mXKXKXKXKXKXKXKXKXKXKXKXKXKXKXKXKXKXKXKXKXKXKXKXKXKXKXKXKXKXKXKXKXKXKXKXKXKXKXKX$X# q U 1.c. XOX+X+X+X%X&X&X&X4X4X4X4X4X&X2XiXuXpXbXbXbXnXnXnXnXnXnXbXbXbXbXmXvXcXcXcXcXiXiXiX*X*X*X%X$XOXOX$X$XOX_.N.y.e.6.{ ] ! H H J ] 4.S.4.H d S J H h ( H [ ! D D ! H ( ' ' 5.~ g S V g g g g V V S S S =.1.! ~ ] H ] S.).'.)._._.).c.4.w.e.e.e.e.e.e.e.e.q.u.u.q.w.q.e.e.q.q.q.q.q.q.q.q.q.q.w.w.q.:.:.>.>.>.:.:.q.u.S.y.u.q.q.:.:.>.>.&.&.1.e.(.'.OX'.OXOX'.OXOX$XOXOXOX'.(.y.q.u.q.q.4.i.>.&.>.q.q.q.q.q.i.:.4.q.q.y.y.(.(.(.(.S.(.(.(.(.(.(.(.(.(._.(.(.].].'.(.q.(.].'.].].y.:.:.&.o   & & 2 U V 7 t 6 9 2 : : & & 1 & # + # + @     . . . . $ 2 t + $ . e 2.l.b.b.b.v.v.D.H.[.[.[.{.{.|..X.X.X[.[.{.[.H.A.x.x.x.z.z.x.x.b.v.v.n.v.v.v.n.[.XXXXXXXXXX XXXXX X.X.X.X.X X X XOX%X%X%X%X%X&X2X2X2X2X7X7X7X7XuXuXuXuX7X8X7X8X7X6X6X2X6X8X8X8XuXuX8X8X8X8XcX8X8X8X8X8X*X%X8Xc.B c 9 9 q Z U U +.P 9 1 5 6 5 5 q c B B V V q 0 l l c A Z P A 5 3 8 q N N N l C C z q , X     X X   X X X X X X X X X X X X X X   X         X X X X X @ @ # @ @ , 3 3 8 0 0 w 3 3 , # @ O O O O O O X X X X X X X X @ O O   X X X X X X X X X X X X X X X X X X X   X X     X X X X X X X X X X     X                                           X X X X X     X X X       X O O O @ O O O O @ @ o o # # # # # # # # 3 = = # = = 3 3 ",
"H.J.J.{.{.{.{.{.{.{.{.{.{.oX@X+X@X@X@X@X+X+X+X+X+X%X%X%X%X%X+X+X%X+X+X+X+X+X+X%X+X&X4X4X2X2X2X2X2X4X6X6X6X6X6X6X6X6X6X6X6X7XiXiXiXiXiXiXiXiXiXuXiXuXuXiXiXiXiXuXuXuXuXuXuXuXuXcXuXuXuXuXvXvXvXvXcXuXuXuXuXuXuXuXuXuXuXuXuXvXcXuXvXvXvXvXvXvXvXcXcXuXiX6X2X+X+XoX@X@X@X@X@XoXoXoXoXoXoX|.}.oX}.{.{.{.oXoXoXoXoXoX@X+X+X%X1X2X4X4X2X2X2X2X4X2X&X&X%X&X%XOX{._.F.e.*.y ; X nXKXKXKXKXKXKXKXKXKXKXKXKXKXKXKXKXKXKXKXKXKXKXKXKX=X# 0 6 . o ; X X $XKXKXKXKXKXKXKXKXKXKXKXKXKXKXKXKXKXKXKXKXKXKXKXnXo N &.u.'.6XcXvXcXbXcXcXcXiX*X$XS.:.Y 5 5 LXKXLXKXKXKXKXKXKXKXKXKXKXKXKXKXKXKXKXKXKXKXKXKXKXKXKXKXKXKXKXKXKXKXKXKXKXKXKXKX$Xo q U 4.S._.OX+X%X+X&X&X&X&X&X&X&X&X&X&X4X2X7XuXvXbXnXnXnXnXnXnXnXbXbXmXvXbXvXcXcXiXcXiX*X*X*X=XOX_._.F.%Xe.&.N.4.4.4.q.4.=.*.{ *.] { e.S.*.H S J S J ( D D ] { H ] ! S S D ~ ,.3.H g S S S S S S S V S J 1.OX_.J ( ] ( S.'._.OX X XOXOX'.S.e.e.y.y.y.e.e.e.y.e.w.w.e.q.q.y.e.w.w.4.q.q.q.q.w.q.w.w.w.q.4.:.=.>.=.>.:.u.N.u.q.q.1.:.:.1.:.>.>.q.(.'.OX$X$X$X$X$X$X$X$X$X$XOX'.'.'.N.q.:.>.4.u.q.:.>.&.>.4.u.q.q.q.q.q.q.y.y.(.(.(.(.].)._._.].].].(.(.(.(.(.(.(.]._.]._.(.y.N.(.].y.:.&.4.=.o   & V 7 c y y 6 6 6 : : 5 6 5 1 1 1 1 1 @ @ + + + + + . o . + % & o . ) l.l.b.b.b.v.D.).[.[.[.[.[.|..X.X|.{.|.XX{.[.H.H.v.v.x.x.x.x.x.v.v.D.H.H.[.[.[.XX{.[.[.{.{.[.).S.).XXv.v.).v.). X.X.X.X+X%X&X&X8X7X7X7XuXpXpXpXpXuX9XuXuX9XuX7X2X2X&X&X2X8X8X8X8X8XcXcX8X8XlX8X8X8X*X*X&X*Xc.F v y 9 c K U X.U Z 9 5 6 6 ; ; q y y B B c l l c c c N y V V q w w N Z Z C c C C c w @ X   @   @ O X X X X X X X X X X X X X X X X X X X X X     O X @ @ - , 3 4 0 0 k b 0 w 3 3 3 # @     O @ O O X X X X X X X X X X X X X X X X X     X X X X X X X X X X   X X       X       X X                                                                       X X X X X X X X X X X X X X @ @ o o o o @ o o # # # # # , , # , , , 3 3 ",
"J.{.{.{.{.{.{.{.{.{.{.{.{.oXoXOXOX@X@X@X@X+X+X+X+X+X+X+X+X%X+X+X%X+X+X+X+X+X+X+X+X+X&X&X2X2X2X2X2X4X6X6X6X6X6X6X6X6X6X6X6X6X7X7XiXiXiXiXiX7XiXiXiXuXuXuXiXiXuXuXuXuXiXuXuXuXuXcXcXuXvXuXuXcXvXvXvXvXvXvXuXuXuXuXuXuXuXuXvXvXvXvXuXuXvXvXcXcXvXvXuXuXuXiX4X&X+X+X+X+X+X+X+X@XoXoXoXoXoXoXoX@X@X|.{.|.}.oX}.}.oXoX@X+X+X+X+X%X1X1X1X1X2X&X%X%X+X+XOX+X+XOX{.D.z.5.] t & X nXKXKXKXKXKXKXKXKXKXKXKXKXKXKXKXKXKXKXKXKXKXKXKXKX=XX # o o ; 5 o   '.KXKXKXKXKXKXKXKXKXKXKXKXKXKXKXKXKXKXKXKXKXKXKXCXo q ] u.'.*XcXvXvXvXcXcXcX6X=X'.u.&.q 5 (.KXKXKXLXKXKXKXKXKXKXKXKXKXKXKXKXKXKXKXKXKXKXKXKXKXKXKXKXKXKXKXKXKXKXKXKXKXKXKXKX$Xo q U 4.S.{.@X+X%X&X&X&X&X4X&X&X4X&X&X&X&X2X6X6XiXcXbXbXnXnXvXbXbXbXcXmXcXcXcXcXcXcXcX*X*X$X$X'.S.F.{.@X=.q >.:.4.S.S.e.e.S.e.1.{ 1.6.4.] ] U *.( H D D ! Q ' [ D H ( H ( ] ~ ,.| D S S G G S S S S S J ( c.OX%X] ! [ e.OX%XOXOX$X*X*X*X&X'.(.S.S.S.(.S.c.e.e.e.S.S.S.S.S.S.y.e.e.q.w.q.q.q.q.q.q.q.q.q.q.4.:.>.=.:.w.y.y.y.N.S.y.e.S._.'.'.'.OX$X$XOX$X$X$X$X$X$X$X$X-X$XOXOXOX'.(.q.>.] ] &.&.&.` ` &.:.u.y.y.y.e.u.u.(.].].'._._.'._._._.'.].].(.(.(.(.(._.(.(._.(.(.].N.y.y.y.u.=.=.q.:.    # B Z 9 9 9 6 6 7 : 6 7 7 6 6 5 1 1 1 + + < < + @ @   + + + # & o . G w.l.b.b.b.v.v.D.H.[.[.[.[.[. X.X|.|.{.{.{.[.[.H.A.A.v.x.x.x.v.v.v.v.D.H.[.[.[.[.).[.[.[.).v.v.c.c.c.5.w.c.c.).[.{. X{.|.%X2X2X8X7X9XuXuXpXpXpXpXcX8X8X9XuXuX8X&X XOX%X%X8X8X8X8X8XcXcX8X8X8X8X8X*X8X*X*X$Xu.F y c 9 9 Z U X.P c 9 9 6 6 5 6 q q B B B c c c l 9 l Z V N s q q s Z Z Z Z C C C C 0 # X   @ X @ X X X X X X X X X X X X X X X X X X X X O X     O # # 3 4 4 0 k b k b b 0 w 3 3 3 # # @ @ X @ O O X X X X X X X X X X X X X X X X X X   X X X X X X X X X     X X X X X X       X                                                 X X X X X X X X         X X X X X X X X X X X X X X @ @ @ o o o o o o # # # # # , , # , , , 3 3 ",
"{.{.{.{.{.{.{.{.{.{.{.{.{.{.|.|.{.OX@XOXOXOX@X+X@X@X+X+X+X+X+X+X+X+X+X+X+X+X+X+X+X+X%X&X&X4X2X2X2X2X2X2X2X6X4X6X2X6X6X6X6X6X6X6X6X6X7X7X7X6X6XiX7X7XiXiXiXiXiXiXiXiXuXiXiXuXuXcXuXcXuXuXuXuXvXvXvXvXvXvXvXvXuXuXuXuXcXcXvXvXvXvXvXvXvXvXvXvXvXvXcXcXuXiX6X&X&X&X+X+X+X+X+X+X+X@XoXoX|.|.oX@X@X@X|.|.|.}.}.}.}.oXoX@X+X+X+X+X%X>X1X+X2X2X+X+X+X{.{.OX@XOX{.S.e.4.*.s 5 X nXKXKXKXKXKXKXKXKXKXKXKXKXKXKXKXKXKXKXKXKXKXKXKXKX$X    . ; 7 6 # X '.KXKXKXKXKXKXKXKXKXKXKXKXKXKXKXKXKXKXKXKXKXKXKXPXo q &.q.'.*XcXvXvXcXcXcXcX*X$X(.4.U 0 # *XKXKXKXKXKXKXKXKXKXKXKXKXKXKXKXPXKXKXKXKXKXKXKXKXKXKXKXKXKXKXKXKXKXKXKXKXKXKXKXKX$Xo q U 4.S. X+X%X%X&X4X&X4X4X4X4X2X2X4X4X4X4X2X2X6XiXcXcXbXvXbXbXvXiXvXvXvXcXcXcXcXcX*X*X=XOX).z.F.@X>Xw.  7 :.e._.S.S.S.e.S.] H { 6.e.{ ] ] { w.] S J H ~ Q [ [ D D ~ ] ( ! ^ <.' h S S S S S S S S S S ( ).6X6XOX).'.&XvXuX&X&X*XuXcXcXiX&XOX'. X$X&XOX X_.).).'.'.].S.S.(.y.e.w.4.q.q.q.q.q.q.w.q.w.w.q.4.4.:.1.e.(.(.y.S.'.$XOXOX$X$X$X$X$X$X$X$X$X$X$X$X$X$X$X$X$X$X$X$XOX'._.N.q.:.>.] ` U U ` &.] >.q.y.y.y.e.u.y.(.]._.'.'._.'.'.'._._.]._.(.(.(.(.].].(.(.(.(.(.(.(.(.y.:.:.:.1.q.&..   . 6 9 1 1 6 2 2 6 & 6 y 7 7 6 6 9 1 1 + 1 2 1 + + +   + + + + & % . : 1.l.b.v.b.v.v.D.D.D.D.D.[.[.[.|.{.{.{.{.[.[.[.[.H.H.D.v.v.v.v.v.D.v.D.D.D.D.D.v.D.[.D.c.l.l.e.1.1.1.*.,.5.w.D.{.[.|.[.[.+X3X7X9X9XuXuXpXpXpXuXuXuXuXuXuXuXuX7X&X_. X X X2X8X8X8XlXcX8X8X8X8X6X8X*X*X%X&X).w.( y y 9 9 Z U U Z 9 9 q 9 5 5 6 9 9 c B Z B c q 9 q N P F q 6 7 y B Z Z Z Z Z C l k 3 @ O X @   X X X X X X X X X X X X X X X X X X X X X O O     @ @ # 3 4 0 k b b b b 0 0 8 w 3 3 = # # # X X @ @ X X X X X X X   X X X X X X X X X X X X X X X X X X         X X X X X X     X X X                                               X X X X X X             X X   X X X X X X X X X X X X @ @ @ o o o o o # # # # # # , , , , , 3 3 ",
"J.{.{.{.{.{.{.{.{.{.{.{.{.{.|.{.{.OXoXOX X XOX+X@X@X@X@X+X+X+X+X+X+X+X+X+X+X+X@X+X+X+X+X%X&X2X2X&X&X&X2X2X2X2X2X2X2X4X4X4X4X2X4X6X6X6X6X6X6X6X7X6X6X7X7XiXiXiXiX7XiXuXiXiXiXuXuXuXuXuXuXuXuXcXvXuXuXuXcXcXuXuXuXuXcXcXcXvXvXvXvXvXvXvXvXvXcXcXvXvXvXcXuX6X2X&X&X%X%X+X+X+X+X+X+X@XoX|.oXoXoX@X@X|.|.}.{.{.{.}.oXoXoX@X+X+X+X+X+X1X&X4X4X+X+X+X X{.{.oX{.{.F.w.,.*.V 6 X nXKXKXKXKXKXKXKXKXKXKXKXKXKXKXKXKXKXKXKXKXKXKXKXKX$X    # w p w # X '.KXKXKXKXKXKXKXKXKXKXKXKXKXKXKXKXKXKXKXKXKXKXKXPXo q &.q.'.&XuXcXcXcXcXcX6X*X Xy.>.Z w # LXKXKXKXKXKXKXKXKXKXKXKXKXKXKXPXcXLXKXKXKXKXKXKXKXKXKXKXKXKXKXKXKXKXKXKXKXKXKXKXKX=Xo q ( 4.S.OX+X%X%X%X&X4X4X4X4X4X2X2X2X6X6X6X2X6XiXuXcXcXbXbXcXcXiXiXOXcXvXcXcXcX6X6X&X$X'.S.z.A.>X>XoXt . ] ).OX4.w._.e.4.H J ] 6.S.4.w.4.] H *.] H S Q ) ' <.[ h ^ ~ [ ~ h R <.^ h D S S S G S S S S J J =.&XcXcXvXvXvXbXvXcXuXuXcXcXcXcX*X=X$X=X6XcXiX&XOXOXOX X_.(.S.(.(.c.e.e.w.e.e.w.w.w.q.q.w.y.S.y.e.y.S.)._._.(.y.S.OX&X$X$X$X=X=X&X$X=X&X&X&X$X$X$X$X$X$X$X$X$X$X$XOX'.'.(.y.e.4.>.*.:.:.>.=.:.q.y.(.(.(.(.(.(.].'.'.'.'.'.'.'.'.'.'.'.'._._.'.]._.(.(.(.(.(.(.y.(.S.q.:.:.:.>.=.U 6   + + + 1 & 1 & 2 2 2 t y 7 6 6 6 6 5 1 + 1 2 2 + + +   + + + + # # o $ *.l.l.b.v.v.v.D.H.D.D.D.).[.[.{.{.{.{.[.H.{.[.{.[.H.H.D.D.D.D.D.D.v.D.D.v.v.b.l.z.v.l.5.5.w.4.[ [ ,.*.=.2.1.c. X{..X{.{.%X7X7XuXuXuXuXpXpXuXuXuXuXcXvXcXcXcXuX8X X X_._.%X*X8X8XcXcX8X8X8X8X8X8X*X*X&X%Xe.q.( y t 9 c K +.U A 6 9 q 6 1 w 6 9 q c B Z Z c c c c Z U P 7 6 7 6 7 V V Z Z F P Z z 3 @ O X X X X X X X X X X X X X X X X X X X X X X X O O O O O @ @ 3 4 0 0 k b b b b k 0 8 w 4 3 3 3 3 = # X X X X @ X X X X X X X X X X X X X X X X X X X X X   X X         X X X X X X       X X             X X                               X X X X X       X X X X X X   X X X X X X X X X X X X X @ @ o o o o o # # # # # # , , , , , 3 3 ",
"H.J.{.J.{.{.{.{.{.{.{.{.{.|.|.|.|.|.|.|.|.OXOXOXOX@X@X+X+X+X+X+X+X@X+X+X@X@X@X@X+X+X+X+X+X%X%X%X%X&X4X2X2X2X2X&X4X4X2X4X2X2X2X2X2X4X4X4X4X4X6X4X6X6X6X6X7XiX7X6X7X7X7X7XiXuXuXiXuXuXuXuXuXuXuXcXvXvXuXuXvXuXvXuXvXcXcXcXcXcXcXvXvXcXuXvXvXvXcXuXvXvXcXuXuXiX6X2X2X&X%X%X%X%X+X+X+X+XoX@X@XoX@XoX{.{.{.J.J.J.}.}.oXoX+X+X+X+X+X+X+X%X%X%X%X@X|. X{.|.|.{._.S.w.1.] B ; X nXKXKXKXKXKXKXKXKXKXKXKXKXKXKXKXKXKXKXKXKXKXKXKXKX=X  X ; q s w 5 X '.KXKXKXKXKXKXKXKXKXKXKXKXKXKXKXKXKXKXKXKXKXKXKXPXo q ] q.'.&XiXcXcXcXcXiX*X$X_.u.&.A X y.LXKXKXLXKXKXKXKXKXKXKXKXKXKXLX*XcXKXKXKXKXKXKXKXKXKXKXKXKXKXKXKXKXKXKXKXKXKXKXKXKX=X# y ( 4.S.OX%X%X%X%X&X4X4X4X&X&X2X4X6XiXuXiXiXiXcXvXvXbXcXcXvX*X$X(.( iXcXiXiX6X*X*X$X_.S.e.K.>X:X@X' . d =.&XOX*.5.1.w.] J { 6.w.S.D.e.1.=.] ] J S J ! ~ / 3.{ ~ ~ Q H ] ~ ^ ,.~ D D S S S G S S S S J S ( w.cXvXvXbXbXcXvXbXbXcXcXcXcXcXcXiX*X*XiXcXiX$X'.OX$X$X'.'.'._.S.e.e.e.e.e.w.q.q.q.q.w.y.(.'.'.OX'.'.'.OXOX_._.OX=X*X$X=X*X&X=X&X&X=X$X$X$X$X$X$X$X$X$X$X$X$X$X$XOXOXOX'.'._._.S.y.e.q.:.:.q.y.(.]._._._.(.]._.'.'.'.'.'.'.'.'.'.'.'.'.'.'.'.'.].(.(.(.(.(.y.y.u.7.:.q.4.&.( ] &.F + + . + # & & & 2 6 6 y B y 6 6 6 6 5 1 1 1 2 2 1 + + . O + . + @ + + . G w.l.l.v.v.v.D.[.D.D.D.[.D.D.H.[.[.H.D.H.[.[.[.[.[.H.H.H.H.H.H.D.v.v.D.v.x.z.l.v.l.5.5.5.w.5.=.=.1.,.2.,.2.z.{.[. X|.+X2X7X7X7X9X9XuXuXuXuXuXpXuXvXvXcXcXcXuX6X%X_.).'.%X&X*X&X8X8X8X8X8X8X6X8X*X%X*X Xq.1.H 6 6 y c P +.P c 9 9 9 1 1 8 8 9 c N N C A A A A A A P P s y s 7 7 q y y B Z Z C N b 8 @ X X o @ X X X X X X X X X X X X X X X X X X X O O O O @ @ 3 8 k k b b b n A A b b k 0 0 8 3 w w 5 = o X X X X X X X X X X X X X X X X X X X X X X X X X   X X X X X X X X X X X X X X X X X X         X X X X X                               X X X X     X X X X       X X X X X X X X X X @ X X @ @ @ @ @ o o # # # # # # # # , , , , 5 ",
"D.H.H.H.H.H.H.J.{.{.[.{.{.{.{.{.{.}.}.}.{.|.|.|.OX@X@X@X+X+X@X@X+X@X+X+X@X@X+X+X+X+X+X+X+X+X%X+X%X&X&X4X4X2X2X&X&X4X4X4X2X2X2X2X2X2X2X2X2X4X4X4X2X4X6X6X6X6X6X6X6X7X7X7XiXuXiX7XuXuXuXuXuXuXuXcXvXvXcXuXuXuXuXvXcXvXuXuXuXuXuXuXvXvXvXvXvXvXvXvXvXvXuXuXvXuXuXiX6X2X2X&X&X%X+X+X+X+X+X+X@XoXoXoX[.H.H.J.J.J.J.K.}.oXoXoX+X+X+X+X+X+X+X+X+XOX{.{.OX+X X_.S.z.5.,.] B ; X nXKXKXKXKXKXKXKXKXKXKXKXKXKXKXKXKXKXKXKXKXKXKXKXKX=XX o ; y B s 5 X '.KXKXKXKXKXKXKXKXKXKXKXKXKXKXKXKXKXKXKXKXKXKXKXPXo 0 ( q._.&XiXcXcXcXcX6X*X$X(.4.U w # cXKXKXKXKXKXKXKXKXKXKXKXKXKXKXKXu.cXKXKXKXKXKXKXKXKXKXKXKXKXKXKXKXKXKXKXKXKXKXKXKXKX$X# s ] q._.%X&X&X&X&X&X4X4X6X2X2X2XiXiXvXvXvXcXcXbXbXvXcXcXbXcX&X*Xu. XiXiX6X6X6X&XOX_.S.A.@X<X<X>X5.. y ] 1.%X_.{ =.S.] H 4.S.S.e.e.D.,.4.4.=.! J H H ] ,.} f.{ ^ D D h ] [ [ <.^ h D S S S S S S S S J ] 4.iXvXbXvXcXbXvXbXvXcXvXvXcXcXcXiX6X6XiXcXcX6X%X$X=X&X=X$X%X&X$X'.S.y.c.y.e.w.w.w.e.y.y.(.'.OX$X$X$X$X=X$X$XOX$X*X*X=X$X=X=X=X&X=X=X=X$X$X=X$X$X$X$X$X$X$X$X$X$X$X$XOXOXOX'.'.'._._.'.(.y.y.S._.'.'.'.'.'.'.'.'.'.'.'.'.'.'.'.'.'.'.'.'.'.'.'.'._._.(.(.(.y.u.q.:.:.:.q.&.U J ] :.&.Z 1   . # % & & : 6 7 y B q 6 & 1 6 1 1 2 1 2 1 1 & % .     + + O   + . 6 2.l.l.b.b.v.v.[.H.D.D.[.D.D.D.D.D.D.D.D.[.{.{.[.[.[.[.[.[.H.H.H.H.H.H.H.x.x.b.H.l.2.5.l.5.2.1.2.5.4.4.1.5.v. X|..X+X%X3X7X7X7X9X9X9XuXuXuXvXvXcXcXcXcXcXcX6X$X X~.(. X$X$X%X%X*X8X8X8X8X6X8X*X*X$X Xe.1.4.! : 2 y B P U P c 9 y 9 5 5 8 8 q c c N B Z Z Z Z Z F P U V y y y s w 5 7 Z Z N 8 q k 8 5 5 X X X X X X X X X X X X X X X X X X X X     O @ @ @ , 3 8 0 b b n b n n Y Y n n n k 0 0 w w 0 w = # X X X X X X X X @ X X X X X X X X X X X X X X X X   X X X X X X X X X X X X X X X X X X         X X X X X X                             X X X X     X X X X       X X X X X X X X X X @ @ @ @ @ @ @ @ @ o o o # # # # # # # # = = 5 ",
"A.D.D.D.D.D.H.H.J.J.J.J.{.J.{.[.{.{.{.{.{.}.}.}.|.oXoXoXoX+X+X+X@XOX@X@XoXOXOX@X+X+X+X+X+X+X+X+X+X&X&X&X&X&X&X%X%X%X&X&X&X2X2X2X&X2X2X2X4X4X4X4X2X2X4X6X4X4X6X6X6X7X7X6X7XiXuX7XiXuXuXuXuXuXuXuXuXuXuXuXuXuXuXuXuXuXuXuXuXuXuXuXuXuXuXuXuXuXcXvXvXvXvXcXvXvXuXiX6X6X6X6X2X2X%X+X+X+X+X+XoXoXoX}.J.H.A.H.G.G.J.J.K.}.oXoX+X>X%X%X%X+X+X+X+XOX{.{.+X+X{.F.z.w.4.,.] V 5 X nXKXKXKXKXKXKXKXKXKXKXKXKXKXKXKXKXKXKXKXKXKXKXKXKX=XX o : y B s 5 o '.KXKXKXKXKXKXKXKXKXKXKXKXKXKXKXKXKXKXKXKXKXKXKXCXo q ] q.'.*X6XcXcXcXcX*X&X Xy.>.Z 5 ; PXKXKXKXKXKXKXKXKXKXKXKXKXKXKXKXP cXKXKXKXLXKXKXKXKXKXKXKXKXKXKXKXKXKXKXKXKXKXKXKXKX$Xo s ] w._.&X2X2X2X&X2X2XiXiX6X2X6XuXvXbXbXbXbXbXbXbXvXvXcXcXcX*XiX*X*X6X6X6X6X*X%X'.D.H.>X<X<X<X{.f . ] *.,.@Xw.] w.S.] 4._.4.F.F.5.4.4.,.*.S.1.! ( D ] [ ' z.| [ ~ ~ H ~ [ [ <.^ h D S S S S S S J ! w.'.6XuXbXvXcXnXmXvXbXvXcXvXcXcXvXiX*X*X*X*XiXcXcXcX6X6X*X=X$X=X*X*XOX_.S.c.c.y.q.w.w.u.y.(.'.$X$X$X&X=X*X*X*X*X&X*X*X*X*X*X*X=X$X=X*X*X&X%X$X$X$X$X$X$X$X$X$X$XOXOXOXOXOXOXOXOX'.'.'.'.'._.].].'.'.'.'.'.'.'.'.'.'.'.'.'.'.'.'.'.'.'.'.'.'.'.'.'.'.'.]._._.(.y.u.:.>.4.4.:.*.] U U >.>.&.P 6 & % o % % 2 2 2 q y 9 5 1 1 1 1 1 5 2 2 1 1 1 & o     + O O   + . + ! w.l.l.b.v.v.H.H.H.D.D.D.D.D.D.D.D.D.D.[.[.[.[.[.{.{.{.{.[.[.[.H.H.H.H.A.v.v.D.l.5.z.b.5.5.5.l.z.c.c.c.v. X&X1X%X%X2X2X3X8X8X7X9XuXuXuXpXpXvXuXuXuXcXcXcX*X X(.y.c._.-X-X$X%X%X8X6X*X*X8X*X*X&X$X_.*.1.q.&.: : y F P U P c 9 9 6 5 5 5 9 c c q N Z P Z Z F P P U P Z q w q q o o 9 A Z 5 O # 3 8 8 8 o X   @ @ X X X X X X X X X X X X X X X     O @ @ @ 3 4 0 k b n b b n A Y Y A b n l 0 0 0 b q w = # o X o @ X X X X X @ X X X X X X X X X X X X X X X X X X X X X X X X X X X X X X X X X X X X       X     X X           X X X   X X           X X X       X X X   X X X X X X X X X X X X @ @ @ o o o @ @ @ o o # # # # # # # # = = = ",
"A.D.A.A.A.D.D.H.J.J.J.J.H.H.H.J.{.{.{.{.{.{.{.{.{.|.|.|.oXoX+X+XOXOXOXOX|.OXoX@X+X+X+X+X+X+X+X+X+X+X+X+X%X%X%X+X+X+X+X+X%X%X&X&X&X&X2X&X&X4X4X4X2X4X4X4X4X4X4X6X4X7X7X6X6X7XiXiXiXuXuXuXuXuXuXuXuXuXvXuXuXuXuXuXuXuXuXuXuXuXuXuXuXvXvXvXuXuXvXvXcXvXvXvXvXvXvXuX6XiXuXuX7X4X2X2X+X+X@X+X X|.|.{.J.H.A.A.G.G.G.J.}.oXoX+X>X4X&X+X&X+X+X%X+X+X+X{. X{.D.z.z.z.e.4.] S ; X nXKXKXKXKXKXKXKXKXKXKXKXKXKXKXKXKXKXKXKXKXKXKXKXKX=Xo # t d B s 5 # '.KXKXKXKXKXKXKXKXKXKXKXKXKXKXKXKXKXKXKXKXKXKXKXnXo N &.u.'.*X6XcXiXiXiX*X$X_.w.&.B # u.KXKXKXKXKXKXKXKXKXKXKXKXKXKXKXPX  cXKXLXKXKXKXKXKXKXKXKXKXKXKXKXKXKXKXKXKXKXKXKXKXKX$Xo s ] w._.&X6X6X6X2X6XiXiXiXiX6X6XvXbXbXbXbXnXnXbXvXvXvXcXcXcXiX6X*X*X6X*X6X&X%XOX X{.oXK.<X<X<X{   q *.4.=.e.,.{ e.6.{ @XS.{ F.S.z.=.w.z.4.4.5.=.] ] ( ^ ' A.' ~ [ ] ] [ ,.' ,.Q h D S S D D S S ! ] OXuXuXuXcXcXnXcXvXcXbXbXbXbXcXmXvXcXcXcXiXiXcXcXiXcX6X*X*X6X*X*X*X*X$X).S.c.c.c.c.c.y.y.N._.$X*X*X*X*X*X*X*X*X*X*X*X*X&X*X*X*X*X=X*X=X&X&X&X$X$X$X$X$X$X$X$X$X$X$X$X$X$XOXOXOXOXOXOX'.'.'.OXOX'.OX'.'.OXOX'.'.'.'.'.'.'.OX'.'.'.'.'.'.'.'.'.'.'.'.'.'.'._.'._.(.y.=.4.q.:.q.e.*.( Y ] &.U ( B 6 & % % $ * 2 & 6 9 6 1 1 5 5 6 6 6 6 1 1 1 1 & o     +   O O + . + u w.l.l.v.v.D.H.[.[.D.D.v.v.).D.D.D.D.D.[.[.[.[.{.{.XX{.{.{.[.{.[.H.J.J.H.H.H.x.x.v.D.v.v.D.[.XX{.{..X+X+X%X2X2X2X2X2X2X7X8X7X7X7XuXuXuXuXuXuX8X8XuXcXuX8X&X X~.u.u.~. X X-X$X%X*X*X&X&X*X*X&X$X%X_.( 1.q.*.t : y F P P P N 9 6 5 9 1 1 9 c c q c Z P P F F P P P P Z q w 9 o # , l Z N 5 # 5 k 8 5 5 o # @ X @ @ @ X X X X X X X X X X X X X X X O @ @ , 3 0 k b n M M M Y I Y Y A n n k k l b b p w = # @ @ o o @ X X X X X @ X X X X X X X X X X X X X X X X X X X X X X X X X X X X X X X X X X X     X X     X X X       X X X X X X X X         X X X       X X X X X X X X X X X X X X X X @ @ o o o o @ @ @ o o # # # # # # # # = = = ",
"A.A.A.A.A.A.H.D.H.H.J.H.H.H.H.J.H.H.H.{.{.{.{.{.{.{.}.OXoXoXOXOX{.{.OXOXOXOXOXOXoXOXoX@X@X@X+X+X+X+X+X+X+X+X+X+X+X+X+X+X+X+X+X%X+X+X+X%X1X2X2X2X2X2X2X2X2X2X4X4X2X6X6X6X6X6XiXiXiXiXiXiXiXuXuXuXcXuXuXuXuXuXuXuXuXuXiXiXuXuXuXuXuXuXuXuXuXuXcXvXuXuXuXvXvXuXuXuXcXcXuXuX7X6X2X&X+X+X@XoXoXoX{.{.J.H.A.A.A.G.H.K.K.}.@X>X4X4X%X+X+X+X+X%X%X%X+X X{.F.v.S.D.z.e.4.] S 6 X CXKXKXKXKXKXKXKXKXKXKXKXKXKXLXKXKXKXKXKXKXKXKXKXKX*X# 5 f S F s w o $XKXKXKXKXKXKXKXKXKXKXKXKXKXKXKXKXKXKXKXLXKXKXKXmX# N &.e.'.&X*XcXiXiX6X=X$XS.1.U q X *XKXKXKXKXKXKXKXKXKXKXKXKXKXKXKX=X  cXKXKXKXKXKXKXKXKXKXKXKXKXKXKXKXKXKXKXKXKXKXKXKXKX$X# q &.w.'.*X6X6X6X&X6XiXuXuXiXiXcXcXbXbXnXnXmXnXnXbXbXbXbXbXcXuXiX6X*X6X6X6X6X&XOXOXOXoXoXoX:XA.. 6 ` *.=.[ 6.6.{ e.,.{ {.{ 4.6.F._.6.=._.e.*.] { ( { ] [ { f.' ~ ^ D D ^ ' ,.3.^ D g J g D D h J H ).&X&X6X6XcXcXcXvXvXvXmXmXcXvXvXmXcXcXcXcXcXcXcXcXcXvXcXiXiXcXcXcXiX*X$X'._._.(.S.(.S.(._.OX$X*X*X*X*X*X*X*X*X*X*X*X*X*X*X*X*X*X*X*X=X=X$X$X$X$X$X$X$X$X$X$X$X$X$X$X$X$XOXOX$X$X$X-X-X-XOXOX'.'.'.'.'.'.OXOX'.'.'.'.'.'.'.'.'.'.'.'.'.'.'.'.'.'.'.'.'.'.'.'.'.(.(.u.q.u.u.y.y.u.9.] U U S y y t 6 : : : % & & : 2 2 & 5 9 5 5 9 2 1 1 1 1 & 2 1 + .       O O O O . 2 2.l.l.z.v.v.D.[.[.D.D.v.v.D.D.v.z.x.D.[.[.[.{.{.{.{.{.{.{.{.{.{.H.[.{.H.{.{.[.[.[.[.[.[..X.X+X.X+X+X+X+X%X2X1X2X2X1X2X2X2X6X2X7X7X7XuXuX7XuXuX2X&X&X*X%X&X%X).w.q.i.~. X-X$X X$X&X$X&X*X%X$X X-Xe.H 4.z.1.: : y F P P P c 9 2 2 9 9 1 1 l c c q N P P P U U U P F Z Z c 5 , 5 q C K C l l l q q 8 # O X @ X X X @ X X X X X X X X X X X X X     O @ , 3 8 l k n n M C K I K Y A b b b b b b b b b 0 3 , 3 3 # # @ X X X X X X X X X X X X X       X X X X X @ @ @ @ X X X X X X X X X X X X X X X X X X X X X X X X X X X X             X X         X X X X     X X X X X       X X X X X X X X @ @ @ @ @ @ o o o o o # # # # # # # # # # 3 ",
"A.A.A.A.A.A.A.A.H.H.H.H.H.D.D.H.D.D.D.H.J.J.{.{.}.{.{.{.|.|.OXOX{.{.|.|.|.|.OXOXoXoX|.oXoXoXoXOX@X+X+X+X+X@XoXoXoX@X@X+X@X+X+X+X+X+X+X+X%X%X1X1X2X2X2X2X2X2X4X4X4X4X6X6X7X6X7X7X7XiXiXiXiXuXuXuXiXiXiXiXiXiXiXiXuXuXiXiXiXiXuXuXuXuXuXuXuXcXvXvXuXuXvXvXvXuXuXuXvXvXvXuXiX6X2X&X+X+XOX|.}.}.{.{.}.J.H.A.A.H.J.J.}.oX:X4X4X4X&X+X%X&X&X&X&X&X+XOX{.[.D.D.S.S.e.4.] S y 7 PXKXKXKXKXKXKXKXKXKXKXKXKXKXKXLXKXKXKXKXKXKXKXKXKXcX# q d H U N # o $XKXKXKXKXKXKXKXKXKXKXKXKXKXKXKXKXKXKXKXKXKXKXKX*X# A &.u.'.&X*XiXiX6X*X$X'.y.:.Z 5 5 PXKXKXKXKXLXKXKXKXKXKXKXKXKXKXKXy.  cXKXKXKXKXKXKXKXKXKXKXKXKXKXKXKXKXKXKXKXKXKXKXKXKX$X# q &.u.'.&X&X&X&X&XiXcXvXvXvXcXcXbXbXnXvXnXmXnXbXbXbXbXbXbXcXuXuXiX6X6X*X*X&X%XOX{.D.A.oX:XoXr % &.>.=.4.=.,.,.{ z.,.,.{.,.6.F.F.=.4.*.5.D.=.=.{ ] ] ] [ | 5.' ~ ~ D ^ ~ ' 3.3.^ D D S H S D D H 1.%X+X&X%X&X6XiXcXcXcXcXcXcXcXcXvXvXvXvXcXcXcXiXcXcXcXcXcXcXcXcXcXiXiX&X'._.'.'.'.'.'. X$X$X*X*X*X*X*X*X*X*X*X*X*X*X*X*X*X*X*X&X*X&X=X=X%X$X$X$X$X$X$X$X$X$X$X$X$XOX$X$X$XOXOXOX$X$X$X-X$XOXOXOXOX'.'.OXOXOXOX'.'.'.OXOX'.'.'.'.'.'.'.'.'.'.'.'.'.'.'._._.'.'.'.].(.(.S.(.(.(.q.:.:.:.&.J B d d 6 & 6 : U ( 6 & : 6 6 % & 6 6 5 9 9 6 2 2 & & 2 1 + . . . + + O     . + G 1.l.l.c.v.D.[.[.).D.v.v.D.v.b.z.v.c.z.v.[.{.[.{.{.{.{.{.{.{.{.H.[.{.H.{.{.[.[.{.[.XX.X.X.X+X.X%X%X+X%X%X2X1X%X%X1X3X2X8XuX7X2X2X8X7X8X8X8X*X&X*X&X&X&X=X$X'.~.y.i.1.~. X$X X X$X X$X&X$X$X X~.( *.c.c.1.u 2 y F P P Z c 9 9 2 2 9 1 8 9 9 N y y Z F P U +.U U U U U Z 0 5 y N Z Z N 8 , 3 , , # O   X @ @ X X X X X X X X X X X X X X X X     O @ , 3 8 l z n m m n n Y K Y A n n n b n n b b b 0 8 8 8 3 = = # # o o X X X X X X X X X X X     X X X X X @ @ @ @ X X X X X X X X X X X X X X X X X X X X X X X X X X X X X X         X X X       X X X X     X X X X         X X X X X X X X @ @ @ @ @ @ o o o o o # # # # # # # # # = = ",
"x.g.x.x.x.A.A.A.A.A.D.D.D.A.A.A.D.D.H.H.H.J.J.{.}.{.{.}.{.|.|.OX|.|.|.|.{.{.{.{.|.}.{.{.}.|.|.{.|.OXoXoXoXoX|.|.{.oXoXoXoXoXoXoX@X+X+X+X+X+X+X&X%X1X&X&X4X4X2X2X4X4X4X4X4X7X7X4XiXiXiXiXiXiXiXiXuXuXiXiXiXiXiXiXiXiXiX7X7X7XiXiXiXuXuXuXuXuXuXcXvXvXvXvXvXvXvXvXvXvXvXuXiX6X4X2X&X+X@X|.{.}.}.K.}.J.J.H.H.J.J.J.}.oX+X>X4X4X4X%X&X&X&X&X%X+X+XOX{.).).F.S.e.5.4.] ! ( F =XcXiX*X=X=X=X=X=X=X=X=X=X=X*X*X$X=X=X*X*X=X*XcXiX'.w q J F B s 5 o *XKXKXKXKXKXKXKXKXKXKXKXKXKXKXKXKXKXKXKXKXKXKXKX'.= V >.y. X&X6XiXiX6X*X$X).q.&.N # q.KXLXKXKXKXKXKXKXKXKXKXKXKXKXKXKXZ   vXKXKXKXKXKXKXKXKXKXKXKXKXKXKXKXKXKXKXKXKXKXKXKXKX$X# s &.u._.&X&X&X&X6XuXcXvXvXvXbXvXvXvXcXcXcXcXmXbXnXbXbXbXvXuXuXuXiXiX6X6X*X&X&X%XOXD.).e.S.F.,.=.S.q.=.=.4.6.,.,.S.,.,.{.4.=.{ e.{ ,.w.*.{ =.=.{ { ,.=.{ ' ,.] ^ ] [ ] ~ ^ 3.<.^ D D g D D D ! 4. X&X+X).c.%X*X*X6X6XiXiXcXcXcXcXcXcXvXcXcXcXcXiXiXcXcX*X*X*X*XiXiXiX*X$X'._.'.'.'. X$X$X*X*X*X*X*XiX*X*X*X*X*X*X*X*X*X*X*X*X*X&X=X=X=X&X$X$X$X$X$X$X$X$X$X$X$X$X$XOX$X$X$XOXOXOX$X$X$X$X$XOXOXOXOX'.'.'.OXOXOXOXOXOXOXOX'.'.'.'.'.'.'.'.'.'.'.'.'.'.'.'._.'.'.'.'.'.(.(.(.(.N.4.>.:.i.>.] Y V V F ( =.F q.u.( B 6 6 6 6 7 7 6 6 9 t 6 1 & & & & 2 1 # . . + + O O O . % $ *.l.l.b.v.D.H.H.H.D.v.v.D.v.z.l.l.5.l.v.[.[.{.{.XX[.[.{.{.{.{.[.[.[.[.[.{.XXXXXX{..X.X.X.X+X+X%X.X.X%X%X-X.X.X%X%X&X2X6X6X2X2X2X2X%X%X8X8X*X%X&X%X$X%X=X-X~.(.~.~.u.~.).).-X'.-X X-X%X$X X Xq.( c.).(.1.u 6 c Z Z Z N y 9 9 6 6 9 6 6 9 9 c q c Z J J P U ( ( ( ( ( P N 0 N V A C q , O X O O O X X X X X X X X X X X X X X X X X X X X X X X X @ 3 3 8 0 b M M M n A Y Y A A C b b l b b b b b 0 8 8 w 3 5 5 3 = # # @ X X X X X X X X X X X X X X X X X X X X X X X X X X X X X X @ @ @ @ X @ @ X X X X X X X X X X X X X X X X   X X X X X     X X X X   X X X         X   X X X X X X X X X @ @ @ o o o o o o o # # # # # # # # # # # ",
"A.x.h.x.x.x.A.A.A.A.A.A.A.A.A.A.A.H.J.J.H.H.J.J.{.{.{.}.|.{.{.{.|.|.|.|.{.{.{.{.{.{.{.{.{.{.{.{.{.}.|.|.|.|.{.{.{.}.}.}.}.}.|.|.|.oX@X+X+X@X+X+X+X+X+X&X&X4X4X4X4X4X4X4X4X4X4X4X7X7X7XiXiX7X7XiXuXuXuXiXiXiXiXiX7X7XiXiX7X6X7XiXuXuXuXuXuXuXuXuXuXvXvXvXvXvXvXvXvXuXcXuXuX7X6X6X2X+X@XoX{.}.}.K.J.J.K.K.}.{.J.H.}.}.|.@X+X4X4X&X&X&X&X&X%X+X@X{._.).D.D.c.z.4.=.,.1.{ J V B     # & # o ; o # # # X # X     X X   # # X # # & d d J V w #   mXKXKXKXKXKXKXKXKXKXKXKXKXKXKXKXKXKXKXKXKXLXKXKXq.w Y :.c.$X&X6XiXiX6X&XOX(.1.U w   cXKXLXKXKXKXKXKXKXKXKXKXKXKXKXKXPXX   mXKXKXKXKXKXKXKXKXKXKXKXKXKXKXKXKXKXKXKXKXKXKXKXKX$X# s &.q.].&X&X&X6X6XvXcXvXvXbXbXvXcXiXcXuXiXcXvXvXnXnXbXvXcXuXuXiXiXiX6X6X6X&X&X&X%XOX_.(.).).).).$X'.4.=.6.6.,.4.1.{ { F.=.{ =.S.{ { e.5.] { ] { 1.4.4.{ ] [ ] ! ] { ] ~ h 3.,.^ Q D D D g D c.%X&X%X+X4.1.%X*X*X*X*X*X*X*XiXiXuXcXcXcXcXcXiXiX*X*X*X*X*X$X$X*X*X*XiX*X*X$XOX'.OXOXOXOXOX=X*X*X*X*X*X*X*X*X*X*X*X*X*X*X*X=X=X&X=X=X$X&X&X&X$X$X$X$X$X$X$X$X$X$X$X$X$X$X$X$XOXOXOX$X$X$X$X$XOXOXOXOXOXOXOXOXOXOXOXOXOXOX'.'.'.'.'.'.'.'.'.'.'.'.'.'.'._.'.'.'.'.'._._.(.(.S.y.q.:.&.>.&.-.>.>.:.q.u.(.y.&.y.c.e.*.B d J B y t 6 6 6 t 6 & % % & 2 6 2 1 + + + + O O @ + o . G w.l.l.v.v.D.H.H.D.D.v.D.v.v.w.2.1.l.v.D.[.[.[.[.[.{.[.[.|.{.[.[.[.[.[.[.{.[.[.|.|..X.X.X%X%X%X.X.X.X X X X-X%X%X%X%X8X2X&X%XOX%X$X$X$X$X$X$X&X&X$X$X-X].u.y.q.q.~.(.(.).'.~.'.). X$X X(.S.=.4.c.c.c.1.G t c Z F A c q t t t y q 6 1 6 9 c B s B F F F U ( ( U U U U F V q q q 0 w # X X O @ @ O X X X X @ @ X X X X X X X X X X X X X X X X O @ , 3 4 0 n n n M I Y I A A b b l 0 0 0 0 k b b b 8 3 3 3 5 5 5 3 , # o @ X X X X X X X X X   X X X X @ @ X X X X X X X X X X X X @ @ @ @ X X @ @ @ @ X X X X X X X X X X X X X X X X X X X X     X X         X X         X X X X X X X X X X X X @ @ o o @ o o o o # # # # # # # # # # # ",
"A.x.x.x.x.g.x.A.x.A.A.A.A.A.A.A.A.D.H.H.H.H.H.H.J.{.{.}.}.}.{.{.{.|.{.{.{.{.{.{.H.J.J.J.J.J.{.{.{.{.{.{.{.{.{.{.{.{.{.{.{.{.}.}.}.|.oXoXoXoX@X+X+X+X+X+X:X1X1X4X4X4X4X4X2X4X4X7X7X6X7X7XiX7X6XiXiXiXiXiX7X7X7X7X7X7XiXiX7X7X7XiXiXiXiXiXiXiXuXuXuXuXvXvXvXvXuXvXvXuXvXvXuXiXiXiX2X%X@XoX{.{.}.J.}.J.J.J.K.J.J.{.}.{.{.}.+X4X7X2X2X&X&X&X&X%X+X{. X).F.).z.5.6.g.H.g.6.{ { t s F s s s y B 7 s s B y s w X q 5 w ; s y y V s s s s y y 5 o   PXKXKXKXKXKXKXKXKXKXKXKXKXKXKXKXKXKXKXKXKXKXKXLXq w U 1.(.$X&X6X6XiX*X$X'.y.:.Z # # PXKXKXKXKXKXKXKXKXKXKXKXKXKXKXKX*X    bXKXKXKXKXKXKXKXKXKXKXKXKXKXKXKXKXKXKXKXKXKXKXKXKX$X# s &.q._.*X&X&X6X6XcXcXbXbXvXvXcX6X&X&X%X$X$XcXcXbXvXvXvXcXuXuXuXiXiX6X6X6X2X&X&X&X&X&X$XOXOXOX%X&X&XS.,.,.5.4.4.=.[ [ e.] ] 1.z.{ ] { { { { { ] ( =.=.*.{ ] [ ] [ ] ^ ~ ~ 3.,.^ ^ D S S ! ]  X&X%X+XOXe.c.%X%X%X&X&X&X*X*X*X6X6XiXiXiXiXiX*X*X*X*X*X*X=X$X*X*X*XiXiXiXiX*X&X$X$X$X$XOXOX&X*X*X*X*X*X*X*X*X*X*X*X*X*X=X=X&X&X&X&X$X$X%X%X$X$X$X$X$X$X$X$X$X$X$XOX$X$X$X$X$X$XOXOX$XOX$X$XOXOXOXOXOXOXOXOXOX'.'.'.'.'.OX'.'.'.'.'.'.'.'.'.'.'.'._._._.'._.'.'.'._._._.).y.e.u.:.&.` ` #.>.>.:.r.y.(.(.u.&.(.(.(.w.U F =.( y t t 6 2 t : & % % & 6 9 6 2 + + + + + + < + o o : 2.z.l.b.v.v.H.H.[.H.D.D.v.v.5.2.2.l.c.v.[.[.[.[.[.[.[.{.[.[.[.[.[.[.H.H.[.[.[.XX X.X.X+X%X%X1X%X.X.X X X%X%X%X%X%X%X%X%X%X X)._. X'._.$X$X'.'. X'.'.].(.u.u.:.>.u.~.~.c.'.).'.c.~.'.(.w.( U c.(.(.).u.H y B F Z B c 9 9 y y y t 6 1 5 9 q B s s V J J J U U ( ( U P Z B # # # # # o X X O O O X X X @ @ @ @ @ X X X X X X X X X X X X X X X @ # , , 3 8 k n b n M I Y n b b l 0 8 8 8 0 k b b b w w 8 w 5 5 3 3 , # o @ X X X X X X X X X X X X X X X X X X X X X X X X X X X X @ @ X X X @ @ @ @ @ @ @ X X X X X X X X X X X X X X X X X X X X         X X     X X X X X X X X X X X X X X X X @ @ o o @ @ o o o # # # # # # # # = = = ",
"A.x.x.x.g.g.x.x.x.x.A.x.x.A.A.A.A.A.H.D.D.H.J.J.J.J.J.{.{.{.{.{.{.{.{.{.{.{.{.H.H.H.J.J.H.J.J.J.{.J.J.J.J.{.{.{.J.J.J.J.J.{.{.}.{.{.|.|.}.|.oX@X+X@X+X+X+X+X%X1X&X4X4X4X2X2X4X7X4X4X6X7X7X7X7X7X6X6X7X7X6X7X7X7X7X7X7X7X7X7X7X7XiXiX7XiXiXuXuXuXuXuXuXuXuXcXuXcXvXuXuXvXuXuXuXiX6X&X+XOX{.{.}.}.J.J.J.J.J.J.J.{.{.{.}.@X+X4X7X6X7X6X&X&X&X+X@X{.{.).).S.z.5.H.{.A.J.g.6.6.1.{ ] ] *.] ] ] H ] ] ] V ( V w q ; V y ; B J s H *.=.] ; X #   Z KXKXKXKXKXKXKXKXKXKXKXKXKXKXKXKXKXKXKXKXKXKXKXCXX q ] q.).$X&X6XiX6X&X$X_.e.&.q # :.KXKXLXKXKXKXKXKXKXKXKXKXKXKXKXKXu.    bXKXKXKXKXKXKXKXKXKXKXKXKXKXKXKXKXKXKXKXKXKXKXKXKX$X# q &.q._.&X&X&X&X&XiXcXcXbXcXcX6X&X&X&XOXH u.cXvXnXvXvXcXcXuXuXuXuXiXiX6X6X6X2X&X&X&X&X&X&X&X&X*X6X*X X5.,.5.6.4.6.=.] { [ [ ] =.[ ] ] ] =.[ =.1.=.{ ] ( ] ( ] ] ] ] ^ ~ ] ,.,.~ ~ Q ( D S 1.%X&X%X&X%XOX%X%X&X&X&X&X&X&X&X*X*X*X*X6X*X*X*X*X&X$X$X$X$X$X=X*X*XiXiXcXiX*X*X*X*X*X*X*X&X$X=X*X*X*X*X*X*X*X*X*X*X*X*X*X=X=X&X$X&X$X$X$X$X$X$X$X$X$X$X$X$X$X$X$X$XOXOX$X$X$X$XOXOXOX$X'.$XOXOXOXOXOX'.'.'.'.OX'.'.'.'.'.'.'.'.'.'.'.'.'.'.'.'.'._._._._._.'.].'.'._._.(.S.u.:.:.&.&.&.` #.>.:.:.q.y.(._.q.:.].'.(.c.*.F *.*.( y 6 6 6 6 & % % % & 6 9 1 1 + + + < + @ @ + + . . ! l.l.b.v.v.H.H.[.[.D.D.D.v.2.2.1.w.w.c.).v.v.).).[.[.[.[.D.H.H.H.H.H.[.[.[.[.{.{. X.X%X%X%X%X%X%X%X.X X X-X%X%X$X-X'._.).).c.w.q.e.~.'._.~.u.).).].~.q.u.i.:.>.7.i.i.i.y.u.u.i.i.c.y.e.*.=.).).).(.w.( u B F Z B y 9 9 y y t t y 9 9 9 9 y c B Z U U P J U ( ( J B 0 5 o @ X @ @ X X X @ X X X X X X X o @ @ X X X X X X X X X X X X X X X @ @ @ , 3 4 4 n b n n n A n b b 0 8 3 8 8 8 k 0 l q q 0 w 8 8 5 3 , , # o @ X X X X X X X X X X X X X X X X X X X X X X X X X X X X @ @ X X X X @ @ @ @ @ @ X X X X X X X X X X X X X X X   X X X X         X       X X X X X X X X X X X X X X X @ @ @ o o @ @ o o o # # # # # # # # = = = ",
"x.x.g.x.g.g.g.g.x.h.x.x.x.x.A.A.A.A.A.A.D.H.H.J.J.J.J.J.J.{.{.{.{.{.{.{.{.J.H.D.H.H.H.H.H.H.H.H.H.H.H.J.J.J.J.H.J.H.J.J.J.J.J.{.J.{.}.}.{.}.|.oXoXoXoX@X+X+X+X%X&X&X4X2X2X2X4X4X4X4X4X4X4X4X7X6X6X6X6X6X7X7X7X7X7X7X7X7X7X7X7X7X7X7X6X7XiXuXuXuXuXuXuXuXuXuXuXuXuXuXuXuXuXuXuXiXiX6X&X+X+X}.{.{.J.J.J.J.J.J.J.J.{.}.oX@X%X4X7XiXiX6X2X&X%X+X X{.D.{.F.S.z.J.oXD.g.3.| 3.5.6.,.4.6.e.e.4.e.4.4.4.*.V =.F U 5 N Z S F s t B S f ( U 7 ; X   ].KXKXKXKXKXKXKXKXKXKXKXKXKXKXKXKXKXKXKXKXKXKXKX].w A *.y.'.%X&X&X6X*X%X$X(.4.U w # *XKXKXLXKXKXKXKXKXKXKXKXKXKXKXKXLXA     mXKXKXKXKXKXKXKXKXKXKXKXKXKXKXKXKXKXKXKXKXKXKXKXKX$Xo q ] q.].$X$X%X&X&X6XiXuXcXcXiX&X&X&X%X] U $X*XcXuXbXvXvXcXuXuXuXuXiXiX6X6X6X6X&X&X&X6X8X*X*X*X*X*XuXOXF.e.3.6.{ ,.,.] ! ] { { [ ] ( ] ] ( ! H ] ] ! ! D H H H D H ! ! ! ^ ~ [ ^ ^ ^ ( ] 4.%X&X%X&X+X+X%X%XOX&X%X%XOX&X&X&X&X&X&X&X&X&X&X*X&X$XOXOXOX$X$X$X*X*X*XiXcXcX*X*XiX*X*X*X*X$X$X&X$X$X=X$X$X=X=X=X=X&X*X*X=X&X%X%X$X$X$X$X$X$X$X$X$X$X$X$X$X$X$XOXOX$XOXOX'.OXOXOXOXOXOX'.'.OXOX'.'.OX'.'.'.'.'.'.'.'.'.'.'.'._.'.'.'._._.'.'.'.'.'._._._._.].'.'.].'._._.(.N.q.&.` U &.&.&.>.:.9.u.y.^.(.S.q.q.].'.(.(.q.( H *.( y 2 6 7 & & * % % & 6 9 1 + + + + + < + + O + . . u 2.z.z.b.v.D.H.[.D.D.D.D.z.*.2.1.1.4.c.c.c.c.v.v.D.[.[.v.x.v.v.D.D.D.D.[.[.[.[.{. X.X+X%X%X%X.X.X.X X).).+X%X%X X X_.).).).c.u.u.c.(.(.(.c.1.y.y.y.u.i.q.-.:.i.q.i.>.>.:.:.i.:.:.i.:.=.*.4.S.). X_.w.*.c G G B c y 9 9 y y t y B y 9 c c c c B B H U ( F H U U V 5 # X o o @ @ @ @ X X o @ X X @ @ X X @ @ X X X @ X X X X X X X X X X X X O @ , , 3 4 4 n b n b b A A b b 0 8 5 8 8 8 8 8 8 w 8 8 8 8 8 5 , # # o X X X X X X X X X X X X X X X X X X X X X X X X X @ X X X X X X X X X X @ @ @ X X X X X X X X X X X @ X X X X X         X   X   X X X X       X X X X X X X X X X X X X @ @ @ o o o @ o # o o # # # # # # # # = = = ",
"x.g.g.x.g.g.g.g.h.g.g.g.x.x.x.x.x.A.A.A.A.D.D.D.J.J.J.J.J.H.{.{.H.J.{.{.J.H.H.H.H.D.A.D.H.H.A.G.H.D.H.H.H.H.H.D.H.D.H.J.J.J.J.J.J.J.J.J.J.{.}.|.oXoXoXoX@X+X+X+X&X&X1X2X4X4X2X2X2X4X2X2X2X4X6X4X6X6X6X6X4X4X4X4X7X7X7X7X7X7X7X7X6X6X7X7X7XiXiXiXuXuXiXuXuXuXuXuXuXuXuXuXuXvXvXiXuXiX6X2X+X|.{.{.H.J.J.H.J.J.}.}.{.}.oX+X1X4XiXuXiX6X6X&X%XOX{.[.{.D.F.S.z.A.}.H.A.| | 3.z.5.5.,.6.z.e.1.1.[ { ] d V J J F Z U s s d y 7 B s t t ; &     q LXKXKXKXKXKXKXKXKXKXKXKXKXKXKXKXKXKXKXKXKXKXKXLXN 0 U :.c.OX%X&X&X&X&X%X Xy.=.Y 5   PXLXKXKXKXKXKXKXKXKXKXKXKXKXKXLXPX      mXKXKXLXKXKXKXKXKXKXKXKXKXKXKXKXKXKXKXKXKXKXKXKXKX$Xo 0 U q.(.OXOX%X&X&X*XiXiXuXcXiX&X&XiXS.% =.=XiXcXbXcXbXvXcXuXuXuXiXiXiXiX6X6X6X6X6X&X2X*X*X*XiXiXcX*X&X_.J.6.6.{ ,.6.( ~ ~ [ [ *.*.( ( ] ( ! J S D J D S D S S J J D J H J D ! D D ^ =. XOX XS.OX+XOX+X%X+X+X%XOX&X+X%X%X&X&X&X&X&X%X%X&X&X$XOX X XOXOXOX$X&X*X*X*X*X*X*XiX*X*X*X*X=X$X$XOX'.'.$X$X=X$X$X$X$X$X$X$X$X$X$X$X$X$X$X$X$X$X$X$X$XOX$XOXOX$XOXOXOX$X$X'.'.'.'.'.'.'.'.'.'.'.'.'.'.'.'.'.'.'.'.'.'._.'.'.'.'._.'.'.'._._._.'.'.'.'.'._._._.].'._.]._._.(.S.e.1.U U U U U #.>.9.y.(.(.(._.(.e.y.(._.].(.y.*.H ( H y 6 6 2 2 : * & % & 6 6 1 + < + + + + + +   . . . * ! z.l.l.v.v.D.D.D.D.D.v.w.[ 2.1.1.2.5.l.l.z.c.v.v.D.H.l.l.z.x.v.v.v.v.[.[.).).[. X.X.X.X-X%X.X{._.).).)..X X.X X X_. X X).(.(.(.(.).).y.c.q.y.i.i.q.q.:.&.>.>.i.q.U &.&.+.&.&.>.+.F B :.e.).). X Xw.*.B G G B B y 9 9 6 t y y B c 9 c Z c N F F H U U U H U P y & o o @ @ @ @ @ @ @ O X X X X o o o @ @ X X X X @ X X X X X X X X X X X X X @ , 3 3 4 4 k n n n n A n n b q 0 8 8 8 5 3 w 8 8 3 3 3 3 5 3 , @ @ O X X X X X X X X X X X X X X X X X X X X X X X X X X X X X X X X X X X X @ @ @ X X X X X X X X X @ @ X X X X X               X X X X X X       X X X X X X X X X X X X X @ @ o o o o @ o o o o # # # # # # # = = = 3 ",
"h.h.h.g.g.h.h.h.g.h.h.g.g.g.x.x.x.x.A.A.A.A.A.D.H.H.H.J.J.J.J.J.J.J.H.D.D.H.H.H.H.A.H.H.H.G.A.A.A.A.A.H.H.H.H.H.A.G.G.H.H.H.H.J.J.J.J.J.J.J.J.{.}.}.}.oXoX@X@X+X+X1X1X+X1X1X1X2X4X4X2X4X4X4X4X4X4X6X6X4X4X6X4X4X4X4X6X6X6X4X4X4X4X4X4X6X6X7XiXiXiXuXuXiXuXuXuXuXuXuXuXcXuXuXuXuXuXuXuX6X%X@X{.{.J.J.J.J.J.}.}.J.K.oXoX+X4X7XiX7XuXiX6X&X%X X{.[._._.F.S.z.z.F.+X{.,.] { =.*.H F S S S S V S H U U &.( ( ( U V q w 5 ; ; ; ; ; # o     A mXLXKXKXKXKXKXKXKXKXKXKXKXKXKXKXKXKXKXKXKXKXLXKX'.# V ] q.).$X%X6X&X&X%XOX_.w.&.B # q.KXKXKXKXKXKXKXKXKXKXKXKXKXKXKXLX*X      mXKXKXKXKXKXKXKXKXKXKXKXKXKXKXKXKXKXKXKXKXKXKXKXKX=X@ w U q.(. X$X&X&X%Xy.$XiX*XuX6X6XOX%X[ =.).6XiXcXbXvXvXcXuXuXuXiXuX6XiXuXuX6X6X6X6X*X*X6X6X6X6XiXuXuX*X%X@Xe.6.{ =.1.] ] 1.{ ] H J ! *.! H D D J S J D S S J S J g S J S J D D g ! ! *. Xe.H J =.OX+XOXOXOX%X+XOX%XOX+X%X%X%X%X%X%X%X%X%X%X$XOXOX X X XOXOXOX$X*X*X*XiX6X*X*X*X*X=X$XOX_.(.(.(._.OX$XOXOXOX$X$XOXOXOX$X$X$X$X$XOXOXOX$X$XOXOXOX$XOXOXOX$XOXOX'.'.'.OX'.'.'.'.'.'.'.'.'.'.'.'.'.'.'.'._._._._.'.'._._._.'.'.'.'.'._.'.'.'.'._._._._._._.(.(.].(.(.y.e.:.` Y Y P U I :.u.t.y.(._.(.(.(.c.u.)._._.(.N.q.=.( J y 6 6 & 6 6 2 & % * 2 6 & & + + + + + + + +   + + + u 1.l.l.v.v.v.[.D.D.D.v.5.2.*.*.=.2.4.w.w.w.z.z.c.v.v.l.5.w.5.z.v.l.v.).).v.).).). X X X X%X.X[.[.).).). X.X X_. X).'.'.c.c.).(.q._.(.q.u.u.(.u.>.&.&.;.>.&.U &.>.U &.+.P U &.U Z P *.c.(.)._. X_.e.*.F B F B c y y y 7 7 7 B B c c c N c Z P P F U ( ( U H J s 5 # @ @ O @ o X X @ X X X @ @ @ X X X X X X X X X X X   X X X X X X X X   O @ # 3 3 4 k k k b b n n A n b l w 8 w w 3 3 # , 3 3 w w 5 5 # @ X X X X X X X X X X X X X X X X X X X X X X X X X X X X X @ @ @ @ X X X X X X X @ @ X X X X X X X X X X X X X X     X X                 X X X             X X X X X X X X X X X X @ @ o o @ @ o o # # o # # # = # # # = 3 ",
"h.g.g.g.g.g.g.g.g.g.g.g.g.h.h.g.h.x.A.A.A.A.A.A.A.A.H.H.H.H.H.J.J.J.H.H.H.H.H.D.H.A.A.A.A.A.A.A.A.A.A.G.H.A.A.A.A.A.A.G.H.H.H.H.H.J.J.J.J.J.J.}.}.}.}.}.oXoX@X@X+X+X+X+X+X+X%X1X2X2X2X4X4X2X2X2X2X2X4X2X4X6X6X4X4X4X4X4X4X4X4X4X2X4X4X6X7X7XiXiXiXiXiXuXuXuXuXuXuXuXuXuXuXuXcXuXuXiXiX6X%X+X@X|.J.J.J.J.J.J.J.J.}.oX@X+X4X7XiXiXiX6X2X&X+X{.{.{.{.{.D.D.D.S.z.D.e.[ ( ] =.:.=.=.*.*.] ] ] { =.=.1.=.:.=.U U s 5 # o X X     5 V &.u.=XLXLXKXKXLXKXKXKXKXKXKXKXKXKXKXKXKXKXKXKXKXKXKXKXcX# q U =.e._.OX&X6X&X&X%X$X(.4.U q X =XLXKXKXKXKXKXKXKXKXKXKXKXKXLXKXKXy.      nXKXKXKXKXKXKXKXKXKXKXKXKXKXKXKXKXKXKXKXKXKXKXKXKX$XX 5 U :.S.OX$X&XiXOX] _.*XcXcX*X6X'.S.OXOX*XcXcXvXbXbXbXcXiXuX&X&X&XiXcXcXuXiX6X6X6X6X2X6X6XiXiXuXuXuXiX&XiXF.e.| e.5.] 6.S.4.] ~ ! ! ! D H H J J D J D J S J S J D J D g H D H { H ^ H *.J J ! ] _.+X%X%X+X%X+X%X&X%X+X+X%X%X$X$X$X$X%X$X$X$XOXOX X X X XOXOX$X$X&X*X*X*X*X*X*X$X$XOX].(.S.N.S.(.'.'.'.'._._._.'._.'.'.'.'.'.'.'. XOXOXOXOX$XOXOXOX X'.'. X X'.'.'.'.'.'.'._._._.'.'._._._._._._._._.'._.].]._._.]._.'._._._._._.'._._._._._.'.'._.(.(.(.(.y.y.y.4.&.U Y Y Y Y Y I -.q.u.y.(.`._.(.(.).y.y.(.(.(.S.y.q.=.&.B 6 7 2 6 6 6 & + % 2 1 & + + + + + 1 + + + +   + & & H w.z.l.v.v.v.D.D.D.v.l.2.) *.*.=.5.w.1.1.w.l.l.z.l.5.5.5.5.l.c.l.b.v.z.z.).).).).).[._. X X[.).).).). X.X X_._.~._.'.(.c.c.e.1.(.(.q.q.q.y.y.q.X.N X.:.>.X.U +.+.U P U ( +.F U u._.).)._._. X Xc.1.F B F c c y c y 9 y y B V c c 9 B c A Z Z F U &.+.( U U F 6 o # o O X o X X @ X X @ @ @ @ @ X X X X X X X X X X   X X X X X X X O     O @ 3 3 8 0 k k b b b b n A b l 0 w 8 w 3 O , # # 3 3 , , , # o @ O X X X X X @ @ X X X   X X X X X X X X X X X X X X X X @ @ @ X X X X X X X @ @ @ X X X X X X X X X X X X X     X X X X             X X X X         X X X X X X X X X X X X X @ @ @ o o @ @ @ o # o # # # # = # # # = = ",
"g.f.g.g.g.g.f.f.g.g.g.g.g.h.h.h.h.h.h.A.A.A.A.A.A.A.A.H.H.H.H.J.J.J.J.H.J.H.H.D.H.A.A.A.A.A.A.A.A.A.A.A.A.A.x.x.A.A.A.A.A.A.A.H.H.H.H.H.J.J.J.J.J.J.}.}.}.|.oX@X@X+X+X+X+X+X+X:X+X%X&X&X1X1X2X2X&X2X4X2X2X4X4X4X4X4X4X4X4X2X4X4X2X4X7X7X7X7X7X7XiX7XiXiXuXuXuXuXuXuXuXuXuXuXuXuXuXuXiX6X&X+X+X|.{.J.J.J.J.J.J.J.}.oX+X%X4X7XiX7XiX6X2X&X+X X{.{._.[._.{. X_.S.c.z.5.w.w.w.w.4.4.1.=.=.=.=.4.4.w.w.w.4.=.>.A q cXLXLXLXLXLXLXKXKXKXKXKXLXKXKXKXKXKXKXKXKXKXKXKXKXKXKXKXKXKXKXLXKXKXLXCXN 5 V ] q.S. XOX%X&X*X&X%X'.c.1.Y 5 o PXKXKXKXKXKXKXKXKXKXKXKXKXKXKXKXKXA       nXKXKXKXKXKXKXKXKXKXKXKXKXKXKXKXKXKXKXKXKXKXKXKXKX$X  # P q.(.$X&X&X&X*X$X*XiX6XcX6X6X*XiX6XiXuXiXcXbXbXbXbXvXcX*X*XV 1.vXcXcXcXuXiX6X6X6X6X6X6XiXuXcXcXcXuXiXaXS.F.6.F.S.^ [ ] ( H ( ! ( ! J D S S D S g D H D S S S J J J ! J H 1.D.{ ! H H S H ( *.+X@X%X%X+X%X+XOX%X+XOXOXOXOXOXOXOXOXOXOXOXOXOXOX X X'.'. XOXOX$X$X$X&X&X=X=X$XOX'._.].).(.S.S.(._._.(.(.(.(.(.(.(.(.(.(.(.(.(.).).)._._.'.'.OXOX'. X X'.'.'.'.'.'._.].'._._.].(.].]._.).(.(.(.(.(.(.].(.(.(._.].]._.]._._.'.'._._.'._._.'.'._._.(.(.u.q.q.:.:.:.&.Y V V Y Z Z Y Y U ;.q.y.^.(._._.(.(.y.q.(.(.(.(.N.u.q.=.B 6 t 6 6 6 6 2 & & & & + + . o + + 1 1 + O +   . + : : ) l.l.v.v.v.).D.D.v.l.=.! ) ) *.4.1.2.=.1.1.1.5.1.2.1.1.w.5.w.w.l.z.w.4.z.).).v.c.).(.(.).).).).).).).[.).).~.w.)._.).c.y.e.q.y.y.q.u.q.~.(.q.7.>.K X.X.U U U U P H U U P P 1. X X_._._. X X_.c.1.J B G c c c c y y q 9 c Z Z c 1 c c C Z Z Z U +.&.( ( U U B 5 + o X X @ X X o X X @ @ @ @ @ @ @ X X X X X X X X X X X X X X X X X X O O @ 3 3 8 0 k b b b b k b b 0 0 z l 5 # = # X   O , , , 5 # # o @ O   X O X O O O O O O O O O O O X X O O X X X X X X X X X X X X X X X X X X X @ @ @ X X X X X X X X X X     X X X X X X X X           X X X X   X X X X X X X X X X X X X X @ @ @ @ o o @ o @ o # # # # # # # # # # = = ",
"g.d.f.g.g.g.f.g.g.g.g.g.g.g.h.g.h.h.g.A.A.A.A.A.A.A.A.A.A.A.H.J.J.J.H.H.H.J.H.H.A.A.A.x.x.x.x.x.A.x.x.x.x.x.x.x.x.x.h.A.A.A.A.G.G.H.H.G.G.G.J.J.J.J.J.K.}.}.}.|.oX@X@X@X+X+X+X+X+X+X+X+X+X+X+X1X&X1X1X&X4X4X4X4X2X2X2X2X4X4X2X2X2X4X7X7X7X7X7X7X7X7X7XiXuXiXiXiXuXuXuXuXuXuXuXuXuXuXuXiX4X&X+XoX{.{.J.J.J.J.J.}.}.oX+X%X4X4X6X7XiX6X6X2X+X@XOX@X@XOXOX X X X_.).S.c.S.c.c.S.c.e.5.4.4.5.w.e.e.e.c.e.q.:.&.Z 6 iXKXKXKXKXKXKXKXKXKXKXKXKXKXKXKXKXKXKXKXKXKXKXKXKXKXKXKXKXKXKXKXKXKXnXq ; s U 1.e.).OX+X&X&X6X*X%X'.y.&.V 6 >.KXKXKXKXKXKXKXKXKXKXKXKXKXKXKXKXPX        nXKXKXKXKXKXKXKXKXKXKXKXKXKXKXKXKXKXKXKXKXKXKXKXKX$X  3 U 4.(.$X&X*X&X*X*X*X*XcXcXcXcXuXiXUXcXcXcXbXnXnXnXnXcXcX*X&Xw.$XiXcXcXcXcXuXiX6X8X6X6XiXuXcXcXcXvXbXaXiXz.@X6.F.4.{ [ D H H H S H H J S J ! ] [ [ D H D D D D J S S D ! D.OXz.( ^ H J J ! J 1.%X%X%X+X+X+X+XOX+XOXOXOXOXOXOXOXOXOXOXOXOXOX X X'.'.'.'.'.'.OXOX$XOXOXOXOXOXOX'._._.(.S.y.y.y.y.S.S.S.S.S.S.N.y.e.w.q.w.u.u.e.y.y.y.S.S.(.(.]._.'.'.'.'.'.'.'.'._._.(._._.].].(.(.(.(.(.S.c.S.S.S.(.(.(.(.(._._.].].(.(._._._.(.(.(.(.S.N.S.(.(.N.y.4.:.*.&.` P Y V V A N N N Y Y I &.9.u.y.^.(.(.(.(.y.:.y.(.(.(.S.y.q.=.B 6 t 6 & 6 6 6 & & 1 & & # o + & & 1 1 & + + +   . t & 6 =.c.c.c.v.D.D.D.D.l.[ Q ( *.=.,.*.*.*.*.*.*.2.1.1.4.5.w.5.5.4.w.w.1.=.1.c.).c.c._.).). X X_. X).).D.c.w.c.c.q.).).c.e.y.w.w.q.i.W.q.W.(.q.:.&.&.U P &.X.U U U P B B J H &.~.$X X).). X X X).c.w.J B B y c c c 9 9 q 9 y Z P K 9 9 c C Z Z Z P ( &.] ( H H U N # o X @ @ X X o X X X X X @ @ @ @ X X X X X X X X   X X X X X X X X O O @ # , 3 4 0 0 0 0 0 0 0 k 0 b b q q w - o X X # #   # , X X X X X X X X O O X X X X O O @ X X O O O O O O X X X X X X X X X X X X X X X X X X X X X X X X X X X X X X X       X X X X X X X X X         X X X X X X X X X X X X X X X X X X X @ @ @ @ o o o o @ o o # # # # # # # # # = = ",
"f.d.f.f.f.g.f.g.f.g.g.g.g.g.h.h.h.h.h.x.A.A.x.x.A.A.A.A.A.A.A.G.J.H.H.H.H.H.H.H.A.A.x.x.g.g.g.g.h.h.h.h.x.x.x.h.h.h.h.x.A.A.A.G.A.G.G.G.G.G.H.H.J.J.J.J.K.K.}.}.|.oXoXoXoXoX@X+X@X+X+X+X+X+X+X+X+X%X+X+X+X%X%X+X&X&X4X2X4X4X4X2X2X4X7X7X7X6X6X6X7X6X6XiXiXiX7XiXiXuXuXuXuXuXuXuXuXiXuXuX7X2X%X+X|.{.{.J.J.J.}.{.}.@X+X%X&X4X4X7X6X6X6X4X&X%X%X&X&X%X+XOX X X X X X_.).(.(.(.S.c.e.z.c.S.c.c.c.c.S.c.e.1.( N # cXKXKXKXKXKXLXKXKXKXKXKXKXLXKXKXKXKXKXKXKXKXKXKXKXKXKXKXKXLXLXKXLX*X# & 6 U *.w.S.).OX%X2X2X6X&X$X_.q.U y o =XKXKXKXKXKXKXKXKXKXKXKXKXKXKXLXKX*XX     X nXKXKXKXKXKXKXKXKXKXKXKXKXKXKXKXKXKXKXKXKXKXKXKXKX$XX w U q.(.$X&X*X*XiX*X*XiXcXuXcXcXbXuXvXvXbXbXnXnXmXnXbXvXcXcXuXiXiXcXcXvXbXbXcXuXiXuXuXiXuXuXcXcXvXbXpXaX%XF.D.,.F.{ ( [ ] H H H J J S J H J J ! ! ! ! ! D D H J J J ~ ! ] OX_.6.,.H D J H H H S.%X&X%X+X+X+X+XOX+XOXOXOXOXOXOXOXOXOXOX XOX'.'.'.'.'.'.'.'.'. XOXOXOX'._._._._._._.(.S.S.y.y.y.y.y.y.y.y.N.y.y.e.4.:.=.>.>.:.:.4.q.q.q.q.u.y.y.(.(.]._._.'.'.'.'.'.'._._.].(.(.(.(.S.y.y.y.y.y.y.y.y.N.S.(.(.(.(._._._._.(.(.N.y.y.u.y.y.e.u.e.e.u.q.>.] U P Z N N V N b b A N A Y #.;.9.u.y.N.(.(.(.(.u.>.q.S.S.(.y.y.q.*.V t t 6 & 2 6 6 1 1 6 6 5 6 & & & & 1 1 & +   . + + & & % ! w.c.c.c.v.v.D.v.5.*.) *.*.=.*.+.( ( *.) ( *.=.1.1.w.1.1.5.1.1.1.=.*.1.c.).c.c.).~.). X X).).(.c.(.c.1.l.c.4.c.c.q.q.c.q.y.i.:.(.q.u.(.:.7.:.P P U >.&.U U U P V F &.q.).%X$X'.).). X X X_.(.c.D B B y c c 9 9 9 q 9 y Z P P C c N A A Z F P ( &.( ( J B J Y 7 o X X @ X @ o O X X X X X X X @ @ @ X X X X X X X X X X X X X   O O @ @ @ , 3 8 8 4 4 8 0 0 0 0 l l q l 0 4 # X o @ @ X X o o o # X X X X X X X O O X O O O O O O O O O O O O O X X X X X X X X X X X X X X X X X X X X X X X X X X   X X       X X X X X X X X X X         X X X X X X X X     X X X X X X X X X X X @ @ o o o o o o o # # # # # # # # # # # = ",
"d.d.f.d.d.f.d.g.f.g.g.g.j.g.h.h.h.h.h.h.h.h.h.h.h.h.x.x.x.x.A.G.G.H.H.H.H.H.H.A.A.A.x.x.g.g.h.h.h.h.h.h.h.h.h.h.h.h.h.h.A.A.G.A.A.A.A.G.G.G.G.G.H.H.H.J.J.K.}.}.}.|.|.}.oXoXoXoXoXoX@X@X+X+X+X+X+X+X+X+X+X+X+X+X+X&X4X4X2X4X4X4X4X4X4X7X6X4X6X7X7X7X7X7X7X7XiXiXiXiXuXuXuXuXuXuXuXiXuXiX7X7X2X&X+X@XoX{.J.{.}.}.oX@X+X+X&X4X4X7X7X7X7X6X6X2X2X6X&X&X%X%XOXOXOXOX X'.'.'.'._.).S.S.S.S.S.S.S.S.S.c.S.e.:.U y 5 lXKXKXKXKXKXKXKXKXKXKXKXKXKXKXKXKXKXKXKXKXKXKXKXKXKXKXLXKXKXKXLXy.  5 5 V *.4.e.D._.OX%X&X&X6X&XOX(.:.U 6 X PXKXKXKXKXKXKXKXKXKXKXKXKXKXKXKXKXu.X X X X nXKXKXKXKXKXKXKXKXKXKXKXKXKXKXKXKXKXKXKXKXKXKXKXKX$Xo 0 ( q.(.$X*X6X*X*X*X*X&XiXcXvXcXcXcXvXcXvXbXvXbXnXmXbXvXbXcXbXcXcXbXbXbXbXbXvXcXcXcXuXcXcXcXcXcXbXbXbXiXF.@XS.OXe.[ { [ ] J H ! H D H ! H H D D ! D ! D ! D D D D ^ D ^ =.H.D.{ | ] D ( ! D =.+X2X%X&X%X+X+XOXOX@XOXOXOXOXOXOXOXOXOXOX XOX X'.'._.'. X'.'.'.'. X'.'._.).(.(.S.S.S.S.y.y.y.y.e.y.y.e.y.y.y.e.e.4.1.:.>.=.*.*.>.>.:.:.4.q.q.q.u.u.S.(.(._.'.'.'.'.'.'._.'.].(.(.S.y.u.e.e.e.u.y.u.u.y.S.S.(.).(.(.]._._._.S.y.u.q.q.q.4.q.4.1.:.:.:.>.] Y A B N N N N N N N A N N Y &.:.q.y.N.(.(.S.S.S.y.q.:.q.u.S.y.u.q.&.Z y y 6 2 2 6 6 6 6 9 y q 9 6 6 1 & & & # . .     # # 5 ; 6 F 1.e.l.l.w.z.z.2.=.*.*.*.*.( H H ( ( ( ( &.>.*.1.w.*.=.1.1.1.1.*.*.1.w.c.).c.).~.].'.'.).).(.c.(.c.1.c.e.1.c.c.1.1.(.u.y.i.:.u.(.y.`.>.&.u.y.K U &.>.&.] U F S q.).$X%X$X$X X_._. X X X X(.c.D B c y c c 9 9 y c q c F P P Z N B A Z Z P P U &.( ( U y y V V 5 X X @ o @ @ @ X X X X X X X X @ @ X X X X X X X X X X X X X   @ @ O O @ , 4 0 0 0 0 0 0 0 8 4 8 3 l I I L b l b l , O # X   o O X X X O O o o     O O O O X X O O O O O O O O X X X X X X X X X X X X X X X X X X X X X X X X X X X X X X X X X   X X X X X X X X         X X X X X X X X     X X X X X X X X X X @ @ @ @ o o o o o o # # # # # # # # # # # = ",
"d.d.d.d.d.j.d.d.d.f.f.f.d.g.g.h.g.g.h.g.h.g.h.h.h.g.h.x.g.x.x.A.H.G.H.H.H.H.A.A.G.A.A.x.g.g.h.g.h.h.h.g.h.h.h.h.h.h.h.h.x.A.A.A.A.A.A.A.G.G.G.G.H.H.G.J.J.J.J.J.}.}.}.}.oXoXoXoXoXoXoXoXoXoXoXoXoXoX+X@X@X+X+X+X+X+X%X&X1X4X2X2X4X4X4X4X4X4X4X7X4X7X7X7X6X7X7X7XiXiXiX8XiXiXuXuXuXuXuXiX7X7X6X2X&X+X@XoX}.}.}.oX+X+X+X+X&X4X6XiXiXiXiXiXiX6X6X6X6X&X&X&X%X%XOXOXOXOX X X X'._._.).).S.D.).S.S.).S.S.w.=.U q o *XKXKXKXKXLXKXKXKXKXKXKXKXKXKXKXKXKXKXKXKXKXKXKXKXKXKXKXLXKX$X0   o   w F &.1.e._. XOX%X&X&X*X&X Xy.*.Z # >.KXKXKXKXKXKXKXKXKXKXKXKXKXKXKXKXLXA   @ X X nXKXKXKXKXKXKXKXKXKXKXKXKXKXKXKXKXKXKXKXKXKXKXKXKX$Xo q ] i.(.%X$X*X&X$X*X&X*XiXcXcXcXcXcXvXvXbXbXbXnXnXnXnXnXbXbXvXvXnXbXnXnXnXbXvXvXcXcXcXcXbXbXbXbXbXbXiX+X&X%X{.S.] { ( ( ] ! ! ! H ! ~ ~ H H D H ! J H ^ [ ^ D ^ ^ ^ ~ [ 6.5.F.{ { ! ^ D D ~ S.&X2X&X&X&X+X+X+XOX+XOXOXOXOXOXOXOXOX X X X X X'.'.'.'. X X'.'.'.'.'.'._._.(.S.S.y.y.e.y.y.y.e.e.e.e.e.e.e.u.q.4.4.1.:.>.>.&.&.>.>.>.:.:.:.i.4.q.q.y.S.(._.'.'.'.'.'.'._.'._._.).S.y.e.y.e.e.e.e.e.u.y.(.S.(.(._.(.(.(.(.S.y.q.q.4.4.i.1.1.:.:.4.4.:.&.` Y V B B B N p N N b A N Y U &.i.u.N.(.(.(.(.S.S.(.N.:.=.q.y.u.e.q.&.F y y 7 7 6 6 7 6 6 9 9 9 9 9 1 1 & & % o . o     X # ; ; & : ( 4.w.w.w.z.l.1.1.=.*.) ( U v P ( U P ( *.*.*.w.w.*.*.=.1.1.1.2.*.1.i.e.).c.c.w.).).).c.y.e.c.c.e.q.e.q.1.e.y.:.i.(.q.q.q.u.:.q.7.r.:.&.:.^.&.K P X.&.&.Y U :._.OX$X$X$X$X X_.). X X X Xc.z.D G c y c c 9 9 c A c Z U P Z P F Z Z Z F P P F ( ( ( U s ; 7 V q # X X o X @ @ X X X X X X X X @ @ X X X X X X   X X X X X X   @ @ @ @ @ 3 4 k k b b b 0 0 8 8 , z X.7.0.0.7.$.L o.X.X.I I L n K C C l 8 , # o @ X X X X X X X X X X X X X X X X X X X X X X X X X X X X X     X X X X X X X X     X X X X X X X X X X X X   X X X X   X X X X X   X X         X X X X X X X X X X @ @ @ @ @ @ o o o o # # # # # # # # # # # = ",
"d.d.d.d.d.j.d.d.f.d.d.d.d.g.g.g.g.g.g.h.h.h.h.h.g.g.g.h.x.x.x.A.G.H.H.H.A.A.A.A.A.A.x.g.g.g.h.g.h.g.g.g.h.h.h.h.h.h.h.h.h.x.x.x.A.A.A.A.A.G.G.G.H.H.G.G.G.H.J.J.J.J.J.J.}.}.}.}.}.}.}.}.oXoXoXoXoXoXoXoXoX@X@X@X+X+X+X+X+X&X2X2X4X4X4X4X2X4X4X7X4X4X4X4X4X7X7X7XiX7X7X7XiXiXiXuXiXiXuXuXuXuXiX4X2X%X@X@XoXoXoX@X+X+X+X+X&X2X6X7X8X8XiXiXiXiXiX6X6X6X*X&X&X&X&X%X$X$XOXOXOXOX X X_._.).).).).).).S.c.e.:.U q # *XKXKXKXKXKXKXKXKXKXKXKXKXKXKXKXKXKXKXKXKXKXKXKXKXKXKXKXKXnXq.  X   # 0 Z &.4.z.S. XOX&X2X6X*X%X].q.&.q # =XKXKXKXKXKXKXKXKXKXKXKXKXKXKXKXKXCX  # o O X nXKXKXKXKXKXKXKXKXKXKXKXKXKXKXKXKXKXKXKXKXKXKXKXKX=X# q ] e.(.$X$X$XOXOX$X$X*X6XcXcXvXvXbXcXbXbXbXbXnXnXnXnXbXnXbXbXnXnXnXnXnXnXnXvXvXcXcXcXcXbXbXbXbXbXvX6XiXbXF.5.*.] [ ] ] [ ( J H J H D ! H H J J ! H ^ ] ,.' ^ ~ ~ ] [ 1.J.6.6.| z.( ^ D ~ ,.&X2X6X&X2X&X%X&X%X+X+X@X@X@X@XOXOXOX X{. X{. X'.'.'.'. X X X'.'.'.'.'._.).S.S.S.N.e.e.e.y.y.e.e.e.e.e.q.q.q.q.4.1.1.:.*.*.&.] &.&.&.&.=.>.:.:.i.4.q.u.y.(._.'.'.'.'.'.'.'.'._._.(.S.c.y.e.e.w.e.e.y.y.S.(.(.(.].].(.S.S.y.e.q.q.q.4.i.4.:.1.:.:.:.>.&.U Y A s s s p b b p N A Y U &.:.q.q.y.(.(.(.(.(.(.(.S.(.u.q.q.q.q.u.q.*.F y t 7 9 7 6 6 6 6 5 5 1 8 1 1 1 # # # # .     o . X # ; & + 7 ( 1.*.1.c.c.w.w.*.( ( ( F F P P H P U &.+.+.w.1.*.=.2.1.q.=.1.>.>.q.w.c.e.i.:.c.c.c.u.q.q.q.u.q.:.i.w.q.w.y.:.i.~.u.q.q.r.:.:.:.7.>.-.&.>.7.U U P U *.&.u.'.OX%X$X%X%XOX X).). X X X Xc.e.D G B y c c 9 l N Z N P U P Z U U P Z Z Z U U U U ( ( U V 5 ; s N ;   X @ X @ @ @ @ X X X X X X @ @ @ X X X X X X X X X X X X   O @ @ , 3 4 0 k b b b b 0 0 0 l C z -.`.#X/.W.Q.0.L o.7.8.X.L k < 4 8 k 8 9 k l w 5 # @ X   X X X X X X X X X X O O O O O O O O X X X X X X     X X X X X X X X     X X X X X X X X X X X X     X X     X X X X     X X X       X X X X X X X X X X @ @ @ @ @ @ o o o o # # # # # # # = # # = = ",
"d.d.d.d.d.d.d.d.f.f.d.g.g.g.g.g.g.g.h.h.h.h.h.h.h.g.g.h.h.h.x.A.G.H.H.A.A.A.A.A.A.x.x.h.h.h.h.g.g.g.g.h.h.h.h.j.g.h.h.h.h.h.h.h.x.x.A.A.A.A.G.G.G.G.G.G.H.H.H.H.J.J.J.J.J.J.K.}.J.K.K.}.}.}.{.}.}.}.}.oX|.|.oXoX+X+X+X+X+X+X1X4X4X4X4X4X4X4X4X4X4X4X4X4X4X6X7X7X6X6X6X7X7X6X6XuXiXiXiXuXuXiX7X7X2X&X+X+X+X@X@X+X+X@X+X+X&X4X7X7XcXuXiXiXiXiX7X6X6X6X*X&X&X&X&X&X%X%X%X$X$XOXOXOX X_._._._.'._._.).).e.:.U w o *XKXKXKXKXKXKXKXKXKXKXKXKXKXKXKXKXKXKXKXKXKXKXKXKXKXKXLXKXKXKXPX(.  + # B U =.w.S._.OX%X&X6X&X X(.:.U 5 o PXKXKXKXKXKXKXKXKXKXKXKXKXKXKXKXLX*XX # & X X nXKXKXKXKXKXKXKXKXKXKXKXKXKXKXKXKXKXKXKXKXKXKXKXKX$X# s ] q.(.OXOX XS._.OX$X&X6X*XuXcXcXcXvXmXbXbXbXbXbXnXnXnXnXnXnXnXnXnXnXnXbXbXcXcXcXcXuXvXbXbXbXbXbXvX_.6X@X,.=.( ] ( ] ] { ] H H D H ! H ! ~ [ ,.' [ ~ ' f.| ~ ~ ' | 1.F.6.g.6.6.4.( H ! ] _.uX2X2X6X&X&X&X%X%X+X+X@X@X@XOXOXOX XOXOX_. X X_._._._._._._._.'.'._._._.).S.S.S.S.N.y.y.e.e.q.q.4.4.4.1.4.1.:.:.:.=.=.*.&.] &.&.&.&.&.>.>.>.>.:.1.4.e.S.]._.'.'.'.'.'.'.'.'.'._.(.(.S.S.y.e.e.y.y.S.(.(._._._._.(.(.N.e.u.e.q.4.q.q.q.i.1.:.:.:.>.&.` Y Z B A s p s N N b N Y U ` >.q.u.y.(.(.(.).(.(.(.(.(.S.y.y.q.>.:.4.q.>.Z y q 6 5 1 6 9 5 1 1 1 1 & + & 1 + + & %   . .   . o # # o . & y H +.=.w.c.z.4.*.! ( H P H H ( P F ( +.U ( 1.1.*.=.*.1.w.=.*.*.:.4.q.w.w.1.) c.c.i.i.q.1.>.:.:.:.i.u.q.:.q.i.q.(.`.t.>.q.W.-.&.>.7.X.X.X.&.K K Z U :.y.$X$X$X%X%X%X%X%X X)._. XOX X Xc.e.J G c t c y 9 y N N N P U K K P &.&.V N F F U J ( ( ( U N w 5 0 V q X   @ O o o @ X X X @ @ X X X X @ X X X X X X X X X X X X X O @ @ , 3 4 8 z 0 b 0 0 l z k < 4 x m 8.#X#XW./.`.8.x o.0.W.Q.8.L m x C v z k z z l C N 5 # o   X     X X X O O O O X   X o @ O X X   X X X     X X X X X @ X   @ @ X @ X @ X X X X X X X X     X X X X       X         X X X X X X X X X X X @ X X X @ @ o o o # # @ o # # # # # # # # # = 3 3 ",
"d.d.d.d.d.d.f.g.f.d.d.d.g.g.g.g.g.g.h.h.h.h.g.g.g.g.f.g.h.h.x.A.A.A.A.A.A.A.A.A.A.A.x.h.g.h.h.h.g.g.g.g.g.g.h.j.g.h.g.g.h.h.h.h.x.x.x.x.x.x.A.G.G.G.G.G.G.H.H.H.H.J.J.J.J.J.J.J.J.J.J.J.J.J.J.J.}.K.}.}.}.|.|.oX@X@X@X+X+X+X:X&X1X1X4X&X4X4X4X4X2X4X2X2X4X2X4X4X6X6X6X6X7X7X7XuXuXiXiXiX7X7X7X7X2X&X+X+X+X+X+X+X+X+X+X4X4X4XiXiXuXuXiXiXiXiX7X6X6X6X6X&X&X&X&X&X&X&X&X%X%X%X%X%XOX X X XOX X X X X).e.=.U w o *XKXKXKXKXKXKXKXKXKXKXKXKXKXKXKXKXKXKXKXKXKXKXKXKXKXKXKXKXKXLXKXLXnX>.o 6 N ] 1.c._.OX%X6X6X%X'.c.>.A 5 &.LXKXKXKXKXKXKXKXKXKXKXKXKXKXKXKXKXu.o 1 5 o X nXKXKXKXKXKXKXKXKXKXKXKXKXKXKXKXKXKXKXKXKXKXKXKXKX$X# s &.q._.'.&X%X! ] c.'.&X*XcXcXcXcXcXcXcXmXmXbXbXbXbXnXnXnXnXbXnXnXnXnXnXbXvXcX6XiX&XiXuXcXbXnXnXCX XF.+X=.] ] ] [ *.[ ~ ! ! H H ^ J H H ^ Q [ ,.[ } | 3.3.<.f.,.} 3.e.oX6.F.6.F.=.! ( ( 5.2X6X&X&X&X&X2X&X%X+X@X+X@X@X@XOXOXOX X X X X X_._.{. X X_.{.{.'.'.'._._.).).S.S.S.S.S.N.y.e.w.q.q.4.4.:.:.:.:.:.>.=.=.=.*.&.&.&.&.&.&.&.>.>.>.>.>.:.:.4.e.(.(._.'.'.'.'.'.'.'.'._._._.).).S.S.c.c.S.(.(.(._._._._.(.(.(.y.u.u.q.q.u.u.q.i.:.:.:.:.&.` U Y Y B N s p N p q N A A P ` >.u.y.y.(.(.(.(.(.(.(.(.S.S.N.y.u.i.:.:.1.&.F y 9 5 6 6 6 9 6 6 6 9 6 1 & 1 2 1 + 1 & o o . . . o # # . + + & y H &.=.w.D.w.*.! ( ( U ( P P P P ( ( U +.i.1.*.=.*.2.1.1.:.*.:.1.1.w.w.1.+.w.y.i.:.:.&.( &.&.:.1.u.q.:.i.:.7.(.#Xt.&.7.r.-.X.-.:.X.X.U K Z U >.u._.$X%X%X&X&X&X&X&X%X X)._.OX%X.X Xc.z.! G B y c c y c C C C P U K P P ( *.U V Z F F J ( &.*.( V w 5 w V s ; X o X X X @ X X X X X X X @ @ @ X X X X X X X X X X X X X @ @ O , 8 0 0 l b p 0 0 l l z L P L m o.0./././.`./.8.x o.O.7.W.Q.r.-.o.L K z A L K C z q b l , @ X @ o @ X X     O o o X X X O @ X X X X X X X X X X X X @ @ @ @ @ @ @ X @ X X X X X X X X     X X X X       X         X X X X X X X X X X X @ X X X @ @ o o o # o o o # # # # # # # # # = 3 3 ",
"d.d.d.d.d.d.f.g.d.d.d.d.f.g.g.g.g.g.g.h.g.g.g.g.g.f.f.g.h.h.h.x.A.A.A.A.A.A.A.x.x.x.x.g.h.g.g.g.g.g.g.g.g.g.j.j.g.g.g.g.g.h.h.h.h.h.h.h.h.h.A.A.A.A.A.G.G.H.G.G.G.H.H.H.H.H.J.J.J.J.J.J.J.K.K.K.J.J.J.}.}.}.}.oXoXoXoX@X@X+X+X+X1X&X+X+X+X&X4X4X&X4X1X&X&X4X4X4X4X4X4X4X7X7X7XuXuXiXiX7X7X7X7X7X4X4X2X4X&X+X+X+X+X+X4X4X4X4XiXiXiXuXuXiXiXiXiXiX6X6X6X6X2X2X2X&X&X&X&X&X&X&X%X%XOXOXOX+X+XOXOXOX X_.c.:.U q o *XKXKXKXKXKXKXKXKXKXKXKXKXKXKXKXKXKXKXKXKXKXKXKXKXKXKXLXKXKXKXKXKXKXLXy.# w Z &.4.S. X+X&X&X$X(.w.&.q # $XKXKXKXKXKXKXKXKXKXKXKXKXKXLXKXKXLXq & ; w # X nXKXKXKXKXKXKXKXKXKXKXKXKXKXKXKXKXKXKXKXKXKXKXKXKX$Xo s &.q.S.'.OX4X XJ B w.OX&X*XcXcXcXvXcXvXvXbXbXnXnXnXbXnXnXnXbXnXnXbXnXnXcXuXiX&X&XS.w.6XvXbXbXbX6XuX).{ =.] ] [ [ =.~ ( ^ ] ( J ! ! [ { =.[ [ } { { | { 3.<.' ,.,.| A.4XJ.@X6.F.{ ~ ( 4.%X&X6X&X&X&X&X2X&X%X&X&X@X+X@X+X@XOXOXOXOX XOX X{. X XOX X X X X X X X'._.).).S.S.S.S.S.S.y.e.q.4.4.4.1.:.:.>.:.:.>.=.*.*.&.&.&.&.&.&.] &.*.&.&.&.*.=.>.1.w.y.(.(._._._._._.'._._._._._._._._.).(.(.)._.].)._._._._.]._._.(.y.y.e.y.y.y.q.q.:.:.:.:.*.&.&.` Y A A N p s q q 0 N A U &.:.q.u.N.(.(.(.(.(.(.(.(.S.S.S.y.u.q.:.=.*.U Z y 9 6 6 6 6 6 6 6 6 9 9 & & & 1 1 + 1 1 + + o . . & & # + & + + 1 c H ( =.e.1.+.( ( U U ( P B P P G U U ( :.q.:.1.4.+.i.i.1.*.>.1.1.1.4.1.*.:.1.>.&.&.&.U ( ( >.:.q.7.-.+.&.>.>.u.].W.7.;.>.>.-.:.+.U U +.>.:.w.(. X$X=X*X*X*X*X*X*X%X X_. X%X%X%X XS.c.( D G u c y y c Z Z Z P P P P P F &.&.F Z F G U U ( ] ( F s w 5 t s 6 X o @ @ @ X X X X X @ o # o o X X X X X X X X X X X X X X @ @ @ @ 3 8 8 0 4 0 l z l z v L L L L m $.Q.Q.Q.W.`.Q.o.x m x L X.-.;.;.7.;.L v L L U U C l z C q , O       X X X O X X X X @ X X       X X X X X X X X @ @ @ o @ @ @ @ @ @ X X X X X X X X     X   X         X X X X X X X     X X X X X X X @ X X X @ @ o o o # o o # # # # # # # # # # = 3 3 ",
"d.d.d.d.d.d.d.d.d.d.d.d.d.f.g.g.g.g.g.g.g.g.g.g.g.g.g.g.h.h.h.h.A.A.A.A.A.A.x.h.x.h.h.g.g.g.g.f.g.g.g.g.f.d.g.j.g.g.g.h.h.h.h.h.h.h.h.h.h.h.h.h.A.A.A.A.G.G.G.G.G.G.G.G.H.H.H.J.J.J.J.J.J.J.J.J.K.J.J.J.}.}.}.}.}.}.oXoXoXoX+X+X+X+X+X+X+X+X+X&X+X+X+X+X+X1X4X4X2X2X4X4X7X7X4X6X7X7X7XiXiXuXiX7X7X7X7X4X4X4X&X&X1X4X4X4X4X7XiXiXuXuXuXiX6X6X7XiX6X6X6X6X6X6X6X6X2X&X&X&X&X&X&X&X%X%X%X&X&X%X+X+XOX XS.4.( s # *XKXKXKXKXKXKXKXKXKXKXKXKXKXKXKXKXKXKXKXKXKXKXKXKXLXKXKXKXKXKXLXLXKXKXKX(.# q U =.e._.OX%X%X XS.1.U 5 X PXKXKXKXKXKXKXKXKXKXKXKXKXKXKXKXKXnX  ; w 0 ; X nXKXKXKXKXKXKXKXKXKXKXKXKXKXKXKXKXKXKXKXKXKXKXKXKX$Xo s ] u.(._.).%X+Xz.6 &.'.$X*XiXcXcXcXcXvXvXbXbXbXnXnXbXnXnXnXbXnXnXbXbXbXcXuX6X%X%X=.F *XuXbXCXbXvX+X,.[ ] ^ [ ~ ! ~ ~ ~ ^ ( ( ! H ! D ~ ~ ^ Q ~ [ [ 3.3.d.3.h.,.| | F.+XF.oXe.e.{ ~ 4.&X%X+X2X2X2X6X6X6X6X4X&X&X%X&X+X@X@XOXOXOXOXOXOX{.OXOXOX X XOXOXOXOXOXOX X_.).).S.S.S.S.S.y.e.e.q.4.4.4.:.:.:.>.:.:.=.=.*.*.&.] &.&.&.] ] ] &.&.&.&.*.>.:.4.e.S.(.(._.'.'.'.'._._._._.'._._._._._._.(.)._._._._._._._._.]._._.(.S.S.S.S.N.y.u.q.4.:.:.>.:.>.` Z V V B p p q p 0 N N Z U &.:.u.y.(.(.(.(.(.(.(.S.(.S.S.y.q.4.:.*.U B c q 6 6 7 7 6 6 6 6 6 6 6 % % + 1 1 < 1 9 + + o . o & 1 # o       + & 6 B ( =.*.*.&.( U ( +.U F P P Z U U +.:.>.>.:.:.&.1.:.*.&.*.>.>.=.:.:.*.&.>.&.+.( ( P P ( &.&.>.:.&.&.+.-.q.r.~.7.P X.-.7.+.>.-.+.X.q.(._.'.OX$X*X*X*X*X*X*X*X*X$X X_. X%X%X%X XS.z.[ D S y c y c B Z Z Z Z P U U P P U &.+.F c G H ( U U ( U F B 7 : d y & X o @ @ @ X X @ # # = = # o X X X X X X X X X X X X X X O @ @ @ , 3 8 8 0 C L n z v L L L L I L o.8.Q.W./.Q./.0.x x z m L v C L -.-.L C L L L I I P L l 8 k C C q , @   o O     X X X X X X X X X X X X X   X X @ o o o o o @ @ @ @ X X X X X X X X         X X       X X X X X         X X X X X X X @ X X X @ @ o o o o o o # # # # # # # # # = = = 3 ",
"d.d.d.d.d.d.d.d.d.d.d.d.d.d.j.g.g.g.g.g.g.g.g.g.g.g.g.g.h.g.h.h.A.A.x.x.x.x.x.h.h.g.g.g.g.g.g.j.j.j.g.g.d.d.j.d.d.j.g.g.g.h.h.h.h.h.h.h.x.h.h.h.x.A.A.A.A.A.G.G.G.G.H.G.G.H.H.H.J.J.J.J.J.J.J.J.J.J.J.J.J.J.J.}.}.}.}.}.|.oXoXoX+X+X+X+X+X+X+X+X+X+X+X+X+X+X%X%X1X4X2X2X4X4X4X4X7X7X7X7XiXiXiX6X6X7X7X6X4X4X4X4X4X4X7X7X7XiXiXiXiXuXiXiX7X6X6X7X6X6X6X6X6X6X6X6X6X6X6X6X6X6X2X&X&X&X&X&X&X&X&X&X+XOX).w.] s # *XKXKXKXKXKXKXKXKXKXKXKXKXKXKXKXKXKXKXKXKXKXKXKXKXKXKXKXKXKXKXKXKXKXLXKXLX:.# s ] q.S. X+XOX'.y.>.Z 5 &.KXKXKXLXKXKXKXKXKXKXKXKXKXKXKXKXLX*X# 5 s q 5 X nXKXKXKXKXKXKXKXKXKXKXKXKXKXKXKXKXKXKXKXKXKXKXKXKX$Xo s &.q.). XD.{.&X&Xd . _.$XiX*XiXcXcXcXcXvXcXcXvXbXnXbXbXnXnXnXnXbXbXbXbXbXuX&X&X&X{ H 6XcXbXCXbX+X{ [ [ [ [ ~ ] ] ~ ~ ^ [ ] ( ( H H H H ! ! ~ ~ ^ ^ ^ ' d.d.A.g.g.6.F.yXA.F.3.=.( ] 4.&XOX6X2XiXuX2X6X2X2X&X&X&X&X%X+X@X@XOXOXOXOXOXOX XOXOXOX X XOXOXOXOXOXOX X_.).S.S.S.S.S.S.y.y.w.6.4.4.4.1.:.=.>.=.=.=.=.=.*.&.&.&.] &.] ] ] ] &.&.&.&.&.>.q.y.y.S.(.(._._._._._._._._.'._._.)._._.).(.(.]._.).].).)._._._._._._.(.(.S.S.S.N.e.q.4.:.>.>.>.&.U B N B s q q 7 p p N p b Z U >.u.N.(.(.(.(.(.(.S.(.(.N.y.e.q.4.=.U B q 9 7 6 7 y q 7 6 6 6 6 6 5 % & + 1 1 + 1 9 & 1 + + + 1 1 +         +   + 1 9 F ( ( ( *.&.( U U P P P P P P q.i.( &.:.&.>.>.&.+.&.>.>.>.&.&.&.+.P +.&.U U U P B U +.+.+.-.&.&.X.+.>.:.q.:.+.-.>.i.+.:.:.&.>.y.'.'.OX$X&X*X*X*X*X6X6X*X&X$X X X X%X%XOX Xc.z.*.H G y c B B B N B Z Z P U U P P P ( >.( c B J ( U ( ] U V B s 6 B V 6 # o X @ @ X X o # 3 = # # o X X X X X X X X X X X X X X O @ , @ < , 4 8 b K U K L z C K K L L L L X.0.W./.Q././.o.o.o.z k z X.+.-.X.C z c A L L K K K K C l k C K K N 5 # # # o O X X @ O O @ X X X       X X @ o o o o o o @ @ @ @ X X X X X       X X               X X X X X X X     X X X X X X X @ X X X @ @ @ @ @ o o o # # # # # # # # # # = = = ",
"d.d.d.d.d.d.d.d.d.d.d.d.d.d.j.g.g.g.g.g.g.g.g.h.g.g.j.g.h.h.h.h.h.h.h.x.x.x.h.h.h.h.g.g.f.f.j.j.d.d.d.j.d.d.d.d.g.g.g.g.g.g.h.h.h.h.h.h.h.h.h.h.h.x.A.A.A.A.A.A.G.G.G.H.G.G.G.G.G.G.H.G.H.H.G.G.H.H.J.J.J.J.J.J.J.J.K.}.}.}.oXoXoXoX@X@X@X@XoX@X@X+X+X+X+X+X+X+X+X1X1X1X4X4X4X4X7X7X7X7X6X6X6X6X7X7X6X6X4X4X6X4X7X4X7X7X7XiXiX7X6X7XiXiXiX7X6X6X6X6X7X7X6X7X6X6X6X6X6X6X6X6X6X2X6X6X2X6X2X&X&X2X%XOX).w.&.N ; *XKXKXKXKXKXKXKXKXKXKXKXKXKXKXKXKXKXKXKXKXKXKXKXKXKXLXKXKXKXKXKXKXKXLXKXKXPXs 5 Y *.e.). X X).q.&.N X $XKXKXKXKXKXKXKXKXKXKXKXKXKXKXLXKXKXq.# q B s 5 X nXKXKXKXKXKXKXKXKXKXKXKXKXKXKXKXKXKXKXKXKXKXKXKXKX$Xo s &.w.). X X_.OX6Xe.o 4.$X&X*XcXcXcXcXcXvXvXcXvXbXnXbXbXnXnXnXnXnXbXbXbXvXuX&X6X%X{ 1.UXvXbXBXuXz.,.[ ' ~ ~ [ ~ ' ~ ^ ' 6.<.^ ! ! ! ( H J J H ! ( ] ^ ^ 3.d.' { { <.}.>Xz.6.4.{ ! ] ,.c.).&XiXiX6X6X2X2X2X4X4X2X2X%X%X+X+X+X+X+XOXOXOX X X X X{. X XOXOXOXOX X'._.S.S.S.D.D.S.S.S.y.w.6.4.4.4.1.:.:.:.=.=.=.=.=.*.] &.] ] ] ] U U U U ] ] ] &.*.:.u.e.y.S.(.(.).).)._._.].)._.).).)._.).).)._.]._.]._._._.]._.]._._.(._._.(.S.S.y.e.q.4.:.:.>.&.] Y B p p p p p q q w p p b Z U -.r.(.(.(.(.(.(.(.S.(.S.S.y.u.e.q.( y 7 7 q q q y B y q 7 7 q q 6 5 1 1 + 1 1 + 1 9 1 1 2 & & 1 1 +         O   O # 1 y F ( H ( ( ( H U U P P U U P u.>.P &.:.>.>.&.&.&.&.&.&.&.( ( U U Z P U P U U P A P X.U U U X.X.+.-.&.-.>.7.-.+.+.:.+.*.&.>.u.$X$X$X%X&X*X*X6X*X*X8X8X*X&X$X X X X%X%X+X Xc.z.*.H G c B B F B c B Z Z P U P F H P H *.&.F B F ( ( ( ( H y 6 6 7 V J s ; o @ @ @ X X @ # # o @ o o X X X X X X X X X X   X X @ @ @ @ @ < 4 8 l z I X.K v z v A K L L L L L -.r.W.W.W.Q.Q.Q.Q.-.L X.>.-.P z z z C c C K K K K P P I K L A C z k 8 8 8 5 # O X     X O X X X X X X X @ @ o o o @ o @ @ @ @ @ X X X X X       X                 X         X X X X X X X X X X X @ X X X @ @ @ @ @ o # # # # # # # # # # # = = = = ",
"d.d.d.d.d.d.d.d.d.d.d.f.d.d.d.j.g.g.g.g.g.g.g.g.g.g.g.g.g.g.h.h.h.h.x.A.x.x.h.h.h.h.g.f.f.f.j.d.d.d.d.d.d.d.d.d.g.g.g.d.j.g.g.h.h.h.h.h.h.h.h.h.h.h.x.x.A.A.A.A.A.A.A.A.G.G.G.G.G.G.G.G.G.H.H.G.L.L.H.H.J.J.J.J.J.J.J.K.K.}.}.|.}.}.oXoXoXoXoXoXoXoX@X@X+X+X+X+X+X%X1X%X1X4X4X4X4X4X7X7X7X6X6X7XiX7X6X6X6X6X6X6X7X4X6X7X6X6X7X6X7X7X7X7X7X7X7X6X6X6X6X7X6X6XiXiXiX6X6XiX8X7X6X6X7X6X6X6X6X6X6X6X&X+X_.e.=.Z w iXKXKXKXKXKXKXKXKXKXKXKXKXKXKXKXKXKXKXKXKXKXKXKXKXKXKXKXKXLXKXKXKXKXKXKXLXKX'.5 s ( 4.S._._.S.:.U 5 # CXKXLXKXKXKXKXKXKXKXKXKXKXKXKXKXKXKX5 5 q V N w o nXKXKXKXKXKXKXKXKXKXKXKXKXKXKXKXKXKXKXKXKXKXKXKXKX=X# N &.w.(.&XOXOX_.OXOXe.&.$X*X*X6XcXcXcXcXvXvXvXbXbXnXbXbXnXnXnXnXnXbXnXnXvXcXiXiX&Xe.&XuXcXbXbXF.2.| [ [ [ ' [ ,.) ^ ' | f.,.^ ~ ~ ~ H ! ! ( ! H ! ~ ^ ' f.3.' { 3.5.}.F.A.{ ,.^ ( ] ] ] ] OXiX7XiX&X2XuX2X2X4X&X&X&X&X&X%X%X+X+X@X@XOX X{.{.{._._._.{. XOX X'._._.S.S._._._.).S.S.y.w.6.4.4.1.:.:.=.=.=.=.=.=.=.*.*.&.] ] U U U J J J H U ` ] ] >.1.q.e.y.S.(.(.(.(.S.(.(.).(.(.(.).).).)._._.).).)._.).].].].].'.]._.]._.)._.S.y.e.e.q.1.:.>.>.` V V p p p p p p p p p p p A U &.r.N.(.(.(.(.S.(.(.(.S.(.S.y.e.=.y 6 7 y y y y s B y y y 7 y y q 6 1 1 + 1 1 + 1 9 1 2 2 2 2 1 +                 O . & B &.U B B F P H U P P U U P :.>.U >.i.:.i.>.-.-.&.&.( ( U U P P K K U U ( P K K +.U K U +.-.X.-.7.>.&.&.i.U P ( 1.1.q.u.~.=X*X*X*X*X*X8X8X6X8X6X8X8X*X&X$X$X X XOXOXOX Xc.z.*.J F B c Z F c c B Z Z P U Z F P P H ( &.( V B ( ( ( ( U V w # 5 q V s ; # # @ @ X X X @ @ X X @ @ @ X X X X X X X X X     @ o # , 3 3 8 k z A P X.P v k z C L P K L L m m o.8.0.Q.Q.0.7.;.-.-.$.-.I C z l z k l C C C A K L A K L L L L I I L A C k q 8 5 , < @ o o X X X X X o o @ o o o o @ @ X X X X X X X X X X X     X   X X   X                 X X X X X X X X X X X @ X X X @ @ o @ @ o # # # # # # # # # # # = = = 3 ",
"d.d.d.d.d.d.d.d.d.d.d.j.f.f.d.j.j.j.g.g.g.g.g.g.g.g.g.g.g.h.h.h.h.x.h.h.h.h.h.h.h.h.g.g.f.f.d.d.d.d.d.d.d.d.d.d.d.d.j.d.d.j.j.g.h.h.h.h.h.h.h.h.h.h.h.h.A.A.A.h.A.A.A.A.G.G.G.G.A.G.G.G.G.G.G.G.L.G.G.G.H.J.J.J.J.J.J.J.J.J.J.}.}.}.}.}.oXoXoXoXoXoX+X+X@X@X+X+X+X+X:X1X1X2X4X4X4X4X7XiX7X6X6X7X6X6X6X6X6X6X6XiX6X6X7XiX6X6X7X7XiX7X6X6X6X6X7X7X6X6X6X6XiXiXiXiXiXiXiXiXiXiXiXiXiX6X7XiXiX6X6X6X&X%X Xc.:.U q cXKXKXKXKXKXKXKXKXKXKXKXKXKXKXKXKXKXKXKXKXKXKXKXKXKXKXLXKXKXKXKXKXKXLXKXKXKXPXo w J :.y.).S.e.*.V 5 ( KXKXKXKXLXKXKXKXKXKXKXKXKXKXKXKXKXnXX 5 V Y V w o nXKXKXKXKXKXKXKXKXKXKXKXKXKXKXKXKXKXKXKXKXKXKXKXKX=X# N &.e._.$X$X%X$X'.OX'.S.OX&X6XuX6XuXcXcXcXvXbXbXbXbXbXbXnXnXnXnXnXnXnXnXnXvXcXuXiX6XiXvXbXbX2Xz.,.[ [ ' | [ ,.| [ ~ / 3.5.{ ~ ~ ! ! ^ ! ! ! ! ! ( ( ~ ^ <.3.| } { }.4X3.5.{ =.] ( H ] H ] ,.z._.&Xc.2X2X)._.&X&X&X&X&X&X&X&X%X+XOX@XOXOX X{._._._._._._.'.'.'._._.).)._. X'._.(.S.e.w.4.4.4.4.:.=.=.=.=.*.=.=.=.=.*.&.] ] U J J J F S J J U U U ] *.>.1.w.u.y.u.e.e.y.y.S.(.S.(.S.(.).(.(.(.(.(.(.(.(.)._.].].].'._.].].(._._.S.y.N.y.q.:.:.1.1.&.Y B p p p p p p p p p p p N Y #.9.u.y.(.(.(.S.(.(.(.S.(.(.(.q.S $ 6 y y y s s s s 7 y 7 y y B y 6 1 1 + < 1 + 1 9 + 1 2 2 2 1 @           O     O . . y 1.e.1.( F B B Z c c Z A U ( U :.:.q.:.+.U &.&.>.&.( ( P P P P P Z P U ] F C U 7.U U :.u.W.X.-.&.>.:.&.:.&.*.:.q.(._.$X&X*X*X*X*X*X*XcX8XlX6X8X8X8X8X&X%X$X X XOXOXOX Xv.z.*.H H G c Z F c c A A c P P A P P c F H ( *.U B P U H H U F 0 # # & s y & # o O X @ o @ X X X o X X @ X X X X X X X X X X X @ o = w 0 k k z C o.X.U K C c k z v C C C z L m x L o.X.8.t.8.7.8.8.7.7.L l z k k k z z C A L A L I L L K L L L P P o.I L C k 8 8 k 8 8 5 # o X X X # # o o o o o @ X X X X X X X X X X X X X X     X X X X                 X X X X X X X X X X X @ X X X @ @ o o o o # # # # # # # = = # = = = 3 3 ",
"d.d.d.d.d.d.d.d.d.d.d.f.d.d.d.j.j.j.d.j.g.g.j.g.j.j.j.h.j.j.h.h.h.h.h.h.h.h.h.h.g.g.g.j.f.d.d.d.d.d.d.d.d.d.d.d.d.d.j.g.j.d.g.j.g.j.j.g.h.h.h.h.h.h.h.h.h.h.h.B.A.A.A.A.G.G.G.G.A.G.G.G.G.G.G.G.G.G.G.G.H.H.H.J.J.J.J.J.J.J.J.J.J.K.K.K.}.}.|.oX}.oXoXoXoX+X@X@X+X+X+X+X+X1X4X4X4X4X4X4X4X2X6X6X6X7X6X6X6X6X6X6X6X6X6X6X6X6X6X4X7X6X6X6X2X2X2X6X2X6X7X7X7XiXiXiXiXiXuXuXuXuXuXiXiX8X8XiXiXiX6X6X2XOX X(.4.&.Y vXKXKXKXKXKXKXKXKXKXKXKXKXKXKXKXKXKXKXKXKXKXKXKXKXKXKXKXKXKXKXKXKXKXKXKXKXKXKX:.# V *.w.c.c.4.&.q o $XKXKXKXKXKXKXKXKXKXKXKXKXKXKXKXKXKX=X# w P P Z w o nXKXKXKXKXKXKXKXKXKXKXKXKXKXKXKXKXKXKXKXKXKXKXKXKX$X# B &.u._.$X=X%X$XOXOXOX&XOX*X*X6XcXiXcXcXcXcXvXvXbXbXvXbXbXbXbXnXnXnXnXnXbXbXvXvXvXvXmXnXbX6Xc.6.,.[ ,.,.[ | ' } <.' ' g.3.[ ^ ~ ^ ^ ^ ^ ~ ~ ^ ^ ~ ~ ~ ^ ,.3.H.<.,.{.F.4.5.^ [ ^ ! ( ] ! ] ~ ! ,.OX2X2X6XS.e.&X6X&X2X4X4X&X%X%X%X%X+XOX X{. X_._._._._._._._.).D.)._.D._. X_._.F.e.6.4.4.4.1.=.=.=.=.*.*.*.*.=.=.*.*.] ] ] U J S V V V F Y J J U U U ] *.>.:.:.:.4.4.4.e.y.y.S.S.S.S.(.(.(.(.(.(.(.(.(.(.).).).).).(.(.].).(.(.(.N.e.q.:.:.:.4.4.>.Y N N p q N N p a p p N N A Y #.:.q.y.S.S.S.S.S.(.(.(.(.(.c.( $ : c c y t y s y y 7 y y 7 q c y 5 1 1 1 1 1 + 1 9 + 1 6 6 2 &       O   O O O         6 1.c.c.z.5.=.( G t 6 9 y F U F F &.&.&.P +.+.:.:.>.+.P P U A A Z A P >.-.P +.q.q.K :.u.q.>.9 P &.:.>.>.:.i.4.u.(.'.$X=X*X*X6X6X6X6X6XlXlXlXcX*X*X*X*X&X%X%X X XOX+X+X Xc.z.[ ( H U c c P y c c c A F P P P B y B H U ] *.B F F F H U B N # # o N 7 # # # X @ @ X X X X X X X o   # X X X   o   X # # 5 0 5 q c c C K U U U P P K K C b k n L z z m $.9.$.o.n x m -.7.9.0.7.9.7.L x z k l k z C A z C L L L L L L L L L L L I I P P P K z z 8 k z 8 8 @ o o X # # # @ o o o o @ X X X X X X                 X X X                   X X X X X X X X X X X X X X X @ @ @ @ @ o o o # # # @ # # # # = = 3 3 3 ",
"f.d.d.f.d.d.d.d.d.d.f.j.f.d.j.g.g.g.j.g.g.g.g.j.g.g.j.j.j.g.j.h.h.h.h.h.h.h.h.h.g.g.j.f.d.d.d.d.d.d.d.d.d.d.d.d.d.d.d.j.d.d.j.g.j.j.j.g.g.g.h.h.h.h.h.h.h.h.h.h.h.B.A.A.A.A.A.A.A.G.G.G.G.G.G.G.G.G.G.G.G.G.H.G.H.H.J.J.J.J.J.J.J.J.J.J.J.J.K.}.}.}.}.}.|.|.oXoXoXoX@X+X+X+X1X4X4X4X4X4X4X4X6X6X6X7X7X6X6X7X6X6X6X6X6X6X6X6X6X6X6X6X6X2X2X2X2X2X6X6X7X7X6X7X7X7XuXiXuXuXiXiXiX6X6X6X6X6X6X6X&X&X&X%X X_.e.:.U V q q q Z &.:.y.].*XLXKXKXKXLXKXKXKXKXKXKXKXKXKXKXKXKXKXKXKXKXKXKXKXKXKXKXKXKX'.5 s ] 4.e.e.=.P 0 # nXKXKXKXKXKXKXKXKXKXKXKXKXKXKXLXKXKXq.# y P U F 6 o nXKXKXKXKXKXKXKXKXKXKXKXKXKXKXKXKXKXKXKXKXKXKXKXKX$X# B &.u.'.%X%X$XOX X'.OXOX$X*X*X*X6XuXcXcXcXcXvXvXbXbXbXbXnXbXbXnXnXnXnXnXnXbXbXbXbXbXnXbXbX&Xz.,.} ,.3.3.| | } ' ,.| 3.g.[ ~ ~ ~ ' ^ ~ ] ~ ^ ~ ~ ^ ~ ~ ~ } 5.{ { F.g.6.6.z.] [ ] ( ! H [ w.[ ] ,. XiXuX7X&X+XiX6X6X2X&X&X&X%X%X%X+X@X@X X{.{.{._._._._._.).D.S.F.S.F.).).D.F.F.S.e.4.1.1.=.=.=.=.=.=.=.*.*.*.*.*.*.{ ] ] ( J J V V V V V V V V V Y J J U U U U ` ] ] =.:.q.e.y.y.y.c.S.c.c.S.S.S.S.(.(.(.(.(.).].].].(.(.(.(.(.S.e.q.>.>.>.:.:.1.>.J N p p A Y &.&.Y Y Y Y Y U U &.9.u.^.(.S.S.S.(.S.S.S.S.(.:.t . t 6 y y y B B y y 7 y y q 7 y y q 6 5 2 1 + + 1 9 % 5 6 6 1 # +             O     X   . ( c.c.v.z.e.e.1.( G B B y F B c ( U ( ( &.+.P >.q.>.P P +.&.U U U +.>.:.>.:.u.u.>.:.:.&.:.F P ( :.:.1.c._._.'.$X*X*X*X*X*X6X8X6X6X*X6XcXcXiXlX*X*X*X*X&X%XOX X XOX%X XS.z.( H H U c c F c c c c B Z P P P c c B U U ( &.H B c c Z F V B # # # N 7 # # # @ X X X X X X X X X X     X   X o X # 8 k l c l 8 q Z U U U U U U U X.C l C z 8 C z C k x 8.W.Q.Q.7.-.o.$.8.0.0.0.r.Q.X.x z z k k z n C z C L L L K L C C L L L P L L I P U U I L K C l 8 k l 8 , # @ X   X o @ X @ X X X X X X X     X X         X X X                   X X X X X X X X X X X X X X X @ @ @ @ @ o o o # # # # # # # # # 3 3 3 3 ",
"d.d.d.f.d.d.d.d.d.f.g.g.g.g.g.g.h.h.h.j.g.j.g.g.j.h.h.h.h.h.h.h.g.g.g.h.h.h.h.g.h.g.g.f.d.d.d.d.d.d.d.d.d.d.d.d.d.d.d.d.d.d.j.g.j.j.j.g.g.g.j.h.j.h.h.h.h.h.h.h.h.h.h.h.V.A.A.A.A.G.G.G.G.G.G.G.H.H.G.G.G.G.G.G.G.G.G.L.H.J.J.J.J.J.J.J.J.J.J.J.K.K.}.}.}.}.|.oXoXoX@X@X+X+X+X&X4X4X4X4X4X6X4X4X4X6X6X6X6X7X7X6X6X7X7X7X6X4X6X6X6X6X4X2X2X2X2X2X4X6X6X4X6X7XiXiX7X6X2X2X&X&X&X%X&X%X%X%X%X%X+XOXOX X_.).c.4.=.U V s 6 ; # # # #   X (.LXKXKXKXKXKXKXKXKXKXKXKXKXKXKXKXKXKXKXKXKXKXKXKXKXKXKXmXo w U =.q.4.&.N w U KXKXKXKXKXKXKXKXKXKXKXKXKXKXKXKXLXKX; 5 V U ] F w o nXKXKXKXKXKXKXKXKXKXKXKXKXKXKXKXKXKXKXKXKXKXKXKXKX$X# N &.u.(.OX$X%X XS._.'. X$X=X*X*XiXiXiXuXcXcXcXvXbXbXbXbXnXbXbXnXnXnXnXnXnXnXnXnXnXnXnXvXbX@X5.| } 3.g.A.f.3.<.3...d.f.3.[ ^ ^ ' ~ ~ ~ ~ ) ] ) ~ ~ ~ ] ~ { 5.,.3.}.z.=.S.z.=.,.,.] ( *.D.2X4.] [ z.7X4X4XiX6X4X4X6X6X6X6X6X2X&X&X%X@X@XOX X{.{.{._._.).).D.S.S.S.S.S.S.S.S.e.e.e.6.4.4.4.1.:.=.=.=.=.*.] ] ] &.] ] ] ] ] U H J F S S V s s s s s d V F J J F F F Y J U ] >.4.q.q.w.e.e.e.e.e.y.y.y.c.S.S.S.S.(.(.).).(.(.S.S.y.q.:.:.&.&.&.:.4.:.] Y s s N Y &.:.1.>.&.&.&.` &.&.>.q.u.y.(.S.S.(.(.(.S.S.N.y.F . $ t y y B B B B y 7 y y y 9 7 q c c 9 6 6 2 1 + 1 9 5 6 6 1 1 +                           y e.S.D.D.D.v.z.w.l.c.e.1.=.=.&.U y B &.&.F B U H B B Z U &.+.+.+.*.>.>.:.+.:.:.1.*.&.P =.*.*.*.:.q.(.$X&X*X*X6X6X6X8XlXlX6XiX8X6X*X6X6X6XcXlX6X6X6X*X&X%X%X X X%X%X.X(.z.( F P U F c Z B y y N Z Z P U P c c B P P U &.( B y y c F Z B w # 5 V 6 # o # @ X X X X X X X X X @ X   X @ @ 5 8 8 8 k l C Z K F P P K Z K P X.X.K z 9 8 8 z k z z n m m L L L o.-.7.7.9.9.7.0.7.-.8.o.8 k l z l z C C L K C L v I P L L L A L C L L K P U o.o.K I K K z z l z 8 8 , < o o o X X X X X X X X X         X           X       X X     X   X X   X X X X X X X X X X X X @ @ @ o @ o o # # # # # # # # = = 3 = 3 3 ",
"d.d.d.f.d.d.d.d.f.f.g.g.g.g.g.h.h.h.j.j.g.g.g.g.g.g.j.j.j.j.g.g.j.g.g.g.g.g.g.g.g.g.g.f.d.d.d.d.d.d.d.d.d.d.d.d.d.d.d.d.d.d.d.j.j.j.j.j.j.g.j.j.j.h.h.h.h.h.h.h.h.h.h.h.h.h.A.A.A.G.G.A.G.A.A.G.G.G.A.A.G.G.G.G.H.G.G.G.H.H.H.H.J.J.J.J.J.J.J.K.J.K.}.}.}.}.}.oXoXoXoX@X@X+X+X>X4X4X4X2X4X4X2X2X4X4X6X4X7X7XiX6X6X6X7X6X4X4X6X6X6X6X6X6X6X6X2X2X4X4X4X2X4X6X6X6X2X&X%X%XOX X X X X_._._._._.).).).)._.c.c.w.=.*.U J S B s q 5 ; & X   &.LXKXLXKXKXKXKXKXKXKXKXKXKXKXKXKXKXKXKXKXKXKXKXKXKXKXPX  5 J *.:.=.( s o '.KXKXKXKXKXKXKXKXKXKXKXKXKXKXKXKXKXbXX 5 F &.] J w o nXKXKXKXKXKXKXKXKXKXKXKXKXKXKXKXKXKXKXKXKXKXKXKXKX$X# N &.u._.OXOX X@X).=.*.(.'.$X&X*X*X*X6XiXcXcXcXcXvXbXbXbXnXnXnXnXnXnXnXnXnXnXnXnXnXnXbXbXpX{.3.| | 3.| } 3.<.| | 3.d.x.| ' [ ^ [ 5.z.5.e.1.[ ] ~ ~ ,.2.g.3.6.| g.J.z.4.{.F.{ ,.=.( { [ {.iX X,.,.&X6X6XiX7X6X6X6XiXuXiXiX6X2X&X&X%X@X@XOXOX{.{.{._.).D.D.F.S.S.S.S.z.e.e.e.e.w.6.4.4.4.4.4.1.=.=.=.*.*.*.] ] ] ] ] ] ] ] ] U H J J S V d s s s s s s V V F F F F Y Y F U ` *.>.>.:.:.:.4.4.4.q.q.e.e.y.y.S.S.(.(.S.(.S.S.y.q.:.>.&.&.&.&.*.:.:.` Y J ` &.&.&.:.:.:.:.>.:.>.&.&.>.:.u.u.^.(.S.S.N.S.S.(.S.N.4.t $ 2 t B B B B y y 7 7 c 9 6 9 9 y y y 6 6 6 9 1 + 1 9 6 9 6 & + O     O             O   +   & 1.D.S.D.D.v.z.S.).).).(.c.D.c.e.=.&.=.*.+.U H F F F F F U U ( ( *.>.*.:.1.i.q.e.w.q.:.w.e.c.y.q.(.$X*X*X6X6X6X6X*X8XlXcXcXiXiXcXlXlXlX6XcXcX8X6X8X*X&X%X%X X X$X$X X).e.( G P ( U c c B t q B Z Z P U F c N N Z F F U U F c B B V V y y 5 6 B 6 # o #   X X X X X X X X X @   X   , @ k 8 l c A K K K P U U Z N c N C K Z N N k 0 8 k k n L L L A l l z L L L L L L C L o.L X.L z k k l l z C A A C L L K L A A L L C C C L A L L L K I K I K I L L C C c l 8 3 < O @ o X @ @ @ X X X X         X   X X   X X       X X     X X X X   X X X X X X X X X X X X @ @ o o o o # # # # # # # # # , , 3 3 3 3 ",
"d.d.d.d.d.d.d.g.d.j.j.j.g.g.g.g.g.g.g.g.g.j.h.h.g.g.j.j.j.g.g.g.j.g.g.g.g.g.g.g.g.g.j.d.d.d.d.d.d.d.d.d.d.d.d.d.d.d.d.d.d.d.d.d.j.j.j.j.g.j.j.j.j.g.j.h.h.h.h.h.h.h.h.h.h.h.h.V.h.A.x.x.A.A.A.A.A.G.A.A.G.G.G.G.A.G.H.H.G.G.G.G.G.G.H.J.J.J.J.J.J.J.K.K.K.}.}.}.oXoXoXoXoX+X+X+X1X1X&X1X4X4X4X4X4X2X4X2X4X7X7X7X2X6X6X6X4X2X6X6X4X6X6X6X2X2X2X2X7X6X4X4X2X2X2X&X&X+XOX X).S.c.y.e.e.w.w.w.w.w.w.w.w.4.4.4.:.:.] ] ( U J Y F S V y & #   u.LXKXKXKXKXKXKXKXKXKXKXKXKXKXKXKXKXKXKXKXKXKXKXKXKXLX0 5 V ] *.&.F 6 X CXKXKXKXKXKXKXKXKXKXKXKXKXKXKXKXKXKX$X# q U &.*.P 0 o nXKXKXKXKXKXKXKXKXKXKXKXKXKXKXKXKXKXKXKXKXKXKXKXKX$X# B &.u.(.OX X_.iX+X! . 4.).'.$X*X&X*X6XiXuXcXcXcXvXbXbXnXnXnXnXnXnXnXnXnXnXbXnXbXbXbXbXvX+XA.,.| 3.3.<.3.3.| ' 3.3.H.x.| / ~ ) w.bXbXbXbXbXbXiX@Xz.,.[ [ 3.3.3.| H.6.F.bX6.[ ] { [ ] =.+XBXpX5.4.%XiX6X6X4XuXuXiXiXiXiX6X6X2X&X&X%X+X@XOXOXOX{.{._.D.D.D.F.S.S.S.S.z.e.e.e.e.e.w.4.4.4.4.4.1.1.,.=.=.=.*.*.{ { ] ] ] ] ] ] ] U H J S V B d s s s s y s s V V Z Z Z Z Z Z F U ] ] ] &.&.*.>.:.:.4.4.q.e.u.y.S.S.S.S.y.e.u.4.>.&.] ] &.&.&.&.&.] Y Y &.:.q.:.:.:.:.>.:.:.1.:.>.&.>.:.q.u.y.y.N.N.y.S.c.y.N.S.*.& $ 2 c B B y y y 7 7 7 c 6 2 t c c c y 6 6 5 6 1 1 9 c 6 6 1 # o +     O             O + + . . ( D.D.).D.D.D.).).)._._.).).D.D.c.c.(.(.c.q.1.w.1.1.1.( *.=.1.1.1.1.w.c.c.c.S.S.S.S.c.)._.$X-X_.$X=X*XlX8X6XcXcXcXcXcXcXcXcXcXcXcXcX6X6XlXlX8X8X8X*X&X%X%X XOX$X$X X).e.F B F U ( c y B t 9 B Z Z P F c c Z Z N B B P U P B c A B B y B s s B 6 # # # X X X X X X X X X O X   o @ 8 , C K K C C Z Z Z U U P Z N N C C K A A Z Z K Z K A C P U U U U K C n z K C z C C C L C C z 4 C P z l C C C C C L C C C L L C L L n C L L L A L L K U P K L I I K L C z l k k 8 # X X X X X X X X X X X X X X X X X     X       X X   X X X       X X X X X X X X X X X X @ @ o o o # # # # # # # # 3 , , 3 , 3 3 3 ",
"d.d.d.d.j.j.j.j.f.j.j.j.g.g.g.g.h.g.g.g.h.h.h.h.g.j.h.h.h.h.j.g.g.g.g.g.g.g.g.g.g.g.g.j.f.d.d.d.d.d.d.d.d.d.d.d.j.d.d.d.d.d.d.j.j.j.j.j.j.g.j.g.j.j.j.h.h.h.h.h.h.h.h.h.h.h.h.h.h.h.h.h.A.A.A.A.A.A.G.A.G.G.G.G.A.A.G.G.G.G.G.G.G.G.H.H.J.J.J.J.J.J.J.J.J.K.}.}.}.oXoXoX@X@X+X+X%X+X+X+X1X1X4X4X4X4X4X4X4X4X4X4X4X4X6X4X4X4X4X6X4X6X7X6X4X4X4X4X6X6X4X4X2X2X&X%X+X X_.S.e.4.=.*.&.&.] ] ] ] ] ] ] ] ] *.] U ( U U U U U U U U H S B ; X o mXLXKXKXKXKXKXKXKXKXKXKXKXKXKXKXKXKXKXKXKXKXKXKXKXKX&.& s U ( ( B ; U KXKXKXKXKXKXKXKXKXKXKXKXKXKXKXKXKXKX:.X s ] *.*.P w o nXKXKXKXKXKXKXKXKXKXKXKXKXKXKXKXKXKXKXKXKXKXKXKXKX=X# N ] q.(. X'.F.{.&XH.u d w._.OX$X*X*X6XiXuXuXcXcXvXbXbXnXnXnXnXnXnXnXnXnXnXbXnXbXbXbXbXiXH.g.3.,.3.3.3.| 3.} | 3.3.g.3.{ [ ^ ) 1.%XuXCXbXvXbXbX&X+XbX5.' { g.3.3.F.+XS.{.F.=.[ { ( ] ] ,.D.{.{.,.+X6X6XpXuX6XiXiX6X6XiXiX6X6X6X2X&X&X@XOX@XoX{.{.{._.D.D.D.F.F.S.S.z.z.e.e.z.e.w.6.4.6.4.4.,.1.,.=.=.=.=.=.*.*.{ ] ] ] ] ] ] ( H H J V V B d d B s s B B V V V V V Z V V V F U U U U U ] *.>.:.:.:.1.4.q.q.e.u.e.e.q.4.:.=.&.&.&.*.&.&.*.] U J Y U ] >.>.:.1.:.1.4.q.q.1.:.>.*.&.&.:.q.y.y.y.N.y.S.S.y.y.S.U % : 6 c c y c y y 7 t t y 9 9 c c c c y 7 6 9 1 1 9 y A 6 6 1 # # o + O O           O @ 1 + .   d S.).D.D.D.D.).).)._.).).).).S.D.).).D.).).D.S.c.c.(.w.w.e.e.e.e.l.z.D.).).).).)._.'. X$X$X%X%X%X*XlXlXlXlXcXcXcXcXcXcXcXcXcXcXcXcXlXlXcXlXuX8X8X*X*X&X%X$X$X$X$X X(.e.G u F H ( Z c B y y B Z Z Z A 9 N P F B y y V H H Z B Z Z B q B F F V 6 ; # 3 o @ @ @ @ X X X X @ X # # 8 8 z I K K Z Z A A V F F V c N Z P P K A A P Y A A P I P Z K P U #.X.K L n C z 3 0 b l n b 8 8 k X.r.L z v z C z m L L z z C L C C L z C C A A A K L L L I X.I I L I I X.K C l k k l k @ X X   X X     X X X X X X X X     X       X X   X X X       X X X X X X X X X X X X @ @ o o o # # # # # # # # , , , 3 , 3 3 3 ",
"d.d.j.d.j.j.j.g.f.j.j.j.g.h.g.g.h.j.j.j.h.j.g.g.f.g.g.g.g.j.j.g.j.j.j.g.g.g.g.g.j.j.j.j.f.f.d.d.d.d.d.d.d.d.d.d.j.d.d.d.d.j.j.j.j.j.j.j.j.j.j.g.j.j.j.j.h.h.h.h.h.h.h.h.h.h.h.h.h.B.h.h.A.A.B.B.A.A.A.A.A.A.A.G.A.G.A.A.G.G.G.G.G.G.G.G.J.J.J.J.J.J.J.J.J.J.}.}.}.}.}.oXoX@X@X+X+X+X+X+X%X1X1X4X1X4X4X4X4X4X4X4X4X4X4X6X4X6X6X4X7X7X7X6X6X6X6X6X4X4X4X4X6X2X&X%XOX).y.q.=.( J V N N s s s s s s N N N w q N y s y s s V J U ] *.( U y #   (.KXKXKXKXKXKXKXKXKXKXKXKXKXKXKXKXKXKXKXKXKXKXKXKXKXu.# w J U F 7 # ].KXKXKXKXKXKXKXKXKXKXKXKXKXKXKXKXKXLXo w N &.1.*.P w o nXKXKXKXKXKXKXKXKXKXKXKXKXKXKXKXKXKXKXKXKXKXKXKXKX=X# s ] 4._._._._.D.oX{.[ r ] y._.OX&X&X*X6XiXiXuXcXvXvXbXbXnXnXnXnXnXnXnXnXnXnXnXbXbXbXpX&XF.g.f.3.3.3.d.f.3.3.| ' } g.3.' [ [ ) ] w.vXbXbXnXbXiX6XiXuXF.[ <.3.g.g.A.gXe.4.5.] ( ] ( ] ! ] [ 5.1.| 1.&XiX6XpX&XiXuX6XuXiXiXiX6X6X2X2X&X%X@X@XOX{.{.{._.D.D.D.F.F.S.S.S.e.e.z.z.e.w.w.e.5.6.4.4.,.1.,.=.=.=.*.=.*.{ ] ] ] ] ] ] ] ( H H J F S V B B B N B B B V V B B V V V V Z Y Y J U U U ] &.*.>.>.>.:.:.4.q.q.q.4.:.:.>.=.>.:.:.:.=.>.>.*.] U Y U ` &.>.1.q.4.q.q.q.1.:.>.*.>.>.>.:.q.u.u.y.y.y.y.y.S.y.y.F % : t c c y B B y 9 t t t t y B c y y 9 6 9 9 1 1 9 c Z 6 6 5 # # o + o           O @ < 1 + + . 6 e.).D.D.D.[.[.[.).). X[.).[.{.).).).[.)._.).).).).).).c.c.(.).)._._.[.[. X X X X X X X$X$X%X&X&X8XlX6XcXcXcXcXcXcXcXvXcXcXcXcXcXlXlXlXcXcXcXlX8X8X*X&X&X$X.XOX.X_.D.z.G u G F U F B B c N V Z Z Z C c Z P P B y y y F H P Z Z A B q B H F B w 5 & 5 o @ @ @ X X X X X X O 3 , k , C P P Z Z Z A V V Y C V V Z U U P C N q N U :.u.q.7.q.:.P z I X.K P L C X.9.7.U n b 8 l 8 L :.7.r.o.z C m L z L 7.t.7.I 8 k C C C L C C A A C C C Z K K L L P U I A A K I K K C z k 5 # @ X   X     X X   X     X X X           X X X X X X X   X X X X X X X X X X X X X @ @ o o o # # # # # # # # # , # , , 3 3 3 ",
"d.d.d.d.d.j.j.j.j.g.j.g.h.h.g.g.g.g.h.h.j.g.h.h.j.g.h.h.g.g.g.j.g.g.g.g.g.g.g.j.g.j.j.d.d.d.d.d.d.d.d.d.d.d.d.d.d.d.d.d.d.j.j.j.d.j.j.j.j.j.j.j.j.j.j.j.h.h.h.h.h.h.h.h.h.h.h.h.h.h.h.h.B.B.h.B.A.A.V.h.V.A.A.A.A.A.A.A.G.G.G.G.G.G.G.G.G.L.J.H.J.H.J.J.J.J.J.}.}.}.}.}.oXoXoXoX+X+X+X+X+X>X1X4X1X1X4X4X4X4X4X4X4X4X4X6X6X7X6X4X7X7X4X4X7X6X6X4X7X6X6X7X6X2X&XOX'.c.4.&.Y s w 5 3 # # # # o o # # o # # 3 o # # # # 5 6 s F ( ] *.] H s X N KXKXKXKXKXKXKXKXKXKXKXKXKXKXKXKXKXKXKXKXKXKXKXKXKX(.# 5 V F s ; X nXKXKXKXKXKXKXKXKXKXKXKXKXKXKXKXKXKXmXo 5 U &.:.*.P 6 o nXKXKXKXKXKXKXKXKXKXKXKXKXKXKXKXKXKXKXKXKXKXKXKXKX$X# q ( 4.S._. XS.z.{.J.g.,.J ] S.'.$X*X*X*X*XiXuXcXvXvXbXbXbXnXnXnXnXnXnXnXnXnXnXnXbXbXpXoXA.3.d.3.3.<.d.d.| | ' { f.f.} { 5.[.=.[ *._.bXbXbXbXbXbXbXbXOX[ | 5.5.g.g.D.5.4.4.[ ] [ [ ! ] ] ,.D.[ ,.=.w. X5.{.+X2XiX2X6XuXiXiXiXiXiX2X4X%X@X@XOX{.{.{._.D._.D.F.F.F.S.S.S.z.e.e.e.e.w.5.5.6.6.4.4.,.,.,.=.=.=.*.*.{ *.*.] ] ] ] ] ] ] U U J S F V B B B d B B V V B B B V V V V V V F J U U U U ] *.=.*.*.=.>.:.:.:.:.:.:.:.:.4.4.4.q.w.w.:.] ] ] U Y U &.:.i.4.4.i.1.:.:.:.>.>.>.*.*.:.q.q.q.e.e.u.y.y.y.u.q.F . * y c c c c y 6 2 t y t t c B c t 6 5 5 6 6 1 1 6 y c & 6 5 1 # # + +           O @ , 1 2 @ . % 1.D.).D.D.{.[.[.{.[.{.[.{.{.{.[. X X).{.). X_.)._._.).).)._._.). X X[. X X X X X X$X$X%X&X&X8X6X8X8XcXcXcXcXcXvXvXvXcXcXcXcXcXcXlXlXlXcXcXcXcX8X6X*X*X&X%X X X X XD.z.G u B y F F F B c B Z Z Z A C A P F F B y t t y F U P P A N y c F B B w 0 5 5 # @ @ @ X X X X X X , 8 z l < C K P Z A Z A N Z J N Z P F Z Z A c l 8 &.y.u.(.].r.+.-.-.I A I C C L $.W.xXPXGXxX=X#X].#X*X=X-.-.z z C z z z X.].mXPXmX`.-.U L z z L C C C C C Z Z L K C L I X.I L L I I L K K L v p w # X X X X   X X X       X X X X X       X X   X X X X   X X X X X X X X X X X X X @ @ o o o # # # # # # # # # # , # , , 3 3 ",
"j.d.d.d.j.j.j.j.j.g.g.j.j.j.j.h.g.g.g.h.h.g.j.j.j.h.j.j.g.g.j.d.d.g.h.g.g.g.g.g.f.g.f.d.d.j.j.d.d.d.d.d.d.d.d.j.d.j.j.d.d.d.d.j.d.d.d.j.j.j.j.d.j.j.j.j.j.j.j.h.h.h.h.h.h.h.h.h.h.h.h.h.B.V.V.B.B.B.B.h.V.V.A.G.V.V.A.G.G.G.G.G.G.G.G.G.G.G.H.H.J.J.J.J.J.J.K.K.}.K.}.}.}.}.oX@X@X+X+X+X+X+X>X4X4X4X1X4X4X4X&X4X4X4X4X4X4X6X6X6X7X7X7X7X6X4X4X4X6X6X4X7X4X2X&XOX).w.*.Y *XcX*X*X*X*X*X*X=X=X=X=X*X*X*X*X*X*X*X*X*X*X*XiXcX'.V ] *.=.( d ;   PXKXKXKXKXKXKXKXKXKXKXKXKXKXKXKXKXKXKXKXKXKXKXKXKX$XX 5 q B q o Y LXKXKXKXKXKXKXKXKXKXKXKXKXKXKXKXKXKX'.X w P &.=.] Z w X nXKXKXKXKXKXKXKXKXKXKXKXKXKXKXKXKXKXKXKXKXKXKXKXKX$Xo 0 U :.e.S.(.S.e.D.A.J.D.D t :.].$X&X&X6X6X6XiXcXcXcXbXbXbXbXnXnXnXnXnXnXnXCXbXbXbXbXaXD.A.f.3.3.f.5.3.<.| ' { <.A.3.} [ {.vXe.*.[ ,.&XbXCXbXnXbXuXOXOX=.} 3.g.6.| <.,.,.4.^ [ { =.( ] ] 5.+X4XD.,._.4.4.%XuXiXvXuXuXuXiX6XiX6XiX2X6X&X%X@XOX{.{.{._._._.D.D.F.D.F.F.S.S.z.z.e.e.e.5.5.6.6.4.4.1.1.,.=.=.=.=.*.[ *.[ =.*.] ] &.] ( ( U U J F F F F V V V V V V B B V V V V V V V Z Z Y Y Y U U ` ] ] ] ] &.>.:.:.:.4.q.4.q.e.y.y.y.y.q.1.] ] ` U Z P ] >.:.1.:.>.>.>.&.&.&.&.&.&.*.>.:.:.1.4.q.q.w.q.q.q.4.G $ 2 c c y y c y 6 t 6 t 9 6 B F y t 6 2 2 6 6 6 & 6 q 5 6 5 & & 1 1 1 + O     O O @ , 1 1 < + + + *.c.).).[.{.{.{.{.{.{.{. X X{. X{. X X X{.[.[. X X X_.[._._._. X X X XOX X X X X$X$X$X&X*X8X6X8X8XcXcXcXcXcXcXvXvXvXvXcXcXcXcXcXlXcXcXcXcXcX8X8X6X*X&X&X%X X X X X).e.J t B t c F F c c B B B B Z Z Z F F F F y 7 7 y B H U P Z c c v F B q 7 w 0 6 5 # @   X @ X o   , , 8 C c C C C P P A A N s U U Y A U P P P Z N q X.].y.y.u.:.q.q.>.>.X.P K K v o.r.].=XGXGXFXGXGXFXmXmXW.o.o.L v v C L k ;.].FXKXKXKXGXmX`.-.z k 8 0 0 b b n z b b l k I W.#.I U I L L K I I K C 8 l   X   X   X X X X     X X             X X     X X X X X X X X X X @ @ @ @ X X X @ @ @ @ o o o o # # # # # , , , , 3 3 3 3 ",
"j.j.d.d.g.j.j.j.g.g.j.h.j.j.h.h.h.g.g.h.h.j.g.j.j.j.j.j.g.g.g.j.j.j.g.h.g.g.g.g.g.g.g.d.j.j.j.j.d.d.d.d.d.j.j.j.d.j.j.j.d.g.g.j.g.j.d.d.d.d.j.j.j.j.j.j.j.j.j.j.h.h.h.h.h.h.h.h.h.h.h.h.h.h.B.B.h.B.B.B.V.V.A.G.V.V.A.G.A.A.G.G.A.A.A.G.G.G.G.G.J.J.J.J.H.J.J.J.K.K.K.}.}.}.oXoXoX+X+X@X+X+X+X+X>X>X>X1X1X1X4X4X&X4X4X4X4X4X6X4X4X4X4X6X4X4X4X4X4X4X6X7X4X&X%X XS.1.U V CXKXKXKXKXKXKXKXKXKXKXKXKXKXKXKXKXKXKXKXKXKXKXKXKX*XV J *.=.] S 5   nXKXKXKXKXKXKXKXKXKXKXKXKXKXKXKXKXKXKXKXKXKXKXKXKX=X  # 6 6 ; # ].KXKXKXKXKXKXKXKXKXKXKXKXKXKXKXKXKXKX*.# 5 N U ( H N # X nXKXKXKXKXKXKXKXKXKXKXKXKXKXKXKXKXKXKXKXKXKXKXKXKX$XX 5 A ( 4.q.e.y.w.z.}.}.A.] u *.).'.%X&X*X6X6XiXcXcXcXbXbXbXbXbXnXnXnXnXnXnXCXbXbXbXvX+XF.g.d.d.g.f.3.<.<.3.,.3.3.x.3.{ 3.iXvXvX=.[ *.4.bXbXbXnXnX&X5.F.,.' 3.3.g.,.| =.,.,.[ [ ] [ ] ] *.5.4XpXz.=.D.S.F.uXvXbXuXuXiXuXvXuXuXiXiX6X6X2X&X%X@XOXOX{.{.{._._.D.D.D.F.F.F.S.S.z.z.e.e.e.5.5.6.6.4.4.,.1.,.,.=.=.*.*.*.*.=.*.*.*.&.] ] ( ( U U U U U J J Y F Z Z Z V V V N V V V V V V V B V V Y Y U U U ] ] ] ] &.>.:.4.e.u.y.N.S.S.S.S.y.y.4.>.] U Y U U ` &.>.&.&.U U U U U U U ` ] &.&.&.>.>.:.:.:.:.:.:.=.G $ : c c c c c y t t t y t y B B y y 6 & & 6 7 6 & 6 7 6 6 5 1 & 1 1 1 # O O   O O < , 1 1 + + + o &.c.).).).[.{.{.{.{. X X{. X X|.|. X X X X X X X X X X X X X X X X X XOXOX X X.X$X%X%X*X2X8X8X8XcXcXcXcXcXcXcXvXvXvXvXcXcXcXcXcXlXcXcXcXcXlX8X8X6X*X&X&X%X X X X_.D.z.( t y t y c Z B B Z B c c Z Z Z F F F B y t 7 t B F H P B c c c V c q q 6 q y q w 8 , o o o # o o , 8 C K C C K A A A N V Z Z Z N s Y U &.U &.U U :.(.7.:.:.:.:.q.>.&.U P K K Z X.7.r.r.`.kXFXGXFXW.7.7.-.X.o.z z v C v z 7.].=XPXKXKXLXLXLXmX=X`.r.7.;.X.l 4 k z < 3 P -.^.X.L P P K K K K K K K C Z O X X @   X X X X                     X X     X X X X X X X X X X @ @ @ @ @ X X @ @ @ @ o o o o # # # # # , , , , 3 3 3 3 ",
"j.f.f.d.d.j.j.j.g.g.j.h.h.h.h.h.h.h.h.h.j.j.j.j.j.g.h.j.g.h.h.j.j.j.j.j.j.h.j.g.g.g.g.j.j.j.j.d.d.d.d.d.d.d.j.j.d.j.j.d.d.g.g.d.j.j.g.j.j.d.j.j.j.j.j.j.j.j.j.h.h.h.h.h.h.h.h.h.h.h.h.h.h.h.B.B.B.A.V.B.V.h.h.h.V.V.G.G.h.x.G.G.G.G.A.G.G.G.G.G.G.G.G.G.G.J.J.J.J.J.K.K.K.}.}.oXoXoXoXoXoX@X+X+X+X+X:X%X%X&X&X1X>X1X4X4X4X4X4X4X4X2X4X4X6X4X4X6X6X4X4X7X4X&X%X_.e.=.Z ; CXKXKXKXKXKXKXKXKXKXKXKXKXKXKXKXKXKXKXKXKXKXKXKXKX*X7 F ] =.] F w   cXKXKXKXKXKXKXKXKXKXKXKXKXKXKXKXKXKXKXKXKXKXKXKXKX*Xo # & & o   nXKXKXKXKXKXKXKXKXKXKXKXKXKXKXKXKXKXPXX # 5 q V B y w # X nXKXLXKXKXKXKXKXKXKXKXKXKXKXKXKXKXKXKXKXKXKXKXKXKX'.X 5 p Z &.=.4.4.4.6.{.}.A.=.d S e.OXOX%X&X6X6X6XcXcXcXvXbXbXbXbXbXbXnXnXnXCXbXCXbXbX6XoXz...d.g.g.<.3.,.} | 3.| 3.g.| [ z.pXbXbX X,.[ [ z.bXCXbXnXvXbX4X,.,.g.6.5.,.,.4.4.{ [ ,.[ { ] ,.*.) 6.D.6.[ { e.6XBXvXpXbXvXpX6XuXiXuXuXuXuXiX6X&X&X+X@X X{.{.{._._._._.D.D.D.F.F.F.S.z.z.z.e.e.5.5.6.6.4.4.,.1.,.,.=.=.=.=.*.=.*.*.*.*.&.] ] ] ( U U U U U U U U P J J F Z Z N N V V V V N N V V V Z Y Y U U U U ` &.>.:.1.q.q.e.N.S.(.S.S.S.y.S.e.4.&.U Y Z Y Z Y U U Y Z Y Y Y Y Y Y Y U U U ` ] &.&.*.*.*.&.&.] B $ r v c c y c y t y t y y c c y 9 6 6 & & 6 t 7 & 6 7 6 5 5 5 5 6 9 1 , + O     O , 1 1 < + + . . ( c.D.).).[.{.{.{. X X X X X|. X X X X X X X X X X X X X X X X X X XOXOX$X$X$X$X%X&X&X*X8X8X8XcXcXcXcXcXcXcXcXcXvXcXcXcXcXcXcXcXlXlXlXcXlXlX8X8X6X*X&X&X%X X X X).S.c.=.u t u t t c B B Z B y c Z Z B B B B B c y t y B F P P Z c c c c y q 6 6 y Z P 0 q 0 w 0 l N q w , O 5 C N N Z A A A A V Z N B V V U U &.&.>.>.&.&.&.U U U U U U V N V s N Z P U U X.;.0.^.kXGXkXL m o.+.P v L C v C z z 7.W.W.=XmXPXPXGXLXLXLXKXLXPXPXnX=X`.W.].W.W.W.7.q.C L K I P K K K K K K K P O     @   X X X X                     X X       X   X X X X X X X @ @ @ X @ @ @ @ @ @ o o o o o # # # # # , , , 3 3 3 3 3 ",
"g.j.f.f.g.g.j.j.g.g.j.h.h.g.h.g.g.h.h.h.j.j.h.h.h.h.h.h.h.h.j.j.j.j.j.j.j.h.j.j.j.g.g.j.j.j.j.d.j.j.j.d.g.j.j.j.d.j.j.d.j.g.j.d.d.j.j.j.j.j.j.j.j.j.j.j.j.j.j.j.h.h.h.h.h.h.h.h.h.h.h.h.V.V.B.B.h.h.V.V.h.h.h.h.h.h.G.G.V.G.G.G.G.G.G.G.G.G.G.G.G.G.G.G.G.J.J.J.J.J.J.J.K.}.}.}.oXoXoXoXoXoXoXoX+X+X+X+X+X+X+X+X%X>X4X4X4X4X4X4X4X4X4X4X4X4X4X4X7X4X4X4X4X&X%X_.e.*.Z # CXKXKXKXKXKXKXKXKXKXKXKXKXKXKXKXKXKXKXKXKXKXKXKXKX*X& B ( *.] S w @ =XKXKXKXKXKXKXKXKXKXKXKXKXKXKXKXKXKXKXKXKXKXKXKXKXcX  o o o   Z LXKXKXKXKXKXKXKXKXKXKXKXKXKXKXKXKXKXcX    X # 5 q ; X X   nXKXKXKXKXKXKXKXKXKXKXKXKXKXKXKXKXKXKXKXKXKXKXKXKX'.X X # 7 s J ] =.=.,.F.D.g.{ ] ] q.).OX%X&X&X*X6XiXcXcXcXbXbXbXbXbXbXnXnXnXnXbXbXCXvX&XA.3.} d.g.g.3.3.3.3.} <.3.g.3.| ,.{.BXCXvXuX1.*.[ *.S.bXbXbXCXbXF.| [ 6.3.6.<.e.6.=.~ [ e.[ [ ] =.[ [ ] [ 6.iXD.5.F.F.uXOX).uXuXuXvXiXuXuXuXuXiXiX6X&X&X@XOXOX{.{.{._.{._.D.D.D.D.F.F.F.S.z.z.z.e.e.5.6.4.4.4.4.1.1.,.,.=.=.=.*.*.*.*.*.&.&.&.&.] ] ( ( ( ( U U U U U U J J Z V V V V N N N N N N B V V Y Y F J U U &.&.:.1.q.q.u.y.N.S.(.(.(.(.S.S.y.w.1.&.U V V s s B B B N N s s s s B V Y Y P U U U ` ] ] ] ] U U B % : c c y y c y t y t y y B c c y ; 6 7 6 t y t 6 6 7 6 6 6 9 6 9 9 5 1 + O O O @ , 2 1 < + + . + B c.D.).[.{.{.{.|. X X|. X X X X X.X X X X X X X X X X X X X X X XOXOXOX%X$X%X%X&X*X*X8X6X8X8XcXcXcXcXcXcXcXcXvXvXvXcXcXcXcXcXcXcXlXlXcXcXcXcX8X8X8X*X%X+X X X X).c.c.w.J t u t t c c c B B y y B B B c c B B B c c c B Z P P F F Z c c q q 6 & 6 c Z Z Z B 0 0 N P P N q 8 8 N l N c A A A A s q A V p P &.&.*.U ( U U P A N q 0 q y B s B J V N Z U U Z P U -.9.].FX#X$.o.z z C z z z z L C x L $.8.Q.$XFXmXGXLXPXGXLXLXLXLXLXLXPXFXFXmXFX#X7.$.z A K K P P K K K K K K P X   X X   X X X                       X         X   X X X X X X X X X X X X @ @ @ @ @ o o o o # # # # # # # = = = = = = = ",
"j.f.g.g.g.g.j.g.g.g.g.j.h.g.g.g.j.h.h.h.h.h.h.g.h.h.h.h.j.j.j.j.j.j.j.j.j.j.j.h.j.j.j.j.j.j.j.j.j.d.j.d.j.d.j.j.j.j.g.j.g.j.g.j.j.j.j.j.j.j.j.j.j.j.j.j.j.h.h.h.j.j.h.h.h.h.h.h.h.h.h.V.V.h.h.h.h.h.h.h.h.h.V.A.V.h.V.G.V.G.G.G.G.G.G.G.G.G.G.G.G.G.G.G.J.J.J.J.J.J.J.J.K.K.}.}.}.}.}.oXoXoXoXoX+XoX+X+X+X+X+X+X+X%X4X4X4X4X4X&X4X4X4X4X4X4X4X4X4X4X2X4X4X2X+X_.w.( y # nXKXKXKXKXKXKXKXKXKXKXKXKXKXKXKXKXKXKXKXKXKXKXKXKX=X# B ( *.] S w o $XKXKXKXKXKXKXKXKXKXKXKXKXKXKXKXKXKXKXKXKXKXKXKXKXmX  X o X X (.KXKXKXKXKXKXKXKXKXKXKXKXKXKXKXKXKXKXy.@   X X   #   X   X mXKXKXKXKXKXKXKXKXKXKXKXKXKXKXKXKXKXKXKXKXKXKXKXKX'.X   # # 5 B V U *.=.z.z.6.4.] H 4._.OX%X%X&X&X6XiXuXcXcXvXvXbXbXbXbXbXnXnXnXCXbXCXpX6XJ.x.g.g.h.f.g.f.f.5.| 3.d.g.<.{ ,.&XbXbXbXpX+X,.,.[ [ z.{.6XbXvX{.[ [ 3.6.5.3.e.=.] [ ,.S.[ ] ] { ,.] ] ^ { ,.S.D.{.D.5.&XbXbXvXbXbXuXvXbXvXbXuXuXiX6X2X%X@X@XOXOX{.{.{._._.D.D.D.D.F.F.S.S.z.z.e.e.5.5.5.5.4.4.4.1.1.1.:.:.=.*.*.*.*.*.&.&.&.&.&.] ( ( ( ( ( ( ( U U U P J Z Z V V N N N N N N N B V V V Z Y U ` ] &.>.:.4.q.u.y.y.S.(.(.(.(.S.S.S.y.e.w.:.&.Z s s p p s s s q q p p p p s B V Z Z Y P P U U U U U U V & : c c c y y y y y y y B F B V B 7 7 t 6 y y t y y t 7 7 q q 9 9 9 8 1 + O O O < 1 1 , + + + + + 6 w.D.).).[.{.{. X X X X X X X X X.X X X X X X X X X X X X X XOX XOXOX%X%X%X%X&X*X8X8X8X8X8X8XcXcXcXcXvXvXvXvXvXvXcXcXcXcXcXcXcXcXcXlXcXcXcXcX8X8X8X2X%XOX X X X).c.S.c.( t t t y y y y y c y y y y y y c c B B B B Z Z Z P P F P P B 0 9 q 9 1 1 6 9 y Z P Z N q Z P Z A N N N q A q A N q N s N Z A U >.>.&.U Z Z N s 0 5 5 0 N s s V F J U F V Y U &.U U P U >.u.$XQ.+.L z C z z v C l z z L m x L W.$XmXmXPXPX`.-.7.W.=XmXmXmXxXFXmXmXFXW.7.X.L z C K K P P P K K K K K   X X X X                             X             X X X X X X X X X X X X @ @ @ @ @ @ o # # # # # # # # # # # = = = = = ",
"g.g.g.g.g.j.h.h.j.g.h.h.h.h.h.h.h.h.h.h.h.h.h.h.h.h.h.h.h.g.j.j.h.h.h.h.j.j.j.h.j.j.j.j.j.j.j.j.d.d.j.d.j.d.j.j.j.j.j.j.g.h.h.j.j.g.j.j.j.j.j.j.j.j.j.j.h.h.h.h.j.j.h.h.h.h.h.h.h.h.h.h.h.h.h.h.h.h.h.h.h.h.h.V.V.h.V.G.V.G.G.h.A.A.G.G.G.G.G.G.G.G.G.G.H.G.H.J.J.J.J.J.J.K.K.K.K.}.}.}.}.}.oXoXoX+X@X+X+X+X+X+X+X+X>X4X1X4X4X4X4X4X4X4X2X2X2X2X2X2X2X4X4X&XOXS.w.] y # nXKXKXLXKXKXKXKXKXKXKXKXKXKXKXKXKXKXKXKXKXKXKXKXKX$XX y U [ ] S q # '.KXKXKXKXKXKXKXKXKXKXKXKXKXKXKXKXKXKXKXKXKXKXKXKXnXo   X X   mXKXKXKXKXKXKXKXKXKXKXKXKXKXKXKXKXKXKX].u.y.y.(.(.(.(.y.y.y.nXKXKXKXKXKXKXKXKXKXKXKXKXKXKXKXKXKXKXKXKXKXKXKXKXiXy.y.(.]._. X(.Y U ] 5.z.6.4.*.( :.).'.OX%X&X*X6XiXiXuXcXvXvXbXbXbXbXbXnXnXnXCXBXbXbXpXA.f.3.<.d.<.g.g.3.f.<.| h.g.| } 5.pXbXBXbXCXvXz.[ ,.[ ,.[ [ [ [ [ [ { ,.g.3.e.3.[ [ [ ,.S.[ [ [ =.,.[ ] ] [ =.] 4.{.4X4.2XbXCXbXbXbXvXbXbXvXbXbXbXuXuX6X&X%X@X X{.{.{.{._._._._.D.F.D.F.F.S.c.z.e.e.e.w.w.w.4.4.4.4.1.1.1.:.=.*.=.=.*.*.*.&.&.] &.&.] ( ( ( ( ( U U U U P J Y Z V V N s s s N N V B V V V Y U ` &.&.*.:.4.q.q.y.y.y.N.S.S.(.S.N.S.S.y.e.w.4.>.U V s s 7 p q q q 7 7 q q p s s s N A V A Z Z Z Z Z Z Y Z t : y v B y y y y c c c B F V c B d t : 7 y t t y y y 7 6 q y q 9 9 5 1 + O + @ , 1 1 , + + + + + & 1.D.).).[. X{.{. X X X.XOXOX.X.X.XOXOXOX X X X XOX X X X XOXOXOXOXOX%X%X%X&X2X2X8X8X8X8X8XlXcXcXvXvXvXvXvXvXvXvXcXcXcXcXcXcXcXcXcXlXlXcXcXcX8X8X6X2X&XOX X{. X).S.D.c.*.u t t y y y y y y y y t 7 t y y c B B B B B Z Z Z A Z P P Z q 9 q 9 6 6 9 6 q c V Z N 0 N P Z q q A N q A q Z q N q A U A N P U U U Z Z N q w 5 5 6 y N y N Z Z Z F F J U U &.&.&.&.&.( &.q.7.-.A z z z z z z C C z L m z o.^.=XxXmXPXPXW.8.o.X.8.8.8.r.`.kXmXmXGXr.7.L L C v C K K P P K K K K Z X X X X X                             X X       X X X X X X X X X X X X X @ @ @ @ @ @ o o # # # # # # # # # # = = = = = = ",
"f.g.g.g.j.g.j.h.g.g.h.h.h.h.h.h.h.h.h.h.h.h.h.h.j.g.h.h.h.j.g.h.h.h.h.j.j.j.j.h.j.j.j.j.j.j.j.j.j.g.g.h.j.j.g.j.j.j.j.h.h.j.j.h.j.j.j.h.h.h.j.j.j.j.j.j.h.h.h.h.j.j.h.h.h.h.h.h.h.h.h.h.h.k.h.h.k.k.h.h.h.h.h.h.V.V.V.A.h.V.V.h.A.A.G.G.G.G.G.G.G.G.G.G.G.G.G.L.J.L.J.J.J.J.J.J.K.K.}.}.}.}.}.oXoXoXoX+X@X+X+X+X+X+X+X%X%X>X4X4X4X1X2X4X2X2X2X4X2X2X4X4X2X&XOXS.4.U q X nXKXKXKXKXKXKXKXKXKXKXKXKXKXKXKXKXKXKXKXKXKXKXKXKX=X# y U ] ] J y o '.KXKXKXKXKXKXKXKXKXKXKXKXKXKXKXKXKXKXKXKXKXKXKXKXnXX     o   nXKXKXKXKXKXKXKXKXKXKXKXKXKXKXKXKXKXKXKXKXKXKXKXKXKXKXKXKXLXKXKXLXKXLXKXKXKXKXKXKXKXKXKXKXKXKXKXKXKXKXKXKXKXKXKXKXKXKXKXKXKXnXs V ] 4.F.H.,.d ] w.).'.OX%X&X&X6X6XiXiXuXcXvXbXbXbXbXbXnXnXbXCXbXCXpXiXg.g.g.d.h.g.g.3.<.|  .3.f.3.| } F.bXbXbXbX2X{.{.5.[ [ [ [ [ ,.[ [ [ [ 5.g.z.g.3.=.=.{ 4.S.{ ,.=.,.,.[ ~ ] ] ( =.D.4X_.1.uXCXvXCXbXnXbXbXvXvXvXbXvXvXuXiX2X&X%XOX X{.{.{._.{.{.{.D.D.D.D.F.F.S.z.z.e.e.e.e.w.5.4.4.4.4.1.:.:.:.:.=.=.*.*.*.*.&.] &.] ] ( ( ( ( ( U ( U U J J F Z V V s s s s s s d s d V V V U ] &.>.:.1.q.q.u.y.y.y.S.S.S.(.(.(.S.S.S.y.e.4.:.&.U V s 7 s 7 q q w 0 q q q q q q s s N N A V V V A A V V y 6 y B B y c c c c c c c B B y s d 7 & 7 y y y c c 7 6 5 q y q 9 9 8 1 < + @ # , , 1 + + < @ O + % ,.D.).).{.{.{. X X X X.X+X+XOXOXOXOXOXOXOXOX.XOX X X X XOXOXOXOXOXOX%X%X%X&X&X2X8X8X8XlXcXcXvXvXvXvXbXbXvXvXvXvXcXcXcXcXcXcXcXcXcXcXlXcXcXcXcX8X6X*X&XOX[.[. X).D.).(.1.u y 6 y t y y t t y y y 7 6 q y y c c c c c c v c c c A A Z c q 9 6 5 6 6 6 q q c Z A q 0 0 0 N A P A q q N A N A N Z P p V &.U Z s q q w w y N Z A B w q N V N N y s N N V A F J F B B V Z K P C A C C v v c C c k n n z o.^.kXkXmXLXGXW.!.L L o.m L r.`.xXmXFXFX7.8.C z C v v C A K K K P K K K   X X                                 X X     X X X X X X X X X X X X X X X X @ @ @ @ o o # # # # # # # # # # # # = 3 = = ",
"g.g.g.g.g.g.g.h.j.g.h.h.h.h.h.h.h.h.h.h.h.h.h.h.h.h.h.h.h.h.h.h.h.h.j.h.j.j.j.j.h.j.j.j.j.h.h.h.h.h.j.h.j.h.j.j.j.j.j.h.j.j.j.j.h.h.h.h.h.h.j.j.h.h.h.h.j.j.j.j.h.j.h.h.h.h.h.h.h.h.h.h.h.k.k.h.h.h.h.h.h.h.h.h.V.h.V.h.h.h.A.A.A.G.G.G.G.G.G.G.G.G.G.G.G.G.G.G.G.L.H.L.J.J.J.K.J.K.K.K.}.}.}.}.oXoXoXoXoX@XoX@X@X+X+X+X+X+X%X+X1X1X1X2X1X1X2X4X&X4X4X4X2X%XOXS.4.( q   nXKXKXKXKXKXKXKXKXKXKXKXKXKXKXKXKXKXKXKXKXKXKXKXKX$X& q U ] ] J t X '.KXKXKXKXKXKXKXKXKXKXKXKXKXKXKXKXKXKXKXKXKXKXKXKXnX  o       nXKXKXKXKXKXKXKXKXKXKXKXKXKXKXKXKXKXKXKXKXKXKXKXKXKXKXKXKXKXKXKXKXKXKXKXKXKXKXKXKXKXKXKXKXKXKXKXKXKXKXKXKXKXKXKXKXKXKXKXKXKXnX5 s ( 1.F.z.4.S ( e.(.OX+X%X%X&X*X6XiXuXuXcXvXbXbXbXbXbXbXnXnXvXCXDXbX@X5.f.g.g.x.d.<.| | <.3.h.d.| ' ,.uXBXbXbXbXuX+X4Xv.[ [ [ [ [ [ [ ] [ ,.3.g.J.F.6.=.=.{ 5.F.{ 4.4.,.,.,.[ ] ] ] ] S.iXc.F.%XOXuX_.cXbXbXbXbXbXbXbXbXvXvXuXiXiX4X+X@XOX{.{._.{.{.{._.D.D.D.F.F.S.z.c.z.e.e.w.w.5.w.4.4.4.1.:.:.1.:.=.=.*.*.*.*.*.] ] ] ] ] ( ( ( U ( ( U U J J F Z V V s s s s s s s s d V V F U ] =.:.1.4.w.u.u.y.y.y.y.y.c.S.S.S.S.y.y.y.y.4.:.*.` Y d s N w w w w w w 0 0 0 0 w w w q p N N N N A A N V B : y B y y c B Z B y 9 y y B s y y 6 6 y s y y c c 6 1 & 7 y q 9 9 9 8 1 + + , , + + + + < +   X o *.v.D.).[.[.{.{. X X X.XOX+XOXOX+XOX+X+X+X+X+XOXOXOXOX XOXOXOXOXOX%X%X%X%X%X&X2X8X8XlXlXlXcXcXvXvXbXbXbXbXbXvXvXcXcXcXcXcXcXcXcXcXcXlXcXcXcXcXuX6X*X&XOX X[.[.).(.).).1.G c t t 6 c y y t y y d y 6 7 7 9 y y c c 9 y c c c c 9 9 c c q 0 q q c B c c q 9 N N 0 0 w 0 A N N N N q N q N q A Z 0 w U P Z A 0 q 0 ; w w N B s Z U U F Z N V s N s w s s s V U P F U F V N A Z A L C v l l c C n z n $.`.mXxXmXLXmXQ.8.L m m k L Q.#XFXGXGXkXX.X.L z z z z z z C C K P P P K   X X X X                             X X X     X X X X X X X X X X X X X @ X X X @ @ o o # # # # # # # # # # # # = 3 3 3 ",
"g.g.g.g.h.h.g.j.h.g.j.h.h.h.h.h.h.h.h.h.h.h.h.h.h.h.j.j.j.h.h.j.j.h.j.j.h.j.j.j.j.j.j.j.j.j.j.j.h.h.j.j.j.j.j.j.j.j.h.j.h.h.j.j.j.h.h.j.h.h.h.j.h.h.h.h.j.h.h.h.j.h.h.h.h.h.h.h.h.h.h.h.h.h.h.h.h.h.h.B.h.h.h.V.h.V.V.V.V.V.V.G.G.A.G.G.G.G.G.G.A.G.G.G.G.G.G.G.L.L.H.G.G.J.J.J.J.J.J.J.K.K.}.}.}.|.oX}.}.|.oXoX}.@X+X+X+X+X+X+X+X+X1X1X1X+X+X1X&X1X%X4X&X+X{.S.1.U y X nXKXKXKXKXKXKXKXKXKXKXKXKXKXKXKXKXKXKXKXKXKXKXKXKX$XX 7 H ] ] J 7 o '.KXKXKXKXKXKXKXKXKXKXKXKXKXKXKXKXKXKXKXKXKXKXKXKXCX    X X   nXKXKXKXKXKXKXKXKXKXKXKXKXKXKXKXKXKXKXKXKXKXKXKXKXKXKXKXKXKXKXKXKXKXKXKXKXKXKXKXKXKXKXKXKXKXKXKXKXKXKXKXKXKXKXKXKXKXKXKXKXKXnX5 y J *.w.S.[ ! *.y.(. XOX%X%X&X&X*X6XiXuXvXvXbXbXnXnXnXnXnXnXbXCXDXpXz.3.3.3.g.g.f.3.3.3.3.d.f.f.| } 5.5.S.bXbXbXvXbXCXuX7Xe.[ [ [ ) [ [ [ ~ | H.H.{.,.6.,.=.6.S.4.,.e.,.=.=.[ [ ] ~ { ,.{.7X2X4.+XbXbXbXbXCXnXbXnXbXvXvXbXvXuXuXiX6X&X@X X{.{.{.{.{.{.{._.H.D.F.F.S.S.c.z.z.e.e.e.w.5.4.4.4.4.1.:.:.:.=.=.*.*.*.*.&.] &.] ] ( ( ( U U ( H U H U J F S V N s s s s s s s s s B V Y U &.>.:.4.q.q.w.e.y.y.y.c.c.y.c.S.S.S.S.S.y.e.w.1.=.] U V s p p q 0 w w 6 w w w 0 q w 0 q q p p p q s N s s N y y d c y y v F B q 0 7 7 6 : 6 6 6 y d y B y t t 6 1 1 q q 9 9 9 1 6 2 1 1 + , @ + + < + ,     & *.v.D.).[.{.{.|. X X X.X+X+X+X+X+XOXOX+X+X+XOXOXOXOXOXOXOXOXOXOXOX%X%X%X%X%X&X2X8X8XlXlXcXcXcXvXbXbXbXbXbXvXvXcXcXcXcXcXcXvXvXcXcXcXcXcXcXcXcX8X8X8X&X X[._.{._.).).).5.H c t 6 y y y y y y y y y t 7 7 7 6 9 9 9 8 9 9 9 9 9 9 9 0 l c q l C K Z N q 0 0 q N 0 w 0 w A A q q N q q w q q q y 5 w Y A s y y q w q y N N s s N Z J U J V B N V Z V U F J F V J F B Z V V V V Z C N c C C z L z z L ;.=XFXxXGXLXkXr.-.z L C z 7.`.].=XkX#X7.C o.v z z l z c c c C Z K K P K #   X                               X X X   X     X X X X X X X X X X X X @ @ @ o o o o o # # # # # # # # = = = = 3 5 5 5 ",
"g.g.j.g.j.j.h.g.g.h.g.j.h.h.h.h.h.h.h.h.h.h.h.h.h.h.h.h.h.h.h.j.h.h.j.j.h.h.h.h.j.j.j.j.h.h.h.h.h.h.j.h.h.h.j.j.h.j.j.h.j.h.j.h.h.h.j.j.j.h.h.h.j.j.h.h.h.h.h.h.j.j.h.h.h.h.h.h.h.h.h.h.h.h.h.h.h.h.h.h.h.h.h.V.h.B.V.V.V.V.V.V.V.V.A.A.G.G.G.G.G.G.G.G.G.G.G.G.L.L.H.G.J.J.J.J.J.J.J.J.J.K.K.K.}.}.}.}.}.oXoXoX}.oXoXoX@X+X+X+X@X+X+X+X+X+X+X>X%X+X%X>X+X+X{.z.1.H q X nXKXKXKXKXKXKXKXKXKXKXKXKXKXKXKXKXKXKXKXKXKXKXKXKX$XX 7 J ] ] J 7 o '.KXKXKXKXKXKXKXKXKXKXKXKXKXKXKXKXKXKXKXKXKXKXKXKXCX    X     nXKXKXKXKXKXKXKXKXKXKXKXKXKXKXKXKXKXKXKXKXKXKXKXKXKXKXKXKXKXKXKXKXKXKXKXKXKXKXKXKXKXKXKXKXKXKXKXKXKXKXKXKXKXKXKXKXKXKXKXKXKXmXo 6 S ] z.5.,.~ ] q.)._.OX+X%X%X&X&X6XiXuXuXvXbXbXnXnXbXnXvXbXbXCXDXD.e.6.6.3.f.g.f.3.<.| } 3.g.<.} | {.uXvXbXvXbXCXbXOX_.S.&X,.[ [ [ ' [ ' [ { A.{.F.3.5.=.,.{ S.6.{ 4.e.6.,.] [ [ [ *.D.pX+XF.{.uXpXuXS.6XbXbXnXbXbXnXbXbXvXuXvXuXiX4X+XOX X{.{.{.{.{.{.J.D.D.D.D.F.F.c.c.z.e.e.w.w.5.4.4.4.4.1.1.:.:.=.=.*.*.*.*.&.&.] ] ( ( U U U U U H U H J F V V V s s s s s s s s s N B V Y ] *.:.4.w.u.u.e.e.y.y.y.y.y.y.c.c.S.y.y.y.y.e.q.:.=.] U V s p q 7 w w w w w w w 0 0 0 0 0 q q q q w q q p s s s d B c c c B P A y q 6 6 ; & ; 6 7 c d d d y 9 9 2 1 1 6 9 6 9 5 1 9 1 1 1 @ @ O O + < <   1 + & 2.z.D.).[.{.{. X X X.X.X+X%X%X%X+X+XOX+X+X+X+X+X+X+X%XOXOXOXOXOX%XOX%X%X%X%X&X2X8X8X8XlXcXcXvXvXvXbXbXbXbXvXvXcXcXcXcXcXvXvXcXcXcXcXcXcXcXcXcX8X6X8X&XOX X X X_._.).).w.( B u 6 t y y y y y y y y t : 6 6 6 6 9 6 1 9 9 9 9 9 9 9 9 0 q q A U U U Y 5 5 w 0 q q 0 q w Z U q 0 N N q w q q 0 q 6 w A s q q q 0 w 7 y V s s V N s V J ] U U ] ] U U &.=.*.] U U U U U U U P P P Z A C C C C C z z X.r.xXmXmXPXLX#X0.O.z L C k X.r.W.r.7.r.7.-.P v v 4 z l l l z C C Z K K K O   X X                             X X X         X X X X X X X X X X X X @ @ @ @ o o o o # # # # # # # # = = # = = 3 3 5 ",
"g.g.g.j.j.h.h.h.h.h.h.h.h.h.j.h.h.h.h.h.j.h.h.h.h.h.h.h.h.h.h.h.h.j.h.h.j.h.h.h.j.h.j.h.h.h.h.h.h.h.h.h.h.h.h.h.h.j.j.h.h.h.j.j.h.h.h.h.h.h.h.h.h.h.h.h.h.h.h.j.j.j.h.h.h.h.h.h.h.h.h.h.h.h.h.h.h.h.h.h.h.h.V.V.C.V.C.B.V.V.V.V.h.h.A.A.A.A.G.G.G.G.G.G.G.G.G.G.G.G.G.L.J.J.J.J.J.J.J.J.J.J.K.K.}.}.}.}.}.}.}.}.}.|.|.}.oX@X@X@X@X@X@X@X+X+X+X+X>X+X+X+X@X@X{.z.1.H 7 o nXKXKXKXKXKXKXKXKXKXKXKXKXKXKXKXKXKXKXKXKXKXKXKXKX$XX 7 J ] ] J 7 o '.KXKXKXKXKXKXKXKXKXKXKXKXKXKXKXKXKXKXKXKXKXKXKXKXCX    X     nXKXKXKXKXKXKXKXKXKXKXKXKXKXKXKXKXKXKXKXKXKXKXKXKXKXKXKXKXKXKXKXKXKXKXKXKXKXKXKXKXKXKXKXKXKXKXKXKXKXKXKXKXKXKXKXKXKXKXKXKXKXmXo w S *.z.z.S.( V e.S.).OXOX+X%X&X&X&X6XuXuXvXbXbXbXbXbXbXCXbXiXvXF.S.S.z.F.F.x.g.3.,.,.{ ' g.d.| ' 3.%XbXbXvXCXbXbXbXbXvXCXCXpX6.| [ [ { ,.[ <.{.A.F.e.,.] { 4.z.4.,.e.z.5.6.6.,.[ =.,._. Xz.e.bX{.F.4.w.5.6XbXbXnXvXbXbXbXbXbXvXuXiXiX&X%XOX X{._.{.{.{.{._.D.D.D.F.F.S.c.z.e.e.e.w.5.4.4.1.1.1.1.:.=.=.=.*.*.*.&.&.&.] ] ( ( U U U U H U H H F V B N N s s s s s s s s B B N V U &.>.:.4.q.w.e.u.y.y.u.u.u.y.y.y.y.y.y.y.y.e.e.q.4.>.&.] Y V s p 7 w w w w w w w w w w w w w w 0 w w 0 w q q y B B B c c c A P Z c y 7 6 ; & : 7 y Z B c c y y 9 1 + 1 1 9 9 5 1 5 9 1 1 1 , , @ < < < O + +   G 1.l.S.).[.{.{.{. X XOXOX+X%X%X%X+X%X+X%X%X+X+X+X+X+X%X%XOXOXOXOXOXOXOX%X$X%X&X&X2X8X8X8XcXcXvXvXvXbXbXbXbXbXvXcXcXcXcXvXvXvXcXcXcXcXcXcXcXcXcXuX8X8X&X$X X X X X_.).).z.*.B u t t y 7 t y y q y y y 6 6 6 6 5 1 5 5 9 9 9 2 1 9 9 9 q 9 q A U P P Z q N N q B B q 0 0 Z &.q 0 B q 0 q q q w w w q q w w 0 q q w q s s s s V J U ( ( ] ( J V Z Z B V Z Z J J J U Y B Z F Y U U P Z C C Z K z z z ;.^.mXmXmXLXGX^.0.o.L C C z n C X.$.-.-.X.P c k z l z z l l l z C C C Z Z O   X X X                           X X X X X     X X X X X X X X X X @ @ @ @ o o o o o o o # # # # # # # = = = = = = 3 3 ",
"h.h.h.h.h.h.h.h.g.h.h.h.h.h.h.h.h.h.h.h.j.h.h.j.h.h.h.h.h.h.h.h.h.j.h.h.j.h.h.h.h.h.h.h.h.h.h.h.h.h.h.j.h.h.h.h.h.h.h.h.h.h.C.h.h.h.h.h.h.h.h.h.h.h.h.h.j.j.j.j.h.h.h.h.h.h.h.h.h.h.h.h.h.h.h.h.h.h.h.h.h.B.V.C.C.V.V.V.V.V.V.V.V.V.V.A.A.V.G.G.G.G.G.G.G.G.G.G.G.G.G.L.L.G.G.G.J.J.J.J.J.J.J.J.J.K.K.K.K.K.K.K.}.}.}.}.oXoXoXoX@XoXoXoX@X@X+X@X@X@X@XoXoXoXH.S.1.H 7 o nXKXKXKXKXKXKXKXKXKXKXKXKXKXKXKXKXKXKXKXKXKXKXKXKX$XX 7 S ( ] D 7 o '.KXKXKXKXKXKXKXKXKXKXKXKXKXKXKXKXKXKXKXKXKXKXKXKXCX    X     nXKXKXKXKXKXKXKXKXKXKXKXKXKXKXKXKXKXKXKXKXKXKXKXKXKXKXKXKXKXKXKXKXKXKXKXKXKXKXKXKXKXKXKXKXKXKXKXKXKXKXKXKXKXKXKXKXKXKXKXKXKXmXo 6 V ] e.z.z.4.J *.y.'.{.OXOX%X%X&X&X6XiXvXvXvXbXCXbXbXbXvXbXuXD.S.D.S.z.z.6.<.| } [ [ ' | g.f.| | 5.7XbXbXvXbXbXbXbXbXbXvX&XbX+Xz.,.| <.| 3.3.5.z.D.| ] { =.F.J.=.4._.e.5.S.z.2.,.,.4.D.z.z.%XiXe.,.S.2XuX6XbXnXbXnXbXbXbXbXbXuXvXuXuX6X%XOXOX{.{.OXOX{.{.{._.).D.F.F.F.S.c.z.e.e.w.5.4.4.4.1.1.1.:.=.=.*.*.*.*.*.] ] ] ] ( ( U U U U U H H J V V N N s s s s s p p s s N B B Z U &.:.4.q.e.e.e.e.e.e.q.q.e.e.u.y.y.y.y.y.y.e.w.q.4.:.>.] U Y d s q 7 w w w w w w w w w w w w w w w 0 7 w q y q B V B B c c c F Z c c y 7 5 6 7 y B Z c c c c c l 1 < < 1 9 q 5 1 6 6 9 9 1 @ < < O O O < + 2 c ) w.z.c.D.[.{.{.{. X.XOX+X+X%X%X+X+X+X%X%X%X%X+X+X+X+X%X+X+X+X+XOXOXOXOX%X%X%X%X&X2X8X8XuXvXcXvXvXvXbXbXbXbXvXvXcXcXcXcXcXvXvXcXcXcXcXcXcXcXcXcXcX8X6X&X$X X X X X X_.).c.=.B u y t t 6 y y y q y c y 7 7 6 1 & # 1 5 9 9 9 1 1 9 9 9 6 0 N Z U P P Z A A N q N N q 0 A Z Y w q y w w 0 w 0 w 6 0 q 6 q q w w q N Y U *.*.&.] &.&.] ] J Y V B Z V B F B y y y B F U P Z V B N V Z P P A Z K K C m 7.#XmXxXFXLXFXW.8.m z z l z n l z 4 < < X.+.C z z k z k k k k l z N C Z Z O X X X X                           X X X X X     X X X X X X X X X @ @ @ @ @ o o o o o o o # # # # # # # = 3 3 = = 3 3 5 ",
"h.h.h.h.h.g.h.h.h.h.h.h.h.h.h.h.h.h.h.h.h.h.h.h.h.h.h.h.h.h.h.h.h.h.h.h.h.h.h.h.h.h.h.h.h.h.h.h.h.h.h.h.h.h.h.h.h.h.h.h.h.h.h.h.G.G.G.h.h.h.h.h.h.h.h.h.h.h.h.h.h.h.h.h.h.h.h.h.h.h.h.h.k.h.h.h.h.h.h.h.h.h.C.h.k.k.h.C.C.C.C.h.V.V.V.V.G.G.G.G.G.G.G.G.G.G.G.G.G.G.G.L.G.G.G.G.H.H.J.J.L.J.J.J.J.K.K.K.K.J.K.K.}.}.}.}.}.}.|.|.|.|.|.|.oXoXoXoXoXoXoXoXoX{.A.z.1.H 7 o mXKXKXKXKXKXKXKXKXKXKXKXKXKXKXKXKXKXKXKXKXKXKXKXKX$XX 7 S ( ] D 7 o '.KXKXKXKXKXKXKXKXKXKXKXKXKXKXKXKXKXKXKXKXKXKXKXKXnX      X   nXKXKXKXKXKXKXKXKXKXKXKXKXKXKXKXKXKXKXKXKXKXKXKXKXKXKXKXKXKXKXKXKXKXKXKXKXKXKXKXKXKXKXKXKXKXKXKXKXKXKXKXKXKXKXKXKXKXKXKXKXKXmXX 5 d ] 1.z.F.4.J U c.). XOXOX+X%X&X2X6XiXvXvXvXbX6X&XvXbXpXbXD.F.@X{.z.1.[ [ | [ | ,.| { ,.g.<.<.[ F.pXvXbXBXbXbXCXbXBXbXbXuXCXBXBXD.,.,.[ ,.A.z.@XA.[ { { F.{.z.| e.4X5.,.6.H.4X4.1.=.{ =.,.pXbXiX{.{.pXvXbXCXbXnXnXbXbXvXvXvXvXbXuXuXiX&X%X@XOXOX X{.{.{.{.{._.D.D.D.S.S.c.z.z.e.5.5.4.4.4.1.,.=.=.*.*.*.] *.*.] ] ] ( ( ( ( U U H U U H J J V V N N s s s s s p p s s s N V Y U *.:.4.q.w.w.e.e.q.4.4.:.:.4.q.q.e.u.e.e.u.e.q.4.4.:.=.&.U F B p 7 w w w w w w w w w w w w w w w w w w w p s q s V B B c y c Z Z B B y 7 6 7 s B B B y c N c c q 1 1 1 8 q 9 & 5 9 5 y c 1 O < , < O O + c ( +.=.w.z.c.D.[.{.{.{. X+XOXOXOX%X+X+X+X%X%X%X%X%X+X+X%X%X%X%X+X+XOXOXOXOXOXOXOXOX%X%X&X2X8X7XvXvXvXvXvXvXvXvXvXvXcXcXcXcXcXcXcXcXcXcXcXcXvXvXcXcXcXcX8X8X*X%X$XOXOXOX X_._.).5.! G y t 6 6 t y y 7 y y y y 7 7 6 1 1 1 1 w w 5 1 1 9 y y c Z P U ( P F C A N q q y y 0 0 U Y q 0 s q w 0 q 6 w 0 w w q w 5 w y N V V V V V F U U U J J H ( ] U Z V s 7 6 q s y s Z Z F U P Z N s s A Z Z Z Z P U K P 9.*XFXmXFXLXmXQ.X.m C n z n #.^.#XQ.r.7.7.7.L z k z k k k k k k l z N C C O X X   X                           X X   X X     X X X X X X X X X @ @ @ @ @ o o @ o o o o # # # # # # # = = = = = 3 5 5 ",
"g.h.h.g.g.j.j.h.h.h.h.h.h.h.h.h.h.h.h.h.h.h.h.h.h.h.h.h.h.h.h.h.h.h.h.h.h.h.h.h.h.h.h.h.h.h.h.h.h.h.h.h.h.h.h.h.h.h.h.h.h.h.h.h.G.L.G.C.h.h.h.h.h.h.h.h.h.h.h.h.h.h.h.h.h.h.h.h.h.h.B.C.C.k.k.C.h.h.h.h.h.h.h.h.B.B.B.B.k.V.V.h.V.B.V.V.V.G.G.G.G.G.G.G.G.G.G.G.G.G.G.G.G.G.G.G.G.L.L.J.J.H.J.J.J.J.K.K.J.J.J.K.J.K.J.J.}.}.}.}.}.}.}.}.}.oX}.}.oXoX}.}.}.H.z.z.,.H 7 X mXKXKXKXKXKXKXKXKXKXKXKXKXKXKXKXKXKXKXKXKXKXKXKXKX$XX 7 S ~ ( S 7 o '.KXKXKXKXKXKXKXKXKXKXKXKXKXKXKXKXKXKXKXKXKXKXKXKXnX          nXKXKXKXKXKXKXKXKXKXKXKXKXKXKXKXKXKXKXKXKXKXKXKXKXKXKXKXKXKXKXKXKXKXKXKXKXKXKXKXKXKXKXKXKXKXKXKXKXKXKXKXKXKXKXKXKXKXKXKXKXKXmXo 6 B ] 6.z.{.6.d H w.S._. XOX+X%X&X2XiXuXcXcXbXvX+XOXpXpXDX4X@X4X{.F.3.,.,.,.3.3.| | <.| g.g.,.} ,.{.vXvXvXbXbXbXbXbXbXbXCXCXbXbXpXpXD.,.| ,.g.D.,.{ { ,.5.D.F.=.| 5.+X,.,.5.6.%X_.=.=.{ ,.1.=.1.2XpX6XD.+XbXbXbXbXbXbXbXbXnXvXbXuXvXuXuXiX6X2X&X+XOX{.{.{.{._.).D.D.D.S.S.v.z.z.e.5.4.4.1.,.=.=.*.*.*.*.] ] ( ] ] ( ( ( ( ( ( ( H H H J J J V V s s s s s s s p p p s s s N V U ] =.:.:.4.4.q.w.w.4.:.>.*.&.&.>.>.:.4.q.q.u.e.q.4.1.=.=.*.U J V s 7 7 w w w w w w w w 5 5 5 5 5 5 w w 6 w y s s s B Z Z B c c Z F B V s y y y B B B y y c N c c l 1 1 1 9 q ; & 5 9 9 c c 1 , , , O O O N >.) ( 1.w.z.z.D.[.{.{.{.|.+XOXOXOX%X+X%X+X%X%X%X%X%X+X%X%X%X%X%X+X+X+X+XOX+XOXOXOXOXOX%X%X&X8X9XvXvXvXvXvXvXbXvXvXvXcXcXcXcXcXcXcXvXcXvXvXvXvXvXcXcXcXcXuX8X*X&X%X$X$X$XOX X_.).c.*.! u r : 6 t y y 7 q y y B y q 6 5 5 6 9 q q 9 q c Z J U U U U U U V A s A V N y s q 0 0 Y A w q N q q 0 q 6 w 0 5 5 w w q q q w w w 7 q 7 w w 6 w y V F U *.>.&.( U S t s V V V V s s J Y Z A V N A A V Z Z Z U U U 9.$XmXmXFXPXkX8.x x z n n C -.=XFXFXGXxXr.-.z z k k k k k k k k l z z c N X X     X                           X X   X X     X X X X X X X X X X @ @ @ @ o o @ o o o # # # # # # # # # # # = = = = 5 ",
"h.h.h.h.h.h.h.h.g.h.h.h.h.h.h.h.h.h.h.h.h.h.h.h.h.h.h.h.h.h.h.h.h.h.h.h.h.h.h.h.h.h.h.h.h.h.h.h.h.h.h.h.h.h.h.h.h.G.h.h.h.h.h.h.j.h.h.h.h.C.h.h.C.h.h.k.h.h.h.h.h.h.h.h.h.h.h.k.h.k.C.h.h.h.V.C.C.h.k.C.C.h.h.h.B.C.C.C.C.B.V.V.V.V.B.V.V.G.G.G.G.G.G.G.G.G.G.G.G.G.G.G.G.G.G.G.G.G.G.L.L.L.J.J.J.J.J.J.J.J.J.J.J.J.J.J.J.J.J.}.J.}.}.}.}.}.K.J.J.K.J.K.}.J.A.z.,.H 7 X cXKXKXKXKXKXKXKXKXKXKXKXKXKXKXKXKXKXKXKXKXKXKXKXKX$XX 7 S ~ ~ S 6 o '.KXKXKXKXKXKXKXKXKXKXKXKXKXKXKXKXKXKXKXKXKXKXKXKXmX    X     nXKXKXKXKXKXKXKXKXKXKXKXKXKXKXKXKXKXKXKXKXKXKXKXKXKXKXKXKXKXKXKXKXKXKXKXKXKXKXKXKXKXKXKXKXKXKXKXKXKXKXKXKXKXKXKXKXKXKXKXKXKXmXo ; d ] 5.D.D.5.f S 5.S._. X+X+X&X&X6XiXuXvXuXuXbXbXaXaXaX4X{.>XoX5.5.6.6.5.3.<.5.,.} 3.3.x.g.} { 6.4XiX6XbXvXbXbXbXCXbXuXuXbXbXBX7XiX%Xf.,.e.F.F.5.,.,.6.z.z.e.{ ,.F.g.,.F.e.[ 6.F.=.1.,.6.4.,.=._.%Xz.,.OXbXbXbXbXbXbXbXvXvXvXbXuXuXvXiXiXiXiX2X&X%X@X{.{._._.).D.D.D.D.D.v.z.z.w.5.4.1.,.,.=.*.*.[ [ ] ] ( ( ( ( ( ( H H ( H H H H J J S V V V s s s s s y s p p s s p s s V U ] *.>.:.:.:.:.:.:.=.=.=.&.] ] ] ] &.=.:.1.q.q.4.4.4.:.>.*.] H V s a 7 w w w 5 5 5 w w 5 5 5 5 5 5 w w 5 w q y s s B Z F Z B B Z Z B V B s s B c c c y y c c y N c 5 8 1 9 6 & & 6 7 9 c c 1 , < @   @ N q.*.! *.1.e.z.x.D.[.{.{.{. X XOXOX+X+X+X%X%X%X%X%X%X%X%X%X%X%X%X+X%X+X%X+X%X%X+X+XOXOX+X+X%X%X2X8X9XvXvXvXvXvXvXvXvXvXvXcXvXcXcXcXvXvXvXcXcXcXvXcXcXcXcXcXcX8X6X*X&X%X%X%X%XOX[.).c.5.) D u r t t y y y y c y A B q q q B V Z V V Z Z F P U ] ( U F F Y V V V N V V s q q q q y q w q A s q w 0 w 0 0 6 w 7 0 6 w w w 7 7 q q q B Z F U U U V V U *.4.=.] ( U U ( ] ] ( J V F F Z V A N B Z Z Z F F P U U -.y.=XmXPXPXkXQ.o.z 8 z k k #.kXmXmXPXkX0.O.< k c 8 k k k k k l l l l l c O X                                 X     X X X   X X X X X X X X X X X X @ @ @ @ @ o o o # # # # # # # # # # = = 3 3 5 5 ",
"h.h.h.h.h.h.h.h.G.K.J.A.h.h.h.h.h.h.h.h.h.h.h.h.h.h.h.h.h.h.h.h.h.C.h.h.h.h.h.k.h.h.h.h.h.h.h.h.h.h.h.h.h.h.h.h.<X,X;XG.h.h.k.h.C.V.B.h.h.k.h.h.C.h.h.h.h.h.B.h.h.h.h.h.h.k.C.C.h.k.h.h.h.h.h.C.V.C.h.C.C.C.h.V.B.h.C.B.h.B.h.B.V.V.V.V.V.G.G.G.G.G.G.G.G.G.V.V.G.G.G.G.G.G.G.G.G.G.G.G.G.G.J.J.H.H.H.J.J.J.J.J.J.J.J.J.J.H.J.J.J.J.J.J.J.J.J.J.J.K.J.J.J.J.H.g.,.H 7 X cXKXKXKXKXKXKXKXKXKXKXKXKXKXKXKXKXKXKXKXKXKXKXKXKX$XX 7 S ~ ~ S 6 o '.KXKXKXKXKXKXKXKXKXKXKXKXKXKXKXKXKXKXKXKXKXKXKXKXcX          nXKXKXKXKXKXKXKXKXKXKXKXKXKXKXKXKXKXKXKXKXKXKXKXKXKXKXKXKXKXKXKXKXKXKXKXKXKXKXKXKXKXKXKXKXKXKXKXKXKXKXKXKXKXKXKXKXKXKXKXKXKXmXo ; V *.1.D.F.4.J H 1.S._. X+X+X%X2X6XuXuXuXvXbXbXpXgXgX&XD.A.z.g.g.3.3.,.| | } | } <.,.d.g.| | } z.aX4XiXvXvXbXvXvXvXiX&XbXOXS.&X%X{.z.6.6.F.F.e.6.4.,.,.z.F.| | 1.+Xz.D.+X,.| ,.6.=.=.4.{ { [ =.*.OX6X'.uXvXbXbXbXbXbXbXiX%XuXvXbXvXvXuXuXiX6X2X&X%X@XOX{.D.D.).).D.D.F.F.v.z.e.5.6.3.1.,.=.*.*.[ ] ] ( ] ] ( ! H H H H H H H H H J J V V V V V s s s s y q p p p s s p N s s Z U ` ] *.&.] ` ] ` U ] ] U U U ] ` ` ] &.>.4.q.4.4.4.:.=.*.] U F s p 7 w w w 5 5 5 5 5 5 5 w 5 5 5 5 w 6 w 7 q s B B B Z F F B B B B V V B B c y y y c y y y q N N 9 9 1 5 & & ; 6 6 9 B y + @ < , 8 P y.y.( ) 2.5.z.z.x.D.[.{.{.{. X XOX+X+X+X+X+X%X%X%X%X%X%X%X%X%X%X%X+X+X%X%X%X%X%X%X%X+X+X%XOX.X%X%X1X8X9XvXvXvXvXvXvXvXcXcXcXcXvXvXvXvXvXvXcXcXcXvXvXvXvXvXcXcXuX6X*X&X&X%X%X%XOX XS.c.w.[ ~ G u t y c B B B B y N A Z P U +.&.+.V V B B y y B Z U V y B F B s s N Z Y N q q q q s 6 q w V q w w 6 w 0 w 0 q q q y q w 6 6 w 7 7 w q N Z Y Y F F Z B N ] =.:.1.&.( U U ] ] &.( U V Y Y Z V N B A Z P U F U Z U &.7.$XmXPXGXGXmX#Xt.X.k 4 C =XFXFXGX#X9.o.x z 8 9 k k k k k k l l z c c O O                                 X     X X X   X X X X X X X X X X X X @ @ @ @ @ o o # # # # # # # # # = = = 3 5 5 5 5 ",
"h.h.h.j.h.V.G.A.>XyX:XA.g.h.h.h.h.B.h.h.h.h.x.h.h.h.h.h.k.h.h.h.h.h.h.h.h.h.h.h.V.B.h.h.h.h.h.h.h.h.h.h.h.h.h.h.V.V.V.V.h.h.B.V.B.C.C.V.V.V.V.V.h.C.h.h.h.V.h.B.V.V.V.V.h.h.x.h.V.V.V.k.V.V.V.V.V.C.C.C.C.C.C.C.V.V.C.C.C.C.h.C.G.V.V.G.G.G.G.V.G.G.A.G.G.G.G.G.G.G.G.G.G.G.G.G.G.L.L.G.G.H.H.H.G.L.J.J.J.G.G.G.A.G.J.A.J.H.H.J.H.H.H.H.H.J.J.J.J.J.J.J.J.H.A.g.,.! 7 # =XKXKXKXKXKXKXKXKXKXKXKXKXKXKXKXKXKXKXKXKXKXKXKXKX$X. 7 S ( ~ S 5 X $XKXKXKXKXKXKXKXKXKXKXKXKXKXKXKXKXKXKXKXKXLXKXKXKXcX  X       nXKXKXKXKXKXKXKXKXKXKXKXKXKXKXKXKXKXKXKXKXKXKXKXKXKXKXKXKXKXKXKXKXKXKXKXKXKXKXKXKXKXKXKXKXKXKXKXKXKXKXKXKXKXKXKXKXKXKXLXKXKXmXX ; d *.z.6.S.w.d S w.)._.OXOX&X%X&XiXuXpXiXpXpXiXaXyXD.A.J.H.A.f.,.| [ [ [ [ [ ' } | | 3.3.| ' ,.{.7XpXuXvXbXpXvXbX+X_.pXS.4.{.pXaX@Xz.6.D.z.,.z.5.{ ,.e._.z.| 1.D.&XF.4XoX,.,.z.F.[ { =.*.[ *.*.1.S.S.).vXbXbXbXbXbXbXbXuX*XuXbXvXpXuXuXiXiXiX6X2X%X+XOX_.{.{.D.D.D.F.F.S.z.z.e.6.4.,.,.,.=.[ [ [ ] ( ] ] ] ( H H H H H H H H H H J F V V V V V N s s s s s s s s s s s s N N V V F S U U U U J J J U U U J J U U ] ` ] &.:.1.4.4.:.:.*.&.] U J V s 7 w w w 7 w 7 5 ; ; ; ; w 6 6 w w q q q q q y B V G G G G F B Z Z V B B y t t y y t y 9 c F N 9 6 1 1 2 & 5 6 6 y y 9 @ , O < X.y.(.&.! ,.3.5.x.v.F.D.H.{.{.{. X XOXOX+X%X%X%X%X%X&X&X%X%X%X%X%X&X%X%X%X%X%X%X+X+X+X+X+X+X%X+X%X%X%X%X1X8XlXvXvXvXvXvXcXcXcXcXcXcXcXcXcXcXcXcXvXvXvXbXvXvXvXcXcX8X6X*X*X&X&X&X%X%X[.).c.l.2.*.Q g u u c F Z Z Z N B Z U &.:.1.>.&.( H Z V B s Z U Z s 7 s A A s w p A Z N p q q q q w 6 p N s 7 q q s q w w N s N q 7 7 7 7 w 7 q q s s N N q 6 5 y 6 y B J ( ] *.( H V F Y Y U Y J J F U U U V N F Y F Z F P J P U ;.#XFXGXLXKXLXFXmX=X^.^.xXmXGXPXW.8.L 8 l 8 8 9 9 9 9 9 9 q q z z c O X                       X X X X           X X X     X X X X X X @ X X @ @ @ @ @ o o # # # # # # # # = 3 # 3 3 3 3 3 3 3 ",
"h.h.h.j.h.V.G.G.H.x.g.A.A.G.h.h.h.h.h.h.h.h.h.h.h.h.h.k.k.h.h.h.h.h.h.h.h.h.h.B.h.h.h.h.h.h.h.h.C.k.h.h.h.h.h.h.h.h.V.V.V.B.B.h.C.C.B.C.C.V.V.C.C.V.V.k.h.h.B.V.h.G.V.h.V.G.V.G.G.G.V.V.k.k.k.k.V.C.C.C.C.V.V.V.V.V.V.V.V.V.C.V.V.V.C.G.G.G.G.G.G.G.G.G.G.G.G.G.G.G.G.G.G.G.G.G.G.L.L.G.G.G.H.H.G.H.H.H.G.G.G.G.H.A.A.A.A.J.H.H.G.H.H.H.H.G.G.H.J.J.J.J.H.A.x.f.,.! 7 # $XKXKXKXKXKXKXKXKXKXKXKXKXKXKXKXKXKXKXKXKXKXKXKXKX$XX 7 S ~ ! S 6 X =XKXKXKXKXKXKXKXKXKXKXKXKXKXKXKXKXKXKXLXKXKXKXKXKX=X  X X X   nXKXKXKXKXKXKXKXKXKXKXKXKXKXKXKXKXKXKXKXKXKXKXKXKXKXKXKXKXLXKXKXKXKXKXKXKXKXKXKXKXKXKXKXKXKXKXKXKXKXKXKXKXKXLXKXKXKXKXKXKXKXmXX 6 d *.5.e.c.4.f H c.S.{.OXOXOX2X6X&X+XOX6X+X{.4X>XD.x.h.A.d.| 3.3.,.[ [ [ [ [ { } { | g.<.} { 3.+XpX%XvXuXpXbXbXuX2XpXbX&XOXBX4XpXaX@X@XF.6.6.{ [ 1.e.e.z.,.[ 6.iXgX_.@XF.| ,.J.H.{ [ [ ] [ *.*.1.2XvXbXvXbXbXbXvXbXbXbXbXbXbXbXuXuXpXuXuXiXiX6X&X%X+XOX_._._.D.D.D.D.D.S.z.z.e.5.6.4.,.,.=.[ [ [ ] ( ( ( ( H H H H H H H H H H J J F J F V V V N s s N s s s s s s s s s s s s V V V V V Z F F S S F F F V J J J U U U &.=.>.>.=.>.*.&.] U J V s s 7 w w w w 7 5 5 5 ; ; ; w 6 6 w 0 w 0 q 0 q q y B G F F J F F F Z B B d y y y B d y B y B Z c 1 9 1 2 6 : 6 7 6 q y 5 O   8 &.q.$X].F =.5.3.f.z.v.F.D.D.{.{.{. X XOXOX+X%X%X%X%X%X&X&X&X&X%X&X&X&X&X%X%X%X%X%X%X+XOXOXOX+X%X+X%X%X.X%X%X2X8XvXvXvXvXvXcXcXcXcXcXcXcXcXcXcXcXcXvXvXvXbXvXvXvXcXcX8X6X6X*X*X&X&X&X%X X).c.c.5.*.~ Q u u B F Z F P P P U &.&.&.( J U U U F Z U ] &.&.Y A s s q q q q w s s s p s p q w 7 5 w s s p s s s s y w s s s w w w w 7 q q q N N s p s V U ] &.U F d S ( U J U ] ( U Y Z F V s J U ] *.*.] Z B V U U F U U F Z K ;.W.W.=XFXKXKXLXPXPXFXFXmXGXGXQ.-.L 8 z 8 8 9 9 9 9 9 9 q q l l z O X   X                   X X X X X X       X X X     X X X X X X @ X X @ @ @ @ @ o o # # # # # # # # = = # 3 3 3 3 3 3 3 ",
"h.h.h.h.h.h.h.h.g.g.x.x.x.h.V.B.h.h.h.h.V.V.h.V.h.h.h.V.h.h.h.B.h.h.h.h.h.h.h.B.h.C.C.C.h.h.h.B.C.C.V.k.h.h.h.h.h.h.h.k.C.V.V.V.B.C.C.C.C.V.V.C.h.C.h.V.G.G.V.h.V.C.V.G.G.K.K.G.G.G.G.V.V.B.C.C.V.V.C.C.V.V.V.V.C.V.V.V.V.V.C.V.V.V.V.V.V.V.G.G.G.G.G.G.G.G.G.G.G.G.G.G.G.G.G.G.G.G.G.G.G.G.G.G.G.G.G.H.G.A.G.H.h.A.A.A.H.g.A.A.A.A.H.H.H.H.G.G.A.G.H.G.G.H.A.g.,.! t # '.KXKXKXKXKXKXKXKXKXKXKXKXKXKXKXKXKXKXKXKXKXKXKXKX$XX 6 S ! ^ g 6 X =XKXKXKXKXKXKXKXKXKXKXKXKXKXKXKXKXKXKXKXKXKXKXKXLX'.    X   X nXKXKXKXKXKXKXKXKXKXKXKXKXKXKXKXKXKXKXKXKXKXKXKXKXKXKXKXLXKXKXKXKXKXKXKXKXKXKXKXKXKXKXKXKXKXKXKXKXKXKXKXKXKXKXKXKXLXKXLXKXKXmX5 ; B =.e.6.5.=.J ] z._.{.OX+X%X&X&X2XD.6.,.6.g.5.3.5.3.3.3.3.| ,.<.,.| ,.3.3.{ { ,.,.g.f.| { { 3.{.%XD.aXbXbXvXbXbXCXbXbXbXbX{.{.{.iX@XS.,.,.[ [ e.{.S.,.[ [ =.z.S.}.D.z.,.,.3.z.D.[ =.{ ] *.*.*.4.uXbXbXvXvXvXvXbXbXvXvXbXbXbXbXvXvXvXuXuXiXiX4X&X+X@XOX{.{.{._._._.D.D.F.S.S.z.z.5.6.4.,.,.=.[ [ [ ( ! ( ! H J J H H H H H H H H H H H J F V V V N s N s s s s y q q q y s s s s s s s N V Z Z V V V V V V F F F J J U U ] ] ] ] ] ] U U U F V s s q 7 w w 7 5 5 5 5 5 5 ; w 6 6 w 0 w w w w 6 w q q F J H H H H P F B V B y y d B B B c c Z Z c 1 2 9 6 1 & 6 q 6 q q 1 @ l #.u.].$X'.( 1.5.f.l.z.F.D.D.).{.{.{.{. X+XOXOX+X%X%X&X&X&X&X&X&X&X&X1X2X&X&X&X&X&X%X%X%X%X%X%X+X+X+X%X%X+X.X%X%X8X8XlX8X8XlXlXlXcXlXcXcXcXcXcXcXcXcXvXbXvXbXbXbXvXcXcX8X8X6X*X*X*X*X&X%X X).D.D.c.5.*.! G g c F F U ( ( ( &.&.U U U U ( H J V Z P U U Y Y Z Z V N q q q q q q 7 q q q 7 7 7 w 7 q p p s q q y y w q y y 6 5 6 6 w 7 7 w p s s N V V J U ( ] ( S H *.*.] ( ] ( ] *.&.( U V V V S &.=.:.&.F Z J U P P U U P Z P P X.:.t.$XFXGXPXLXGXFXFXGXFXr.X.z 8 z 8 9 9 9 9 9 9 9 k k l k z X X X X                     X X X X X X X     X X X X X X X X X X @ X X @ @ o o o o # # # # # # # # # # # # = 3 3 3 3 3 3 ",
"h.g.h.h.h.h.h.h.h.A.:X5X:XG.h.B.h.x.A.h.L.<XT.G.V.B.h.h.k.h.h.h.h.B.h.h.B.B.h.C.k.V.C.C.k.h.h.B.V.C.C.V.h.h.h.C.C.C.k.k.h.C.V.V.B.V.V.C.C.V.V.C.V.G.G.V.k.V.V.G.G.G.G.h.V.<X,XK.V.G.G.G.V.V.V.V.V.V.V.V.V.V.V.h.C.V.V.V.V.C.C.V.G.V.V.V.V.V.G.G.G.G.G.G.G.G.G.G.G.G.G.G.G.G.G.G.G.G.G.G.G.G.H.H.G.G.G.G.A.A.A.H.A.<.g.A.A.A.A.A.A.A.A.A.G.G.A.A.A.G.G.G.G.A.A.f.,.! t # (.KXKXKXKXKXKXKXKXKXKXKXKXKXKXKXKXKXKXKXKXKXKXKXKX$XX 5 g ! ! f : X *XKXKXKXKXKXKXKXKXKXKXKXKXKXKXKXKXKXKXKXKXKXKXKXLX(.  # o     CXKXKXKXKXKXKXKXKXKXKXKXKXKXKXKXKXKXKXKXKXKXKXKXKXKXKXLXKXKXKXKXKXKXKXKXKXKXKXKXKXKXKXKXKXKXKXKXKXKXKXKXKXLXKXKXKXKXKXKXKXLXnXX 7 H 1.5.6.5.( S 4.c._.{.OX+X%X+X2X2XD.5.6.,.| ,.<.<.<.f.<.| | | ,.| ,.| { { { | | | 5.<.| { ' ,.A.4XpXpXbXpXBXvXbXvXvXbXbX2Xz.+X@X@Xz.,.{ [ | 6.D.z.,.[ [ ,.z.5.,.{.6.,.,.,.,.6.6.{ [ { ] *.[ [ S.uXvXvXbXvXvXvXbXuXvXvXvXvXvXvXvXuXiXiXiXiX6X4X%X@XoX{.{.{.{.).H.D.D.F.F.F.S.z.z.5.6.6.4.,.,.*.*.[ ] ( ( H H H J J J J H H H H H H J H J F S V V N s s s s s s q 7 7 q q q s s s s s N V V V V V V V V V V F F V F Y J J Y J U U U Y Y J J F V s s s q w w 7 w w 5 5 5 5 5 w 6 6 w q w w w w w w w w B F J J J F F Z B B B B y B B G c y F B c y 9 1 9 5 1 2 7 7 6 q 9 N U ;.q.(.=X$X$Xq.1.5.z.z.x.x.D.D.[.{.[.{.{. X+XOXOX+X%X%X&X&X&X2X2X&X2X2X2X2X2X2X2X2X&X&X%X%X%X%X%X%X%X+X%X+X+X.X+X%X%X2X8X8X8X8X8X8X8XlXcXcXcXcXcXcXvXvXvXbXbXbXbXbXvXvXcX8X8X6X*X*X*X*X&X%XOX_.S.D.).v.4.) ! G B F U &.=.:.=.>.&.&.( U F V F F V V V s N s q q q A A N N p s q 7 w q y y y q y 7 7 q q q s 7 7 q q w q s y 6 6 6 6 6 6 6 6 N y w 7 s V F H ( *.*.( H ] [ *.] ( V V H ( &.*.] ( J V V V U ( ( U F F P Z V U U P Z N K K X.7.t.W.^.=XmXFXFXGXmX8.X.z z k 8 9 8 9 9 9 9 k k k z l c O X   X                           X X X X     X X X X X X X X X X @ X X @ o o o o o # # # # # # # # # # # # = 3 5 5 5 5 w ",
"x.x.h.h.h.G.K.oXH.A.:XsX:XH.K.oXG.G.L.L.G.V.h.B.V.B.B.h.V.V.h.h.B.V.B.h.B.B.B.V.C.C.V.V.k.C.B.C.V.C.C.C.h.k.B.C.h.k.V.V.C.C.h.C.V.V.V.C.C.V.V.V.C.V.C.h.V.G.V.V.G.V.V.G.G.B.h.G.V.V.G.V.V.V.V.G.V.V.V.V.V.V.V.C.V.V.V.V.V.V.V.G.V.V.V.V.V.G.G.G.V.G.G.G.G.G.G.G.G.G.G.G.G.G.G.G.G.G.G.G.G.G.G.G.G.G.G.G.A.A.A.A.H.3.' g.g.g.x.A.A.A.x.x.A.A.A.A.A.A.A.A.A.A.A.f.<.^ y ; q.KXKXKXKXKXKXKXKXKXKXKXKXKXKXKXKXKXKXKXKXKXKXKXKX*XX ; d S D u ; X cXKXKXKXKXKXKXKXKXKXKXKXKXKXKXKXKXKXKXKXKXKXKXKXKX:.  o   # X nXKXKXKXKXKXKXKXKXKXKXKXKXKXKXKXKXKXKXKXKXKXKXKXKXKXKXKXKXLXKXKXKXKXKXKXKXKXKXKXKXKXKXKXKXKXKXKXKXKXKXLXKXKXKXKXKXKXKXKXKXKXnX; t ( 1.4.6.e.J J e.S._.OXOX&X@X2X%XD.z.f.3.,.3.3.| <.3.f.} / ' | | } | | ,.| | { | ,.[ } { } { | 6.z.z.D.D.OX+X&X{.4XbXbXBXbXpX+X+X{.z.=.| ,.e.z.2.<.[ [ ,.5.,.| 6.z.| ,.,.,.,.S.,.[ [ { ] { [ [ ).vXpXbXvXuXvXuXuXpXuXuXpXvXvXvXpXuXuXiX6X2X&X%X+X@XOX{.{.{.{._._._.D.D.D.F.z.z.z.z.e.6.5.4.,.,.=.{ [ ] ( ! H H J J J J J J H J J F S J J J F V V N s s s s s s q q q q q y s s s s s N N V N N N B V V V N V V s V V V V V V Z F Z V V V V F Z V s s q 7 w w w w 5 5 5 5 5 w w w w q q q q q w 6 w q y B F F J F F B B B B Z B y B F y Z P 9 9 2 y 9 9 9 6 9 6 5 0 B X.&.q.r.W.=X=X=X*Xc.1.w.f.x.A.A.D.D.).{.{.{.{. X+X+X+X+X%X%X&X&X&X&X2X2X2X2X2X2X6X2X2X2X2X2X&X&X&X%X%X%X%X%X%X%X+X%XOX+X%X%X&X2X2X8X8X8X8XcXcXvXcXcXcXvXcXvXvXbXbXbXbXbXvXvXcXcX8X6X*X*X*X*X&X%XOX{.S.v.).[.c.1.( ! F H &.:.u.y.(.1.*.>.&.J B F J U Z s q s B s N y q q q q q 0 s s q q y y s s q q 7 q y q s N s y y y q 7 s y 7 6 6 6 6 ; 6 y B N B J ] &.] ] ] =.*.! H ( ( ] =.=.] J S V J U U ( U ( U Z V V ( ] U V F V B F +.U Z P N C L I $.X.$.r.=XFXFXGX=X-.o.z l 9 8 9 8 8 9 9 9 k k l z l c X X                             X X   X X         X X X X X X X X @ X X @ @ o o o o # # # # # # # # # # = = = 5 5 5 5 w w ",
"h.h.h.h.g.x.K.;XJ.x.h.x.g.h.A.h.K.<X,XK.G.h.h.C.k.B.V.B.V.V.C.C.B.C.B.h.B.B.B.B.C.k.k.k.k.C.V.V.C.C.V.C.C.C.C.B.h.h.C.V.C.h.C.V.V.V.V.V.V.V.V.V.V.V.C.G.K.K.L.B.V.G.G.C.h.V.G.G.V.V.V.V.V.V.V.G.V.V.V.V.V.V.V.V.V.V.V.V.V.V.V.G.G.G.G.G.V.V.G.V.V.V.G.G.G.G.G.G.G.G.G.G.G.G.G.G.G.G.G.G.G.G.G.G.G.G.G.A.A.A.x.x.J.x.{ ,.3.g.g.x.x.x.A.x.x.h.x.x.x.A.B.V.A.A.A.g.<.~ s 5 U KXKXKXKXKXKXKXKXKXKXKXKXKXKXKXKXKXKXKXKXKXKXKXKXiX. & t S g t o X nXKXKXKXKXKXKXKXKXKXKXKXKXKXKXKXKXKXKXLXKXKXKXKXKXN X   & o . PXKXLXKXKXKXKXKXKXKXKXKXKXKXKXKXKXKXKXKXKXKXKXKXKXKXKXKXKXKXKXKXKXKXKXKXKXKXKXKXKXKXKXKXKXKXKXKXKXKXKXKXKXKXKXKXKXKXKXKXKXKXnX; y ( *.1.6.4.! [ c.S.{.OXOX@X@X+Xz.f.5.3.f.f.<.| | | <.<.} } [ [ { { { } { ' | ' ' 3.6.} ' ' [ } g.z.3.,.,.[ ,.,.1.,.[ ,.1.z.5.e.z.+X3.,.e.x.1.[ 5.[ [ ,.z.6.1.D.yX2.=.,.,.1.oX{.[ { =.{ ] [ ( { z.6XiXuXuXuXuXuXuXpXiXiXiXpXpXuXuXuXuX6X2X&X%X+X@XoXoX{.OX{.{.{.{.{.{.H.D.F.S.S.z.z.z.5.6.6.4.,.,.=.[ ] ] ! H H H H H J J J J J J S S J J J F V V s s s s s s s s q q q 7 7 q q s s s q s s s N B V V V N s s s s s s s s N N s N N s s s N V V V s q q q 7 w 7 w 5 5 5 5 w 7 w w w 0 q q q q q 0 q q y s S F F F F F Z B Z F B 9 t y y H B + Z q 9 6 5 6 q q 5 0 U &.9.q.r.t.#XkX=X=X*X$X1.w.z.z.A.D.D.D.[.{.{.{.{. X+XOX+X+X%X%X&X&X&X2X2X2X2X2X6X6X6X6X6X2X2X2X2X&X&X&X&X&X&X%X%X%X%X%X%X%X%X%X%X&X2X2X8X8X8XcXcXcXcXcXvXvXvXvXbXmXbXnXnXbXbXvXcXcX8X6X6X6X*X*X&X%XOX_.v.c.).).).c.4.*.H J U &.&.:.1.] U &.&.J B V U U V s q q y 7 q q q y q s N N s s s s s y y y s q 7 q y q s V B s y y y q V y y 6 ; 6 7 7 y V Y F F V V V B V H ( ] ] ] ] ] *.] =.,.1.=.*.] H ( ] U &.*.*.U F F F U U J Z Z V F F Z P Z Z P Z C C -.Q.kXFXFXPX#X8.L 8 l 9 8 8 8 8 8 8 9 8 k l l l z O   X                         X X     X X     X X X X X X X X X X @ X X @ @ @ o o o o # # # # # # # # = = = 5 5 5 5 w w w ",
"h.h.h.h.h.B.G.K.:XK.A.h.x.A.h.A.h.A.A.h.h.V.G.h.h.B.B.B.h.A.V.V.h.B.h.h.B.B.B.B.V.V.V.C.C.C.C.C.V.V.C.k.C.C.C.k.k.C.C.k.h.C.V.G.V.V.V.V.V.V.G.V.G.G.V.V.G.G.V.V.G.C.V.G.V.G.G.V.G.G.G.V.G.V.G.G.V.V.V.G.V.G.G.V.G.G.V.V.V.V.V.V.G.G.G.V.V.G.V.V.V.G.G.G.V.G.G.G.G.G.G.G.G.G.G.G.G.G.G.G.G.G.G.G.G.A.A.A.A.A.h.g.h.J.,.h 3.f.f.g.g.g.g.g.g.g.g.g.g.g.h.h.B.A.h.f.3.[ d ; 0 LXKXKXKXKXKXKXKXKXKXKXKXKXKXKXKXKXKXKXKXKXKXKXKXbX  o 6 s u : . X PXKXKXKXKXKXKXKXKXKXKXKXKXKXKXKXKXKXKXLXKXKXKXKXPXX   ; & o o PXLXKXKXKXKXKXKXKXKXKXKXKXKXKXKXKXKXKXKXKXKXKXKXKXKXKXKXKXKXKXLXKXKXKXKXKXKXKXKXKXKXKXKXKXKXKXKXKXKXKXKXKXKXKXLXKXKXLXKXKXKXCX; S ] { =.4.=.] 4.S._._.@X%X+X4X{.A.D.x.3.<.| | | | | | | | } [ { | } { } | } { ' } <.{ ' [ { [ | {.+X>XyXpXyX4X4X%XoXH.S.5.5.,.3.D.6.} 6.z.,.,.,.[ [ { z.z.4.5.D.5.[ [ ,.z.5.e.] { { *.1.=.*.[ =.z.+X&XiXiXuX7X&X2X6XiXiX6XiXiXiXiX6X&X&X%X+X+X@XOXOXOX{.{.{.{.{.{._._.D.D.F.F.S.z.z.z.e.5.6.6.1.1.,.=.[ ] ] ] ] ! H H J J J J J J J J J J F F S V s s s s s s s y y y q q 7 q q 7 7 s q s s s N V V N s N s s s p s s q s s s s s s s q s s s N s s q q q 7 7 w w w w w w w 7 0 w 0 q q y y y q q q q 7 y B S F F F F F Z Z Z B y y y F U y 6 P c 9 6 w q s N 0 P :.q.7.r.t.`.kX=XkXkXxXmXc.w.D.z.v.D.D.D.[.{.{.{.{.{. X+X+X+X%X%X&X&X2X2X2X6X6X6X6X6X8X8X8X8X8X8X2X2X2X2X&X&X&X&X&X&X&X&X%X%X%X%X&X&X2X2X8X7XuXcXcXvXvXvXbXbXbXbXmXbXbXbXnXnXbXvXcXcX8X8X6X6X*X*X&X%XOX_.D.v.D.D.).).c.1.( &.>.] U &.U J P U U P F F V B s N N s y y s s B B s s s q p s s s y q q q s s s s s s y s B B B s y y F s y q 7 7 q s N V q q q 7 q q y B B J ] ] ] ] ( ( ( ( ] ,.1.=.*.] H U F V S J U ( J B J ( U F F Z V Z Z c P Z P U X.K &.^.FXFXFXGX`.8.L 2 l k 9 8 8 8 8 8 8 8 k l z l c O X X X                         X         X X X X X X X X X X X X X X X @ @ @ @ @ @ o # # # # # = = # = 3 5 5 5 w w w w w ",
"h.h.h.h.g.h.h.A.A.A.A.A.x.G.G.G.A.G.A.G.G.h.V.h.V.B.h.h.h.A.V.C.h.C.V.V.G.V.B.B.V.G.V.V.V.k.k.C.C.C.h.h.k.C.V.C.C.C.V.V.G.V.V.V.V.V.V.V.V.V.G.G.G.G.G.V.V.V.V.G.V.G.C.V.G.G.V.G.G.V.G.G.G.G.G.G.G.G.G.G.G.G.G.G.G.G.V.G.G.G.V.V.V.V.V.C.V.G.G.G.V.G.G.G.V.G.G.G.G.G.G.G.G.G.G.G.L.G.G.G.G.G.G.G.G.A.A.A.A.A.h.g.f.K.D.h h 3.5.f.g.f.f.g.g.g.f.3.<.3.d.g.h.h.h.g.3.[ S ;   LXKXKXKXKXKXKXKXKXKXKXKXKXKXKXKXKXKXKXKXKXKXKXKXnX  . # : ; % X # LXKXKXKXKXKXKXKXKXKXKXKXKXKXKXKXKXKXKXKXKXKXKXKXnXX X # & ; ; ; X X X X X X   X   X X X X X X X X X   X X X X X X X   X   mXKXKXKXKXKXKXKXKXKXKXKXKXKXKXKXKXKXKXKXKXKXKXKXKX].X   X X X 5 7 s ] =.{ =.1.*.*.e.S.). XOX+X&XiX@X+Xg.<.<.| | | } | | { { | ' { | | | { } | | } { } } } [ } [ [ 3.:X+X4X4XiXaX4XpXiXiXyX{.g.,.,.{.<.| } 5.5.3.,.[ =.[ =.,.6.6.4.2.[ [ ,.,.z.6.=.=.e.{ [ { { =.*.] ,.,.1.&XiXuXOX6.+XiX4XiX4XiX6X2XiX6X&X%X+X+X+X@X@XoXoXOXOX{.{.{.{._.H._.D.D.F.F.S.x.z.z.e.5.6.4.4.,.,.*.[ ] ] ] ] H H J J J J S S J J J F V V S V V d N s s s s s s s s q q q q 7 7 a q s q q s s s s s s q s s q s s s q 7 7 q s q 7 q q q q y y y q q q 7 7 7 w w w w w 7 7 q q 0 q q y s y q q q y s B S F F F F F Z B B V Z F F Z H U y V Z 9 q 0 s N Z Y Z &.q.7.t.t.].#XkXkXxXxXcXcX$X4.z.F.D.D.D.D.[.{.{.{.{.{. X.X+X+X%X%X&X2X2X2X2X6X6X6X6X8X8X8X8X8X8X8X8X8X2X2X6X2X2X6X6X6X2X2X&X&X2X2X2X2X6X8X7XuXcXvXvXvXvXbXbXbXbXbXmXbXbXnXnXnXbXvXcXcX8X8X6X6X*X*X&X%XOX{.).v.D.).[.{.).1.*.:.1.U V U J F U ( U J V B s B s N B V V B V B B B V V N s p s s s q s N N s V V s s s s s V V V V B s U B s s s s s V N s w 7 7 q q q y B y B J H ( ] H S f S J ! ] *.1.=.] ( J d B B U ( ( U F V F J Z B V A c c N Z V Y U X.:.`.FXGXGXFX7.+.L k k 8 8 8 8 8 8 8 8 8 k l z c c O X X                           X         X X X X X X X X X X X X X X X @ X @ @ @ @ o # # # # # = = 3 3 3 5 5 w w w w w w ",
"h.h.h.h.h.h.h.h.A.h.h.h.h.V.;XsX,XK.A.B.B.h.V.V.G.L.<X<XK.x.G.x.G.;XK.G.C.B.C.B.C.G.A.A.G.V.k.V.V.V.V.V.V.V.V.V.C.C.V.C.V.V.V.C.V.h.V.V.C.V.G.x.G.G.G.G.G.V.V.G.G.G.V.G.G.G.G.G.G.V.V.G.G.G.G.V.G.G.G.G.G.V.V.V.G.G.G.V.V.V.V.V.V.G.G.V.V.G.G.V.V.V.V.V.G.G.G.G.V.G.G.G.G.G.C.V.G.G.G.G.G.G.G.G.A.G.G.A.A.A.g.g.d.g.:X3.$ ) ,.3.5.f.f.5.g.g.<.} ' ' ' 3.g.h.h.g.3.[ h : X nXKXKXKXKXKXKXKXKXKXKXKXKXKXKXKXKXKXKXKXKXKXKXKXLXo X X o o @   :.KXKXKXKXKXKXKXKXKXKXKXKXKXKXKXKXKXKXKXKXKXKXKXKX=X  o 5 6 : : : & & # # o o o o & & & & & & & & & & & ; # ; # # # X       nXKXKXKXKXKXKXKXKXKXKXKXKXKXKXKXKXKXKXKXKXKXKXKXKX'.    X & 6 t f ( =.=.{ =.{ ,.e.S.D.{.{.@X@X@X@XH.g.g.3.<.| | | ,.| | | } } } { { } } { [ ,.,.,.' 3.} [ { [ { <.{.+X+X>XyX>X4XiXiX4X4X@X{.,.6.5.<.,.,.z.z.2.[ [ [ | [ ,.6.e.,.4.{ ] { ] =.=.,.[ [ [ [ ( [ ] *.=.[ [ 6.).&XuX2X2X%X4X6X4X4X&X&X&X&X4X4X4X+X+X+X+X+X@X@XOXOX{.{.{.{.{._._.).D.D.F.F.S.S.c.z.z.w.5.6.4.1.,.=.=.*.[ ] ] ( ( H H H H H J J J J J S S S V V B s s s s s s s s s s s y q q q q 7 q s s s s s s y y s s q q q s y q w w w q q q w w 7 7 w w w w 7 7 q q q 7 w w w w w 0 q q q s y q s s y q y B G J H F S B F F Z Z A Z ( *.,.[ &.&.c B c 1 q c Y U U A P 7.7.7.t.`.=X=XkXkXkXmXmXcXcX'.e.S.D.[.D.[.{.[.{.{.{.{.|.+X+X%X%X&X2X2X2X2X6X6X6X6X6X8X8X8X8X8X8X8X8X8X8X8X8X8X8X6X6X6X8X6X6X6X8X8X8X8X8X8XcXcXcXcXvXvXbXbXbXnXbXnXnXnXnXnXnXnXnXbXcXcXlX8X8X8X8X*X&X&X%X X).D.D.D.).{.c.:.*.=.=.B B B V V U ] F B B B B V Z Z V V V V V V F J J B B B B s s s s s N V d V V d s B B d S J U H F S S S B B B B V B s 7 7 7 y s s q q q 7 y B B F U ( ( ( H S S d S ( ] ] ] ] ( H F F U ] ( U Z V V B N N N q 0 0 N A C Z K &.r.#XxXFX#Xo.X.C k l l 8 8 9 9 8 9 l 8 k l c c C O X X     X X X                           X X     X X X X X X X X X X X X @ @ @ @ o o o o # # # # # = 3 5 5 5 w w w 8 8 9 ",
"h.h.h.h.B.B.B.V.h.h.h.V.h.h.A.G.G.A.A.G.V.h.k.V.h.G.L.K.G.A.G.G.h.V.C.C.V.V.B.V.G.J.A.A.G.k.V.k.V.V.V.V.V.V.V.C.V.V.V.V.V.V.V.V.V.V.G.V.B.G.L.L.A.G.G.G.V.B.G.G.G.G.G.G.G.G.G.G.C.V.C.G.G.G.G.G.G.G.G.G.G.G.G.G.G.V.V.V.V.G.G.G.G.V.V.G.G.V.V.G.G.V.V.G.G.G.G.G.G.G.G.G.G.G.G.G.G.G.G.G.G.G.G.G.A.G.G.A.A.A.h.g.f...A.>X~ * ' <.3.f.5.5.g.3.<.' ' } | d.g.g.g.g.3.[ D 7 ; =XKXKXKXKXKXKXKXKXKXKXKXKXKXKXKXKXKXKXKXKXKXKXLXKXy.      X   o cXKXKXKXKXKXKXKXKXKXKXKXKXKXKXKXKXKXKXKXKXLXKXKXKXy.  & 6 : u : > d 7 ; : 6 t t t u y u u s d d d d s s s s d s t 7 ; # X   nXKXKXKXKXKXKXKXKXKXKXKXKXKXKXKXKXKXKXKXKXKXKXKXKX'.  o # 7 d S H =.4.,.[ =.,.4.c.D.D.{.{.OXD.A.g.A.x.g.3.3.3.3.3.3.3.,.} { } } { { } | | | ,.} <.,.' | { } [ 5.oX@X>X@X+X4X4X4X4XiXH.H.+Xz.5.,.[ [ [ 6.D.F.,.[ [ [ 1.e.e.4.6.,.z.5.{ { ,.,.[ =.[ [ ] ( ] ] ] ] [ [ [ [ ,.+X6X4X4X4XiX&X&X&X%X%X%X%X&X&X%X+X+X+X+X+X@XOXOXOX{.{.{.{.{._._.D.D.D.F.F.D.S.S.z.z.e.5.6.5.6.4.1.,.=.*.{ ] ] ] ( ( H H H J J J S S S V V V B s s B B B B V V B N s s y q 7 7 7 w w 7 q q q s s q y q q q q q s q q w w 7 7 7 7 w w w w w w 5 5 7 w w 7 w w w w w w w 7 q q q q y q q s y y s V ! F B d B B B B N B F H =.4.1.( H &.c C U U U X.+.U A #.q.t.r.7.Q.=XkXkXkXxXmXxXxXmXmX6X).z.).).[.{.{.{.{.{.{.{.|. X+X+X%X&X2X2X2X2X6X6X6X6X8X8X8XuX8X8XuX8X8X8X8X8X8X8X8X8X8X8X6X6X8X8X8X8X8X8XlXlXcXcXcXvXvXvXbXbXbXbXbXnXnXnXnXnXnXnXnXbXcXcX8X8X8X8X8X8X*X&X&X X).D.D.D.).).q.*.&.] U s s F N N Z F s y B V F V V V s s V S H J V Z F B B B F V B B V V V V S V d d V S S D J J H ( ( H J S S g S S S d s s 7 q y q q q y y y y q 7 7 y F U &.*.] ( S d d S S F F J J F F U ( U J V V V B s w p s q 0 0 N A Z C Y -.0.0.r.X.o.X.z k k 9 9 9 9 9 9 9 k 8 l c c c C O X X     X X X                           X X     X X X X X X X X X X X X X @ @ @ o o o o # # # # # = 3 5 5 5 w w w 8 0 0 ",
"h.h.h.h.h.h.h.h.V.B.h.h.h.B.B.h.A.h.h.G.L.K.L.G.V.h.V.G.V.V.V.V.V.V.V.C.G.B.V.K.yXsX>XJ.G.V.G.V.G.V.V.G.G.V.V.V.V.C.V.V.C.C.C.V.V.k.h.C.V.G.G.J.J.:X}.G.G.G.V.G.G.G.G.G.G.G.G.G.V.G.G.G.G.G.G.L.G.G.G.G.G.G.G.G.G.G.V.V.G.G.G.G.G.V.V.G.G.V.V.G.G.G.V.V.G.G.G.G.G.G.G.G.G.G.G.G.G.G.G.G.G.G.G.G.G.G.G.h.h.A.A.g.g.3.3.oXoXf % ] ,.,.3.5.3.3.3.6.3.f.d.d.g.g.g.g.3.[ ( 6 . (.KXKXKXKXKXKXKXKXKXKXKXKXKXKXKXKXKXKXKXKXKXKXKXKXPX:.X     q $XKXKXKXKXKXKXKXKXKXKXKXKXKXKXKXKXKXKXKXKXKXKXKXKXLX6 # ; ; t : u d d d d d h D D D D H H ! ! ~ ~ ^ ~ ~ ^ ( ~ ( ! ! J f 5 X   nXKXKXKXKXKXKXKXKXKXKXKXKXKXKXKXKXKXKXKXKXKXKXKXKX$X  # 6 d H ( { 1.4.=.[ ,.6.e.S.D._.{.{.{.z.e.D.@XD.5.3.| | | } | <.<.<.3.3.<.,.| | | | | <.>X{.D.x.f.3.| | A.oX:X@X}.+X>X>X4X+X%XF.5.,.5.,.[ [ [ | 6.F.6.' [ ,.=.[ 5._.,.[ ,.z.4.[ [ ,.[ [ [ ' ] [ ] ] ] ] ] ] [ ] *.x.%X4X4X7X4X&X4X4X%X%X+X+X%X%X+X+X+X+X+X+X@X@X@XOXOX{.{.{.{.{.{._.H.D.D.D.F.D.S.z.z.z.e.5.6.5.6.4.1.1.=.*.{ [ ] ] ] ] ! H H H J J S V V V V d s s s s B B B V V V V N s s q 7 7 w q 7 w w w w w q q q q q q q q q q 7 7 7 q 7 7 w w 6 6 6 5 5 5 ; 5 5 5 7 w w w w w w w w q q q q s q q q 7 q d F F F G d y y q y A V F =.5.1.! ( U :.U P &.&.X.X.I I X.r.W.t.0.Q.#XxXkXxXxXxXmXmXmXmXmXnX*Xc.).).H.{.{.{.{.{.{.{.{..X+X+X%X&X&X&X2X2X2X6X6X8X8X8XuXuXcXcXcXcXcX8X8X8X8X8X8X8X8X8X8X8X8X8XlXcXcXcXvXcXvXvXvXvXvXvXbXbXbXnXnXnXnXnXnXnXnXnXbXbXcXcX8X6X8X8X6X6X6X2X&XOX{.).).).).c.*.&.( U V V F U ( J V V V Z V B V B V V s V U ( V s s d B d s y y s S F S d d d S S J ! ] ] [ [ ( ! ! ( ) ~ ! ! ! ! D D S d y u s d d y y y s s y q q q q q q s y V U ] *.*.] ! S S J J S B F ( *.*.&.U F B N s y s s q q 0 0 q C Z P U -.8.0.8.8.X.C z 9 9 9 8 9 l l k k 8 l l c C C O X X     X   X                   X X             X X X X X X X X X X X X X X @ X @ o o o # # # # # # 3 5 5 5 5 w w 8 8 0 ",
"h.h.h.h.h.h.h.h.h.h.B.h.h.B.B.B.h.G.G.K.K.oXL.G.G.G.V.V.V.V.V.V.V.h.V.G.G.K.<XK.H.oX5X:XH.G.k.V.V.V.V.V.V.V.V.V.C.C.V.V.V.C.V.h.B.k.k.V.k.V.oXgX5XMX>XH.G.G.V.L.G.G.G.G.G.V.V.G.C.G.G.G.G.G.L.G.G.G.G.G.G.G.G.G.G.G.V.G.G.G.G.V.V.G.V.V.V.G.G.V.G.G.V.V.V.V.V.V.G.G.G.C.C.G.G.G.G.G.G.G.G.G.G.G.G.G.G.B.B.A.h.h.f.f.3.g.>XD.* > ] =.,.<.3.f.,.,.<.3.3.d.d.f.g.g.3.,.^ V # A KXKXKXKXKXKXKXKXKXKXKXKXKXKXKXKXKXKXKXKXKXLXKXKXKXKXPXnXCXLXKXKXKXLXKXKXKXKXKXKXKXKXKXKXKXKXKXKXKXKXKXKXLXKXKXnX  6 B t > r u g ~ ! ^ ~ ~ ~ ~ ) ' [ [ [ [ [ [ | | } } | | ,.,.[ ] D t &   nXKXKXKXKXKXKXKXKXKXKXKXKXKXKXKXKXKXKXKXKXKXKXKXKX$XX ; s H ] =.4.6.,.,.,.,.5.z.F.D.H.{.{.D.S.z.6.z.A.5.,.| | } | | } } | { { } } } | | | ,.3.oXoXA.f.6.5.f.g.g.g.z.z.6.A.}.D.D.z.5.,.6.6.,.| | [ [ 3.F.,.[ [ [ [ [ ,.[ [ [ ,.5.oX[ ~ [ 1.] ' [ ) ] [ ] ] ] ] [ ] [ ( ) 5.5.,.OX%X%X4X4X4X4X%X+X+X+X+X+X+X+X+X+X+X+X@X@X@XOX{.{.{.{.{.{._.H.D.D.F.F.S.z.z.z.z.z.e.5.6.4.4.,.,.=.{ { [ { ] ] ] ( ! H H H J S V V B d s s s s d d B V V F F V V N s s q q q y 7 w w w w 6 w q q q q q q s s q q q q q q 7 w w 6 6 6 6 5 ; ; ; ; ; 5 5 7 w w w w w w w q q q q q w w 7 y B S y G B y 7 7 7 q q Z *.6.z.,.( *.:.:.-.+.U U L C L 7.].#X^.W.^.=XkXkXkXxXmXmXxXmXFXmXFXFXmX Xc.).{.{.{.{.{.{.{.{.{..X+X+X%X&X&X&X&X2X2X6X6X6X8X8X8XuXcXcXcXcXcXcXuX8X8X8X8X8X8X8X8X8XcXcXcXcXcXcXvXcXcXvXvXbXbXbXbXmXbXnXnXnXnXnXnXnXnXnXbXvXcXcXuX8X6X2X8X6X6X2X&X%X X X X{.).w.U &.U F V Z P P U P F V B B B B V d s s V F H S s y B F H J F F J H H S d d S H ~ ~ ) [ *.*.*.,.=.[ [ [ *.*.[ [ ) ) ~ ! ! ~ ! D S S S d d d B B B s s s s y q q V B V H ( *.*.] H J S S S S J U ] ] ( P V B B V s s q q y q q s N A A U U L m o.o.m z z 8 k k 9 k l k l l z z z C C Z O X X     X   X X X       X       X X     X       X X X X X X X X X X X X X X X X @ o o o # # # # # # = 3 5 5 w w w w w w ",
"h.h.h.h.h.h.h.h.h.h.h.B.h.h.h.B.h.V.h.B.h.A.h.G.V.G.V.V.V.C.C.C.G.C.G.G.C.K.dXhX:XoX:XK.G.G.V.G.V.V.C.C.V.V.V.V.C.V.V.C.C.V.k.h.C.C.k.k.h.h.oXgXSXpX}.G.G.L.L.G.G.G.G.G.G.V.G.G.C.G.G.G.G.G.G.G.G.G.G.G.G.G.G.G.G.G.G.G.G.G.G.V.V.V.V.V.V.h.C.V.V.V.V.G.V.V.V.V.V.V.V.V.G.G.G.G.G.G.G.G.G.G.G.G.G.G.A.A.A.h.h.h.x.3...| K.yXD.> % ( [ | <.5.6.[ ~ ' | 3.3.d.d.d.3.,.] g 7 X nXKXKXKXKXKXKXKXKXKXKXKXKXKXKXKXKXKXKXKXKXKXKXKXKXLXKXLXKXKXKXKXKXKXKXKXKXKXKXKXKXKXKXKXKXKXKXKXKXKXKXLXKXLXKX(.o 7 U ( % > r ~ ^ [ [ [ { [ } } } | | ,.,.<.<.3.3.3.3.3.3.3.3.2.,.~ d ; X nXKXKXKXKXKXKXKXKXKXKXKXKXKXKXKXKXKXKXKXKXKXKXKXKX$XX ; B ~ { ,.6.4.1.6.2.,.5.S.F.D.H.{.{.{.S.g.f.6.g.3.3.<.,.| | } { [ } } } } } } } } { ' | | g.x.x.g.6.3.3.g.6.3.5.3.3.3.3.<.,.,.<.,.[ [ [ [ [ ,.[ ~ ' ~ [ [ [ [ [ ^ [ ] | F.z.' [ [ [ ~ ] ] ] ] ) ( ] ] ] *.[ [ [ ] [ | =.@X&X&X4X>X4X4X%X+X+X+X+X+X+X+X+X+X+X+X+X@X@X@XOX{.{.{.{.{.{._.D.D.D.F.S.z.z.z.z.z.z.w.6.6.4.,.,.=.=.{ *.{ [ ] ] ] ( ( H H J S V V B d s s s s s s d V V F J V V B s s s s y 7 7 7 w w w 7 q q q q q y y s s s s q q q q q q 7 w 6 6 5 ; ; ; ; ; ; 5 5 w w w 7 7 7 7 7 7 q q w 7 w 6 7 s B B B d y y q q 7 q U 4.S.F.4.*.U :.:.-.-.:.-.-.-.-.].xXmX#XW.#XkXxXkXkXmXmXmXFXmXxXmXFXGXGXCXcX_.).{.{.{.[.{.{.{.{.{. X+X%X%X&X&X&X&X&X2X6X6X8X8XcX8X8XuXcXcXcXcXcXcXuX8X8X8X8XuXuXcXcXcXcXcXcXcXcXvXvXvXvXmXbXvXvXvXbXbXnXnXnXnXnXnXnXnXnXbXvXcXcXuX8X6X2X6X6X6X6X2X&X%XOXOX X_.4.&.&.&.U J J Z V J Z V V V V J H H d y V U ( H d V V S J H ! ! ! ( ! H D D ! [ *.,.1.4.5.5.l.l.f.5.5.5.l.f.f.5.2.,.,.,.,.2.,.,.*.) ! ! D G S S S S S V s y q s N B V F J U ] *.=.] ( S S B V V V N s y y B V N s N s s s 7 w w q N Z V A P -.-.-.X.x k z 8 8 k l c l k c c z z v C C K O X X     X X X           X X X X X X X   X X         X X X X X X X X X X X X X @ @ @ @ @ # # # # # # = 3 5 5 w w w w w w ",
"h.h.h.h.h.h.h.h.G.V.h.h.h.h.V.G.V.V.B.G.V.G.h.G.V.V.V.C.C.C.C.V.V.G.h.V.G.G.K.,X>X}.G.G.G.V.G.h.V.V.V.V.V.V.G.V.V.V.C.C.k.h.k.k.C.V.h.h.C.h.h.G.J.H.A.G.G.V.L.G.L.G.G.G.G.C.G.C.G.G.G.G.G.G.G.G.G.L.G.G.G.G.G.G.G.G.G.G.G.G.G.G.G.V.h.B.h.j.h.V.V.V.V.V.V.G.G.G.V.G.G.G.G.G.G.G.G.G.G.G.G.G.G.G.G.A.V.A.V.h.h.h.g.f.3.<.| :X5XF.r > ! [ [ ,.5.[ j j ' ,.<.3.f.3.3.| [ H : o ].KXKXKXKXKXKXKXKXKXKXKXKXKXKXKXKXKXKXKXKXKXKXKXLXKXKXKXLXKXKXKXKXLXKXKXKXKXKXKXKXKXKXKXKXKXKXKXKXKXKXKXKXKXLX0 o ; ( 1.,.r r D ) [ [ } | | | | <.<.<.<.3.3.3.3.3.5.f.g.f.f.f.3.,.~ B ; . nXKXKXKXKXKXKXKXKXKXKXKXKXKXKXKXKXKXKXKXKXKXKXKXKX$X. ; B ~ ,.6.6.,.6.z.3.,.5.S.F.D.H.{.{.{.D.g.g.5.g.3.<.,.| | | | | } } } { ' { [ [ [ [ } { } | <.,.<.f.f.3.5.3.6.3.6.| } ,.,.<.,.[ ] ,.[ | ,.,.| [ [ [ [ [ [ [ [ [ [ ] [ [ [ [ ~ ] [ [ ~ [ ] ) ) [ ] ] [ [ [ ] ^ ) ' [ 5.{.4X4X4X%X4X%X4X%X+X+X+X+X+X+X+X+X+X+X+X+X+X+X@X@XoX{.{.{.{._._.D.D.D.F.F.S.S.z.z.z.e.w.5.5.6.,.,.,.=.*.{ [ { ] ] ] ] ( H H J F V V V V d s s t t s d V V F F V V V B s s s s y q 7 7 w w q y q q q q s s s s s s s s y q s s q w 6 6 6 ; ; ; 5 5 5 5 5 7 7 7 7 6 6 6 w w w w w q 0 6 7 y y y s 7 7 w 5 5 B &.y.$X&X(.e.&.U -.:.-.&.:.7.7.7.W.kXxX#XW.].#XkXxX=XxXxXFXmXFXFXxXmXFXGXGXFXFX*X(.)._.{.{.{.{.{.{.{..X+X+X%X%X&X&X&X2X2X6X6X8X8XuX8X8XuXcXcXcXcXcXcXcXcXcXcXcXcXcXcXcXcXcXcXvXvXvXvXvXvXvXmXbXbXvXbXbXbXnXnXnXnXnXnXnXnXnXbXvXcXcXiX8X6X6X6X8X8X8X6X2X&X%X%X%X X4.&.&.:.( ( U B F J F J H U H H H S d S ] *.&.( H H H S J ! ! ! ~ H ! ) *.,.5.w.l.l.z.D.H.[.|.|.XX{..X.X|.XX[.H.v.x.l.f.5.5.3.5.f.5.2.,.*.[ ! ! ! J J S d s d B s s s s y y d H ] ] ] ( H F V V V s s s B V V B s V V B s q 7 w 5 q N B V P +.8.0.r.L x v K C l 9 P K l v z z l v C A K O   X     X X X X     X X X X X X X X X   X X   X     X X X X X X X X X X X X @ @ @ @ @ o # # # # # # = = 5 5 w w w w w w ",
"h.h.h.h.h.h.h.h.h.h.h.h.h.V.h.h.h.G.V.h.h.h.V.G.V.V.V.C.C.V.V.V.V.G.V.C.k.V.G.h.G.G.A.G.G.k.G.V.V.V.V.V.V.V.C.k.V.k.h.h.h.h.k.C.h.k.V.k.C.V.C.V.G.G.A.V.G.G.G.L.L.G.L.L.G.G.C.C.G.G.G.G.G.G.G.G.L.L.L.G.G.G.G.G.G.G.G.G.G.G.G.G.G.V.h.h.d...d.k.C.V.V.V.G.G.G.G.G.G.G.G.G.G.G.G.C.G.G.G.G.G.G.G.G.G.G.V.h.h.h.h.h.g.3.<.} g.,X5X+Xh % S ( ! 1.[.h r ~ ,.| <.5.3.<.,.[ D u 6 5 LXKXKXKXKXKXKXKXKXKXKXKXKXKXKXKXKXLXKXKXKXKXLXKXLXLXLXKXKXKXLXKXKXKXKXKXKXKXKXKXKXKXKXKXKXKXKXKXKXKXKXKXKX'.. . 6 h 5.z.<.r r Q ^ ' [ } | | | <.,.<.<.<.3.3.3.3.5.5.f.f.g.f.3.,.~ B & . nXKXKXKXKXKXKXKXKXKXKXKXKXKXKXKXKXKXKXKXKXKXKXKXKX$X. : d ( ,.6.6.,.6.z.4.2.z.A.F.H.H.H.H.H.F.g.f.g.f.6.6.x.5.,.} } } } | } } { { } { { { } | { } ' | | ' ,.,.| 6.6.6.<.{ { [ [ [ ~ [ ,.<.6.6.<.' [ ,.,.,.[ [ [ [ ,.[ [ ] [ ] [ ^ ] [ ] [ ) [ ] ) ) [ [ [ [ ( ( ] ] ] [ [ ,.{.4X+X+X4X%X4X4X4X>X%X+X+X+X+X+X+X+X+X+X+X+X+X+X@X@X{.{.{.{._._.D.D.D.D.F.F.F.S.x.z.z.z.w.5.5.1.1.,.=.=.{ { { ] ] ] ] ( H H J J S V V V V s s s s s V V S F V V V V B B s s y s y y q q q q y q s s s s s s s s s s s s s s s s q 7 7 6 6 5 ; 5 5 5 5 5 7 6 w 5 5 ; 5 5 5 5 5 7 w w w w 6 6 6 w w ; w q U q.'.iXPXcX].W.W.7.X.&.+.&.:.i.r.Q.=XxX=XQ.].kX#XkXxXkXmXxXFXFXFXFXFXFXFXFXFXFXPXFX$X_._. X{.{.[.{.{.|..XOX+X%X%X1X&X&X&X2X6X6X6X8XuX8X8XuXcXcXcXcXvXcXcXcXcXcXcXcXcXcXcXcXcXvXvXvXvXvXvXmXmXmXmXbXbXbXbXbXbXnXnXnXnXnXnXnXnXbXvXcXcX8X8X6X6X8X8X8X8X8X8X8X&X&X%XOX1.U &.=.( ( J J U ( ] =.=.] ( ( H d J ] *.*.U S F S S S H ( [ *.*.1.5.z.v.H.[.|.|.:X:X1X1X3X3X9X9XpXpX9X5X0X:X+X.X|.H.v.x.x.x.x.H.H.v.z.l.5.,.*.[ [ ~ D S G G S B s s s B d y 7 7 J J U U J J J F V V V Z Z Z Z Y V F F V N N y w w V Z Z N U ;.7.r.z x C X.X.Z k X.P C C l k k c C Z K O   X     X X X X             X X X X   X X X X X     X X X X X X X X X X X @ @ @ @ @ o o # # # # # # = = 3 5 w w w w w w ",
"h.h.h.h.h.h.C.C.k.V.V.h.h.V.V.k.h.G.G.k.G.V.B.V.B.V.V.V.V.C.V.V.G.V.C.V.C.V.k.G.V.G.G.G.V.V.V.V.V.V.V.V.V.V.C.k.h.h.h.k.h.h.k.C.k.k.h.h.C.V.k.C.C.C.V.V.V.C.G.G.L.L.L.L.G.G.C.C.C.G.G.G.G.G.G.G.L.L.G.G.G.G.G.V.G.G.G.G.G.G.G.V.V.G.h.d. . .d.h.C.C.V.V.V.G.G.G.G.G.G.G.G.G.G.V.V.C.G.V.V.V.V.V.V.G.V.h.h.h.h.h.j.g.f.3.<.} L.,XyX:X] o s ! D [ e.g u [ <.<.<.3.<.<.[ h t ; # ].KXKXKXKXKXKXKXKXKXKXKXKXKXKXKXKXKXKXKXKXKXKXKXKXKXKXKXKXKXKXKXKXKXKXKXKXKXKXKXKXKXKXKXKXKXKXKXKXKXKXKXPXw X 7 t h ,.z.z.D.! e h ~ ] ' [ } } | ,.| | <.<.<.3.3.3.3.5.3.f.5.3.| ~ d & . nXKXKXKXKXKXKXKXKXKXKXKXKXKXKXKXKXKXKXKXKXKXKXKXKX$X. : d ] ,.=.,.4.6.5.,.6.z.S.F.F.F.F.F.F.F.5.6.g.g.g.z.A.5.,.,.<.| } | { } } } } { { { { { { { | { { | { } [ ,.,.,.3.,.<.| ,.,.3.,.,.,.,.,.[ [ ,.,.,.,.6.5.| [ =.[ [ [ [ [ ^ [ ~ ] ^ ] [ [ ( ] [ [ ( [ ~ ] ] ] ] ) ] ( ,.{.4X4X&X4X4X4X&X&X%X%X+X+X+X%X+X+X+X%X%X+X+X+X+X@X@X{.{.{.{._.D.D.D.D.D.F.F.F.x.z.z.z.e.w.5.4.1.1.,.=.=.*.{ { { ] ] ] ( ( H H J F S V V V d s d s s s B V B B V V V B B s s y s y y y y s y s s s s s s s s N s N N N s s s s s s y 7 7 6 5 5 ; 5 ; 5 5 5 6 6 5 ; ; ; ; ; ; ; 6 5 5 0 0 w 6 q 5 w q Y :.(.*XnXPXbX=X#X].=X#X-.&.+.-.:.i.r.Q.=X=X^.^.kXmX=XxXmX=XmXFXxXFXFXFXFXFXFXFXFXFXPXPXnX$X X_.{.{.{.[.{.|..XOX+X%X%X&X&X&X&X2X2X2X6X8XiX8X8X8XcXcXcXcXvXcXcXcXcXcXcXcXcXcXcXcXvXvXvXvXvXvXmXmXbXmXmXbXbXbXbXmXbXnXnXnXnXnXnXnXnXbXvXcXcX8X8X6X6X8X8X8X8XuX8X8X2X2X&X$X1.U *.( ( ( J &.&.( ] *.=.] ] ( J S ] *.] ( B t d S G ! ] ,.5.z.v.D.{.|.+X:X:X1X0X5X9XpXfXpX9X9XpXfXpXpXfXpX5X5X5X0X:X.X|.|.|.}.[.[.[.H.D.x.z.5.2.[ [ ) ( ! H F G d u 7 y s y 6 7 6 q V V 7 7 V F F V B s s s N V H ] ( J N s q w w s Z Z Z P ;.8.r.m k z L U K l U P C C k k l c C Z K O   X     X X X X X         X X X X X X X X X X X     X X X X X X X X X X @ @ @ @ o @ o o # # # # # # = = 3 5 w w w w w w ",
"h.h.h.h.h.k.k.C.h.C.C.C.C.C.V.V.k.k.k.k.G.G.V.V.V.V.G.G.G.V.V.V.G.G.G.V.V.V.V.C.G.V.V.C.C.G.G.V.G.V.V.V.k.h.h.h.h.k.k.k.h.h.h.h.k.h.k.h.k.V.k.V.V.k.V.G.G.G.G.V.V.G.G.G.G.G.L.L.G.G.G.G.G.G.G.G.G.G.G.G.L.G.G.C.L.G.G.G.V.G.L.G.G.h.g.|  .}  .h.k.C.V.G.G.G.G.L.G.G.G.G.G.G.L.L.G.C.G.G.G.G.G.G.G.C.h.B.B.h.h.h.h.f.d.f.<.} ' }.yXyX<Xg.* > V S *.=.~ ~ ,.,.4.,.<.| ~ ^ D u ; X nXKXKXKXKXKXKXKXKXKXKXKXKXKXKXLXKXKXKXKXKXKXKXKXKXKXKXKXKXKXKXKXKXKXKXKXKXKXKXKXKXKXKXKXKXKXKXKXKXKXKX].. : t h Q / x.A.3.| ' r j ^ ~ [ [ [ ,.} | | | ,.,.<.3.<.3.5.3.5.3.3.,.^ f ; X nXKXKXKXKXKXKXKXKXKXKXKXKXKXKXKXKXKXKXKXKXKXLXKXKX$XX ; V ] { ,.,.4.,.,.6.g.z.A.A.A.D.A.A.F.g.f.3.6.g.A.+XdXK.3.<.<.,.| | | } { { { { [ [ } } [ [ [ [ } [ [ [ [ [ [ [ [ [ | [ [ [ [ [ [ [ [ [ [ [ [ ,.,.| 6.,.[ [ [ [ [ ] ] ( ( ( ) ) ~ ] [ [ [ [ ] ) ] ) ] ] ( ~ ] [ ] ] =._.D.=.4X4X%X4X1X4X4X+X+X%X+X+X+X+X%X%X%X%X+X+X+X@XoX{.{.@X_._._.F.D.H.D.D.D.S.S.z.z.z.e.5.6.1.4.,.,.=.=.*.{ { [ ] ] ] ( ( ! ! H J J S V d d d d d s s s y s s s V V B s s s s s y s s N N s q s s s s s s N N s s s s N N s s s s s y y 7 w 5 5 5 ; 5 5 6 5 6 6 5 ; ; = ; ; ; ; 9 9 6 w 7 7 ; ; N :.).*XnXJXLXFXcXxX=X#X=XkXr.X.7.t.W.t.`.#X#X#X=XxXmXkXkXmXFXkXFXFXxXFXFXFXFXFXFXFXFXFXGXPXPXPX$X X X[.[.[.{.|..X+X+X+X&X&X&X&X2X2X2X2X6X6X8X6XuXuXcXcXcXvXvXcXvXvXvXcXcXcXcXcXvXvXvXvXvXbXmXmXmXmXmXmXmXmXnXnXnXnXnXnXnXnXnXnXnXnXnXbXvXvXcX8X6X6X8XlXlXlXlX8XcXlX8X8X&X$X1.U &.*.] ( ] =.*.( ( J =.] *.] H ( 4.J J d u G ! ( *.4.z.D.[..X1X3X5XpXfXfXpXpXpXfXfXfXMXMXMXMXMXfXfXfXfXfXfXpX5X5X5X0X:X:X:X:XoX|.|.|.[.H.D.v.x.f.<.,.*.[ [ ) ~ ! S d y y y t t B y V Y V q y B V V B y s s 7 y s ( *.*.( F B s 6 N U P V V -.-.7.m k z A X.k l K K K c l k l c L K Z X X         X X         X X X X X       X     X X X X X X X X X X X X X X X X @ @ @ @ o o # # # # # # = = 3 5 5 w w w w w ",
"h.h.h.h.h.k.C.C.h.h.C.C.V.C.C.C.V.V.V.V.G.G.V.V.V.V.G.G.V.V.V.V.V.V.G.V.V.V.V.V.V.V.V.C.C.V.V.V.V.V.V.V.k.k.h.h.h.h.h.k.h.h.h.h.h.h.k.h.k.V.C.V.V.C.V.G.V.V.V.V.G.L.L.G.L.G.G.G.G.G.G.G.G.G.G.G.G.V.G.G.V.G.G.L.G.G.G.G.V.V.V.k.G.h.d.<.} ' ..j.h.k.V.V.V.V.G.G.G.G.G.G.G.G.G.G.C.V.G.G.V.V.G.V.h.C.C.B.h.B.h.g.g.g.g.3.3.3.' | >XeXyX,XA.^ * f S *.w.) h [ | ,.,.| ' [ ] S 6 & U LXKXKXKXKXKXKXKXKXKXKXKXKXKXKXKXKXKXKXKXKXKXKXKXKXKXKXKXKXKXKXKXKXKXKXKXKXKXKXKXLXKXLXKXKXKXKXKXKXcXX & u g Q ' / ' A.J.f.} ^ j f h ^ [ [ [ | { | } | 3.<.| 3.<.3.3.3.3.,.[ ^ d ; X nXKXKXKXKXKXKXKXKXKXKXKXKXKXKXKXKXKXKXKXKXKXKXKXKX$XX ; V ] ] ,.,.,.{ ,.5.z.z.A.A.A.A.A.A.A.A.g.g.f.3.D.H.K.x.g.g.6.6.3.,.} } } } } { { } } } } } [ } [ } } | | [ [ [ [ [ [ [ [ [ [ [ [ [ [ [ [ [ [ ,.,.2.2.[ ' [ { [ [ ] ' ) ] ) ( ~ ~ [ [ ) ] [ ] ) ] [ ] ] ( ^ ~ ( ] [ =.D.%X+X+X4X%X%X4X+X+X+X+X+X+X%X+X+X+X+X+X+X+X+X+X+X{.{.{.z.D.D._.D.D.F.D.D.S.F.S.z.z.z.l.5.6.4.4.1.,.,.=.=.=.{ *.[ ] ] ( ( ! ( ( H H H S S S V B d d d s s s s s N V B s s s s s s s s s s s s s s s s s s s s s s s s N s s s s s s s y y 7 w w 7 5 ; 5 5 ; ; 5 ; ; = ; ; ; ; ; 5 w w q 7 > s ] y.$X*X*XLXPXCXmXmXxX=X#X=XkXW.-.r.W.W.W.#X#X=XxXFXFXkX=XkXFXFXxXmXGXFXmXFXFXGXGXFXFXFXFXGXGXPXPXCX-X). X{.H.{.|..X+X+X%X&X&X&X2X2X2X2X2X6X6X6X6X8XuXcXcXcXcXvXcXcXvXvXvXvXvXcXvXvXvXvXvXmXbXbXnXmXmXmXmXmXnXnXnXmXmXnXnXnXnXnXnXnXnXbXbXvXcXcX8X6X6X8XcXcXcXcXcXcX9X8X8X8X$X:.( &.&.*.*.1.=.=.] ] ] =.] *.] ( 1.1.S H D ! ) *.4.z.D.[.|..X:X1X0X5XpXfXfXfXfXfXfXfXMXMXNXNXNXMXNXNXMXMXMXfXfXfX9X9X5X5X0X>X:X:X;X|.|.|.{.[.H.D.v.x.f.5.2.2.,.*.[ [ ( ( H F S S B B V Z V s s s y s F V s V B B F B U U U U Z N y A U P V V &.-.+.x z z L L 8 C C C K c k l C C K K Z X X X       X X         X X X X X X X           X X X X X X X X X X X X X X X @ @ @ @ o o # # # # # # = = # 3 5 5 w w w w ",
"h.h.h.h.h.C.C.C.h.h.V.V.V.C.C.h.V.V.V.V.V.V.C.C.V.V.V.G.V.V.V.V.V.V.V.V.V.V.V.V.V.V.V.C.C.C.C.V.V.V.V.C.C.C.k.k.k.k.h.h.h.k.k.h.C.h.C.k.k.V.h.C.V.V.V.G.V.V.V.V.G.G.G.G.L.G.G.G.L.G.G.G.G.G.G.G.G.G.G.G.G.G.G.V.G.V.G.G.V.V.V.V.h.h.d.|  . .<.j.j.h.C.V.V.V.V.V.C.V.V.C.V.G.G.G.L.G.G.G.G.G.V.V.C.V.V.h.h.h.h.g.g.f.f.f.3.,.{ { | >XsXyXaX4X5.> > d *.z.! D [ | | ,.,.| [ H d 6 o :.KXKXKXKXKXLXLXKXKXKXKXKXLXKXKXKXKXKXKXKXKXKXKXKXKXKXKXKXKXKXKXKXKXKXKXKXKXKXKXKXKXKXKXKXKXKXKXPXw ; 6 t ^ [ ' ' ' 3.A.A.g.g.6.,.j r h ] ] ] [ | | } | | ,.<.<.<.<.<.<.,.[ ^ d ; X nXKXKXKXKXKXKXKXKXKXKXKXKXKXKXKXKXKXKXKXKXKXKXKXKX$XX ; d S [ ,.,.,.,.5.z.z.A.A.A.A.A.D.D.A.x.g.x.f.A.J.H.A.g.g.g.5.5.f.<.,.| | } | | | | } | } | { } { [ [ { [ [ [ [ [ [ [ [ [ [ [ [ ' [ [ ' [ [ [ [ | <.,.[ [ [ [ [ [ =.[ ] ] ] ] ] ~ ] ] ~ ( [ [ ] ] [ [ ) ! D ~ ] ] ] { S.%X4X+X4X4X4X4X&X%X+X+X&X+XoX+X+X+X+X+X+X+X+XOX@XoX{.H.6.F._.D.{.{.F.D.D.F.S.S.S.z.z.z.e.5.5.6.1.,.,.=.=.=.*.{ [ [ ] ] ] ( ] ( ( H H J F F S S V d B B s s s s N B s s s s y s s s s s s s N s s s s s s s s s s s s s s s s s s s s s s s q 7 w 5 5 ; ; ; ; 5 ; ; ; ; ; ; ; > ; w 5 5 w s =._.uXbX] (.KXnXmXmXxXkX#X=XkXkX^.7.t.W.W.`.#XkXFXGXFXkXkX=XkXFXFXxXmXGXGXxXFXFXFXGXGXFXFXFXGXGXGXGXLXmX'._. X[.{.{..X+X%X%X&X&X2X2X2X2X6X6X6X6X6X7X8XuXuXuXcXcXvXcXvXvXvXvXvXvXvXcXvXvXvXvXvXbXmXbXmXmXmXmXnXnXnXmXmXmXmXnXnXnXnXbXbXbXmXvXvXcXlX8X8X6X8XcXcXcXcXlXcXcX8X8X6X_.&.U ] ] *.1.5.=.*.J ( =.] ] ( ] *.2.! D ) [ *.1.l.v.[..X+X:X1X0X5X5XpXfXfXfXMXMXfXMXMXVXVXVXVXVXVXVXVXVXVXVXVXNXMXfXfXfXfX5X5X3X0X:X:X:X:X|.|.}.J.H.H.A.x.l.5.5.2.,.,.=.*.[ ! H J B d y y y N N q s s Z Z V F J J H U J J J B J F B V Y Y V V U -.X.z z z C C 8 C k l l c l z C v K P C O X     X   X X         X X X X X X   X   X   X X X X X X X X X X X X X X X X X @ @ o o o o # o # # # # = # 3 5 5 5 w w w ",
"h.h.h.h.h.C.C.C.h.C.V.V.V.V.C.C.V.V.V.V.k.k.C.V.C.C.V.V.V.V.V.V.V.V.V.V.V.V.V.V.V.V.V.V.C.C.C.V.C.V.C.C.C.C.k.k.V.k.k.h.k.C.C.C.B.h.B.C.C.k.h.h.k.k.V.V.V.V.G.G.V.V.V.G.G.G.L.L.L.G.G.G.G.G.C.G.G.G.L.G.G.G.G.G.G.V.G.V.V.V.k.h.k.d.d.| }  . .d.j.h.k.k.C.V.V.V.V.V.V.C.G.G.G.V.G.G.V.G.G.V.V.V.G.h.h.h.h.h.h.d.f.f.3.| <.<.<.} ' 3.eXyXdXgXBXaX=.% : ( e.! h ] | ,.,.,.[ ] D t 7 X q.LXKXKXKXKXKXKXKXKXKXKXKXKXKXKXKXKXKXKXKXKXKXKXKXKXKXKXKXKXKXKXKXKXKXKXKXKXKXKXKXKXLXLXKXKXPX&.# ; t ~ ~ [ | { } ' ..J.A.B.3.3.D.' r f ~ =.[ ~ ) [ } } | | ,.,.<.<.,.,.[ ! f ; X nXKXKXKXKXKXKXKXKXKXKXKXKXKXKXKXKXKXKXKXKXKXKXKXKX=XX ; s H ] *.,.,.6.g.z.A.A.A.A.D.D.D.D.D.J.h.f.g.K.A.H.J.g.x.z.g.6.3.g.3.3.<.,.<.,.| | | | } | { | [ } } } [ [ [ [ [ [ [ [ [ [ [ [ [ [ [ [ [ [ [ [ [ ,.[ [ [ [ ,.| { | [ ] ] ] ] ] ~ ~ ] ~ ( ] ] ' ) ) ] ) ( ! ( ] [ [ =.z.+X+X4X+X+X+X+X+X4X+XF.5.D.4X+X+X+X+X+X+X+X+X+X@X@XoX{.{.{.{.H.D.D.D.D.F.D.D.F.S.S.z.z.e.5.5.6.1.,.,.=.=.=.{ { [ { ] ] ] ] ] ( ( H H H J J S S S V V V B B B N s s s s s y y y s s s s s N N s s s s s s s s s s s s s s s s s s s s s y y y 7 7 w 7 5 6 5 ; ; ; ; ; ; ; ; ; % ; 8 5 5 f =.OXgX7XH 6 cXmXmXmXxXkX#X#XkXxXkX^.W.^.W.Q.#XkXFXPXFXmXkX=X=XkXFXFXxXxXFXGXmXmXFXFXGXGXGXFXFXFXGXGXGXPXLXcX'._. X X X X+X+X%X&X2X2X2X2X2X6X6X6X6X6X7X8X7XuXuXcXvXvXvXvXvXvXvXvXvXcXcXcXvXvXvXvXmXmXvXmXbXbXbXbXbXbXmXmXmXmXbXnXbXbXbXbXbXvXvXvXcXcX8X8X8XlXcXcXcXcXvXcX8X8X8X8XS.( U ( ] =.4.1.=.( S ( *.( ( ( [ ,.[ ! ~ ,.1.5.z.[.|.+X:X:X0X5X5XqXfXfXMXMXMXNXMXfXBXVXZXZXZXZXZXZXZXVXVXVXVXVXVXVXVXMXMXfXfXfXfXyX5X5X0X>X:X:XoX|.}.}.J.H.H.D.x.f.f.5.2.2.,.*.) ( ! J G B s B V N N s q B V V U U U &.( H H d V V V V Z Y N B C &.L k n L l 0 8 8 k z k l z z c C L K c O     X     X X X X   X X X X X X X           X X X X X X X X X X X X X X X X X @ @ o o o @ o o # # # # # 3 3 5 5 5 5 w w ",
"h.h.h.h.h.h.V.C.V.V.V.V.V.V.V.V.V.V.V.G.V.V.V.V.V.C.V.V.V.V.V.V.V.G.G.V.V.V.V.V.V.V.V.V.C.C.V.V.C.C.C.C.C.C.k.k.k.k.k.h.h.h.k.C.h.h.h.B.C.h.k.k.h.h.C.V.C.V.G.C.G.G.G.G.G.G.G.L.L.G.G.G.G.G.G.G.L.G.L.T.<X,X<XK.G.G.V.V.V.V.k.h.j.<.f.g.d.d.s.s.j.h.h.h.h.k.C.V.V.C.V.V.V.G.V.V.G.G.V.V.V.V.k.V.V.h.h.h.j.d.d.d.| <. .} | 3.3. .[ / 5.gXaXgXgXBXpXS.. * d =.5.^ h [ =.[ [ [ ( D t 6 o *.LXKXKXLXKXKXKXKXLXKXKXKXKXKXKXKXKXKXKXKXKXKXKXKXKXKXKXKXKXKXKXKXKXKXKXKXKXKXKXKXKXKXLXCXZ X 6 t ! ^ [ | | | | { ' | A.oXG.G.A.}.,.. > J ~ [ ] ^ [ [ ' { [ | | <.| [ [ ~ f ; o nXKXKXKXKXKXKXKXKXKXKXKXKXKXKXKXKXKXKXKXKXKXKXKXKX=X  ; d ] ] ] [ 4.5.z.z.A.A.A.A.D.D.H.H.H.J.A.f.g.g.A.g.A.H.z.A.f.g.3.3.3.f.d.3.<.<.<.3.,.,.} | } | | | | | } } } [ [ [ [ } [ [ [ ' ' [ ' ' [ [ [ [ [ [ [ [ [ | 5.5.| [ [ ] ] ] ] ] ~ [ ] ] ] ] ] ] [ ' ] ] [ [ ] [ { { [ e.4X4X+X_.{.%X4X+X%X+XS.,.z.@X+X+X+X+X+X+X+X+X+XoXoX{.{.oXH.[.{.D.{.D.D.H.D.S.F.F.x.z.z.e.5.5.6.1.,.,.=.{ =.{ { { { ] ] ] ] ] ( ( ( ( H H H J S S V V V V V B s d B s s s y y y y s s s s s s s s s s s s s s y y s s s s s s s s s s s s q y 7 7 7 w w w 6 6 ; ; ; ; ; ; = = - ; 5 5 q *.{.gXyX,.G >.mXmXFXFXxX=X=XkXxXxXkX`.`.`.W.`.kXFXGXFXmXxXkXkX=XxXFXFXmXmXFXGXFXmXFXFXFXGXGXFXFXFXFXFXFXGXPXPXmX'._. X.X.X+X+X%X&X&X2X2X2X2X6X6X6X6X6X7X7X8X8X8XuXvXvXvXvXvXvXvXvXvXcXvXvXvXvXvXbXbXnXbXbXnXnXmXmXbXbXnXmXbXbXbXbXbXbXbXbXbXbXvXvXcXcX8X8X8XcXcXcXcXvXcXvXcX8X8X*Xu.U U ] ] 1.4.*.1.! H ] ( ! [ [ *.=.,.*.,.5.l.v.|.:X:X:X:X0X5X9XfXfXfXMXMXMXNXVXNXMXBXVXZXZXZXZXZXZXZXZXZXZXZXVXVXVXVXVXVXVXNXBXMXfXfXfX5X5X3X4X>X:X:X:X|.}.{.{.[.D.v.b.l.f.5.5.2.2.*.) ~ D d y y s s s s s V V V U U H ] *.( ( s s S V Z Y V B q U C z L X.0 8 b C K P K k l v z L L P l O X X X X X X X X X   X X X X X     X     X X X X X X X X X X X X X X X X @ @ @ @ o o @ @ @ o # # # # # = = 3 5 5 5 5 5 5 ",
"h.h.h.h.h.h.V.h.C.C.V.V.V.V.V.V.V.V.V.V.V.V.V.V.V.V.V.V.V.C.V.V.V.V.V.V.V.V.V.V.V.V.C.V.C.C.V.C.h.h.C.C.C.C.k.k.k.k.k.h.h.h.k.k.h.k.h.C.V.h.k.k.C.C.C.V.V.V.G.V.V.G.G.G.V.V.G.G.L.L.L.G.G.G.G.G.G.G.G.V.V.G.A.A.V.G.k.h.k.h.j.j.d.j.<.| <.<.s.d.d.j.h.h.h.k.k.k.C.C.V.V.V.V.V.V.G.G.G.G.V.V.V.V.h.h.h.3. . . .<.} } ' } 3.<.<.<.| [ ~ ,.aXgXgXpXgXpX{.r . r ( 4.] D ^ *.[ [ [ ^ f t & & V cXKXKXKXKXKXKXKXKXKXLXKXKXKXKXKXKXKXKXKXKXKXKXKXKXKXKXKXKXKXKXKXKXKXKXLXKXKXKXKXKXbXq # ; t D ~ [ <.<.| ,.,.} ' / f.oXoXG.L.oXJ.6.r > f ~ *.[ Q ^ [ [ [ [ { | | } [ Q d ; o nXKXKXKXKXKXKXKXKXKXKXKXKXKXKXKXKXKXKXKXKXKXKXKXKX=X  6 V H ( ] ,.5.z.z.A.A.A.D.A.D.D.H.H.H.A.J.A.g.f.A.g.g.J.A.A.A.f.g.3.3.3.g.g.f.3.<.| | | | | | <.<.,.| | | | | | | ,.,.| } } } [ [ [ [ ' [ [ [ [ [ [ [ [ [ ,.e.6.[ [ [ ] ] ] ] ] ~ ] ] ] ] ( ( ] [ ] [ ] ] ] [ [ [ ] ,.e.+X+X4X%X4X%X&X+X+X%X1X4X4X+X+X+X+X+X+X+X+X+X@XoX@XoX{.{.{.{.5.D 6.H.D.D.F.D.F.F.z.z.z.e.5.6.4.,.,.,.| { { { { { [ ] ] ] ] ] ( ( ( ( H H H J S S S V V V V V V s d B s s s s s s s s s s q y s s p p p p q q q q y y y s s s q q q y s s q y 7 7 7 7 w w 6 6 ; ; ; ; ; ; ; - ; ; # w ] J.aXaXH.[ c #XmXFXFXFXxXkX=XkXxXxXkX`.`.W.].mXGXxXxXFXmXxXkXkXkXxXFXFXFXFXGXGXGXFXmXFXGXGXGXGXGXFXFXFXFXGXPXLXLXmX'._.OXOX+X+X%X2X2X2X2X2X2X6X6X6X6X6X7X8X7X8X7XuXcXvXcXcXvXvXvXvXvXvXvXvXvXvXvXvXbXnXbXbXnXnXmXmXbXbXmXbXbXvXmXbXmXmXvXvXbXmXvXvXcXcXlXlXlXvXvXcXcXcX8XcXcX8X8X%Xq.Z J ] ( w.4.,.1.D H ] H ( *.[ [ =.3.3.5.l.H..X1X1X:X:X0X5XqXfXfXfXfXMXNXNXVXZXZXVXVXZXZXZXZXZXZXZXZXDXZXZXZXZXZXZXVXVXVXVXVXVXVXVXBXNXfXfXpX9X9X5X5X3X4X:XoX.X|.[.H.H.H.H.v.b.l.l.5.2.,.[ ! S B d s d H V B F y J ( S ( =.] *.U B d s V Z Z Z c P z 8 X.`.y.q.7.>.X.X.X.z l C c C K P 9 X X   X   X     X     X X X X X             X X X X X X X X X X X X X X X @ @ @ @ o @ @ @ o o # # # # = = # = 3 3 3 5 5 w ",
"h.h.C.h.h.C.V.V.C.C.C.V.V.V.V.V.V.V.V.V.V.V.V.C.V.V.V.V.V.C.C.V.V.V.V.V.V.V.V.V.V.V.C.V.C.C.C.C.h.h.C.C.k.k.k.V.V.k.k.k.k.k.k.k.k.V.k.V.V.h.C.k.V.C.V.V.V.V.V.V.V.V.V.V.V.V.V.C.G.L.L.G.G.G.C.V.G.G.V.V.V.G.V.B.h.h.h.h.j.j.d.j.G.G.d.| <.<.<.d.d.d.j.j.h.h.h.k.h.h.V.C.V.V.V.V.V.V.V.V.k.V.C.h.d... .} } } } } } / / ' <.d.<.| } [ ] ( ,.>XyX5XaXpXpX+X,.r & J 1.4.] f H ] ] ~ D f t ; ; o (.LXLXKXKXKXKXLXKXKXKXKXKXKXKXKXKXKXKXKXKXKXKXKXKXKXKXKXKXKXKXKXKXKXKXKXKXKXPXy.  o ; d D ~ [ ,.<.<.' ,.5.<.,.[ ' <.K.K.oXK.K.A.x.' * r D =.1.] h R ] [ ' [ } [ [ D d 6 # CXKXKXKXKXKXKXKXKXKXKXKXKXKXKXKXKXKXKXKXKXKXKXKXKX*X# y d S H [ 5.z.g.g.A.A.A.A.A.H.H.H.G.A.J.J.A.A.g.g.A.g.A.@Xg.g.g.f.g.g.g.3.3.3.3.3.3.,.<.<.<.<.3.<.,.| | | | | | | ,.,.[ } | | ,.,.| } [ [ [ [ [ [ [ [ [ [ [ ,.[ [ [ [ [ ' ] [ [ ' ' ] ~ ~ ^ ^ ~ ) ' [ [ [ [ ) ) [ [ [ 5.1X+X%X+X4X+X+X+X+X+X+X4X4X%X+X+X+X+X+X+X+X+X@XoX@X{.oX{.{.{.6.^ e.{.D.D.D.F.F.F.x.z.z.z.5.6.4.,.,.,.| { { { { { { ] ] ] ] ] ( ( ( ( H H H J S S S V V V V V V V d d B s s s s s s s y 7 7 7 q 7 7 7 7 7 7 w q q q q q q q q 7 7 7 q q q q q 7 7 w w w w 5 5 ; ; ; ; ; ; ; ; ; # w ] _.gXyXJ.[ H >.xXFXFXFXFXxXkXkXkXxXxX=X].].xXFXFXFXFXmXxXkXkXkXkXkXxXGXGXGXFXGXGXGXGXFXFXFXFXGXGXGXFXFXFXGXGXPXPXPXLXcX X XOX%X%X&X2X2X2X2X2X6X6X6X6X6X7X7X7X8X8X7X8XuXcXcXcXvXvXvXvXbXbXvXvXvXvXvXvXbXbXbXnXnXnXmXmXmXbXvXbXmXvXvXvXvXvXvXbXbXbXbXvXvXcXlXlXvXvXvXvXcXcXvXcX9X8X8X'.&.q J ] ] w.1.1.*.D S H H ( *.[ =.5.5.5.z.H..X1X5X0X0X5XqXfXfXMXfXMXMXNXVXVXZXZXZXZXSXZXZXDXDXZXZXZXZXDXSXSXSXSXDXSXSXSXSXZXZXZXZXZXVXVXVXMXfXfXfXfXfXfXfXpX5X5X>X:X|.|.|.|.|.[.H.v.x.l.f.2.=.) H S d d ( H S J d u ] ( S ( *.*.*.F d s A Z F F V K C k +.*XcX*X=X$X7.X.X.l l C C C P P 9 O X X X   X X X X     X X X X X X X X     X X X X X X X X X X X X X X X X @ @ @ o o o @ @ # o # # # # # = # # 3 3 3 5 5 w ",
"h.h.C.h.h.h.V.V.h.h.C.V.V.V.V.C.V.V.k.k.V.V.V.C.V.V.V.V.C.C.C.V.V.V.V.V.V.V.G.G.V.V.V.V.C.V.V.C.h.h.C.C.h.k.k.k.V.k.k.k.k.V.k.k.k.k.k.C.V.k.V.V.V.V.V.k.k.V.V.V.V.V.V.V.V.C.V.V.V.G.G.V.V.G.G.V.C.V.V.V.C.C.h.h.h.h.j.d.d.d.k.K.<Xg.3.3.| <.<.<.s.s.d.d.d.j.h.k.h.h.h.C.k.C.V.V.V.k.V.C.h.B.V.j. . . .d.d.| } ' / / ' ' } | } } } [ ] ! ^ ^ :XyXaXaXyXpX4Xz.% . s S w.e.g * ^ ^ ^ D S s 6 # o N =XLXKXKXKXKXKXKXKXKXKXKXKXKXKXKXKXKXKXKXKXKXKXKXKXKXKXKXKXKXKXKXKXKXLX*Xq X 5 w d H ] [ ,.3.3.<.| <.3.3.,.,.' ' } >X<XoXK.H.J.K.z.f $ u D ,.1.h j ~ [ ' ' ' ' ^ d 7 1 PXKXKXKXKXKXKXKXKXKXKXKXKXKXKXKXKXKXKXKXKXKXKXKXKX*Xw s 7 f ] ,.5.g.A.A.A.A.A.A.A.G.H.H.H.H.A.H.A.A.f.g.g.A.A.5.g.3.3.3.f.g.g.f.3.3.3.<.<.<.3.3.<...| ,.,.<.| | | } | ,.,.| | ,.<.[ [ | | ,.} [ [ [ [ [ [ { { [ [ { ] [ [ [ [ [ [ [ [ [ [ [ [ ] ~ ~ ~ ' [ [ [ [ [ [ [ [ ] =.,.@X4X+X+X%X+X+X+X+X+X&X+X+X%X+X+X%X&X+X+X@X@X@XoX@X{.{.{.{.{. XOX{.D.).D.D.D.F.F.S.z.z.z.5.6.6.1.,.,.=.=.{ { { { { ] ] ] ( ( ( ( ( ( ! H H J J J S S V F V V V V B B B s s s s s y y 7 w 7 q w w w w w 7 w w w w w w w w w w w w w w w w w w w w 5 5 5 5 5 5 : ; ; ; ; ; ; ; # & Y e.pXBXL.' D &.=XFXFXFXFXFXxXkXkXkXkXkX=X#XxXLXPXGXFXFXmXmXkX=X#XkXkXxXGXGXGXGXGXGXGXGXGXFXFXFXGXGXGXGXGXGXGXGXGXPXPXLXLX*X_.OX%X&X&X2X2X2X2X6X6X6X7X8X8X8X7X7X7X8X8X8XuXuXcXcXvXvXvXbXbXvXbXbXvXvXvXvXbXnXbXbXnXnXmXmXmXmXvXvXvXvXvXvXvXvXvXbXnXnXbXvXvXlXlXvXvXvXvXvXvXcXcXcXvX8X X1.V N ( ] *.,.,.1.[ ( ( H H ( ,.,.2.l.l.f.H.:X:X0X5X5X9XfXMXfXfXMXMXMXNXNXVXZXZXZXZXDXSXSXSXSXSXSXZXZXZXDXSXSXSXSXSXSXSXSXSXSXSXSXSXDXSXZXZXVXBXMXNXNXNXfXfXfXfXfXfX5X5X:X:X:X:X:X.X|.{.H.D.x.l.4.*.! ! S D ] ( ( ( t u ( H S ] ] *.] V B V V Z F A N C z +.$XcX*XcXmX`.X.P z l v C Z P P 9 o X X O       X X     X X X X X X X X     X X X X X X X X X X X X X X X X @ @ @ o o o @ @ # o # # # # # = # = 3 3 3 3 5 5 ",
"h.h.h.h.k.C.C.C.h.C.C.C.C.C.C.C.V.V.V.V.G.V.k.C.V.V.C.V.C.V.V.C.C.C.V.V.V.C.V.V.C.V.V.V.k.V.h.C.k.h.B.V.V.k.k.V.h.k.k.k.k.k.k.k.k.V.V.k.C.V.V.V.k.k.k.k.h.V.C.C.V.V.G.G.V.V.G.G.G.V.V.G.G.G.G.G.G.C.V.V.h.h.h.h.h.d.d.<. ... ... . .} } } ' }  .s.d.d.d.d.d.j.h.h.h.h.k.h.h.h.k.k.h.h.k.h.h.h.h.j.j.g.f.g.<.} / / ' ' } } ' / E Q h R D h u [ {.pXaXaXaXaX&X2X1.r > : H 1.( S h ^ ( J S t ; 7 . o y $XPXKXKXKXKXKXKXKXLXKXKXKXKXKXKXKXKXKXKXKXKXKXKXKXKXKXKXKXKXPX'.0 X o : f h ^ [ ,.,.3.3.f.d.3.3.3.5.<.2.,.[ ) ' A.oXG.K.L.G.K.A.{ r r f J *.] ] ~ D ' { ~ ^ g f ; DXKXKXKXKXKXKXKXKXKXKXKXKXKXKXKXKXKXKXKXKXKXKXKXKXcX6 % : ! ,.6.g.z.A.A.A.A.D.A.A.J.H.H.H.A.g.G.h.h.h.g.A.A.g.g.g.f.5.5.3.<.5.3.3.3.3.<.<.<.| <.| | | | | | | ,.<.| | } | { { } | } } [ [ } | [ [ [ [ [ [ [ [ { [ [ [ [ [ [ [ [ *.[ [ [ [ [ ] ] [ [ [ ] ) ] [ [ [ [ ] =.[ [ 6.oX%X+X+X+X&X+X+X%X%X%X%X+X+X+X+X>X+X+X@X@X+X@XoXoX{.{.oX{.{.{._._._.D.D.D.D.D.F.F.S.z.z.l.5.5.6.4.,.,.=.{ { [ [ [ ] ] ] ( ] ( ( ( ( ! H H H J J J J S F F Z V V V V V B s s s y y y q w w w 7 7 w w 7 w w 7 5 5 5 5 7 7 5 5 5 7 7 w w w 5 5 5 5 5 ; 5 ; ; ; 6 & 5 ; ; > o ; % s q.&XDXoXR ^ :.].xXFXFXGXFXFXxXkXkXxXkXkXxXFXPXPXGXGXFXFXmXFXxX=X$X=XxXxXFXGXGXGXGXGXPXPXGXFXFXFXGXGXGXGXGXGXGXGXGXPXPXLXLXPXcX$XOX&X&X2X6X2X7X7X7X7XuXuXuX8X8X8X7X7X8X8XuXuXcXcXvXvXbXbXbXbXbXbXbXvXvXvXmXAXbXbXbXnXnXbXmXvXvXvXvXcXvXvXvXvXvXbXnXbXbXvXvXvXvXvXvXvXvXvXvXcXcXlXlX8Xy.J B U ( ( ] *.*.,.[ ] ! u ! 1.2.5.f.g.g.H.|.0X5X0X3XpXfXfXfXfXMXMXMXMXVXZXZXSXSXZXDXSXSXSXSXSXSXSXSXSXDXDXDXDXSXSXSXSXSXSXSXSXSXSXSXSXSXSXDXDXDXSXSXZXBXVXNXNXNXNXNXNXfXfXpX5X0X3X5X0X+X.X|.[.H.x.5.,.[ ~ D ! ! ( *.( u d ( G S ] ( ( H s d H U J B c K C >.$X*X=XlXcXt.-.L z l c K K K C 9 O X X   X     X X X X X X X X     X X X X X X   X X X X   X X X X X X X @ @ @ @ o @ @ o o o # # # # # # = # # = 3 5 5 3 3 ",
"h.h.h.h.h.B.C.C.h.C.V.V.V.V.V.V.V.V.V.G.V.V.C.V.C.C.G.G.V.V.V.V.V.C.k.k.k.C.V.V.k.V.h.h.k.k.k.k.k.k.V.V.V.k.k.k.C.k.k.k.V.V.V.k.C.k.h.h.k.k.h.V.V.C.V.V.V.C.V.V.V.V.V.V.V.V.G.L.V.G.V.V.V.V.C.V.k.G.C.h.h.h.j.j.d.s.d.d. . . . .' ' ' ' / / } ..s.s.d.d.d.d.d.d.d.j.j.h.h.j.h.h.h.h.j.j.j.h.h.j.h.d.j.h.x.3.} / / ' ) ^ / / ^ R ^ ^ h h h f r j 5.yXyXaXyXaX4X&XF.{ % % t d f d D ! ! S u t 7 7 # 6   X >.$XnXLXKXKXKXKXKXKXKXKXKXKXKXKXKXKXKXKXKXKXKXKXLXnX'.>.X # X 6 u d D ] { ,.3.3.f.f.f.f.f.3.3.5.3.3.,.,.,.' ' f.A.J.G.L.K.K.K.A.} % u u g ! ~ ^ ^ ] ^ ~ S t s & # X   X X             o X       X X X o o X 5 0 B % % S { ,.5.g.x.x.A.A.A.A.A.A.H.J.J.H.G.A.A.h.h.h.A.g.A.h.g.x.g.5.g.3.3.3.3.f.3.3.3.<.<.| | | | } | | | } } | | | } } { } } } [ ' { { [ { [ [ [ | | | ,.,.| [ [ [ [ [ ' [ [ [ [ [ [ [ [ ~ ] [ [ [ [ [ [ [ [ [ [ [ ,.[ [ [ {.%X4X%X+X+X+X+X+X+X+X+X+X+X+X+X+X+X+X+X+X@XoX+X{.}.{.{._.{.{.{.{._.D.{.[.D.F.D.F.F.S.z.z.l.5.6.1.,.,.,.=.=.[ [ { ] ] ] ( ] ( ( ( ( ! ! H H J J J J S F F S V V V V V B s s y t 7 7 7 w 5 7 w w w 7 w 5 5 5 5 5 5 5 5 5 5 6 ; 5 5 5 5 5 5 ; 5 5 ; ; 5 ; ; ; ; ; 5 & # 5 5 # q (  XDX5X/ ' 2.#XkXFXFXFXGXFXFXxXxXkXkXkXmXGXPXGXGXGXGXFXFXFXFXmX=X=X=XkXxXFXGXGXGXGXGXPXPXGXGXFXFXFXGXGXGXGXGXGXGXGXPXPXPXPXPXLXmX=X%X&X2X7X7X7X7X7XuXuXuXuXcXuXuX8X7X8X8XuXcXcXcXvXvXvXbXbXbXbXbXbXvXvXvXmXbXbXbXbXbXbXmXvXvXvXvXvXvXvXvXvXvXvXbXbXbXbXvXvXvXcXvXvXvXvXvXvXcX8XvX8X X*.B V ( U ( ,.=.[ [ ! ] ! [ 1.w.5.l.x.x.v.|.:X1X0X9XpXfXfXfXfXfXNXVXNXVXZXZXSXSXSXDXSXSXHXHXHXSXSXSXSXSXSXSXSXSXSXSXSXSXHXHXHXHXHXSXHXSXSXSXSXSXSXSXSXSXSXSXSXZXZXZXZXZXZXVXVXMXfXpX9X5X5X5X0X:X:X|.D.f.,.[ ~ D g ! *.*.H > S ( S ( ] H ( S V S H U F F K P q.=X=X=XcXxX7.X.L l z c K Z K v 8   X X   X     X X X X X X X X     X X X X X   X X X X X   X X X X X X @ @ @ @ @ o @ @ o o o # # # # # # = = = = 3 5 5 3 5 ",
"C.k.h.h.h.h.h.B.V.V.V.V.V.V.V.V.V.V.V.V.V.V.V.V.k.k.k.k.k.k.k.k.h.V.V.V.V.C.k.h.h.k.h.h.h.h.k.k.k.k.V.C.k.V.k.k.k.V.V.V.V.k.k.k.h.k.C.k.h.k.k.k.V.V.C.V.C.C.C.V.V.V.V.V.V.G.G.G.V.V.k.h.C.k.h.k.G.h.j.j.j.d.j.d.a.j.d...3.<. .|  .} { ' ' } }  ...s.s.d.d.s.d.d.d.d.d.d.s.........s.s.....<.d...d.<.d.h.f.} / / ~ ~ ^ Q ^ Q R R h h D h h g u u r [ @XyX4X4XiX%XJ.F.{.*.D * > u h D g f d u s u 6 6 o X X   X X *.(.$XcXnXnXLXLXKXKXKXKXLXPXPXCXcX$X(.>.;   & X ; ; t u g ~ [ } <.3.5.g.f.g.f.f.f.f.f.f.5.5.3.<.,.[ ' / | J.oXoXK.K.K.K.A.A.,.h f r f f D ! ! J S S u 6 5 # # o o o X X X X o     ; w 5 5 5 5 5 w N Z q   ; g ] ,.6.g.g.g.x.A.A.A.G.J.H.J.J.J.G.J.A.G.h.h.h.g.g.g.h.H.A.g.h.A.f.5.3.3.x.g.5.f.,.<.<.| | | | | ' } ,.,.| | | } } } ' } { } ,.{ [ } } } [ [ [ [ [ [ [ } | [ [ [ [ [ [ [ [ [ [ ,.[ | [ [ { [ | | [ [ [ [ =.,.=.,.,.=.,.H.+X+X+X4X+X+X+X+X+X+X+X+X+X+X}.{.@X+X+XoXoXoX|.oX{.{.D.{.{.{.[.{.{.D.{.H.D.D.F.F.F.S.z.z.l.5.6.1.,.,.,.,.=.{ [ [ [ ] ] ] ] ( ( ! H ! ! H H J J J J F F F F S V V V V d s s y y 7 7 7 w 7 7 7 7 7 6 ; ; ; ; ; ; ; ; ; ; ; ; ; ; ; 5 5 5 5 5 5 ; ; ; ; ; ; ; ; ; ; w w 5 5 # V c.gXhXd.f.c.(.xXFXGXGXGXGXFXxXkXxXkXkXxXGXLXGXFXGXGXGXFXFXFXFXmXkX=X=X=XkXFXGXGXGXGXGXPXPXGXGXFXFXFXFXGXGXGXGXGXGXGXGXGXGXGXPXPXKXmX$X*X2X2X6X7X8X7XuXpXuXuXcXuXuXiX8X8XuXuXuXcXcXcXvXvXbXbXnXnXnXbXbXvXvXbXbXbXbXbXbXvXvXvXvXvXvXvXvXvXvXvXvXvXvXbXbXbXbXvXcXvXvXvXvXvXvXvXvXcXvX8X).( V J &.( ] =.[ ) [ ( ( *.5.w.4.5.z.x.x.}.:X0X0X5X9X9X5XfXMXNXNXVXVXVXZXSXSXSXSXSXSXSXSXSXSXSXSXHXSXHXHXHXSXHXHXHXHXSXSXHXHXHXHXSXSXSXSXSXSXSXSXSXSXSXSXSXSXSXSXSXSXSXSXSXZXZXZXVXfXfXfXfXfXpX9X9X0XoXH.z.5.2.) D ! ) ,.*.H t ( &.J ( H ( H H d H U J F P U y.*X=X=XmXxX-.X.L z l c Z Z K c 5   X X   X X X X X   X     X         X X X X   X X X X X X X X X X X X X X X X @ o @ # # # o # # # # # # = = = = 3 5 5 5 5 ",
"k.k.k.k.h.h.h.B.V.V.V.V.V.k.k.k.V.V.V.V.V.V.C.C.V.V.k.C.k.k.k.k.V.C.C.h.h.h.h.k.h.j.d.a.d.d.h.k.h.k.k.h.k.V.V.h.k.k.k.k.k.k.k.V.k.k.h.k.C.k.k.C.V.V.V.V.V.V.C.k.k.V.V.k.C.V.V.C.k.h.j.j.h.h.h.h.g.d.d.d.d.j.j.d.d.d.d.h.j.<.3.3.3.<.,.| } [ } } | ..<.d.<. . ...s.d.d.s.<.<. . . . . . . .} } } '  . .} ' ' ) / ^ ^ ^ ~ / ^ Q Q ^ h D D h h h D g r j 6.@X@X4X%XoX@X+XoX|.F.6.~ r r u r u r f f d 6 6 & &   X X   # X X o X o       X           X   X # ; & : t u g H ] ~ | | 3.3.f.f.g.f.g.g.g.f.f.f.f.3.3.3.<.,.,.,.' ^ / g.oXK.K.K.K.G.J.A.}.A.3.' u r r h f g t : t : 5 ; ; & & & % % 6 s V S J J H J V F U U Z X . t g ] =.3.5.z.z.g.g.A.A.H.G.H.J.G.J.J.A.G.A.A.h.A.h.h.x.A.J.>XA.f.A.A.3.f.f.x.J.x.3.f.3.<.<.| ..<.3.} ^ ^ } 3.<.3.| | ,.| ,.| ,.,.| | } } } } [ | [ [ [ ' [ [ { { [ [ [ [ [ [ [ [ [ ,.,.,.| { [ [ ,.,.| { [ | ,.,.,.,.,.[ ,.S.+X%X+X+X1X+X+X+X+X+X+X+X+X@X6.^ ,.oX@X|.oX+X@X{.x.,.5.{.D.{.{.{.{.J.D.D.D.D.F.F.F.S.z.z.z.5.5.6.1.1.,.,.| [ [ [ [ ] ] ] ] ( ! ! H ! ! H H J J J J J F F V S V V V V d s s y 7 7 7 7 w 7 7 6 6 5 5 ; ; ; ; ; ; ; ; ; ; ; ; ; ; ; ; ; ; ; 5 ; ; ; ; ; ; ; ; ; ; # 5 5 # & 7 =.4XgX5X<.l.~.kXmXFXGXGXGXFXFXxXxXxXmXGXPXGXGXFXFXGXGXGXFXFXFXFXmXkXkX=X$XkXFXGXGXPXGXGXPXPXGXGXGXFXFXFXFXGXGXGXGXGXGXGXGXGXGXPXPXLXLXcX=X&X8X6X7X7XuXuXpXvXuXuXcXuXuXuXuXuXuXuXcXcXvXvXbXbXnXnXnXnXnXbXbXvXbXbXbXbXbXvXvXvXvXvXvXvXvXvXvXvXvXvXvXvXbXbXbXbXvXvXvXvXvXvXvXvXvXvXcXvX6Xy.H V ( =.[ ] [ ( ~ ~ ) [ e.c.z.5.l.x.x.H.:X5X5X5X9XfXpXfXMXNXVXVXVXZXZXZXSXSXSXSXSXSXSXSXDXSXSXHXHXSXHXHXHXHXHXHXHXHXSXDXSXSXSXSXSXSXSXSXSXSXHXSXSXSXSXHXSXSXSXSXSXSXSXSXSXSXSXSXZXZXAXVXNXVXNXfXfXpX5X1X{.v.z.3.[ ! D [ ,.,.S t *.H S H H J ( J F F U F P U W.*X=X=XmX=X8.+.C k c C Z K P c 5   X X X X X X X X                   X X X       X X X X X X X X X X X X X @ X @ o @ # # # o # # # # # # = = = 3 3 5 5 5 5 ",
"k.k.h.h.h.h.h.h.k.k.k.V.k.h.h.k.k.V.V.V.C.C.k.k.h.C.G.G.k.h.h.h.h.h.h.h.h.h.k.k.h.j.d...d.a.d.j.h.k.k.k.k.k.V.h.k.k.h.h.k.h.h.h.j.h.k.k.k.k.C.k.k.k.V.V.V.k.k.k.h.h.h.h.k.k.h.h.h.j.d.j.h.j.d.d.d.d.....d.d.j.h.T.<XoXK.J.x.f.3.3.5.5.6.2.,.,.3.<.<.<.<.<.<.<.<.<.<.....d.d.<. . . . . .' / / '  .} / E / / / ^ ~ ~ / ^ ^ ~ ^ Q Q Q Q Q D D D h f h u r ^ D.+X@X4X>X}.oX}.@XD.5.h j 5.,.' h r j u d f > t t t s d s s y s q ; 6 6 ; X X   X o % o ; ; : u f f D ^ ~ ~ ,.| <.3.d.d.f.f.g.f.f.f.g.g.f.f.f.f.3.3.3.<.,.,.[ [ ' ^ ' H.J.H.K.G.J.J.G.K.K.K.oXA.5.[ ^ j f D f t f t t f S ( [ =.1.=.=.=.=.=.*.=.1.=.*.s o : d ! ] ,.,.6.5.z.A.A.A.A.H.H.A.G.G.G.H.J.G.A.g.h.h.h.G.g.A.@X@X>XA.A.A.g.g.g.d.d.g.g.3.3.| | | | | <.<.{ Q h ' ,.| <.| | <.,.| ,.| <.3.3.3.3.<.| | [ [ [ ,.} } { ' ' } [ [ [ [ [ [ [ [ 2.5.| | | | | ,.,.,.,.,.=.=.,.| ,.,.,.,.D.+X1X4X+X%X+X+X+X+X+X@X+X+X+X@XD.z.oXoX{.v.3.[ [ ~ ^ ] F.D.D.{.D.D.{.H._.D.D.F.D.F.S.z.z.z.g.5.5.6.6.,.,.| [ [ [ [ [ ] ] ] ] ( ! ! ! ! ! H H J J J S S S V V V d V d d s y 7 7 7 7 7 7 6 6 5 5 ; ; ; ; ; ; ; ; ; ; ; ; ; ; ; ; ; ; ; ; ; ; ; ; ; ; ; ; ; ; ; ; # # 6 ; & J S.4X4X,.w.(.=XxXFXGXGXGXFXFXxXxXxXmXGXPXPXGXGXFXFXGXGXGXFXFXFXmXmXkXkXkX=XkXFXGXGXPXGXGXPXPXGXGXGXFXFXFXFXFXGXGXGXGXGXGXGXGXGXPXLXGXLXLXmX*X*X8XuXcXuXuXuXvXvXcXvXvXcXuXuXuXuXuXcXvXvXvXvXbXbXnXnXnXnXbXbXbXbXbXnXbXmXmXvXvXvXvXvXvXvXvXvXvXvXvXvXvXvXbXbXbXbXvXvXvXvXvXvXvXvXvXvXvX&X1.U U *.] H ( ( ( ^ h [ 5.D.D.z.l.z.z.H..X5XfX9X5X9XfXfXpXMXNXVXVXVXZXZXZXZXSXSXDXSXSXHXSXDXHXHXHXSXSXSXHXHXHXHXHXHXHXSXSXSXSXSXSXSXSXSXSXSXSXHXHXHXHXHXHXHXSXSXSXSXSXSXSXSXSXHXHXSXSXZXZXZXSXZXNXMXMXpX9X1X|.D.z.1.) Q ! *.1.=.f d ( S J J S ( H U J U F Z P y.*X=X=XmX-X-.X.v l C C Z K P c 5   X X X   X X X X X X         X X         X X X X X X X X X X X X X @ @ @ @ @ o o o o o o # # # # # # # # # # = 3 5 5 3 3 ",
"h.k.h.h.k.k.h.h.h.h.k.V.V.k.C.V.k.k.C.C.C.C.k.h.h.h.V.h.h.h.h.h.h.g.j.h.h.h.h.h.j.d.d.d.h.h.j.h.k.k.k.C.C.V.V.h.k.k.k.C.k.h.j.j.d.d.j.j.h.k.k.k.C.k.k.C.k.k.k.h.h.h.h.h.k.h.h.h.h.d.d.d.d.3.<.d. .| <.d.f.j.x.K.G.h.h.J.H.g.<.} ,.<.<.,.,.,.,.<.f.3.3.3.<.<.| | <.<...s.d.d.s...<.| } ' / ' ' / ' ' E / ' / ~ ' / / ^ ^ ^ ^ ^ Q h Q ^ ~ Q h D h g g u u t u ] z.@X+X}.+XoX5.z.e.6.^ F.@XK.}.J.x.5.z.5.z.,.=.1.,.=.*.d s F F U d : ; o o % : : r r u f g h ^ ~ [ ' | | <.3.3.f.d.d.g.j.f.f.j.f.f.g.f.f.f.f.3.3.3.3.<.,.,.,.' [ ^ ^ | g.J.J.G.B.J.K.K.L.K.K.oXK.oXJ.D.z.z.F.z.e.A.z.z.z.z.z.A.5.4.5.z.z.e.e.4.! > t f H ] { ,.,.5.g.g.x.A.A.A.A.A.G.G.H.J.H.H.H.G.A.A.B.g.H.A.K.A.A.oXJ.A.J.J.g.g.A.h.f.f.3.3.3.3.| <.| | | <.| ' } | ,.<.<.<.<.<.3.3.<.3.g.g.x.g.g.5.<.3.,.,.| ,.| | | ,.} ' ' [ [ [ [ [ [ ,.4.5.,.| ,.,.| ,.,.,.,.,.,.,.,.| =.,.=.,.D.+X%X+X4X+X%X+X+X+X@X@X@X@XoX+X@X@X@Xz.,.[ [ ) Q ( J h ( =.4.D.[.H.{.D.H.D.D.D.D.F.S.S.z.z.z.5.5.5.6.1.,.,.=.[ [ [ [ ] ] ] ] ( ! ! ! ! H H H J J J S S S V V d d d d s s y y 7 7 7 7 7 6 6 : ; ; ; ; ; ; ; ; ; ; ; ; ; ; ; ; ; ; ; ; ; ; ; ; ; ; ; ; ; ; - 5 # ; - ; o 7 :.{.&X_.(.].=XxXFXGXFXFXFXFXxXmXFXGXPXLXGXGXPXGXFXGXGXGXGXFXmXmXmXmXkXkXkXkXkXmXGXPXPXPXPXPXPXGXGXGXFXFXFXFXFXFXFXGXGXGXGXGXGXGXPXGXGXPXLXLXPX*X*X8X8XcXpXvXvXvXvXvXvXvXvXcXcXcXuXcXvXvXvXvXbXbXnXnXnXnXbXbXbXbXnXnXbXnXnXbXbXbXbXbXbXvXvXvXvXvXvXvXvXbXbXbXbXbXvXvXbXvXvXvXvXvXvXvXcX$Xq.&.( &.H D ] ( ! ^ ' f.D.D.x.z.x.x.x.H.|.0X5X5X9XpXpXpXpXfXMXNXVXVXVXZXSXSXSXSXSXSXHXSXSXDXHXSXSXSXDXSXHXHXHXHXHXHXHXHXSXSXSXSXSXSXSXSXSXSXSXHXHXHXHXHXHXHXSXDXSXHXHXSXSXSXHXHXHXHXHXSXZXZXSXSXZXNXMXfXpX9X3X.X[.z.2.[ D ~ 1.1.*.u S ! H J J H J ] U J F V V :.'.=X=XmX#X-.X.v z c C Z P P l 5 X   X X           X X           X         X X X X X X X X X X X X @ @ @ @ @ @ o o o o o o # # # # # # # = # # = 3 5 3 3 3 ",
"C.h.h.h.h.k.k.h.h.h.h.V.V.k.k.V.h.k.k.k.h.h.h.h.h.j.d.d.d.d.d.d.<.<.<.d.g.G.L.;XK.G.G.h.k.V.h.h.k.k.k.k.V.k.k.h.C.V.k.h.h.h.h.h.d. . .j.k.k.k.V.k.k.k.k.k.k.h.h.h.h.h.j.j.j.h.j.d.d.d.3. . . . .| <.d.<.} | <. . ...3.| } } [ | | ,.| ,.,.,.[ } ' } ,.3.3.<.| | | | <.d.d.d.d.d.3.<.} / / / / / / <.| / ^ ~ ~ Q ^ ^ ^ ^ / ^ ^ ^ ~ ~ R ^ Q h h h h h h f u h r r ^ z.@X>XoXz.[ ^ [ ^ ,.oX>XoXA.A.D.}.A.A.A.H.H.F.z.1.%   ; 6 ( h % % % : t f h h h h ^ ~ ' } | | <.3.<.<.f.3.d.d.d.g.f.d.j.g.g.g.f.f.g.f.f.3.3.3.3.,.3.<.| ,.,.~ ' R ^ ' H.J.B.G.L.<XK.B.G.P.<X<XoXJ.K.J.@XK.J.}.oXJ.J.J.A.J.D.D._.).F.5.~ > > J ! ] [ ,.,.6.f.5.g.x.A.A.A.A.A.g.h.A.J.H.J.J.G.A.g.A.g.A.B.G.A.A.F.G.A.J.K.A.f.K.oXA.f.3.3.3.,.| <.<.<.<.<.| <.<.<.<.<.<.<.3.3.3.| <.3.3.<.<.| ,.| ,.<.3.3.3.| } | | ,.3.<.} { | [ [ [ [ [ | ,.<.,.| ,.,.,.,.,.,.| | ,.,.,.,.| ,.,.,.l.oX@XoX+X%X+X+X+X+X@X@X@XoX+X@XoX@XH.5.,.[ ^ ) ! D J J J J ( 5._.[.H.D.D.D.D.D.D.D.F.S.S.z.z.z.5.5.6.3.<.,.,.,.=.[ { [ ] ] ] ( ~ ! ! H H H H S S S g d d d d d d d s s s t y 7 7 7 7 6 ; ; ; ; ; ; ; 5 5 ; ; ; ; ; ; ; ; ; ; ; ; ; ; ; ; ; ; ; ; ; = ; - - # - ; ; ; p >._.'.'.].'.=XxXFXFXGXFXFXFXFXFXGXPXPXGXGXPXLXPXFXFXGXGXGXGXFXmXmXmXmXxXkXkXkXxXmXFXPXPXPXPXPXPXGXGXGXGXGXGXFXFXFXFXGXGXGXGXGXGXGXGXGXPXPXPXLXKXPXmX8X8X8XpXvXvXvXvXvXvXbXvXvXcXcXcXvXvXvXvXvXbXnXnXnXnXnXnXnXnXnXnXAXnXAXnXbXbXbXbXbXbXvXvXvXvXvXvXvXvXbXbXnXbXbXbXbXbXbXvXvXvXvXvXvXcX_.:.&.U ] ] [ =.[ ! [ z.D.D.v.x.x.v.}.[.|.|..X:X0XfXfXfXfXMXNXNXNXVXVXZXZXSXSXSXSXHXSXSXSXSXHXHXHXDXSXSXHXHXHXHXHXHXHXHXHXSXSXSXSXSXSXSXSXSXSXSXSXHXHXHXHXHXHXHXHXHXHXHXHXHXHXHXHXHXHXHXSXSXDXSXSXSXZXVXNXMXfX9X3X+X[.z.2.^ Q ,.2.5.[ g D H H J S S ( ( F F Y V U u.'.=XFX`.-.+.v z z C K P K k 1 O     X           X X X X     X X X X   X X X X X X X X X X X X X @ @ @ @ @ o o o o o o o # # # # # # # # # # = = 5 5 3 3 ",
"V.C.h.h.h.k.k.k.h.h.h.k.h.h.h.h.h.h.h.h.h.h.g.g.3.<.| | | | | } | } | |  . .d.G.<X<X;X;XK.K.L.V.k.k.k.V.V.k.h.h.h.h.h.h.h.j.d. . . ...j.j.k.k.k.k.k.k.k.h.h.h.j.j.d.d.d.d.d.d.d.d. . . . .| <. .<.<.| } } } } |  .| 3.<.} } [ [ | ,.,.,.,.[ [ [ [ [ [ { } | } ' ' }  . . . .<.<.<.} / ' ) / / ' <.z.| / ^ ~ / ^ E / ^ E ^ / ^ ^ ^ ~ ^ R Q ^ ~ ~ ~ ^ j h f f h j u f D 3.z.S.~ ] 5.r R J.J.oXH.H.A.J.oXJ.J.K.K.K.H.{ > % s d t f t t u d g D ^ ~ ) ' ' { | | <.3.<.d.3.3.| } ' } <.d.<. .d.d.f.g.f.f.g.f.f.f.5.3.3.3.| <.<.| ,.,.{ { ^ ^ Q ' <.h.J.T.K.P.<X<X<X<X<XK.K.oX<XoX<X<X<X<X<X<XK.oX}.oXF.,.h r u S ! ] [ ,.6.,.6.g.g.z.g.x.A.A.A.A.x.f.<.h.G.G.H.H.G.A.A.A.A.A.J.G.H.H.J.A.J.A.3.3.h.:XK.g.g.f.<.<.<.<.<.| <.<.<.<.<.<.3.3.3.d.3.3.3.3.3.<.| | | | | | | | { / ' } | | { | | } ,.3.<.[ } } [ | [ [ ,.<.2.,.,.,.,.| [ [ ,.,.,.| ,.,.| | ,.,.,.[ [ {.z.H.+X+X+X+X@X@X@X@X@XoX@X}.A.,.,.~ ~ ! H H S S S H ! =.S.D.D.H.F.D.D.D.D.F.F.F.S.z.z.z.5.5.6.6.3.,.,.,.=.[ [ [ ] ] ] ] ( ( ! ! H H H J S S d d d d d d d d s s t t t 6 7 7 : ; % % o o & ; ; 5 ; ; 5 5 5 ; ; ; ; ; ; ; ; ; ; ; ; ; ; ; = = = - ; - - ; o w U y.#X#X#X#X].=XmXFXFXFXFXFXGXGXPXPXGXGXPXLXLXLXLXPXFXFXGXGXPXGXFXFXFXFXmXmXkXkXkXxXmXFXPXPXLXPXPXPXGXGXGXGXGXGXFXFXFXFXGXGXGXGXGXGXPXPXGXPXPXPXLXPXKXLXvX8X6XuXvXuXcXvXvXvXbXbXvXvXcXvXvXvXvXvXbXbXnXnXAXAXCXAXnXnXAXAXAXAXAXAXAXnXnXnXbXbXbXvXvXvXvXcXlXvXbXbXnXbXbXbXvXbXbXbXbXvXvXvXvX8Xw.( U *.=.*.*.*.) ) 6.{.{.H.[.H.b.x.}.|.:X0X:X5X9XfXpXfXNXNXVXVXVXVXZXZXZXSXSXSXSXHXSXDXDXSXHXHXHXDXSXHXHXHXHXHXHXHXHXHXHXHXHXSXHXHXHXHXSXSXHXHXSXHXHXHXHXHXHXHXSXHXSXSXHXHXHXHXHXHXSXDXSXSXDXDXDXSXZXZXVXNXMXfX9X3X+X{.z.,.) ) ,.6.w.! u ! H S S J H ( U F H U Y ] u.$XFXt.+.X.v z c C K Z K 9 1 O X X X X         X X X X     X X X X X X X X X X X X X X X X X X @ @ @ @ @ o o o o o o # # # # # # # # = # # = = 5 5 3 3 ",
"V.h.h.k.h.h.h.h.h.h.h.h.h.h.h.h.h.h.h.h.h.j.3.| | } } } } } } } [ ' ' } } }  . . ...h.;XsXdXsXL.G.L.L.G.k.G.G.h.h.h.h.j.j.j... .}  . .a.j.k.k.k.C.h.V.k.h.h.h.j.j.d.d.d. . . .........}  .<. . .<.<. .} } | <.f.<.| <.<.<.<.,.,.| | | ,.,.} [ [ [ [ [ [ [ [ [ [ ' ' ' } <.} ' / / ) / / ) / / ) / / ^ ~ ~ ~ Q / / ' / / E ^ / ^ / Q ^ ^ ) [ ) ' [ ^ R h f h Q f h j r h f u ~ ! ~ ~ > j 6.}.oX}.<.A.{.}.oXoXoXK. Xe.r % g h S S S S h h R / } ' } / } | <.3.3.d.d.d.<.<.} / / } 3.<. .' <.d.g.g.f.f.g.g.g.f.3.3.3.3.3.3.<.<.,.,.} [ [ [ ~ ^ R h E } h.oX,X,X<X<XoXoXoX>X>X>X>X>X>X>X>X>XoXz.{ j > r h h ^ ] [ ,.,.| <.3.3.5.g.g.g.x.A.A.A.A.A.A.G.G.G.H.J.G.A.h.B.A.A.oXoX>XG.H.A.g.d.3.3.f.} <.f.g.f.3.<.<.<.<.<.g.g.| 3.g.g.A.A.x.g.d.3.d.3.3.3.<.3.3.<.3.<.| <.| { ' ] [ 6.,.<.| } } ,.} ,.} } ,.[ [ [ ,.,.5.g.,.[ ,.,.[ ^ [ ,.,.,.,.,.,.,.,.,.=.,.4.F.oX5.g.oX+X+X@X+X@X@X@XoX@XoX}.<.[ [ ~ ! H J S J g S ! H D ,.F.D.D.D.F.D.D.D.F.D.v.z.z.z.z.g.f.5.<.<.,.4.,.| [ ] ] ] ] ( ( ! H H H H J D D S d f f f d f d d d s s t t 7 7 7 7 : & o o # # o # ; ; 5 ; ; 5 5 ; ; ; ; ; ; ; ; ; ; ; ; ; 5 = ; o ; # ; - - ; P q.`.#X].#X#X#X=XxXmXFXFXFXGXGXPXPXGXGXGXGXLXLXLXLXKXGXFXFXGXPXPXGXFXFXmXmXmXxXkXkXxXmXmXFXGXPXPXPXPXPXGXGXGXGXGXGXFXFXFXFXFXGXGXGXGXGXGXGXGXPXPXPXLXLXLXKXLXnX6X8XcXcXcXcXpXvXvXbXvXvXvXvXvXvXvXvXbXnXnXCXCXCXCXCXCXCXCXCXAXAXnXnXnXnXnXnXnXAXnXvXcXcXcXvXcXvXbXAXCXAXbXbXnXbXAXMXbXbXbXvXvX8X1.&.&.*.*.[ *.[ ) ,.x..X|.|.|.|.v.v.}.:X5X5X5XpXfXMXMXNXVXVXVXVXVXBXVXZXZXZXSXSXSXSXSXSXSXSXHXHXHXHXSXHXHXHXHXHXHXHXHXHXHXSXHXHXHXHXHXHXHXSXHXHXHXSXSXSXHXSXHXHXHXSXSXHXHXHXHXHXHXHXHXSXSXSXSXSXZXZXZXZXZXZXVXMXpXpX1X+X|.l.,.[ ,.,.z.1.g D S S S U ] U H U U ( ] U *.(.mX7.-.X.z z C C K P K 9 3 O       O X X X X       X     X X X X X X X X X X X X X X X X X @ @ @ @ @ o o o o # # # # # # # # # # = = # # = 3 3 5 5 5 ",
"V.h.h.k.h.h.h.h.h.h.j.h.h.h.h.h.h.h.h.j.d.<.| } } } } ' ' ' ' ' ' ' ' ' } } } } }  .}  . .g.L.G.K.<XdXdX<Xh.j.d.d.d.h.h.x.g. .} ' }  .d.j.h.h.h.V.k.h.V.k.h.j.d.d.d.d.<. . . .<.<.<.<. .<.s.<.<.d.d.<.<.d.f.d.s.d.3.3.<.<.<.<.<.<.<.<.,.,.} } } [ [ [ ' ' ' ' [ ' ' ' / ' / / / / ) ) ) ' / ^ / ^ ^ / ' ~ ' ' / ' }  .} ' ' ' / ^ / ^ R Q Q R R h ^ R R Q j f h ^ ^ h u h f f g f f r h } ,.3.f.| 3.f.z.z.5.,.{ ( g r g D D ( D h D ^ ~ ' [ | | | } | } <.d.<.d.d.<...3.} / / / } | | ' | <.f.g.g.f.f.f.f.f.f.f.f.3.3.3.3.<.,.,.| } [ [ [ ' ~ ^ R j j E ' } 3.g.x.A.A.H.A.A.A.A.g.3.} ^ j r f h D H ^ ( [ *.,.,.,.,.<.3.3.3.5.g.g.g.A.A.A.A.A.G.H.H.J.J.G.A.A.A.B.A.<X>XyX,XK.B.d.d.<.g.A.g.' h | 3.<.,.<.<.<.<.3.g.A.g.x.x.g.g.f.g.g.g.f.d.d.d.g.h.g.A.x.d.3.3.3.<.<.[ ~ D ^ <.g.f.3.| | | { } | } ,.[ ,.[ [ ,.5.,.' ,.,.,.<.3.6.6.6.,.,.,.,.,.,.1.5.{.+X+X+XoX%X@X>X+X+XoX@XoXoXoX}.A.} [ ) ^ ! H J S S S S J D g D ,.S.F.S.D.D.D.F.D.D.F.x.z.z.g.5.3.5.6.4.,.<.| [ | [ { ] ] ] ( ( ! H H H J D S S S d d s s f d d f s f s t 7 7 7 7 ; & o o # # o # ; 5 6 5 5 5 5 5 ; ; ; ; ; ; ; ; ; - # - - ; o - ; o X w Z q.(.$X#X#X=X#X'.$XxXmXmXFXGXPXGXGXFXFXGXPXGXLXLXLXLXLXGXGXFXGXGXPXGXGXFXFXFXFXmXxXkXkXxXmXmXFXPXLXPXLXLXPXPXGXGXGXGXGXFXFXFXFXFXFXFXGXGXPXPXPXGXPXPXPXPXPXPXLXLXLXCXcX6X8XcXcXvXvXvXvXvXvXbXbXvXvXbXbXbXnXCXCXCXCXCXCXCXnXnXnXnXnXnXnXnXnXAXAXAXAXAXbXbXvXvXvXvXbXbXbXbXbXbXbXCXnXnXnXnXvXvXbXvX%Xq.>.] ] ] =.( [ ,.l.H.|.|.:X:X|.H.}.:X0X5X9XpXfXMXVXVXVXVXVXVXZXZXZXZXZXSXSXSXSXSXSXSXSXSXSXHXSXHXHXHXHXHXHXHXHXHXHXHXHXHXHXHXHXHXHXHXHXHXHXSXHXHXHXSXSXSXSXHXHXHXHXHXHXHXHXHXHXHXHXSXSXSXSXSXSXSXSXSXZXZXZXZXAXMXMX3X1X:X{.l.,.,.2.z.l.,.g D S S H &.F V U ( ] *.] U q.=X;.-.X.z l N A A F K k 5 O O     X X X X X     X   X X X X X X X X X X X X X X X X @ X @ @ @ @ o o o o o o # # # # # # # # # # = = = = = 3 5 5 5 5 ",
"h.h.h.h.h.h.h.j.f.d.3.d.d.j.j.j.g.f.d.<.| | | } } ' ' ' ) ) ~ ) ' ' ' ' ' ' ' ' } } } }  . . . . .d.j.k.k.g.d. . . . . .<.<.<.<. .' ' ..j.k.k.k.k.k.h.h.h.h.j.d.s.d.d.<. . . . .<.<.<.<.<.<.<.s.<.d.s.d.s.d.d.d.s.d.<. .<.<.<.<.| | | | } } } } } } [ [ [ [ ' ) ~ ~ ' / / / ^ ^ ) ) ) ' ' / ^ ~ / ~ ~ / ^ / / E E  .d. .} } } / R E / E E / E E R ^ R R / ' / ^ Q Q ^ h h h D g g f h u u r r i r r r r r u r r r h f D ) Q h ~ h h R ^ ^ / ' } } '  .| <.d.<.<.<. .| | ' / ' / / { | } | 3.f.f.f.d.d.f.f.f.f.f.f.f.3.3.3.3.<.<.<.| | | [ [ [ ' [ / ^ ^ R h j f j h D h j j j h j j j h h D ^ ] ] [ [ [ [ ,.,.,.<.3.3.3.f.3.3.g.3.3.g.h.A.A.A.G.G.H.J.J.G.B.B.B.A.K.oXoXeXoXg.f.f.3.g.A.D.3.h j ^ ,.<.<.<.<.<.f.g.g.x.g.g.f.3.3.d.f.g.g.f.x.A.A.A.G.A.h...f.A.f.g.3.x.3.~ H ~ 4.g.g.}.J.<.3.3.} | { | | [ [ [ [ [ | | ,.[ <.6.6.z.z.g.6.,.,.1.6.6.,.4.z.J.@X+X>X+X+X+XoX+X+X@X@XoX@XJ.g.| ,.] ! ! J S S S J H H g S g ] z.D.F.D.D.F.F.D.F.x.z.z.z.5.,.,.5.3.4.,.3.,.| [ [ [ ] [ ] ( ~ ! H H D J J J S g d d f s f s s s f s s s t 7 6 : ; o o # # # o o ; ; 5 5 6 6 6 5 ; ; ; ; ; ; ; ; ; ; ; ; ; ; o ; # ; Z :.].$X#X$X#X#X#X'.=XxXmXmXFXPXGXGXFXFXFXFXGXGXKXPXPXKXLXPXPXGXFXGXPXPXGXGXFXFXFXFXmXxXkXkXxXmXmXFXPXLXLXLXPXGXGXGXGXGXGXGXGXGXGXGXGXFXFXFXGXGXGXGXGXPXPXPXPXPXPXPXPXLXLXCXcX6X8XuXvXvXvXvXvXvXvXbXvXvXvXbXbXnXnXnXnXCXCXCXCXCXnXnXnXCXCXCXCXCXCXAXnXnXnXnXvXcXcXcXlXvXAXAXAXAXAXnXvXAXnXbXvXbXvXvXcX X:.&.( &.*.] ( =.z.D.[.|..X:X;X|.|.:X0X9X9X9XfXMXVXVXVXVXVXVXZXZXZXZXZXZXSXSXSXSXSXSXSXSXSXSXSXSXSXHXHXHXHXHXHXHXHXHXHXHXHXHXHXHXHXHXHXHXHXHXSXHXHXHXHXSXSXSXHXHXSXHXSXHXHXHXSXHXHXHXSXSXSXSXDXSXSXSXSXSXZXZXZXZXMXMXpX3X1X:X[.5.,.,.3.z.z.~ G G F H ( F B B U ] =.&.U -.].-.-.o.z z v C K I C k 1 O X       X X X X       X X X X X X X X X X X X X X X X X @ @ @ @ o o o o o o # o # # # # # # # # # = = = 3 3 3 3 5 5 5 5 ",
"h.j.j.j.j.g.d.d.| } } } | | | | <.| | | | } } } ) ) ' ) ~ ) ~ ' ' ' ' ' ' ' ' [ / ' / } } }  .|  . . . ...g.L.H.G.h.d.| } } } | } '  .d.d.d.j.h.k.k.h.h.j.j.d.d.<.s.<. .|  .|  .<.<.<.<. . .s.<...d.<.d.d.d.d.s. .<. .|  .<.| | | | | | } } } } } [ ) ) ' ' ) ~ ) ^ ) / / ^ ^ ^ ) / ) ' ' / ^ ^ ^ ^ ^ ^ / / / } d.L.<X;XK.K.L.G.h.h.h.d.f.f.<.<.f.<.} | f.3.} | / / / ,.~ Q h Q h g S g u h f u u i f u f h g D ! D ) [ ~ ^ ^ ^ ^ ^ Q Q ^ / / / / ' } } | | ' <.| | | } | ' / ^ ) ' <.<.3.3.d.3.<. . .d.f.f.d.d.f.f.f.3.3.3.3.<.<.<.| | | | [ [ ' ' ' ~ ~ ^ ^ ^ D Q R D D R R R ^ ~ ^ ~ ] ] [ [ [ } | | ' ' | <.<.3.3.3.f.f.f.g.d.d.g.h.h.A.A.A.G.G.J.G.A.B.A.G.K.<XoX<XK.A.g.g.d.3.H.H.,.j h D R | <.<.| <.3.f.g.g.f.d.d.3.d.d.d.g.g.A.A.J.J.G.L.A.B.g.| <.g.H.A.h.A.3.! ( ] 5.f.g.h.A.}.J.3.3.x.<.| | [ ,.[ [ [ [ ' ,.=.,.3.x.F.D.F.z.5.,.,.4.4.1.6.1.D.+XoX+X+X+X+X>XoXoX@XoXoXoXH.g.,.[ ^ ! H S S S S ! ! H d d d S *.w.S.F.F.F.F.D.x.z.z.z.z.z.3.[ ,.4.4.=.[ ,.,.| [ [ [ [ ] ~ ~ ~ ^ H J D J J h d f f s s s s s s f f u t 6 6 7 : ; & # # # # X o # ; 5 5 6 6 6 6 ; ; ; ; ; ; ; ; ; - - - ; o - ; w :.].#X#X#X#X#X=X#X#X=XmXmXFXGXGXGXFXFXmXmXFXGXPXPXPXKXLXLXPXPXGXFXGXGXPXPXPXGXFXFXFXmXmXxXkXkXxXxXmXFXPXLXLXLXPXGXGXGXFXGXGXGXGXGXGXGXGXGXFXFXFXFXGXGXGXGXGXGXGXGXPXPXLXLXLXLXPXnXcX8XcXuXuXvXvXvXvXvXbXvXbXbXnXnXnXCXnXCXCXCXCXCXCXCXCXCXCXCXCXCXCXAXCXAXAXAXbXvXvXvXvXbXAXAXnXCXCXbXCXbXmXnXnXvXvXvX%Xq.+.&.&.&.] ] *.w.D.D.[..X:X.X|.|..X0X5XfXfXfXfXMXVXVXVXVXVXVXZXZXZXZXZXSXSXSXSXSXSXSXSXSXSXSXSXSXSXSXSXSXSXHXHXHXHXHXHXHXHXHXHXHXHXHXHXHXHXHXSXHXHXHXHXSXSXSXSXSXSXSXSXSXSXSXSXSXSXSXSXSXSXSXZXDXSXSXSXDXZXZXZXZXMXMXMXpX3X1X:XH.5.,.2.5.v.l.H F H H U F s y J U ] &.U &.y.X.8.X.z c C C K K v 8 , O             X X     X X X X X X X X X X X X X X X X X X @ @ @ o o o # o o # # # # # # # # # # # = = = = = = = = 5 5 5 5 ",
" . . . . .| | } } ' ' ' } } } } } } [ } ' ' ) ) ~ / ) ~ ~ ' ~ ' ' ' ' ' [ [ [ [ ) } ' ' ' ' ' ' ' } }  . .}  . .<.<.| } } |  . . .}  .d.d.d.j.j.j.j.j.j.j.j.d.d.<.<.<.| | | |  .|  .<.<.|  .<...d.d.s.s.d.d.d..... . .| } | |  .} } } } } } ' ' ) ) ) ~ ~ ~ ~ ~ ~ ^ ) / ^ ^ ^ ^ ^ ^ ) ) / ^ ^ ^ ^ ^ ~ ^ ^ / | G.L.K.<X<X,X<X;XK.K.K.L.G.G.h.h.h.f.d.h.d.<.| E / E ' f.5.Q ^ h D D D D ! D G h f j Q Q ^ ^ Q Q ! ! Q ^ ~ ) ^ ^ / ^ ) ) [ [ ) / / ' ' ' [ / ' ) ' | } } | <.' / [ / } 3.<.3.<.<.<.<.} / | d.f.d.d.f.f.f.f.3.3.3.3.<.<.<.| | | } } ' { [ [ [ [ ' ] ~ ~ ~ ~ ~ ~ ~ ~ ' ' [ [ [ { | | | ,.| ,.} } <.<.3.3.f.f.f.g.g.d.f.g.h.h.B.A.A.A.A.H.K.L.A.A.G.H.K.K.<XK.A.A.h.h.g.g.A.[ h h f h [ ,.| <. .d.d.d.d.d.d.d.f.d.g.d.h.A.A.J.H.J.J.K.K.K.J.g. .3.G.}.K.K.H.,.! J ! 5.x.x.g.g.g.A.A.oXJ.3.| [ | [ [ ~ [ [ h [ <.6.5.5.g.z.z.z.6.,.,.,.4.,.,.,.6.F.oX+X&X+X+X:X@XoXoXoX}.}.x.3.[ ^ D ! H S d S S H H S S V d d S ~ ,.5.z.v.F.D.x.z.z.z.g.5.,.[ [ [ [ [ ^ [ ,.[ [ [ [ ] ] ~ ~ ~ ! D D D J S d d f f s s s s t t t t t 6 6 7 6 ; ; & # # # # o o ; ; 7 7 5 5 5 ; ; ; ; ; & ; ; & & - ; ; = ; 5 Y y.-X$X#X$X$X$X$X#X#X=XxXmXmXFXGXFXFXGXFXFXFXFXFXGXGXPXLXLXLXLXPXGXFXGXGXPXPXGXGXFXFXmXmXxXxXkXkXxXxXmXFXLXLXKXKXLXGXGXGXGXGXFXFXGXGXGXGXGXGXGXFXFXFXGXGXGXGXGXPXPXPXLXLXLXPXPXLXKXPXnXlX8X9XuXvXvXvXvXvXbXbXbXbXnXAXAXAXAXCXCXCXCXCXCXCXCXCXCXnXnXCXCXnXAXAXbXbXAXvXvXlXvXvXvXbXbXnXnXbXbXvXnXbXAXvXbX2Xw.&.( &.( ] *.=.2.D.[.v.|.1X1X.X|.|.1X5XfXMXMXMXMXNXVXVXVXVXBXVXZXSXSXSXSXSXSXSXSXSXSXSXSXSXSXSXSXSXSXSXSXSXSXSXHXHXHXHXHXHXHXHXHXHXHXHXHXHXHXHXHXHXHXHXHXHXSXHXSXSXSXSXHXHXHXSXSXSXSXSXSXSXSXSXDXSXSXSXSXDXZXZXZXZXVXNXNXMXpX0X1X:Xv.2.3.5.x.v.[ G H U U S s B V U F ] U U >.U -.K l c C C K K c 1 1 O X               X X X X   X X X X X X X X X X X X X X X @ @ o o o o o o # # # # # # # # # # # = = = ; ; ; ; ; 5 5 5 5 5 ",
"g.d.| } } ' ' ' [ ' ' [ [ [ [ [ [ ' ) / ) ' [ [ ) ' ' ' ' ' ' ' ' ' ' [ [ [ [ [ | } ' [ | | | | } } / } | } } } } } } }  .<.<.s.s.d.j.d. . . .d.d.d.d.d.d.d.d.<.<.<.<.| | |  .| | | |  . .|  . . . .<. . . . .<.<.| | | } } | } / / / / ' ' ' ' ) ) ) ~ ~ ~ / ^ ^ ) } / / / ~ ^ ^ ^ / / ^ ^ / ' ^ ^ ) ^ / d.d. ...a.a.d.j.j.h.h.h.h.j.j.d.d.j.h.d.f.h.f.g.| E <.J.>X+X,.^ Q h h Q D D ~ ~ D Q ^ R / ^ ^ Q h D ! ~ ^ ^ ^ ^ ^ ^ / ) / / ) [ ) / / ' ' ) [ ^ ^ [ D.' / / } ' [ [ } / | 3.<.<.<.3.<.<./ / } 3.f.f.d.f.f.f.f.f.d.3.3.3.<.<.<.| | | } } { { ' [ { [ ' [ [ [ ' ' ' ' { ' } } | | | | | | | | <.<.<.3.3.3.3.d.d.d.d.d.| 3.d.h.h.B.A.A.A.G.K.K.K.G.A.A.J.J.K.H.A.A.g.A.d.d.3.^ j h u Q ,.,.<.<.3.<.d.f.d.d.d.g.g.g.g.h.g.h.A.H.A.D.J.J.J.J.K.K.H.<.3.K.K.oXoXoX{ ^ h ^ g.g.f.d.g.f.5.x.oXA.g.<.| | [ [ [ [ ' h | z.5.<.,.,.,.3.3.,.,.,.,.,.,.,.,.,.,.D.oX+X@X+X}.oXD.D.oX}.H.3.,.[ ~ ~ ! H G S g S H D d s d d V S ! [ ,.5.z.x.x.z.z.z.g.z.5.,.| ' ,.,.,.,.,.| | [ [ [ [ ] ~ ~ ~ ! D J J S g g d d d s s t t t t 7 7 6 6 7 7 6 > ; ; # # # # o o ; ; 7 7 ; ; ; ; ; ; ; ; ; ; ; ; ; ; 5 5 # q 4.'.$X#X$X$X=X=X#X=X#X=XkXmXmXFXFXFXGXGXFXFXFXFXFXGXGXGXPXLXLXPXLXGXFXFXGXGXPXGXGXGXFXFXmXmXcXxXxXkXxXmXmXFXPXPXLXLXPXGXGXFXGXGXFXFXGXGXGXGXFXGXGXGXGXGXGXGXGXGXPXPXPXPXPXPXPXPXPXPXLXKXPXnX8X8XcXcXvXvXvXvXbXbXbXnXnXnXnXnXCXnXCXCXCXCXCXCXCXCXCXCXCXCXCXAXbXCXCXnXvXvXvXMXvXbXbXbXCXAXnXAXvXbXAXvXAXAX*Xt.U U &.U U &.*.=.w.{. X[.+X3X1X:X.X:X5X9XfXMXMXMXMXNXVXVXVXVXVXZXZXZXSXSXSXSXSXSXSXSXSXSXSXSXSXSXSXSXSXSXSXSXSXSXHXHXHXHXHXHXHXHXHXHXHXHXHXHXHXHXHXHXHXHXHXHXSXHXSXSXSXSXSXSXSXSXSXSXSXSXSXZXSXSXSXSXSXSXZXSXSXZXZXZXZXZXNXNXMXpX3X1X[.l.5.5.l.l.,.D ! H F S B s B H F U U U U U +.K v v Z Z K K y 1 1   X               X   X X X X X X X X X X X X X X X X X @ @ @ o o o o o # # # # # # # # # # # # 3 5 ; 5 5 ; ; 5 5 5 5 5 5 ",
"}.J.x.3.| [ ' [ ) ~ ) ) ) ) ) ) / ~ ~ ' ' [ [ [ [ ' [ ' ' ' ' [ [ ' ' ' ' [ [ [ | [ } } } } | <.<.3.<.|  .} } } | } } }  .<...d.s.d.s. .| } }  . . . . . . .} ' } } } ' / ' } } } } } } } } ' } ' } } } |  .} } | } } } } } } ' / / / / / ' ' ' / / / / ) / / E } | <.} } } } ' / / ^ ^ ^ ^ / | ) R R ^ E / / ' '  . . . .}  .} } } / ' / / ' ' ' / ' / } } / } | | ~ h ^ h Q h h Q Q ^ ! ~ ^ ~ } ,.<.<.) ^ ~ ~ ~ ~ ) ' ~ / ) ) [ ) ^ / / / ' <.} ' ' ^ ^ ) ^ ^ / ^ ^ ) ^ ) ) ^ ^ / / / / } ' ' [ ) / } <.<.3.3.d.d.f.f.f.f.d.d.3.<.<.<.<.| | } } { ' ' [ ' ' ' ' ' [ [ ' ' ' ' } } } | | | | | <.<.<.<.<.3.<.3.3.d.f.g.g.h.g.d.g.g.B.B.B.A.A.G.K.oXK.G.A.A.J.@X:XA.H.A.g.h.d.3.3.<.,.' h ^ } ,.,.<.<.<. .3.d.f.f.g.g.g.A.h.G.A.A.G.f.' ,.z.J.G.J.K.H.f.| 3.J.oXoXK.A.j j h ' }.oXJ.A.g.f.f.g.g.h.A.3.| ' [ [ [ [ [ | | 5.g.3.<.,.<.3.3.,.,.,.[ [ [ | =.=.=.4.z.{.OX+X@XoX}.}.H.D.f.,.[ [ [ ( ! F S S g D J S d d S d s d S S ! ,.z.x.z.z.z.z.g.6.g.3.[ ^ ,.5.,.,.=.[ [ [ ] [ ~ ~ ^ ^ ~ H J D D S g d d f u s s t t t t 7 6 6 6 6 6 : ; & # # # o o X o & ; 6 ; ; ; ; ; ; ; ; ; 7 7 7 ; ; - ; ; w X # ; 6 U 1.1.[ [ aXBXDXVXT. .<.) g g G c < -.CXJXDX@X>XDXyXyXh.h.x.g.^ ,.! r ; > - - ; ; > > 6 5 # o + # @ < @ o o 5 ; & & & # # # o @ # # # # # # 3 3 , , 3 , 3 , 3 3 3 4 3 3 , , , 5 w 5 ; X % & & # # & % o . o % % # o o .   o & & + o o o o % : r e e e i i i i i i T T _ T T T T T T T W p.W W W _ E D U F U ( ] &.] 1.v..X.X.X:X0X:X:X:X5XpXfXfXMXMXMXNXVXVXVXVXZXZXZXZXSXSXSXSXSXSXSXSXSXSXSXSXSXSXSXSXSXSXSXSXSXSXSXSXSXSXHXHXHXHXHXHXHXHXHXSXHXHXHXHXHXHXHXSXSXSXSXSXSXSXZXSXSXSXSXSXSXZXZXZXZXZXZXZXZXZXZXZXZXZXZXZXZXZXZXNXMXMXMXpX9X+XD.5.5.z.l.5.! ! H B F V s s U ( J F Y U U H B f u t r t 6 y & & X X X X   X X   X X   X     X X X X X X X X X X X X X X X @ @ @ o o o o # # # # # # # # # = 3 3 5 5 5 5 5 ; ; ; 5 5 5 5 5 ",
"{ } } [ [ ' ~ ] ] ) ) [ ) ~ ~ ~ ~ ~ ~ ~ ~ ' ' [ ' ' ' ' / ' / ' ' ' ' ' ' ' ' ' ' ' } ' ' ' ' / / } } }  .} } } } ' ' ' } } }  . . . .} ' / / ' } } <.<. . .} / / ' | | } } | } } ' ' / ' } / } } ' / ' ' } / / / / / ' } / } ' / ' ' / / / / / / ) / / / / / / | d.d.<.f.<.,.[ Q ^ ^ / / ^ / | ^ R R ^ / / E ' ..a. . . . . .<. .} ' } ' '  .' / / / ' ' / / / / / ^ h h h h Q R ^ ^ ~ R ) h ) / } f.<.^ h Q h h Q R R ^ ^ ~ ) ^ ~ ' } ' / | g.<.' ) Q ) ^ ^ ^ ) ^ ) Q [ ^ / / ) ) ^ ) ^ ~ ^ ) ~ ) [ [ } | <.3.3.d.d.f.f.f.f.d.f.<.3.<.<.<.| } } { { } [ ' ' ' ,.| | [ ' ' { { ' } } | | | | <.<.<.<.<.<.3.<.f.d.f.f.d.g.g.g.h.h.h.h.B.B.A.G.K.J.K.J.G.J.K.oX>XJ.A.A.A.A.3.| | <.,.<.| [ ,.,.,.<.3.<.<.3.d.d.g.g.h.A.A.G.x.A.B.A.J.g.h h { x.K.J.H.J.3.} 3.J.K.K.K.oX{.F.5.z.oX@XoXoXG.x.g.g.g.A.H.,.Q ^ ^ ^ ^ ] *.,.<.3.| 3.3.3.3.3.<.,.,.,.[ H [ { [ [ [ [ h ^ D.H.@XJ.J.}.H.A.| { ~ ~ ! D S S S S f J S g u d f d V S S J ~ ,.z.F.z.S.z.g.g.f.6.3.[ R ] 4.,.,.,.[ [ [ ] ] ! ~ ! ! H J D D S g d f r : : 6 6 7 t t t 7 6 6 6 6 6 : ; o o # # # # o o ; ; 5 5 5 5 5 5 ; ; ; ; ; ; ; o # - 5 5 & & & V =.D.5.u D CXJXDXgXtXwXa.d.R h f 6 A O o.nXLXBXBXSXVXdXK.tXjXsX<.[ ( q = 6 ; & & & ; ; 6 : : & % % & o + @ O   o & & & & & & & # X o o o % % & & & & & 5 & & ; & ; ; ; # # # = = = ; ; ; X # ; # # - - X X X X # # o X X X   X = #           & r i i i i R i e * i R T T T T T e T T T _ _ W T W _ _ G P P U U &.&.] *.w.).+X|..X.X0X0X:X5XfXfXfXMXMXNXNXNXVXVXZXZXZXZXZXSXSXSXSXSXSXSXSXSXSXSXSXSXSXSXSXZXZXZXSXSXSXSXHXSXSXSXSXHXHXHXHXHXHXHXHXSXHXSXHXSXSXSXSXSXSXSXSXSXZXZXZXZXDXSXSXSXSXDXZXZXZXZXZXZXZXZXZXZXZXZXZXSXSXZXZXVXMXfXMXBXMX9X.Xl.5.v.D.c.! ) ( F J F V s U *.J F Y U U D G D g g u u y t ; & X X X X   X X X X   X     X   X X X X X X X X X X X X X @ @ @ X o o o o # # # # # # # # # 5 3 5 5 5 5 5 5 5 5 5 5 5 5 5 5 ",
"' ' ' [ [ ' ] ) ~ ~ ~ ~ ~ ~ ^ ^ ~ / / / / / ' ' ' ' ' ) ) ' ' ' ' ' ' ' ' ' / / ' ' ' / } ' ) ' ' ' ' ' ' } } ' }  .<.<.<. . . . .<. .} / / ' ' / } } ' | |  . .<.} | ' / } / } ' | <. .} } } } / ' ' ' / / ' ' / } ) / } } ' } } <.<.<.| ' } ' } <.} | }  . . ...<.<.<.<.<.,.[ ~ ) ) ) ^ ^ ^ / Q R ) ' } / E ' <.<.<. . .a.d.d.j. . . . .<.3. .} } } } } } } } } } ! g g Q h E } ' / } / ^ h R i E { ' R R R ) R Q Q h Q R h R ^ ^ R ) ^ ~ ) } ) ) ) ) ~ ~ [ [ ) ~ ^ ~ ,.[ ~ ) ' ) ~ ~ ~ ~ ^ ^ ) ^ ' ^ ^ ) / } <.<.<.d.d.d.d.<.<.3.<.<.<.<.| ,.} } [ } { ' ' / ' ^ ^ R Q ^ ~ ' [ ' | | | | <.<.<.<.3.3.3.d.f.f.d.d.g.g.g.g.h.h.h.h.h.A.B.G.K.<XK.G.G.H.oXyX>XH.h.g.g.g.3.| } | [ | | | ,.| | ..<.<.<.<.3.f.f.g.g.A.A.A.A.A.A.B.A.oX] h h ~ A.A.H.A.J.g.} 3.H.J.K.}.}.oX{.oXoXoXoXoX@XJ.J.A.A.g.A.x.| [ ! ! D D ~ ~ ' <.5.5.} ,.,.,.<.| | ,.=.[ ] { [ [ [ [ [ ] h ~ ,.z.D.{.K.A.5./ ^ ( S S g g g g d J S d G d y B B s S S J ! [ w.z.z.z.z.g.g.f.3.<.' ^ H ! ] ] *.! D ! D g d g d d g d g S S d d S : 6 : 6 & : t 7 6 s 7 7 t 6 6 7 ; ; o o # # o X o ; 5 ; : 7 ; ; ; 5 5 ; ; ; 6 ; ; 6 ; o ; & s *.).2Xz.,.l.v.SXSXdXhXdXwXk.} R g t f y < 7.CXOX{.SXSXVXT. .L.L.h.' ~ $ : 6 ; ; ; & & ; ; : > : & % % # # # o o X X ; ; ; ; # ; ; # o X X X o # # # # # # # & & ; ; 5 ; ; ; # 5 ; ; o - # ; o o ; # X & 5   #   # # # # X X #   X 5   8 q   o & $ r R i e T R i Q i i T T T _ T T T T T T T T T T T T ! J B U ( *.*.] ] 1.e.)..X+X.X:X1X1X5X9XfXfXMXMXNXVXVXVXVXZXZXZXZXSXSXSXSXSXSXSXSXSXSXZXSXSXSXSXSXSXSXSXSXSXSXSXSXSXSXSXSXSXSXHXHXHXHXHXHXHXHXHXSXSXSXSXSXSXSXSXSXSXSXSXZXZXZXZXZXZXZXSXSXZXZXZXZXZXZXZXZXVXZXZXZXZXZXZXZXZXZXVXNXMXMXMXAXMXpX.Xz.v..X).) ) *.] ( H H S J H ] U U U U K G j g f g f f 6 6 ; # X X X X                 X X X X X X X X X X X X X @ @ @ @ @ @ o o o o # # # # # # # # , # 3 5 5 5 5 5 5 5 5 5 5 5 5 5 5 ",
"} [ [ ' ) ~ ~ ~ ~ ~ ~ ~ ~ / ~ ~ / ~ / / / ) ~ ~ ) ' ' ' ' ' ' ' / ' ' ' ' ' / / / ' ' / / / / / ' / / } |  . . . . ...<.s.s.s.d. .s.<. .' ' } | } } } ' ' ' ' } } ' } } ' } / / ' <.x.<.} } ' | } } ) / ^ Q / / / / / / / / / E / / / } ' / / E [ } / / / } / ' } } } / / / / / ) ^ [ ~ Q ^ ^ ^ ) ^ / / ' ' / / ,.| / '  .s. . .s. .} }  .<.} ' } } } } } }  .}  .| ^ g g h R / | | ' | | <.[ R R f ^ [ ^ j R / E / / } | | f.z.D.5.' ' ^ ^ Q Q Q h ^ R R 3.pXD.^ ^ D ) [ [ ^ [ [ ~ [ [ [ ^ ^ [ 2.^ ~ ^ } [ / <.' ' | d.d.f.<.<.} <.<.<.<.<.| } [ } [ { ' / / ^ R h h Q Q Q ^ ^ ^ ' { }  .| <.<.3.3.3.3.3.3.3.d.f.f.d.g.g.j.h.h.h.A.A.h.B.K.<XK.G.A.A.K.rXoXA.B.h.h.g.<.| | } ' [ ' ~ ' } | | | | <.<.<.d.f.f.g.h.A.A.A.A.A.A.A.D.,.h f D [ A.D.x.A.H.g.3.g.H.J.K.K.oX}.oX}.oXoXoX@XoXoXoXH.A.J.A.3.[ [ h u u f h [ ,.<.3.g.6.3.3.<.<.,.| ,.=.| ] [ ] ~ ! ( [ [ ! f D ,.5.z.A.J.D.<.^ h ! S S g S S S d S F u S y B B V J J S H ] ,.z.z.z.z.g.g.3.3.,.D u u t r t t u > > > > > % : ; : > % r : d d > 6 ; & o ; ; : t s 7 7 t 6 t 7 6 ; ; o o # X o o # ; 5 ; : ; ; 7 6 ; ; o & ; & o ; X # - w U y.$XbXpXz.c.*.1.f.aXjXtXwXL.T e *.! f f q k -.nX&XgXJXjX,X<Xa.j.L.E j r S t : 6 ; & & ; ; ; ; : ; & & & # # # # o X X # ; # ; # ; & # # # o o o X X # # o # # # # # # 5 ; ; ; 5 # ; # # X ; 5 5 o o - . o # # & # # # X X # X   #     # 5 8 q ; & : h i T E / R i j e R T _ _ T T T T T _ _ T T T T T R ( U U U *.&.&.*.*.1.S.[.+X:X:X1X0X0X5XpXfXfXMXNXNXVXVXVXZXZXZXZXZXSXSXSXSXSXSXSXSXSXZXZXSXSXSXSXSXHXSXSXSXSXSXSXHXHXHXHXHXHXHXHXHXHXHXHXHXHXHXHXSXSXSXSXSXSXSXSXSXSXHXSXSXSXSXSXSXSXSXSXSXZXZXZXZXZXZXZXZXZXZXZXZXZXZXZXZXZXZXVXNXMXMXMXBXMXMX9X[.v.|.{.=.=.=.*.] *.] ] ] H U U Y U U U H h g u u g S d t 5 # o @ X   X X     X   X X X X X X X X X X X X X X @ @ @ @ @ @ o o o o # # # # # # # # # , # 5 5 5 5 5 5 5 5 5 5 5 5 5 5 5 ",
"} [ ' ~ ~ ~ ~ ~ ~ ~ ~ ~ ~ ^ ^ ^ ^ / ) / ^ ^ ~ ~ / / / / / ' / / / / ' ) ' ' ) ) / / / / / ' ' ' ' / / ' }  . . . . . ...s.s.<... . . . . ...<...<.} } } ' } } ' } / } ' / } } } ' ' | } } } } | } / ^ Q ^ / [ ' / / / ' / / / E / / / ' ' / ~ Q Q ^ / / /  .}  . .<.} / / ) ' / / Q [ ' R ~ ^ ^ Q Q ^ ^ ~ Q / Q ) / E '  . .'  .s. .' '  . ./ / } ' E / }  . ./  .| ^ Q Q Q / <.>X5XH.} / } [ ,.) ! ~ ~ h ^ <.x.g.x.G.K.K.H.J.D.z.,.R h h ! ! D J g Q ^ / Q h Q g Q Q D g D h Q Q R ^ ^ ^ h ~ [ ,.<./ Q } } / 3.| <.d.A.K.}.z.[ ' | <.| <.| | [ ) [ [ ' ~ ~ ~ ^ D D D D D D D D Q ^ ^ ' | <.<.<.<.<.<.<.<.<.<.<.3.d.f.f.d.g.h.h.h.h.B.A.V.V.G.A.G.A.K.>XoXA.g.g.d.d.3.<.| ,.,.[ [ ' ~ ~ [ | <.3. .<.<.<.d.g.g.A.x.h.A.x.A.A.B.B.6.h f h D [ z.g.A.A.d.| } <.A.G.J.K.oXK.oXoXoXoXoX}.oXJ.oXoX}.A.A.D.,.Q h h f D ^ [ ,.,.3.5.g.x.f.3.,.| | ,.,.,.| [ ! g f J ( H d g D =.z.5.3.3.z.g.~ D S S S H G d S S d s d V S d s V J J S S { =.z.z.z.f.g.5.f.3.,.D f g d t u 6 6 t d s V d 6 6 : 6 & : o : ; ; : : 7 ; & ; ; ; 7 7 t t t t t t 6 ; ; o o o X # # & 5 6 ; 7 w 5 6 ; ; ; ; 5 - 5 ; o ; 7 U q. XvXDXBX] =.1.vXAXvXSXdXtXwXa.R.;Xx.[ f t y O 7.nXDXSXgXK.,XwXG.<Xs.i i u f y 6 6 ; & # ; ; ; ; & ; : ; & % & & X o X o o # & ; & ; # # & - # # o o X X X X o # % # # # # # # # o # X o # = X X #   X ; & X o % # ; X X X X ; # o     X # 8 N q 5 : r i e T E R e * e i T _ W T T T T T _ W T T T T T T Q U U U U &.*.&.*.*.1.).|.+X1X0X5X0X5XpXfXfXMXMXNXVXVXVXZXZXZXZXZXDXSXSXZXSXSXSXSXSXZXZXSXSXSXSXSXHXHXHXSXSXHXHXHXHXHXHXHXHXHXHXHXHXHXHXHXHXHXHXHXSXSXSXSXDXDXSXSXSXHXHXHXHXSXSXSXSXSXSXSXSXZXZXSXZXSXZXZXZXZXZXZXZXZXZXZXZXZXZXVXVXNXBXBXMXMXMXMX1X[.{.+Xc.z.1.1.=.=.*.] &.U F U J U ( U F g h D G g u f u y 6 # X X X X X X X X X X X X X X X X X X X X X @ @ @ @ @ o @ o @ @ o o o # # # # # # # # # # 5 5 5 5 5 5 5 5 5 5 5 5 5 5 5 ",
"' ' ' ~ ~ ~ ~ ~ ^ ~ ~ ^ / ) ) / / / / / ~ / / / ) / / / / / / / / / ' ' ' ' ' ' ' / / ' / / / / / / / / '  .<...........s.s... . . . . . . ...<.| / E ' ' } } ' } } ' ' / / / / } / / / } / / } ' Q R R ^ ~ / / ' ' } } } } } } ' ' / / / ^ ^ ~ ^ Q Q / | g.<. .<.| / ^ ^ ^ / / / / <.} / ~ ~ ^ / E / ^ / Q ^ R ^ Q E } <. . . .s. .' '  .} / } ' ' / / }  .} / | } ^ Q ^ ^ / } | f.d.} / / ^ ^ D ! D h ^ ^ ~ ~ / / } } | <.[ / ^ h f h g G S B B S h Q <.' [ h ^ h Q ! Q Q Q Q R h Q Q ^ g h Q v.oX' ^ ^ Q ) ' / ' <.x.f.,.) ^ ^ ^ / ,.3.' ~ / ~ ) ) ~ ~ ) [ ~ D D D D D D D D Q Q R / | <.<.<.| | <.<.<.<.<.<.<.3.<.|  .d.h.h.h.h.B.G.G.A.G.A.G.K.oXJ.A.g.f.g.d.|  .} ' ' ' ' ~ ' [ ' ' } | | <.<.3.3.d.d.f.g.h.h.x.h.x.A.h.g.g.,.^ 5.] h h ' g.x.,.' } { | 3.G.K.K.K.K.oX}.K.oX}.3.^ z.}.oXoXoXH.5.[ Q ] [ [ ,.,.[ ,.<.,.5.x.3.,.| | | [ [ ' [ [ ! h f S J d u d { [ ,.3.g.3.,.4.' D ! S H D d d d S g H ( S y u t y s V S S S ! =.4.5.g.z.g.,.} ' u u f d d u t S S 6 : S S.4.o s s 1.:.; ; & o % ( 4.5 o ; o 7 7 6 t t 7 t t t 6 : ; & o X X # # ; 5 5 5 6 6 5 6 ; ; ; ; # ; . ; 7 H =.OXcXPXJXHXz.g r $XJXLXJXBX<XtXwXR.<XJ.Q r t : q < -.cXSXgX<XeXwXk.j.hXj.| i r > & 6 ; ; & # & ; ; ; & ; : ; & & & & # # X   X # & ; ; ; ; ; ; ; # - # o X X X X X X % % # # # # o X X o # X # o # # # o # ; ; # # & . # X X o X # #     X 5 8 8 5 5 ; % r i i _ / i * * i E _ W W W W T W p._ T T T T T i h H U U U ( &.*.*.] =.e.)..X+X1X0X5X5X9XpXfXfXMXNXVXVXZXZXZXVXVXZXZXSXSXSXSXSXSXSXSXDXZXZXSXSXSXSXSXHXHXHXHXHXHXHXHXHXHXHXHXHXHXHXHXHXHXHXHXHXHXHXHXHXSXSXSXSXSXSXSXHXHXHXHXHXHXHXHXHXSXSXSXSXZXZXSXSXZXZXZXZXZXZXZXZXZXZXZXZXZXZXZXVXVXVXAXMXMXMXMXpX+X[..X{.).w.4.4.1.=.] ] &.F Y U U ] &.U S g g f g f u u u 7 # X X o X X X X X X X X X X X X X X X X + o + o o o o o o @ @ o o o o # # # # # # # # # # , 5 5 5 5 5 5 5 5 5 5 5 5 5 5 ",
"/ ^ ^ ^ ^ ^ ^ ^ ~ ^ / / / / / / / / / ) / ^ ^ / ' ) ' ' ' ' ' ' ' ' ' ' ' ' ' ' ' ' ' ' / / ' ' ' ' / ' } } | |  . . . . . . . .| }  .|  . .<.<.| ' / ' } | <.<.<.<.| | | } | } | <.<.| | } } } ~ Q h Q ^ ~ Q R ^ / / '  .} } } ' / E R ^ R h ^ h h h E } 3.| ' <.| / ~ ~ ^ / / R / } ' ^ Q Q Q / Q ) ^ Q R Q ^ ^ R / |  . . . .} ' / ' } / / ' } ' / /  . .} ' } } / E / / / / } ' ' / ^ R h h h D h h ^ Q ^ ^ ^ / E R E / ^ ^ D D g g d d d G S g h h <.f.| [ [ ^ Q 2.[ ^ ^ | [ ' ' [ ~ R R R / ^ / ' ^ ^ ^ ^ ~ / ' } ' ~ ^ Q D ^ Q ^ ~ ' ) / ~ ~ ^ ^ ^ ~ ~ ! h S D D J D D J D Q Q ^ ' } } | | | | | | | <.<.<.<.3.3.d.g.g.d.h.h.V.B.h.h.G.L.K.J.A.g.g.3.| | ' ' ' ' ' ' ) ~ ~ ~ ~ ' ' ' } } <.<.3.3.d.g.g.h.g.h.h.h.h.g.g.g.4.[ ( g D ! ~ =.2.<.| } ' ' | | g.G.J.K.K.oXK.K.J.A.' R ' J.oXoXoXJ.A.g.5.<.[ ,.6.6.,.| ,.,.<.<.,.| | | ,.,.[ ' *.[ ~ D g S ] ( ( ] [ 4.5.| f.f.{ [ ' ~ ! H ( ! ) ! h g ) [ h h t f d y 7 s V V g J ! =.4.5.f.5.} / Q f f f u f t d : : t t t u y 7 ; o 6 6 o % # ; w q o & & o % o : s s f f t r r 6 6 ; ; o o o # ; ; 5 5 ; 5 ; ; 6 & & ; ; ; & w S =._.7XvXDXcXCXHX3.G e.8XB ( ( :XsX<XL.tXK.' e u g f y 8 z q.OXaXjXjXwXV.wX5XhX<.f : 6 6 6 ; ; ; & # & & ; ; ; : ; & o % & ; & o . . . X # # ; ; ; ; ; - ; - # - # o X X o o o X X o o o X X o X #   w ;     . # ; # # # & & # 5 5 ; # o w ; X X   , + 5 B > $ r i T } ) e $ e T _ W W p.W W W W W W T T T T T T G U U U ( ( ] &.( ( 1.D.[..X+X1X0X5X5XfXpXfXMXNXVXVXVXVXZXVXVXVXZXZXSXSXSXSXSXSXSXSXDXSXSXSXHXHXHXHXHXHXHXHXHXHXHXHXHXHXHXHXHXHXHXHXHXHXHXHXHXHXHXHXHXHXHXHXHXHXHXHXHXHXJXHXHXHXHXHXHXHXHXSXSXDXZXSXSXSXZXZXZXZXZXZXZXZXZXZXZXZXZXZXZXZXVXVXMXMXfXfXMX9X+X.X1X+XD.5.4.1.=.&.( ] U J ( U ( >.( F g u i g g u t t t ; # o   X X X X X X X X X X X X O O O O O O O O o o o o @ @ @ o # # # # # # # # # # # # 5 5 5 5 # 5 5 5 5 5 5 5 5 5 5 5 ",
"~ ^ ^ ^ ! ^ ^ ~ ~ ^ / ' } } } ' ' ' ' ' / / / ' ) / ' ' ' ' } } } } } } } } ' ' / ' ' ' ' } ' / } ' ' } } } } / / / / ' } } } } ' / / / ' } ' / / / ^ / } }  . . ...} } } } } } [ / } } | | } } ^ ^ Q Q ^ ) ^ R Q / / / } } / / / ^ ^ ^ Q ^ ^ ^ R R R R / / / ' } / / ) ) ^ ^ ^ | <.} ' ~ Q ^ ~ ^ / ,./ ^ ^ ) } ^ R } | }  .s. .' } } } / } } } } } / / }  .} ' E ^ ' ' ' |  .} } } } ' ^ h g h h h / / ^ Q ^ Q Q / E / / ^ ^ ^ D g g S S S g g S D h h / 3.} } ,.} / ) R h ^ ' ~ ~ ~ | ~ ^ ^ ^ Q R | 5.[ ^ ^ ^ ^ ^ / ' / R Q ! Q Q h ~ ~ / ^ ) ~ ^ ^ ^ ^ Q ^ Q D h D D D S S J D D Q ^ ' } } } | | | | | | | | <.| | <.3.d.d.f.d.h.h.B.h.g.G.oX:Xh.3.| } } } } } ' ' ) ~ ~ ' ) ~ ~ ~ ~ ' [ } | | | 3.d.d.f.3.3.g.g.g.g.h.f.5.,.^ h h =.e.5.[ h D ] [ | | [ } } ,.g.J.J.K.J.K.K.oXH.3.' D.oXoX}.oXoXJ.g.5.3.,.| ,.3.<.| | <.<.| ,.} [ { | ,.,.,.[ [ [ [ ] ) [ ] [ [ *.=.| 3.A.g.| ' h ! h S G ( ^ Q h Q Q h h D H G d y 7 s B s V S g =.5.5.f.5.' h h g S f u d g r g u t t r : 7 7 7 ; 7 & o & . ; V :.Z ; ; # ; 6 y *.w.] > t : r 6 6 : ; ; % & ; ; ; ; ; ; ; 5 & & & ; ; o ; s =.S.4X4X5XMXSXiXCXMXR ! H 1.S.H ^ >X,X<X<XVXsX' D G t d B 8 K N :.DXdX,XwXR.sXf.H.i r : ; 7 ; ; ; ; ; # & & ; ; 6 6 6 ; & & & ; ; # X . . . o X # ; ; ; ; - ; # # - ; # X X o o X X X o X X X   X   # o .   o % o & ; X   X ; 5 ; w w 5 ; # N 6 X o X K l y 6 $ * i e T E R e $ e T W p.p.W W W W W T _ _ T e i T T Q ] U U H H ( ( ! *.z.).{..X:X0X5X5X9XfXfXfXMXNXVXVXVXZXZXVXVXVXZXZXZXZXZXSXSXSXSXSXHXHXHXHXHXHXHXHXHXHXHXHXHXHXHXHXHXHXHXHXHXHXHXHXHXHXHXHXHXHXHXHXHXHXJXHXHXHXHXHXHXHXJXHXHXHXHXHXHXHXHXHXHXHXSXSXSXSXSXZXZXZXZXZXZXZXZXZXZXZXZXZXZXZXZXZXMXMXMXfXMXMX9X3X7X3X.X5.1.4.=.*.( U ( P F U ( &.U Z B g j g f u u u y 6 & X X X X X X X X X X X X O O O O O X @ O O @ X X o o o o o o # # # # # # # # # # # # # # # 5 # 5 5 5 5 5 5 5 5 5 5 5 ",
"~ ) ( ( ~ ~ ( ) ) ' } g.:XgX<XB.3.<.| ' / ' ' / ' ' } }  . . . . . . .} } }  .} } } ' / ' ' }  .' }  . .| } ' / ' ' ' } } } }  . .} } / E E / / Q ^ Q / / } }  . ... .} ' / ^ ^ ^ j R R E E E E Q [ ~ ^ ~ ~ Q h ^ ~ ^ / ' ' ' / / ^ / ^ ^ ^ ~ ^ Q Q ^ / } / E R E E / / ) ^ ^ ^ ) ~ R h h h ^ ) Q ^ ~ Q ^ ~ ~ ' Q R } } '  .d. ./ } } ' / } } / ' | <. .' } <.} E / | |  .s.j... .} } [ Q h D g h ^ <.| / ^ / / ' } }  .| } ' ~ ! h d f d g f d g g g g Q Q / / / ' ^ / <.<.3.[ ^ ^ ~ 1.[ ^ ^ ~ ) ~ [ ,.[ ~ D R D ^ [ ' / Q ^ D ! ! D ^ ^ / / ~ ) ~ ^ ~ ^ ^ ^ ^ H D D D D S J J J J D ^ ' { } } } } } } | | | |  .| <.3.3.3.d.f.j.h.h.h.h.h.h.h.g.3.| } | } ' } [ ' ' [ ' ~ ~ ~ ) ) ~ ~ ] / ' | | | 3.d.d. .' ' 5.f.d.d.f.| | [ ^ f D ] ~ r u d u g ~ | [ [ } } } 3.A.H.J.J.}.}.oXJ.}.oXoX}.oXoXoXJ.}.J.g.3.<.| ,.<.<.,.| 3.<.<.,.| [ [ [ [ [ [ [ [ [ [ [ [ [ [ [ [ [ [ [ ' ,.D.5.{ h f g u g f h ,.( D H g ! [ ) g t y y y s s B V g [ 4.5.5.,.~ u g g S d f d f u u t t t B t 6 t : 6 . ; o o X ; X   # ;   5 . y ] ( 6 > f > r r t 6 6 : : ; ; : ; ; ; & % % & o o & ; X o V e.OXiXD.D.yXpXDXSXJX|.^ r (.JX{./ E h.L.wXR.;X} E g c t u q l C &.*.6XBXdXsXV.wXi e r r 7 7 ; 6 ; ; ; ; & & & & ; ; 6 6 : ; & # & & # o # o X o X o # & ; ; ; ; & # # # # o o % # # o # o X X X #   &   6 . F *.H t & # X # w 7 5 ; # ; w 0 0 A q q 5 @ U P y : $ e e e R R e e e i _ p.p.p.W W W W W W _ _ e e i i R ! #.U P V S ( ( [ w.v.D.|..X:X0X5X5X9XfXfXfXMXVXVXVXVXVXVXVXVXVXZXZXZXSXSXSXSXSXSXHXHXHXHXHXHXHXHXJXJXHXJXJXJXJXJXJXHXHXHXJXJXJXJXHXHXHXHXJXHXHXHXHXHXJXJXHXHXHXHXJXJXJXJXJXJXJXJXJXJXJXHXHXHXHXHXHXSXSXSXSXZXZXZXZXZXZXZXVXVXZXZXZXZXZXZXVXMXMXMXMXMXMX9X7X3X3X+Xz.1.5.4.*.] F U P B F U &.U P F u i j h f f f d t ; # o X X X X X X X X o o o o @ @ o + @ @ o @ o o o @ o o o o # o o o o # # # # # # # # # # # # 5 5 5 5 5 5 5 5 5 5 5 ",
"Q ! ! ! ! ! ! ! ~ ~ / /  .d.G.L.:X:X}.g.} ' { ' } }  . . . . ....... . .<. . . . . .} } } ' <.G.L.L.K.K.G.3.| ,.| [ ' / / / ' } / ' }  .| | } } [ / / / /  .....<.d. .' ^ Q Q ^ Q ^ ^ Q E / } / / ,.| ~ ' ~ ^ Q Q Q h R E / ' / / ^ R h ^ ~ ^ ^ / / / ^ / / / / / ^ / / / ^ Q ! ~ h h h h h h h h D h h R h R ~ R E ' / E  .<.} / ' | } ,.} } ' / }  . .' } f./ R ^ } } '  .s.' } } / / ^ h g S D D [ / / / ' '  . .d.d...<.} / ! g h h h h f h S S f G g ~ [ / ' } R } <.| | [ ! ! Q ~ Q D ~ ! Q D ) ^ ~ ! [ ^ D ! ,.<.,.^ Q H ! Q ^ ' ,.[ ' / ) ) ~ ) ^ ^ ~ ^ D D D D D D J H J J D ^ ^ ' ' { ' ' ' } } }  .|  . .<.<.<.3.3.<.d.j.g.h.h.g.g.g.h.3.<.| } | } } | [ ' ' ~ ~ ) ) ~ ) ~ ~ ' ~ ' } <.<.3.d.f.d.3.d.3.f.f.3.| R [ [ D f f D ! f d y d D ~ [ [ [ [ } } | 3.A.H.J.J.K.J.}.}.}.}.}.}.}.}.J.}.J.x.f.3.3.| | | | } ,.} ,.,.| [ [ [ [ [ [ ( [ [ [ [ [ [ [ [ { [ [ [ | [ 5.3.| ^ h f S H D S f d S u u [ =.*.H S J V 7 7 B B B S J [ 1.5.,.^ u g f d d d f d d 6 y u t 6 6 6 : 6 ; ; ; & # X   o & o & ; o ; o ] S.e.H > t r r : 6 6 6 6 : > > ; ; ; % o o o o o X . . J y.uXCXaXBXSX>XgXgXJXDX} ^ ( &X).J.oXG.L.tX<XtX/ <.' r y d : q c l 0 &.+XyX;XL.L.L.i j r u y 6 ; 6 ; ; ; & ; & & & & & & ; ; ; & X & & & & & # o o o o o # ; ; ; ; ; ; # # # # # & # # # # # # # # o X # o . e. Xw.D > . ; q A Z s s q # 5 V Z Z A 8 N C N l B t % e e i i R i * * e T W p.p.W p.W p.W W W T e e e e i Q ( ` P P F H ( ] ,.z.v.D..X:X:X0X5X5X9XfXfXfXMXVXVXVXVXVXVXVXVXVXZXZXZXSXSXSXSXHXHXHXHXHXHXJXHXHXJXJXJXJXJXJXJXJXJXJXJXHXHXJXJXJXJXJXHXHXHXJXJXJXHXHXJXJXJXJXHXJXJXLXLXLXLXJXJXLXJXJXJXJXJXHXHXHXHXHXSXHXHXSXZXZXZXZXZXZXZXVXVXVXZXZXZXZXZXVXVXMXMXfX9XvX9X9X9X3X.X).1.1.w.=.] J V U V B F =.&.U H g i j g g u u d y 6 & . o o + o o o o o o o o o o o o o o o o o o o o o o o o o o o o o o o # # # # # # # # # # # , 5 5 5 5 5 5 5 5 5 5 ",
"D ! D ! ! ! ~ ! ~ ] ) ) ) ) ' } 3.A.H.:X5XH.f. .'  .d.d.h.k.j.j.d.d.a.a.d.d.a.a. . . . . . .d.j.h.j.d.d.d.3.<.} [ ^ / ' } | <.d.<.<. . .<. .| | <.} / }  .s.d.3.<.<.} [ ^ h D g j h j D j ' oX}.f.3.{ ,.1.=.D ! D D g D D g D D h Q h h R Q Q } } | | } } } | } } } ' <.} | / E h g D Q h h h G S g S h h D H D h h ~ / E  .../ E ' '  .| } } ' / }  .} ' ' <./ Q / / } ' } <.E ' / ) ) Q h D G D G Q ) / E / ^  .'  .} } } ^ ) ! h d S B B S g B S G F g h ^ [ ~ [ ' [ [ ^ h D S D J S G S S D g D ) ! ) ! ) D g ! ~ [ | ^ D ! Q ! Q ~ [ ' [ [ ) [ ' ' ' ' ' Q D J H D D H D ! H J ! ( ! ^ } } ' / ) [ ) ) ' [ } } <.| <.....<.3.d.j.h.h.g.j.h.g.<.| } ' { [ ' [ [ ' ~ ~ ~ ~ ] ) ~ ~ ~ ~ ~ ' [ <.3.3.f.d.3.f.d.d.f.f.| E ^ ,.| D ^ ~ ^ ~ d d F H ] [ [ ' / [ } [ } | 3.A.J.J.J.K.J.}.}.K.K.K.oXK.J.H.A.d.3.d.<.<.[ ,.| | | ,.,.} { | [ ,.~ f r d H [ [ [ [ [ [ [ [ [ [ [ [ [ [ ,.3.} } ~ ) G S S J V 6 t 6 D ,.,.! d d d t 6 0 s B S S D h h D d f u u t u u u t t t t t 6 : : ; ; ; ; o o # # & # # & & & & & o y 6XS.] t t t : : 6 : 6 6 6 ; ; ; % > > % % o o   # o o s q.iXJXJXJXJXJXJXJXLXJXiXh *.&.;.PXJXJXv.J.<XR.tXgX6.r u t f s 5 w 7 v 1. X|.yXK. .d.} R H & : % : ; ; ; ; & # # ; ; & & & & 6 7 5 o & & ; ; ; # # # # - & # # # ; ; ; ; # # ; 5 ; & & ; ; o # # # 5 , 5 . : e.).( & % % 6 s U Y p s V y y q 5 9 U U 5 C A N N F $ r e e R R h % $ * e _ p.p.p.W p.p.W p.W T e e e e e i ! U U U H U ( ] *.1.z.x.H..X:X0X5X5X5XfXfXfXfXMXVXVXVXVXVXVXZXZXZXZXZXSXSXSXSXHXHXHXHXHXHXHXJXJXJXJXJXJXJXJXJXJXJXJXJXJXLXLXJXJXLXLXJXJXJXJXJXJXJXJXJXJXLXLXLXLXLXLXLXLXLXLXLXLXLXJXJXJXJXJXJXJXJXHXHXHXHXHXSXSXZXZXZXZXZXZXZXZXZXZXZXZXZXZXAXMXMXMXMXpXpXpX9X9X7X+X).w.1.5.1.&.U V V Z B Z ( &.K X.H R R h h u r u d s 5 X X X X + + O o o o o o o o o o o X o o o o o X o o o o o o o o o o o o # # # # # 5 3 , # 3 5 5 5 ; 5 5 5 5 5 5 w ",
"! ! ! ! ! ! ( ~ ) ) [ [ Q / / ' } ' ' } <.d.h.L.K.K.K.L.G.L.K.R.<XK.R.L.V.j.j.a.a..... . .a.j.h.j.j.d.d.s. .} | | } | | | <.<.<. . .<. . .| | <.} <.<.<. .....<.| <.' / ~ h h h D g g h h h [ z.}.>XgXDXSX4Xw.) ! D ! g D g D S h D h h R R / } } } } } E ' / / } / ' } } } / R j h ^ >X}.^ f g G g g g S g g h D ! D Q R } <. .} / } / / }  ./ '  . .j.L.h. ./ R ^ / ' } } | E ' / / / R j Q g D G D ~ ^ Q ) ^ } E  ./ / / E ' G G G G F B S g g S g S f h ~ ~ ^ h h h h h D D g h S g h h h h Q Q h h ~ ~ ~ ~ ! G Q h h h Q D D ! ^ ) ) ) ) ' / [ ' / ~ ' ) ^ D ! Q D D Q ! Q D ! D D ! ~ [ } ' ' ' ^ ' / ' ' } ' } <.|  .<.| ..d.d.g.g.g.f.d.3.<.} } } ' ' / [ ) ~ ~ ) ~ ~ ~ ~ ~ ~ ~ ~ ~ ~ ' ,.<.{ } <.3.d.d.3.d.d.3.} | 5.<.<.1.5.2.*.h d S ] [ [ [ } ' [ ' } } } | h.A.H.J.H.J.K.H.A.J.J.J.J.J.x.<.| | <.<.[ ' | | } } [ [ [ ' [ [ =.D u u u g ( =.,.| | ,.,.[ [ [ [ [ [ ' } | ' } ,.) g f S d s V J d d H ! D d t y S B w y s B d g g g g f f f f u t : : : ; ; : : ; & % ; ; ; ; % o & # X X X o # # & & ; 6 6 : : t r r : : : : : ; 6 : ; : > % % % > % & : o : 6 1.&XDXJXJXHXLXJXLXLXKXJXCXd 1.o.#XKX X{.4XsX,XwXtXfXh g g f f 7 6 q s K 9 *.5.}.h.J.hX:XR r J y 6 ; ; ; ; ; & # # ; ; ; & & & 6 6 ; # o & & & & ; ; ; ; ; ; & # # - ; ; ; 5 5 5 5 ; 5 ; o # 5 # 5 o 5 , & ( e.=.: 6 7 H =.&.F N 7 5 Y s 7 7 6 ; 5 c 8 q 5 k C +.H r r i i E i r $ % $ i W p.p.p.p.p.W p.p._ T e e e e e i ! U K F H U ] *.,.1.l.v.|.:X:X1X5X5X9XqXfXfXfXMXVXVXVXVXVXVXZXZXZXZXZXSXSXSXHXHXHXHXHXJXHXHXJXJXJXLXLXJXJXJXJXJXJXJXJXJXLXLXLXLXLXLXLXJXJXJXJXJXJXJXJXLXLXLXLXLXLXLXLXLXLXLXLXLXLXLXJXJXJXJXJXJXHXHXJXHXHXHXHXSXZXZXZXZXZXZXZXZXVXZXZXZXZXVXAXMXMXMXMXfX9X9X9X9X9X+X).e.1.:.1.&.( P Y F V B B +.P U F Q Q R g u u > t y s 5 o o X + o o o o o o o o o o o o X X X o o o o o o o o o o o o o o o # # # # # # 5 5 # 5 3 5 5 5 5 5 5 5 5 5 w w ",
"H ! H ( ( ! ( ! [ ~ ~ ' / E / E / / } ' / ' '  . .d.L.,XdXjXhXsX,XT.R.<XeXeX<XL.h.j.d. .a.d.d.d.h.d.d.a. .' ' }  ...d.h.g.d. .} ' ' ' } } ' ' ' ' ' } }  .' } } | } / / ^ j j j j h Q Q j R E ' g.oXJ.oX{ Q ^ h ~ ^ h D g g D D Q Q R h R R / } / / | / / / / / } E } ' } [ ^ h h h | >XyXA.r $ i g g h h g g h j D ^ Q / <.<.} } / ' } }  .' } }  .h.<XeXK. .E R '  .' E / } ' E / E E E j j h h D Q ^ ^ R ) ^ ' E } / / E E E Q h g g f f h D j h D g h h g D Q h D D S D D h h h j j / ' | f.f.<.} j j h ! G D Q D h h D D D D ! ! ~ ) ^ / ) } / ' / [ ^ ^ R R / } 3.f.<.} / R R ^ ! D D ) ) ' ' E ' E / ' E / ' |  . . . .<. . . .3.d.3.3.3.|  .}  .' ' / ' ' ~ ~ ^ ^ ~ ~ ~ ~ ~ ~ ~ ~ ~ ~ ~ ' [ ^ / <.3.3.3.d.d.d.f.3.3.f.3.3.6.5.5.,.~ f u ~ ' ' { } ' [ [ [ } | ,.g.A.G.J.L.J.J.H.H.J.A.x.x.H.x.| ,.<.| [ / ) ,.| | [ [ [ [ [ ' ^ ^ h f u d S ( [ =.,.,.4.,.,.*.5.[ [ [ <.| ' } } [ [ [ D S u t 7 s y d d g S S S H F B w 0 s d d d g d u f f d f u t : : ; ; ; ; ; ; & ; & & ; ; & & & # # # # # o # & & o ; & : 6 : > 6 ; & ; % & o & ; ; t t t : > > % & > ; 6 ( _.DXJXbX'.DXKXLXKXLXKXJXbXr B l =X'.( BXJXDXK.;XL.i $ t t d s w w w q C l N (.,.5.sXSXVX|.[ 8X( 6 ; 7 ; ; ; - # # ; ; ; & # ; ; ; ; & # & & & & ; ; ; ; ; ; & & # # # - - ; 5 ; = 5 q w q 5 X q # q ; . ( 6X1.S y :.>.*.:.U U w w U y.H 6 & q s q q N N U P U U : u r i j T i r $ * * T p.M.M.p.p.W p.p.W _ e e e e e e i ! U Y F H U *.*.,.4.z.H.+X:X:X1X0X5X9X9XpXfXfXMXNXVXNXVXVXVXVXZXZXZXZXSXSXHXHXHXHXJXJXJXJXJXJXJXLXLXLXLXJXJXLXLXLXLXLXLXLXLXLXLXLXLXLXLXLXLXLXLXLXJXJXLXLXLXLXLXKXLXLXLXLXLXLXLXKXLXLXLXLXJXJXJXJXJXJXJXJXHXHXHXHXZXZXZXZXZXZXZXZXVXZXZXZXZXAXMXMXMXMXfX9X9X9X9X9X%X[.c.1.*.:.&.U U H V V V B P K U F g h R Q h h u y ; 7 7 # o X X o o o o o o o o o o O O O + o o o o O @ o o o o o o o # # # # # # # # # # # # 5 3 5 5 5 5 5 5 5 5 w w w ",
"( ( H H ! ^ ~ ~ ! *.D.+XoXoXoXK.K.K.L.J.K.K.L.K.K.K.K.;X<X,XsXsXeX,X,X<X<X>XJ.oXoXK.K.V.j.d.a.d.d.j.j.j.j.G.K.,X,X,X,X,X,X,X,X<XR.G.j. .} } ^ R ^ Q ^ / / / } / / / 5.oX@XoXoXK.G.A.h.A.G.L.K.<X<XrX,X>X:XoXD.g.| { / ~ ~ D D D Q ^ ^ R E ^ } ' / / } ' E / ^ ^ ' / } / } ) ^ D g h 3.,X,X<XoXA.f.3.<.<.3.3.3.3.d.3.<.d.h.G.G.h.h.h.h.h.B.B.B.V.L.<X,XtX,XA.' g.oX:X<X;XT.K.K.L.J.K.oX<XoXoXoXH.H H Q / / E ' ' G.<X<X<X;XK.K.J.K.G.J.J.K.oX:XoXF.f d d f D D ~ Q G g g d d u R } 3.J.,X>X>XyX>X5X>XeXyXA.h g H D u u Q h ! H D D H Q ^ ) / / ) / / / ' / | d.H.<X,X,X<X<X,XeXrX<XL.3.[ ! ~ ) [ / ' oXoXoXK.<XK.K.L.K.L.P.P.L.K.K.K.K.K.K.K.K.K.K.;X<X:X3.' ~ [ ) ' [ ~ ~ ~ ~ ~ ~ ~ ~ ~ ~ ~ ~ ~ [ [ ~ ' ,.,.| 3.<.<.<.<.3.3.3.,.| ,.| ,.<.,.~ h ^ ' { { ' ' [ } } } } } 3.g.A.A.G.A.A.A.A.H.H.A.g.3.<.<.| [ [ ~ ~ ' | | [ [ [ [ ~ [ ~ ^ ^ D g f H ] { [ [ | ,.,.z.4.,.[ } <.| | | } } / / ) [ ^ g u d y y y B t u u t d F y 6 q w 7 s d d g d f f d d d u 6 6 6 ; ; ; ; ; & ; ; % % ; ; & & & # # o o X X X X o ;   & o % & & & % o % % & . o & o % > : : % % o o o & d c.vXHXCX_.JXLXLXLXKXJXLXJX{.f H U X.*.z.{ j ' <XwX<Xg.v.! u t 7 q N w ; A Z c 1. XyX}.G.} ) D [ G d ; 6 ; ; ; - # # ; ; ; & # ; ; # & ; # # & ; ; & & & ; ; ; ; & & # o o # ; ; # = 5 w w O 3 w w ; & ; 1.).*.G 7 q q.&.N w 0 N N ( F V 7 7 F J F V B F F U F U G B @.u e i i e * % $ e W p.a.M.p.p.p.p.T T T i e e e e i R H P P H ( ( *.[ =.5.D..X:XoX:X1X0X5X5X9X9XfXfXMXNXVXVXVXVXVXZXZXZXZXZXSXSXHXHXHXJXJXJXLXLXJXJXLXLXLXLXLXJXJXLXLXLXLXLXLXLXLXLXLXLXLXLXLXLXLXLXLXLXLXLXLXLXLXLXKXKXKXLXLXLXLXLXLXLXLXLXLXLXLXLXLXJXJXJXJXJXJXHXHXHXHXSXZXZXZXZXZXVXVXZXZXZXAXAXMXMXMXMXfX9X9X9X7X9X1X XD.5.*.=.&.U ] ( B B V F A Z K F g g R R h D D S t 6 7 ; # X X X o o o o o o o @ @ @ O o + + o @ @ @ @ o o o o o o # # # # # # # # # # 5 5 5 5 5 5 5 5 5 5 5 5 5 w w w ",
"! ( ^ ] [ ,.5.z.1.[ D.5X>XyX,X,X,X,X,XeXeX<X,X,X,XeX,XrXeXrXrX,X<XrX<X,X>XR f D >X>X<XK.K.K.G.k.j.j.L.<X<X,X,X,X>X5X>X5XyXrXeX,X,X,X,X,XG./ R R ~ ! ! ) ' ' } } ' R | oX5X,XrX<XrX<X,X,X<X,X,X,XrX,X,XyX>X,X<X,X,X<XA./ R ^ h Q Q ^ Q ^ ^ / ' ' / / } / / / / ^ / / / ' / ) ! D S h A.rX<XeX<XyX>X5X5X5X5X,XeX,X,X,X,XtX<X,X,X<X,X,XyXyX>X,XyX>X,X,X,X,X>X[ * ) >XyXeX,XeX<XeX,XeXrXeX>XyXaXyXz.> r r R ' ' ' ' h.,X,X,XeXrX<XrX,X,X,XrXrXrXyXyX4.% > : f ' ~ ^ ~ D S u h j | }.<XyXyXyX5XyX4X5X5XyX,X,X>X' % & 1.' h j D H S J D D Q ^ / / / ~ ) ' ' / f.<XeX,X>X>XeX>X>XrX,X,XeX<X,XoX^ S ~ [ ' ' x.>X,XrX,X,X,X<XrX,XrXrXrXrX>X>X>X>XeX>X>XyXeX,X,XeX3.r * u [ ~ ~ ^ ~ ~ ^ ~ ~ ~ ~ ~ ~ ~ ~ ~ [ [ [ [ [ | | | | <.<.<.| <.| } } | { | | ,.| [ [ } } { ' ' [ [ [ [ [ { <.3.3.3.3.d.f.3.3.g.A.A.<.| ' ' ~ ~ ' ) ~ ~ ~ [ [ [ ' [ [ [ ~ ~ ^ D ! [ ] [ [ [ ] ] [ [ <.,.} ' <.A.|  .,.,.} / [ [ [ [ ~ d t y q y V B y d V V F B 7 y 5 5 w s d f d f t f f d u 6 6 5 5 5 5 ; ; & & ; & & ; ; & & & # X o X X X o o o   % . & % & & & & o o o & . o o o . . o o . o % &   ; 4.&XHXJXJXbX&XLXLXJXJXvXDXSX}.R h U U bXpX) <.5XsX<XwXL.} u r s N N q 0 s s Z :.F  X4X3./ E i g t ) H : & ; ; & - # # ; ; ; ; ; ; ; # ; 5 # X o ; 5 & & ; & ; ; ; & & & # X # # # # 3 # @ @ @ , 5 7 o ( OXw.t t 6 ; l C b U ] s ; >.J s F F J &.>.( B y +.*.F U F c H ! r u r i r % r * i p.p.a.p.p.a.a.T T T e i e e e e T Q P K Y U U ( ( *.2.l.[.oX+X:X:X1X0X5X5X5X9XfXMXMXNXVXVXVXVXZXZXZXZXSXSXSXHXHXHXJXJXJXJXLXLXLXJXLXLXLXLXLXJXJXLXLXLXLXLXLXLXLXLXLXLXLXLXLXLXLXLXLXLXLXLXLXLXLXLXLXLXLXLXLXLXLXLXKXLXLXLXLXLXLXLXLXLXLXLXLXJXJXHXHXHXHXHXZXZXZXZXZXVXVXVXVXAXAXBXMXMXMXMXvXpX9XpX7X3X1X|.).w.*.*.*.U ] *.U V B V V Z Z Z S g Q i g h D S F y % 5 & o X X o o o o o o o o o O O o o o + + + @ @ @ @ o o o o # # # # # # # # # # ; 5 , 5 5 5 5 5 5 5 5 5 w w w w ",
"[ [ ] ] ' ] ' ' [ [ ~ ' g.K.rXrX,X,X,X,X<XrX,XH.5.5.5.5.5.5.A.K.<X,X,XeXoX* $ . +XgXjXjXgXyX:XL.L.<XtX,XyX>XoXz.*.D * * f ' A.>X,X,X,X,X,X:Xg.{ [ ( ! Q ) } ' [ ' ^ h R ' x.oXeX,X,X,X,XtX<X,XJ.' j ^ ,.H.>XeX,X,X,X,XoX' j ^ ) ~ ) / ' / / / / / ^ } / } / } / / / / / / ^ D G g h yX,XrXrX:XH.z.5.5.z.D.}.oX,X,X,X,X<XtX<X<X:Xx.5.6.6.5.z.D.+X,X,X<XeX>Xu . . > 3.J.,X,X<XoX>X,X,X,X,X{.,.r   . . $ u Q ) / } ' / d.K.<X,XrXrX,XtX<X,XyXJ.[ .     . . g ' ^ ^ D D f h Q A.>XyX,X,XoXD.,.! > % f ^ g.>X4XF.    [ yXF.' h D g S S D ! ^ / / ^ / ) ' } G.,XyX<X,X_.=.u $ > ^ 5.@X<X,XeX,X6.. % d [ ~ ' ' 3.K.eX<X,X,X,X,X<X,X>XD.=.{ [ [ [ [ ,.A.K.,X,X,Xz..   . ^ ) [ ~ / ' / ' ) ~ ~ ~ ~ ~ ~ ~ ~ ) ] ~ ' [ | } | | | | | | } } } } { } { [ [ ,.,.| | [ ' [ ' [ [ [ } | <.,.,.| | | ,.,.,.| <.,.,.' ~ [ ~ ^ ~ ) ~ ~ ^ ~ ] [ ' [ [ ' ] [ ] ) ( ] ] ] ( ~ ( ( ] ] [ ,.| } <.} d.} } [ [ ) ~ [ [ [ D f d d B s B y 6 s V F F d : ; w 5 6 q s f u f u d d u t 6 6 5 5 5 5 ; ; ; & & & & ; ; & & & # % # o o o & & % o ; . % & : % . % o % % & % % % o o o . . o o o   & H '.DXLXJXDXbXJXLXJXJXSXiXDXSXH.R ! P K mXDXBXBX>Xh.L.R.a.i D d t y q 0 7 f f 7 U 6 [ F.A.| 3.h [ ,.*.r % 7 ; & # - # # - ; ; & & ; ; # ; 5 ; # X & ; & & 6 & ; ; ; ; ; ; ; ; # o X # # # @ # 5 o # & S _.c.r u . o Z U &.&.*.U F U *.q J H Z U ( U J F B U U J F t +.) g D ( r u G t g i T p.p.a.p.p.a._ T T T i e e e i T T Q K K U H H ( ( *.1.z.{..X+X>X:X1X0X5X5X9X9XfXMXMXNXVXVXVXVXZXZXZXZXSXHXHXHXJXJXJXJXLXLXLXLXLXLXLXLXLXLXLXLXLXLXLXLXLXLXLXLXLXLXLXLXLXLXLXLXLXLXLXLXLXLXLXLXKXLXLXLXLXLXLXLXLXLXKXLXLXLXLXKXKXKXLXLXLXLXLXLXLXJXJXHXHXHXHXZXZXZXZXVXVXVXMXMXMXMXMXMXMXMXpXpX9XpX9X3X1X.X).w.=.] *.U J &.&.U F Z V N A U H g R i h g g u S t & 6 5 # X X X X X o X X o o o @ O @ @ o o o o @ @ o o o o o # # # # # # # # 5 # # 5 5 5 5 5 5 5 5 5 5 5 5 w w w w ",
"[ =.=.,.,.=.*.[ D ~ ~ ^ ^ ' :X,X,X,X,X,XrXrX,.% . . . * * * e r / oX,XeX>Xr     5.H.K.K.:X>XeX,X<XeX,X>X>X6.f . .     : t r j } H.,X,X,XtXrX<XK.r > S G G Q ^ Q R Q h h h R } >X,XrX,X,X,XyX>Xr . .   % u } >XrX,X<X<XeX:X{ r G ~ } | | } / / ' ) / / ' / } / / ) / ^ / ^ ^ h g j 3.>XeX<XA.^ %     . . $ r | >X,X,X,X,XeX,X5Xu   . . $ $ * * u f.>XeX,X{..   . r E ' K.,Xg.j } ,XeX,Xg.r .   . % 6 g ~ ) ,./ } / / / ' V.,X,X,X,X<XtX,X}.r .   . & t S ~ [ ~ ^ ~ h h } oX,X,X<XyXz.^ $   .   . : % r D z.F.. . [ 5XeX<X' r g g G D ! ^ ~ / ^ / / ' L.,X,X,X5X3.& .     + : g [ oX,X,X,X{.    X g ! ! Q ~ ' K.eX<X,X,XeX,X,X2.. .   . > u j r r E A.,X,XJ.. #   D ) ) ) | f.} ^ / ^ ~ ~ ~ ~ ~ ~ ) ) ] ~ ! ^ ' | | } { ' ' { ' [ [ [ ' } [ ' [ [ | [ } ' ' [ ' [ [ ' [ [ | | | | ,.} ' | | [ | [ [ [ ' ^ ~ ~ ^ ~ ( ( ! ~ ~ ' ' [ [ [ ' ~ ' [ ] ( ~ ) ] ( ^ ^ ! ( ] ~ | | <.g.3.| ) [ [ ~ ~ ^ h D f f S B V B B s t 6 7 s d u y s y w 6 w s s f t f d f t t 6 6 6 5 & ; ; ; ; & & & & ; ; & & & % o o o . o o % o & . : % . % % & % % : % > & : : % % & % % & o o ; d S.vXJXJXbX_.HXLXJXDXgXHXJXLXSXl.R G P L W.KXJXMX| h.L.L. .i r t 6 w 0 5 ; : s 7 ; # J 1.z.,.x.j g ] u * t 6 ; & # ; # # # ; ; & & ; ; # & ; 6 ; & & & ; ; ; ; ; ; ; ; ; ; ; 5 & o o # o o , o 5 # . =. X*.r u . 7 ] >.:.:.*.J ( 4.*.U F F P y U ( ( U F F &.( ( 6 u w.1.( [ ( r u J d g e T p.a.p.p.p.T T T T e e e e i _ _ T Q P U ( H H ( ( *.4.D.|.:X:X>X1X0X0X0X5X9X9XfXfXfXNXVXVXVXVXZXZXZXZXSXHXHXJXJXJXLXLXLXLXLXLXLXLXLXJXLXLXJXJXJXJXJXLXLXLXLXLXLXLXLXLXLXLXLXLXLXLXLXLXLXLXLXLXLXLXLXLXLXLXLXLXLXLXKXKXLXLXLXKXKXKXKXKXKXLXLXLXLXJXLXJXHXHXHXZXZXZXZXZXVXVXMXMXMXMXMXMXfXfXpXpX9XpX9X9X3X.X).e.=.] ] H S U &.&.U U Z q A X.( d i i i i g u u t y 7 6 & o X X X X X X X @ o o o o @ o @ o o o o o o o o # # # # # # # # , 5 5 5 5 5 5 5 5 5 5 5 5 5 5 5 5 w w w w ",
"~ ( ~ ( ( ! ~ H D D D D h ^ g.yX,X,X,X,X,XoXr       d [ [ [ | | ,.3.<XyX>Xr     [ d.j.j.d.g.K.,XrX,X,X>X[ . .     ; B B d f j E 3.<X,X,X<X,XeX,X>Xj $ u D g G f g g d g g f Q oXrXrXrX,XeX,XD..   O , y u j | ,X,X,XtX,XeXoXr $ h ' <.} ' / / } ' E / / / } / / / Q ^ R ^ ~ h h j J.5X,XH.*         7 V S f ' >X,X<X,X,X<XeX5..     : *.*.~ ^ H g H.,XeXz..     ^ }  .j.sXG.j j eX,X>Xj .     5 D ^ Q ^ E | /  ./ ) E E 3.<X,X,X,X,X,X5X3..     : G ! D D [ ^ ~ ~ h ,.>X,X,XrX<X4..   .   + q d N V f h u ! u . D.>X,X<X:X~ $ u S S D ^ ~ ~ E E / g.rX,X,X,X{.* .     c P S h j ' ,X,XeX+X.     S U G H ~ ^ 3.,X,X,X<X<X,X>Xh       H ,.,.,.<.| |  .K.rX>X.     g ] [ ~ ) <.' ' / ^ ^ ~ ~ ^ ^ ~ ~ ^ ~ ! D j ~ z.x.<.} ' ' [ ' ' [ [ [ { ' [ [ [ [ [ [ ' ' ' ' [ ' ' [ | ,.[ | [ ' [ ' ' ' [ [ [ [ ' ' ~ ^ ^ ^ ^ ~ ( ! ! ^ ~ ~ ] ~ ~ ' ' [ ) ' ) ] ~ ] [ ! d d J ! ) h ~ } <.' <.) h ~ [ [ ^ h f f f d s B 7 7 d y 7 7 7 u u d y y 7 ; ; 6 s f r u u f d y t 6 5 5 5 ; ; 5 ; ; & & & ; ; & & & % % % o o o & ; : & & & & & & : > > > 6 : : : t r : % > > > r : d S 4.2XDXJXiX6.+XLXJXBX{.BXJXHXJXDX<.R D P 4 ;.LXJXBXJ.j.R.R.s.e r u 6 w 8 5 : : 7 q N 5 . ] pX2X>X' ^ [ h r : % ; ; - - # o # ; ; ; ; ; ; ; ; ; ; 5 & & & ; ; & ; ; ; ; ; ; & # 5 # % ; ; o X # #   ; _.uX=.* $ t d 4.y.u.&.s 7 ] ] S d =.s ( :.:.q.&.S y B ( =.( B : u ! g r G y D H D d i e T T W W p.W T T T T i e e e / _ T T D P U ( H H ( ( *.l.XX.X1X>X:X:X0X0X5X5X5X9XfXfXfXMXVXVXVXVXVXZXZXZXSXHXHXJXJXJXJXLXLXLXLXLXLXJXJXJXJXJXJXJXJXJXJXJXLXLXLXLXLXLXLXLXLXLXLXLXLXLXLXLXLXLXLXLXLXLXLXLXLXLXLXLXLXLXLXKXLXLXLXKXKXKXKXLXLXKXLXLXLXLXLXJXJXHXHXHXZXZXZXZXZXVXMXMXMXMXMXMXfXfXpX9X9X9X9X9X3X1X[.z.=.( ( ( U J U &.U Y U s N U ( g i i i g u u t t : 7 6 & # X X X X X X X @ o o o o @ o @ @ o o o o # # # # # # , , # # , 5 5 5 5 5 5 5 5 5 5 5 5 5 5 5 5 5 w w w w ",
"S S S J H H J D S D D D Q R 3.yX,XeX,XeX,XoX%     t ! ) ' ' } ' }  .h.,X>XQ     } g.G.C.h.<X,XtXeX,X>X=..     o u D D G g f h ~ <.<.A.,XeX,XeX,X,XoXu . u g u D g j f g S g h }.,XeX,XeX,X,X5..     7 B Z r j oX,XeXeXrXrX,X[   . ] } ' } E / } / E ^ / / ' / ' / / R Q ~ ^ h j [ >X5XH.h .   X 6 s d d d h / :X<X,X<X,XrX,X]     X H ' / ' ' [ g ^ >X>Xz..   + ' } } d.,XL.' i rX,X<Xf     . g ^ ^ Q / ' } } } / E / /  .;X,X,X,X,X,X,X|     . D Q ! ^ h ~ R / E x.,X<XrXrX>X5.&       6 V y B B d f d S g f h }.,X<XtX,X>X[ $ 7 G h ^ ~ / ' / } <X,X<XrXeX6.. X   7 V S D ! ^ R 5.,X,X5X$ . O 7 J J D D ^ | eX,X,X,X,X,X>Xf     s [ | | } | | } ' 3.,XrXD .   u ! ~ [ ' } ' ' / ~ ^ ! ~ ~ ~ ^ ~ ^ S S g f [ g.5.| } [ ' ~ ] ' [ [ [ [ [ [ [ [ ' [ [ ~ ' ' ' [ { [ [ [ [ [ ' [ ' ~ ~ ~ ~ ~ ~ ~ ~ [ ) ~ ~ h ] ( ^ ~ ~ ! ! ! ( ] ' ~ ' ' ] ] ' ) ~ ] ,.,.( d t s s S D Q ~ h E | [ ^ ~ ~ [ ^ ! H d f d V d 7 s d d s t t y y y y w 7 ; ; 6 7 y s f u d t d B 6 ; 6 6 ; ; ; 6 6 ; & & & ; & & % % & & o o o & : > : > : : : > > > > r r r r t : : > > > r > r r u =.OXCXSXaX@XbXJXPXJXyXdXDXSX).BXfX<.h D X.x X.LXJXDX,Xh.k.;Xj.r y y t 7 7 7 6 6 7 w w 5 ; 7 &.&X+X,.H.D.5.t % 7 ; ; ; - # # # 5 ; ; ; ; ; ; ; ; ; ; & o X & ; ; ; ; ; ; ; ; & & ; 6 % : & o 5 O . 6 (.CX=.( &.*.1.:.:.:.&.F F U =.*.] Y q.>.:.&.&.=.*.&.U U &.:.*.& H ! D * r t q U J S % R T W p.W p.p.W T T T T e e T  .W T T T ! P X.U D ! ( ( *.v.|.:X1X0X1X1X0X1X0X9X5XfXfXfXfXNXVXVXVXVXZXZXZXZXSXHXHXJXJXLXLXLXKXKXKXLXLXLXJXJXJXHXHXHXHXHXHXJXJXJXJXLXJXLXLXLXLXKXKXLXLXLXLXLXLXLXLXLXLXLXLXLXLXLXLXLXLXLXLXLXLXLXKXKXKXKXKXLXKXKXLXLXLXLXLXLXLXHXHXHXZXZXZXZXZXZXVXMXMXMXMXMXfXfXpX9XpX9X9X9X9X1X|.x.3.( ( ( U U U ( ( H U Y Z P U D e i j j h u r u > 6 ; & = X o o o o o o o o o o o O O @ @ o o o o # # # # # # = 5 # # # = ; ; ; ; ; ; 5 5 5 5 5 5 5 5 5 w w w w w ",
"S S S S S S S D D ^ ~ ~ ] ~ 3.,XeXeX,XeXeXoX*   . 6 ! ^ ^ E ^ / / '  .<XyX,..   | K.L.T.<XeX,XsX,XyXA.    o . d ( D g g D g h Q R j E :X,XeXeX,XtX,X+X% . t g u f h h h g h h K.rXeX,XeXeXeX5.. X   7 y y S u A.rXeX,XeXeXeX{.  . > [ | ' E E / / E / / / / / / ' / Q ^ ~ ^ D f x.yX+X^ >     & Z V d d g g / :X,X,X,X,X,X,XH     # H ~ ' [ z.] u h D.yXF.o   + ^ ' / <.,XL.' j ,X,X:Xf     : D ^ ) ' / } <.d.<.| ' ' }  .K.<X<X,X,X,X,X[     . ~ ~ ~ ~ ^ Q ^ R | >X<XeXeX,XD.. o     ; y B B d B d d d d f h ~ >XeX<XtX<XyX:Xf   t g ' [ [ / E B.,XtX,X,XeX[ .     d S g ( ^ ^ ^ ' oX,X>XD     : S S G g h / ,X,X,X,X,X,X>Xd     B [ [ } | | [ } } E K.yX,.. + r ! D ~ } } ' | | ~ Q ! ! ^ ^ ~ ~ ~ D d r g ~ ' ' ' [ ' ' ~ ~ ~ ~ ' [ [ [ ' [ [ [ [ ' ~ ' [ ' | [ [ [ [ [ [ ' [ ' ~ ~ ~ ~ ~ ~ ~ ' ] [ ( h ,.^ ^ ^ ^ ^ D J H ~ ( ' ] ] ] ] ] ] ( ~ ^ [ *.~ f 7 y V d D ~ ^ ~ ,.,.[ ) Q ^ ^ ^ D g f d d d s s s s 7 6 6 6 6 7 7 t w 7 5 ; 6 7 s B f t d u y 7 o ; 6 6 6 6 6 6 : ; ; ; & & & & % % & & ; ; % ; : : > : > % % > r * r t r > > > * > : r r u u t u ] S.bXJX5.S.DXHXpXLXJXJXJXJXHXJX1Xe h ! ! P 4 t.LXJXhX<Xd.k.G.<.j y y s 7 7 7 7 6 & s q q N 7 & ( u ^ |.4.r > 6 7 ; ; ; # # # # & ; ; ; ; ; ; ; ; ; ; ; & o # & ; ; ; ; ; & ; ; ; 6 % ; ; 6 # 5 X 6 1. Xu $ y *.w.q.:.*.:.*.U U q.w.( =.] >.&.(.=.4.w.q.c.U U H >.V % D D g $ r > s S S J f E W p.p.a.a.p.W T T e e e e p.n._ T _ _ H P P U S H ( ( 1.[..X:X:X:X:X1X:X0X0X5X9X9XfXMXVXVXVXVXZXZXVXAXAXAXZXDXSXDXDXZXHXHXHXHXJXLXJXLXHXHXJXJXHXHXSXHXHXHXHXHXHXJXJXJXLXLXLXLXKXLXLXLXLXLXLXLXLXLXLXJXLXLXLXLXJXJXJXHXJXJXLXLXLXLXLXLXLXLXLXLXLXLXLXLXJXJXHXHXHXZXCXMXMXMXZXZXVXMXMXMXMXMXpXpXfX9X9X9X9X9X9X0X+XD.5.] ( ( ( U &.&.&.U F J Z Z U ! i e i j g u r t r 7 6 5 ; o X o o o o o o o o o o o @ @ o o o o o # # # # # # # 5 # = = ; ; ; ; ; 5 5 5 5 5 5 5 5 5 5 w w w w w w ",
"h h g g g g h D D [ 5.x.F.5.g.eXeXeXeXtXeXoX;     t ! Q / } | [ { ' ' J.5X,.:   R  ...G.sX,XsXsXyX>Xr o     *.).x.<.[ ~ Q g g D g f u { yX,XeXtXeXeXyX{.: . S ( D D D h S D R J.rXeXeXeXeXeX1.      7 F s B f 5.yXtX,XeXrX,XaX  . . ! / / } / / } / } } }  .} } ' / ' } ) Q h g 5.{.[ g .   # Z G S d f g j ^ >XrX<XtX<X,X,Xf   o & ! ^ [ D.{ f B r ' >X[ r . . Q ^ E f.<XJ.' r >X,X;Xu     : D ^ ^ ) / / ' } | } / / }  .K.,X,X,X,X,X,X[     % =.*.[ ~ ^ j R } :XyX,X,X<X<X^       & s d s V s d d d d d f g ^ oXeX,X<XrXeX>XoXg . g ! ] ~ E ' K.,X,X,XeX,X( o   . d S h ! ^ ~ D / x.,XyX=.    % S S D S h j ,X,X,X,X,X,X>Xg     s ! h R / } | { ' / f.5X,.r   : H ! ^ ^ ~ / / ^ ~ ) ~ ~ ] ~ ~ ) ~ ! ! g D ~ ^ ~ ' ' ^ ~ ~ ^ ~ ~ ' [ ~ ^ ^ ~ [ [ ' ' [ ' | | 3.} [ [ ' [ ' ' ' [ ' ' ~ ~ ~ ~ ~ ^ ( ( ^ ~ ' [ ~ Q Q D D J H H H ~ ~ ~ ~ ~ ~ ~ ~ ( ~ [ =.! d y s t t H ~ h ~ [ [ ) ) ~ [ ] ] H J S J S V s s s 7 t s s t 7 7 7 t 7 w 6 ; 5 7 s B d t u 7 6 ; o ; 5 : 6 t t 6 ; & ; & & & # o o o # & ; : : > > : % : : % $ > r % * > % $ % % . % % % $ > r * f w.6XCXbXaXJXJXSXJXLXLXDXHXKXLXHX5XQ h D H P +.L W.BX5Xa. .h.;X<.e t t q 7 w 7 6 6 t & y s ; 5 5 & % 4.D.h D > & : ; ; & - ; = # # ; ; ; ; ; ; ; ; ; ; 6 ; # # # 5 & & ; ; ; ; ; ; y : # 5 5 ; . d e.w.u r =.1.:.q.:.&.( &.U &.( &.B Y &.>.>.:.y.q.*.=.S.S.*.( &.V t F ! Q r r r f H : d =.Q T p.p.p.a.a.p._ T e e e e T a.W T T T / J P P Y S H ( [ w.|.:X:X:X:X:X0X:X>X0X5XfXfXMXMXfXfXfXpX9X3X5X3X1X1X3X1X%X X X{.{.[.[.[. X%X7X8XvXbXvXAXZXZXHXSXSXSXHXHXHXHXJXJXJXLXLXLXLXLXLXLXLXLXLXLXLXLXLXJXJXLXJXHXHXHXHXHXHXHXHXHXHXHXHXHXHXIXCXIXHXHXHXHXZXZXIXZXCXAXvX9XvXMXMXMXVXAXMXMXMXMXfXfXpX9X9X9X9X9X9X9X3X[.l.*.! U ( U ] &.&.( F U F P U ! Q i i i g u t r : 7 6 w ; # X o o o o o o o o o o o o o o o o o o # # # # # # ; ; # ; ; 5 ; 5 5 5 5 5 5 5 5 5 5 5 w w w 6 w w w w ",
"g g h h g g h h h h Q ^ ~ ^ 3.eXeXtXtXtXyX@X;     : J D Q ^ ^ / ^ ^ ' } J.' D . e /  .,XeXyXeXsXyX,.o     t ! ^ ~ Q h D g u g d d u f r J.eXsXtXeXeXeXyX( . & ( ] [ [ =.,.,.[ :XeXeXtXtXtXyX,.    o s F V B B 6.yXtXtXeXeXeXaX:   . u [ | ' ' <.| } } |  .<. .<.' } } ' / ^ D g D d g t . & y V S S h f g j ^ :X,X<XrX,X,X,Xf .   : ! ] z.{ H d y d h h f : . o f D ' f.,XG./ r ,X,X;Xu     : S ~ R ^ ^ / ^ / } / / / '  .K.eX,X,X,X,X,X[     % ~ ) / ^ Q ^ ^ K.yX<XtXtX,X}.$ +     7 B s d d d d d d d d d u h g.eX,X,X,X,X,XeXS.. $ d ! ' R ' ;XeX,X,XeX>X,..   ; d g ! ^ ! D D / { yX5X6.%   o S D G g h R yXeXeXeXrX,X>Xg     ; u r g ~ [ | } ' / / g.~ h . : G D f j Q ^ h ) Q ^ ^ ~ ~ ~ ' ~ ) ~ ( ~ ! ^ ^ ) ' ) ) [ ) ~ ~ ~ ~ ~ ^ h h ^ ' ' [ / ' ' } { | [ [ ~ ^ ~ ' [ ' [ [ ' ' ~ ~ ~ ~ ^ ~ ~ ^ ~ ,.' ^ ^ Q D H H H J J ! ^ ^ ^ ^ ~ ^ ! ! ^ ~ D t : 7 7 s d D ~ ^ ] ^ D ~ D ! ~ { ] ! S d f s d f s s s s s s t 6 7 7 6 7 7 5 ; ; 6 t y y 6 6 ; ; 6 ; ; ; ; 6 6 6 : & & & & # o o o o o o o & ; : > ; > % : : % % r t % > r % % r : % $ > * $ > r u *.%XHXJXJXJXJXDXJXLXLXHXCXLXLXKXJXfX^ Q D G X.X.v 7.DXJ.} E H.G.R i 6 7 w w w 5 : 6 6 t 7 5 w 6 5 N 7 7 u u H t % : ; ; ; # ; ; # # ; ; ; ; ; ; ; ; ; ; ; ; # + # 5 & & & ; ; ; ; & % & ;   N % [ pX|.,.~ S.e.1.1.1.>.>.:.&.&.:.&.J :.] #.q.>.q.(.].*.=.w.w.*.*.] % J ) G r i i h D q.t U w.e _ p.p.p.a.a.T T e e e e T W p.T W _ T Q V F P V U H ( 2.v..X:X:X:X0X0X:X>X:X5X5XfXNXMX9X5X0X+X|.[.[.[.[.v.v.z.z.c.v.v.z.w.2.2.1.2.2.5.z.[.+X3X9XpXMXVXZXSXZXZXZXSXSXHXJXHXJXLXLXLXLXLXLXLXLXLXLXJXJXJXHXJXHXHXHXZXZXZXSXZXMXpX9X9X8X%X X X X X-X%X1X&X8X8X9XlXlX8X8X8X%X1X3X3X9XAXZXVXMXMXMXfXfX9X9XpXpX9X9X9X9X9X+Xv.2.( U U U ( ] &.&.J U U P P D ^ Q i i h u u t * 6 6 7 5 # X o o o o o o o o o o o o o # # o o o # # # # # # # ; # # = ; 5 5 5 5 5 5 5 5 5 5 5 5 w w w w w w 6 6 ",
"g S S S S g g g h h h h h h ,.,XtXtXtXtXyX+X>     : F D D h D Q ^ Q h } ' 2.,.* / <.K.sXsXsXdXdXyXf     o D ' ~ ^ Q ^ Q g G G B d 7 t d ' yXeXtXtXtXeXyX+X&   o y t r t d g h }.sXsXsXtXtXyX,.      U V N V y =.yXtXtXeXsXtXaX:   . : ^ / E } | } ' ' ' ' ' ' } ' / E / } [ h h f ! g g u u g h G h f h Q h E :X,X,X,X,XrX>Xf . . 6 =._._.] ] d B t t h d d & 6 h ,.4Xx.,XH.E * >X,XoXu     : D / Q ^ Q ^ ^ / ) ^ / ^ / } K.,X<X,X,X,X,X|     . ~ [ ^ ^ Q h | >X,X,XeX,X,X5.    O 5 s d d d s d S d d f d d f f ^ >XeX,X,X,X,X<X4Xh . : ( ] E  .<XeXeXeX,XyX{.% . o V g h D ! ! ^ R R ' z.] %   % d G D ! ^ / ,XeXeXeXeXeX5Xg     & u D ~ [ [ | { } } } ) ~ ~ * u H g r h ~ ^ ^ ] h ) ) ~ ^ ' ~ ~ ' ~ ~ ~ ) ~ ^ D Q ^ ) ' ~ ~ ~ ~ ~ ' ~ ^ ^ ~ ' ' ' ' ' ' } ' ' ' ' ~ ^ ~ ' ' ' ' ' ~ ~ ~ ~ ~ ~ ~ ! D ! [ A.| ^ Q D D D J D S S J ! ^ ~ ~ ~ ! ! ~ ~ D g d d V B d J ! H J ~ D ! J ! ( D D S H H S S f d f s t s t s s t 7 7 6 6 w 6 5 ; 6 6 : : 6 6 6 ; ; 6 ; ; ; ; : 6 : & & & & & & o o o # # o o o o & : > > % % * % % > > % * > * % > : % . & : % * t ] D.bXHXJXLXJXCX2XJXJX2XOXHXbXnXJXSX>XQ ^ g J F B y e.pX5.r +X}.a.s.h y 7 0 0 w 7 6 6 t : 6 w w w 0 q 0 N 6 s % % t d & ; ; ; # # # ; - ; ; ; ; ; ; ; ; ; ; ; # # # , & & & & ; ; ; o ; = # X ; ,.7X|.z.~ *.S.c.4.q.q.=.&.*.&.&.&.&.:.:.U &.r.>.:.y.q.] *.=.4.e.4.6 ( ( [ g u u i u h t s V G e W a.p.p.a.W T e e i e e _ p.W W W _ T G N Z F V H ( ] 5.[.:X:X:X:X0X0X:X:X:X5X9XMXfX5X.XXXH.v.x.b.l.l.w.5.5.5.5.5.5.1.2.2.2.*.2.1.2.2.2.,.5.[.XX.X3X9XNXVXVXNXVXVXZXSXHXHXJXJXJXLXLXJXLXLXLXLXLXLXJXJXHXHXHXZXZXAXMXMXMX9X3X+XXX~.l.w.5.w.w.w.w.w.w.l.v.~.[.[.~.v.).[.[.XX X X.X3XMXAXAXMXMXpXpX9X9XpX9X9X9X9X9X9X3X[.4.( H H H U ] *.&.Y J U Z A D h Q i i g u u t * ; 6 6 6 # o X o o o o o o o # o o o o o o o o o # # # # # # ; ; # ; ; ; 5 5 5 5 5 5 5 5 5 5 5 5 5 w w w w 6 6 6 ",
"S S d d S S g g D h h j j j <.yXsXsXsXsXsX>X;     7 H H ! ! H D g ~ ^ ^ j h ^ h R } eXsXsXdXdXsX&Xt     . D Q ^ Q Q ^ ! D g S d B B y t f oXsXsXsXtXtXsXaX4..   6 t u f d u j }.sXsXsXsXsXyX,.  O   7 Z Z U t ,.dXsXtXsXsXyXaX      r [ }.oX>XgXfXyX>X>XoXJ.H.H.f. .E ' f.5.^ f h f f D g g D j D j j ~ } ' } <X,X,X,X,XrX,Xf     y 6XDX_.4.J 7 s d d u t s d y h 6.e.' >XJ.Q * yX,X;Xf     : D Q ^ ^ Q Q ^ ^ ^ ^ ^ ^ ' } }.,XrX,XrX,X,X|     . Q [ Q R ^ h K.eXeX,X,XtXyXD     O B s d d u d d f f d d d d d d j 3.eXtX,X,X,XeX,Xz.. . B ] ' <.,X,XyXtXrXeXyX5.  . d S D ) D ~ H h h h h Q S > t ! *.] ( ^ / yXeXeXeXeXyX5Xg     & S ~ ~ ~ ' ,.} ,.3.,.} ,.1.) ! ! D D D ^ ^ ^ D ^ ~ ^ ' ~ ~ ^ ] ) ' ' ~ [ ,.~ f f g ! ] [ ' ^ ~ ~ ' [ ' ' [ [ ' ' / ~ / [ ' ' [ ' ' ~ ~ ' ' ~ ] ' ~ ~ ~ ~ ~ ^ D ~ ! ^ ~ / ~ Q Q D D D J J D D D ! ! ~ ( ! D ! ! ! ! ! H J J J H H H S S ( ^ D J J S S g J S D g d d d f V V V s s s t t y t 7 6 5 5 5 6 6 ; & 6 ; ; 6 ; ; 6 t 6 6 t t : : & ; & & & o o o o o o o . . % & > & > > > : r > > > > : > * * : : > % : : : J c.cXJXLXLXJXJX{.gXDX@Xh {.*.u z.BX5XhXH.j D g y J : w.).*.> ).fXk.s.r t t 7 0 0 w 6 6 7 6 6 ; 7 w w w N U B d *.=.4.t & ; ; ; # # - ; - ; ; ; ; ; ; ; ; & ; 5 5 & o + ; # # X # & ; ; X ; # & c.MX|.R 1.|.S.c.q.1.:.q.:.&.&.=.] U P &.` #.&.:.u.:.:.*.1.*.1.S.e.( H :.( ( * r u ) D ( ( =.F e e m.M.p.p.p.T e e e i e T W p.W W W _ T G p Z F U H ( ] l.|.:X:X:X:X:X:X:X:X0X5XfXMX:XH.v.l.5.l.l.l.l.l.z.l.l.5.2.2.=.*.*.2.2.=.*.2.2.w.5.5.2.2.x.v.H.:X0X9XfXfXMXNXVXZXSXHXHXJXJXJXJXJXJXLXLXJXLXJXJXHXHXHXSXAXMX9X9X9X5X1X.XXXv.l.2.5.2.2.2.*.*.2.2.l.w.w.5.w.w.w.l.c.~.~.).[.[.XX%X9XMXZXMXMX9X9X9X9X9X9X9X9X9X9X9X+Xz.*.H H H J ( &.&.U U P F P ! i i R j r u u t 6 ; 6 6 q ; # X o X o o o # # # o # # o o # # # # # # # # # = ; ; ; ; ; 5 5 5 5 5 5 5 5 5 5 5 5 5 5 5 5 w w w w 6 ",
"h g g d S S S S g g h h D h <.yXdXsXsXsXdX4X>     6 H ( ! J ! ] D D j h R j g h j g.dXgXsXsXdXdXD..   X ; f h h h g g f u f D H u u s u t f.gXsXsXsXsXyXgX+Xo X 1 y d s y t f oXsXdXsXdXsXdX1.      s U y.U t 5.dXsXsXdXdXdX{.      : g z.{.}.oX:X:X4X5XaXyXgXgXBXgX5XJ.x.5.) D ! ^ ~ ~ Q Q D h D j ^ } <.<. .<XrX,X,X,X,X>Xf     V '._.] S s V y V d d s 7 y u g H r ' ,XJ.j * yX,X:Xf     > ! Q Q ^ ^ ^ ~ ~ ) ^ ~ ^ [ } oX,XrXrXeXeXeX|     . D ~ ^ h Q | yXeX,XtX,XyX+X. o   o B u u d y d d d u d d d B d d f ^ >XeXtXeXeX,XeX>X%     ] / | <XyXeXtXtXeXyXaXz.r > ] ! ! ! ^ H D D ^ Q D ! ] *.] ( J J D j yXyXyXsXeXyXyXS   X & d D Q ^ ^ ' / / ' [ ) *.[ ) ! D ! ( D ! ~ ^ D ~ ^ | 5.[ h Q H ^ ~ ~ ~ [ ,.[ u u f ~ =.[ ~ Q ~ ~ ] ] ' [ [ [ [ [ [ [ ~ [ [ [ ' [ [ ' ] ] ' ' [ ] ~ ~ ~ ( ~ ! ^ ! D ! ^ ^ ^ ^ Q D S J H H J J D ! ! ! ! h g D ! ^ ! ! H J J H H ! ! J S J ^ D h g S ! H J S H J S V f s s s t t s t 7 6 7 w 5 5 5 5 5 6 6 : : : ; ; ; ; : t t : t u u r > & & ; & % o o o o o o o o o o & & % : : % % > * % > > * > > % % > : $ : 6 F q.*XPXLXJXLXJXJXBXSX+X,.z.f $ f v.+X3.5X^ r g g J ( u [ D.=.d cXVXK.f.Q t t 6 5 w w 7 7 7 7 7 7 7 ; ; ; q 0 N J q.4.H r ; ; ; & # # # ; - ; ; ; ; ; ; ; ; ; ; 6 5 ; X   # o o X X o # # @ X &  XZX[.R } w.c.1.=.4.e.4.:.&.U U ( V U *.:.4.&.&.q.(.q.4.*.5.*.1. X( d e.( *.u * r [ *.J f &.U $ e p.M.M.p.p.W T e i e T T T p.p.p.p._ T i G A F H U H ( [ v..X:X:X:X:X:X:X:X:X0X9X9X.Xx.5.5.5.l.l.l.l.b.b.z.b.b.l.l.w.2.2.2.2.2.2.2.2.2.2.2.b.l.2.z.x.z.H.|.1X5XqXfXMXMXVXZXSXHXHXJXJXHXJXJXJXJXJXJXLXJXHXHXSXAXpX9X3X0X1X1X.XXXH.b.2.2.l.2.2.2.2.2.2.*.*.*.*.*.2.w.l.z.z.w.w.w.l.z.z.v.[.3XvXMXMXpX9X9X9X9X9X9X9X9X9X9X3X[.4.! ( H F ( ] ( ] U F U U H Q i R R g u u r t : : 7 7 5 # o o X X o o # # # # # # # # # # # # # # # # # # = ; ; ; ; ; 5 5 5 5 ; 5 5 5 5 5 5 5 5 5 5 5 w w w w ",
"D D S S S g d h S S S h h h 3.aXdXsXdXsXdX4X:     6 H H ! ! ! H Q ~ ) [ ~ ^ ^ h R yXdXsXgXgXdXdXz..     6 h f g f d f u f h D g f t y u f { dXdXdXsXgXsXyXyXH     q y t s s f oXdXdXdXdXsXdX4.      U :.U s f H.dXdXdXdXdXyX[       : S u j j j R R R h Q ^ ' ' [ [ ,.,.,.[ D D D ~ ,.,.1.=.4.l.,.,.<.f.f.g.d.<X,X,XrX,X,XyXf     y S.H J S d s s S g d 7 N d f f d u ~ yXK.i $ 5X,X:Xf     t [ Q R h h Q ) ! Q D ! ^ ^ / oXrXeXeXeXeXeX=.    . ^ R ^ h ^ J.eXtX,XtXeXyX{..     5 y d d d d d d S d f d d B d d d j oX,XeXsXeXtXeXyX[ .   t / | <XsXsXtXeXsXyXyXpX{.D f ~ ~ Q D D D ( ) ] ( ! ( ( J S S d d r dXsXsXsXsXsXaXS     ; B D h Q h ^ g.' ^ D Q ! Q Q D ^ ! ! S ] ) ^ Q ) ' <.[ ^ D D D ! h h ^ ,.,.[ d d r J { ~ Q ~ ~ ~ ] ] ] ' [ [ } ' [ [ ~ ' [ [ ' [ ' ' [ [ [ [ ] ~ ^ ~ ~ ( ~ ^ ^ ^ D ~ ~ ~ ^ D ! D S D J D D D H ! ! ! D f r g D ^ D J H ! H S ! ! D J H h J D J d f f S d S S H d d d d t s s t s s t 7 q 7 w 5 5 6 w 6 6 6 7 : 7 t t t y y & % : u u r > & & 6 ; & o o o o o o % % o . % % o : : % $ : % % > : % % > > % % % % % y =.$XPXLXKXKXLXJXJXJXaX<.} j ^ {.pXpXfXfXVX7Xz.! u ! ] %X4.f ^ OXIX+X}.<.Q r > : 6 6 w w 7 7 - ; 6 ; ; 7 w w A N y S u u 1.: ; ; & # # # # - ; ; ; ; ; ; ; 5 5 5 6 6 ; o   X X o o X X X @ @ & %XZX1Xx.2.[ *.1.=.>.q.:.1.1.=.( U &.>.=.1.q.4.>.:.(.q.(.'.e.e.=.4.] % ( ] ] 1.* $ g =.( H *.*.* $ i k.M.p.p.W W T T i T T T W p.p.W W T e i Z I Y F Z H ( ,.H.:X.X.X:X0X:X:X;X:X5X9X:Xf.,.2.5.l.D.|..X.X%X9X3X3X1X+X+X%X+X+X).v.c.z.l.l.l.f.l.v.[.v.x.x.x.x.H..X0X5XqXfXfXVXZXZXSXHXHXHXHXJXJXJXJXJXJXLXJXHXHXZXMX3X1X:X;X:X:X.XXXH.v.l.l.l.l.l.5.1.2.2.1.5.2.5.l.c.v.v.c.l.w.w.w.w.w.l.z.c.[.1XpXAXMX9X9X9X9X9X9X9X9X9X9X9X%Xw.( ! H F ( &.&.U U U Z P J Q Q i R R r u r : > ; 7 7 6 # # # X # # o # # # # # # # # # # # # # # # # # # # # # # ; ; ; ; ; ; ; ; ; 5 5 5 5 5 5 5 5 5 5 w w w ",
"*.[ [ [ ! D S S h S D D D h 6.gXgXsXgXsXdX5X:     7 S S D ^ ^ ~ D.+X' ,.[ *.' ^ } dXdXdXgXdXdXgX5..     H ! Q h h h g f u g D g y t t f t f aXdXdXdXdXdXdXdX,.  . + v y y y g oXdXsXdXdXdXdX4.      &.N d f [ 4XgXgXdXdXgX%Xt .     7 t u S f h g g g g g g h h j f f g g d f f f f f f f g g h h h R ^ / } <.,XrX,X,XeX,XyXf     w ] F S S d d S S V B q t d u B f r ] yXoXE $ yX,X>Xf     r [ R h j j h R h j f f g r Q oXeXeXeXeXeXyX,.    . ^ ^ ~ R / oXsXeXeXeXtXyXF.      6 s d d f d d d B B d d f d d f f f z.yXeXtXtXtXsXyX@X    : ~ / }.sXsXeXsXsXtXsXsXdXaX<.> h D ~ ( [ ! ] ! ! H G d S S s t f ^ aXdXyXsXdXsXaX!     ; g ! D D h <.fXA.h H G ! [ ^ ^ ~ ) ~ g ^ ^ ) [ ) ' ~ [ ' ( S S D g h ~ [ ! d t u S H ^ ^ ~ ~ ] ] ~ ] [ ' ~ [ } } [ ' ' [ ' [ ' [ ' ' ~ ~ ' ' ~ ^ ^ ~ J ! ] ~ ~ ! ~ ~ [ ^ ~ D ( H S D D H J D ! ! ! ! J g h h H ! D D ! D S J ! ! ! D D D H H G S d d S V d S H V s s B d s 7 s s 7 7 7 6 6 7 w w w w 6 7 t t : t s d d S d > % > f u t : & & & : ; o o # o . % . : & % & . % : : : . r $ % : r . $ r : . % : $ . ( _.nXKXLXLXLXLXDXJXDXz.3.^ &XDXJXDXyX>X<.BXHXMX[ u ] 1.2X1Xv.Q 2.( d 4.4.g > : t ; 5 ; 7 7 7 6 5 5 6 : : : : 7 y y 7 6 4.1.6 : ; ; # # # ; - ; ; ; ; ; ; ; ; ; ; ; ; ; ; X   X   o # o O O + w.BXJ.g.f.x.5.1.w.4.4.=.U ( >.:.U +.i.q.i.q.:.q.S.y.q.y.$X'.).e.1.*.% H w.( :.*.$ * G H d :.u.D   * } R.M.p.p.p.T T i e T T T W p.W _ T e e u C P P Y F J ( 1.|.+X:X;X:X:X:X;X|.5XqX[.2.) 2.l.v.[..X1X9XfXMXMXZXAXMXMXMXNXMXfX9X5X:X.XXX[.[.[.|.XX[.XX[.J.J.H.[.|.:X0X0XfXfXfXVXZXSXHXHXHXHXJXHXHXHXJXJXJXHXHXZXMX9X1X[.;X;X.X.X.XXXn.n.v.v.x.v.b.l.l.l.l.l.v. X%X3X1X1X%X+X+X%X.X{.v.z.w.1.2.1.v..X3XZXvX9X9X9X9X9X9X9X3X3X9X9Xv.*.! ( U U ] *.U U J F K P R T R i R g u r : > : t 6 7 & # # o X o # # # # # # # # # # # 5 5 # # # # # # ; ; # # = ; = # = = ; ; ; ; ; 5 5 5 5 5 5 5 5 5 w w ",
"=.5.5.,.] H J J H H H D D R 6.gXdXdXsXgXhX5Xt   . & J D Q j D ,.pXpX~ h r h Q R D.dXdXgXgXdXdXgX6..   o ~ ) ) ~ ^ ^ D D h D D g d u f f u f :XgXdXdXgXgXgXdXz..   . y t t y g @XdXgXgXsXgXyX6.  X   A V d u 5.gXdXdXdXgXaXH       X y y u g f g g g g g g g g g g g g g g d d d g g g g g g g g g f j f j h ' <XeXrXeXeXeXyXf     # F d J J d u d J y y B y s g y f r ' >X<Xg.$ 5XyX,Xg   . ) v.f.3.f.z.z.4.[ D D D g h R }.sXeXtXyXyXsX<.    . Q ] ~ R | ,XsXtXtXtXsXaXS.      7 s d d f d d d B B d f f d d d d f g.yXsXsXsXsXsXdX4X&   . ! / 3.sXsXdXsXsXsXsXdXdXaXgX+X,.h ) ! ! J D S G u t d t s J ( H ] gXyXgXsXyXdXaXJ     & ! ! D h h {.fXA.D > : ) ) ^ D ! [ h g D Q h ^ D ^ ^ [ ^ Q S d D ! ~ Q D f d S J H ^ ^ ~ ~ ] ] ~ ^ ^ ^ ^ ~ [ [ [ ' ~ ] ' ' [ [ [ [ ' ~ ~ ~ ~ ^ ~ ! H ! ! ~ ~ ( ) ] ] ~ ' ) ) H D h H H ( H H D H ! H D D ! ~ ) [ [ ~ D D D ! ~ ! ^ Q ! D H H S S V V S V f f d S J J V s y y s 7 w 7 7 w 7 7 w 6 5 5 6 7 y s t t t s s d d r : r f u r : & & ; ; & % o # # & 6 . : : % : & & t d S : t . > g r r r r * r : > % F c.vXJXLXLXKXLXJXJXDXH.5Xz.BXLXLXBX>XJ.oXBXHXD.[ D g S B ( 2XVX3.j r . f 4.g r t : 6 5 5 ; ; 7 6 6 6 6 7 : : & o ; V B 6 *.> ; & & & # # # - - ; ; ; ; ; ; ; ; ; ; ; ; ; ; # #   o o     O O y ).+Xg.6.,.z.4.=.5.4.*.U U &.P U &.u.u.q.q.w.q.y.y.q.>.q._.).'.1.4.J V :.U U e.J $ u ( u ; U B $ $ e k.R.M.a.p.p.T T T T T T _ p.p._ T i e e c Z Z U P V H ( 5.+X+X:X:X:X:X:X:X:X5X|.5.2.2.v.XX1X9XMXMXVXZXZXNXNXVXVXVXVXNXMXfXpXpXpX9X1X:X:X0X:X:X.X|.|.:X:X:X|.:X:X0X0XqXfXfXVXSXSXHXJXHXHXJXJXHXHXHXJXJXHXSXZXMX9X.XXX:X:X;X;X;X;XXXXXXX[.H.v.v.v.v.[..X+X1X9XMXMXMXMXvXMXBXAXMXMXvX9X1XXXv.5.5.z..XpXMX9X9X5X9X9X9X9X3X3X9X9X[.,.( ( U U &.&.U P F F K F Q i j i h g g u r & 6 t 7 6 ; # # o o # # # # # # # # # # # # # # ; # = # # ; ; ; # # = = # # # = ; ; ; ; 5 5 5 5 5 5 5 5 5 5 5 5 ",
"=.*.( ! ! H H ( J J D D R ^ 5.gXgXgXgXgXgXyXr   . % D h j h E yXgXyX^ r $ u h h :XdXgXgXgXgXdXgX,.    . ^ ^ Q ^ ! Q D Q Q D J g d u f t y u A.gXgXdXgXgXgXgX{..     7 t u y g @XgXgXfXgXgXBX6.o     B t r [ gXgXdXdXBXgX! o     X 6 s y d d f f u B B d B B d d S S S S S S S S g g g g g g g f G S g d f f / >XeXeXtXtXeXyXg       s s S S d u d y B y s B 6 u B r r ^ dXoX^ * yXyX>Xh .   h ,. .| <.3.<.,.,.,.=.=.[ ] [ :XsXyXsXsXsXsX2.    . D [ ~ R <.sXsXsXsXsXsXdXz.      7 s d d f d d d B B d f f d d d d f 3.dXsXsXsXsXsXsXaXd   . ~ } ' A.gXgXdXsXdXdXdXdXdXgXaXgX+Xr g S d y B y t S S ] *.F y u Q gXdXdXdXdXgXaX] o . $ D ) Q j ' aXdXz.S . . ! D ^ ~ ~ *.D D f h D D h D ^ ~ Q D S D S D ~ ~ ! J J J ! ! ^ ~ ' ' [ ^ ^ ^ ^ ^ ^ ~ ~ ' [ ' ~ ~ ' [ [ ) ' [ ' ~ ^ ^ ^ ] ] f D ! D ~ ^ ~ ~ Q ~ ' ^ Q D D g g D J J G S D ! ! ! H ! ~ [ [ ,.,.) h D ) ,.[ Q D D ( D J J S S d d f d d d g f t t f S J J s q 7 w 7 w 6 5 5 5 5 ; 5 7 t t t f 7 7 t s d u t t u r : : : ; & & % o & o o ; s % : ; . o o . o . . . ; % > u t > * * $ * : J ( e.*XPXLXKXPXLXHXJXSXH.{.<.DXLXLXJXvXDXJXSX7Xr * i u B t B  XbX5X3.[ Q u . w.*.> : ; 6 5 q 7 6 w 6 6 6 7 7 7 : 6 7 ; 6 & q y 6 : : 6 5 5 & # - - ; 5 5 ; 5 ; ; ; ; ; ; ; ; ; ; . .   X # O O C CXCXpX<.<.6.5.w.w.w.1.=.=.*.&.&.&.&.].].q.q.u.:.=.q.y.u.q.S.).(.e.*.V 4.*.&.*.4.( $ ! [ * S d + $ * i R.R.M.M.M.p.T _ T T T W W p.T T T i e e G C N U P V H [ c.+X.X.X:X:X:X:X:X.X.Xl.2.f.v..X3X9XMXMXZXZXZXZXZXVXVXZXZXVXVXVXVXMXfX9X5X5X5X:X:X0X:X:X:X:X:X:X;X0X0X0X0X0XqXfXfXVXSXSXHXJXJXJXJXHXHXHXHXHXHXHXSXZXMX9X:X:X0X0X:X:X:X;X;X:X:X;X|..X|.|.:X1X3X9XfXfXMXMXMXMXMXZXSXIXZXZXZXZXAX9X.X~.z.l.v..XvXvX3X5X9X9X9X3X3X3X3X9X%X5.( ( ( ( &.] U U J H K Z ~ R i j i g g g u : u t s 6 7 # # o o o # # # # # # # # # # # # # # # # # # # # # # # # # # # # # # ; ; ; 5 5 5 5 5 5 5 5 5 5 5 w ",
").c.4.] ( ( ! H ( ] =.6.z.g.A.gXdXdXgXdXgXgX3.[ [ [ <.5.6.g.:XdXgX+Xf %   t h h >XgXdXdXgXgXdXgX,.    o h Q g Q Q h h D D g g g f u f t s u | gXgXdXgXgXgXgX4X.     6 t u u g +XgXdXgXhXdXgX{.    . r h 5.>XdXgXdXgX@X(       X 5 s y y d d u d d d d d d d d d d d d d d f d d f f f d g d d f B d d d d g ~ 5XtXtXsXsXsXyXg     X s d d d s d s V B s s y d d 7 7 f ] yXeX' . yXyXeX,.! ~ { f.d.d.d.f.3.| | | ,.[ } } 3.>XyXsXsXsXsXsX3.    . D ~ ~ h <.dXsXdXdXsXsXdXe.      t s s d d u d d B B d d d d d d d g [ gXdXdXdXsXsXsXaX(   . D [ } } oXgXsXhXsXdXdXdXdXgXdXgXgX5X1.> > F B H J G J d y B B t j gXdXdXgXdXgXgXD.~ ( [ 3.f.5.f.yXgXgXe.:   o S S D g g g u D D D ! H D Q D ^ Q D h g g g h h J S J S H ! ~ ' ' ~ ' ~ ! ! D D H ^ ~ ~ ' ' ~ ) [ [ ' [ [ ' ~ ~ ^ ^ ] ^ D ! ! D H ^ ~ ' ^ [ ^ / / ~ ] ! D h D D S S F D H H ! ! ! ~ ) ) ) ] ^ h Q ~ [ ) D D D ( g d d S d d V d d S J J H ! H J S d s s p 7 w 7 5 5 5 ; ; ; ; ; 6 6 6 6 t 7 w 7 t u u t t t r : : : 1 & & o o & o . & 6 o o o . . .   # o . . .     . $ $ * $ * * : F q.%XCXLXLXKXLXLXJXDXDXpXoXpXLXLXJXJXLXJXCXz.~ ,.5.Q h u F q B &.A.oX,.r *   =.] : 6 6 ; ; t y 6 w 6 w w 7 7 7 7 6 & 7 X P ] 7 y 6 7 w w w ; - # = 5 5 5 5 ; ; ; ; ; ; ; ; ; ; ; &     o #   O X._.&Xz.2.5.,.4.4.e.q.1.:.=.>.&.>.&.U q.q.i.:.:.:.q.q.u.y.e.q.w.S.w.=.J 4.=.U U U B r ( u > =.& + $ * ' R.R.M.M.a.W W W T T W W W _ T _ T e e e u A A U Y V H [ )..X.X.X;X;X;X:X:X.XH.2.l.[..X1X9XMXMXNXVXVXVXVXVXVXVXVXVXVXVXNXfXMXMXfX9X5X5X5X5X:X:X:X:X:X:X<X0X0XwX5X5X5XfXfXhXDXSXSXJXJXJXJXJXHXHXHXHXHXHXHXSXSXMXfX5X9X5X0X0X0X:X:X;X:X:X:X:X:X:X:X0X5X9XfXMXNXNXNXAXVXZXZXZXZXZXZXZXAXAXMX9X3X[.z.l.[.1XpX9X3X5X9X9X3X3X3X1X9X3Xz.( ( ( &.&.H ( U U U Z A Q R i i i g g S t : d t d ; q & & # o o # # # # # # # # # # # # # # # o o # # # o o o # # # # # # # ; ; ; ; 5 5 5 5 5 5 5 w w w w ",
"=.*.*.{ { { { ] ] ] ! ^ ~ ' g.gXgXgXgXgXdXdXgXaXaXyXgXyXgXgXdXgXhXoX%     7 g j >XgXdXgXgXgXgXgX1.    o h Q G ! ^ D h D h f f f f u f u y t h aXdXdXgXgXgXdXaX      ; f f y g +XdXgXgXdXdXsXpXc.*.5.}.4XdXgXjXgXaX[ :     o   w q s y y B d d S f f f f d d d d d d d f f d d d d d f d f d f d y f f u d f / >XsXsXsXsXsXaXS     X s s d V d y s d &.U y B y y y s > ) yX,Xj . yXsXdX5XyXaX,XsXsXsXyXsXsXsXsXyXyXyXyXyXyXdXdXsXsXdXdXdX6.    . G ! ^ h f.dXdXdXdXsXdXdXx..   X 7 s d d d u d d V B d d d d d d d f ^ gXdXdXdXdXdXdXgX{     t [ } / ' >XgXgXgXgXgXdXgXdXgXgXdXdXgXS.. B U F y d t u y y B u D dXdXgXgXdXdXgXgXfXpXaXgXaXaXgXdXdXgX6..   # S S t u ! ( D S S D ! H D D Q ^ ^ D h g D D S g S S S S S D ~ ' ~ ~ ~ ~ ! D D D D ^ ^ ~ ' ) ) ) ] ] ) ' ' ' ' ~ ^ ~ ~ ~ ^ ^ ^ Q ~ [ ~ / / / E | A.z.^ ! D D D J S G F H H J J J H D D ^ D D D D D D D h D ~ ~ ~ f f d d f d S f f S J S ! ( H S f s s p p 7 7 w 5 w w ; ; 5 6 7 6 6 6 6 6 5 6 7 6 t t t t t r > : : & % & % o % % o # . . .   X o . X   o X o o X o # $ : D ~ [ [ =.c.OXCXLXKXLXKXLXLXJXLXbXJXDXJXHXLXLXDXHXD.f h 3XBXVX,.j g d s 5 o h z.,.h t 5 Z U t : ; ; 6 6 t 6 w w 5 5 5 5 5 5 6 ; 6 # 5 5 5 ; ; ; ; ; ; = - - = = 5 5 5 5 ; ; ; ; ; ; ; ; ; ; % o X   # O 8 7.c.S.] 4.w.:.q.1.1.:.:.>.&.&.&.>.&.>.:.&.:.:.1.e.y.c.y.w.u.c.(.y.S.:.*.w.:.*.U U t % t % t S . . $ i a.R.R.M.M.a.T W _ T _ W W _ T T _ T e i e G C P U F S S *.{.+X.X:X:X:X:X:X:X|.b.l.[.1X9X3X9XfXMXVXVXVXVXVXVXVXVXVXVXVXVXNXfXMXMXfXfXfXfX5X0X0X:X:X:X:X;X;X;X<X<XwX0X5XfXhXVXSXSXHXJXJXJXJXJXJXJXJXHXHXHXHXSXSXNXfXqXfX5X0X0X:X:X:X;X;X:X:X:X:X0X5X5XpXMXNXNXVXVXZXZXZXSXSXZXZXZXZXZXVXVXAXMXMX1X[.z.v.[.9XvX9X3X3X9X9X3X3X3X9X9XD.*.( ( &.&.U ( U U U U V Q R i i j g g g : > s t y ; 6 ; # # # # # # # # # # # # # # # o # # # # # # # # o X o # # # # & ; # # ; ; # # , , 5 5 5 5 5 5 w 5 ",
"e.=.{ [ [ { ,.,.{ { ] ^ D D 3.gXdXdXgXgXdXgXgXaXaXgXaXaXpXgXgXgXdX{..     t h h yXdXdXjXdXdXgXgX4.    . h g g h h h h D h f g g u u f y y u f gXdXdXgXgXgXgXaX.     & f f y g @XdXgXdXdXdXgXBXbXpXBXgXgXdXgXyXdXQ $ .     o p a y s y y B d d d f f d d d d d d g d d d d f d d d d d d d u d d d g d f f f ' yXsXsXsXsXsXdXS     X s s s V d s V ] J s s 7 7 B y 6 u ~ gXyXj $ 5XdXsXgXgXaXaXdXgXgXhXgXdXdXdXyXdXdXaXdXgXsXdXdXdXdXgXdX6.    . d ) D h A.dXgXsXdXdXdXgXH..     7 d d d d d d d F V d d d B B d d f h gXgXgXdXdXdXgXgX=.    : [ ' / h ^ D.aXBXgXgXgXgXdXdXgXgXjXgXgXc.. & y t y d u s B B u Q gXgXdXgXhXdXdXgXgXpXpXpXgXgXgXdXdXgX,.    o S g t g S D g J S D H ! ! ! ~ ( ^ D D S g d S S S S S J S D ~ ~ ~ ~ ~ ~ ^ ! H H H ^ ^ ' [ ' ) ~ ] ' ' ' ' ' ' ~ ^ ^ ^ ~ ^ ] ^ ~ | ,.A.>X5X>X:XK.J.| ^ D S S S S g g g d d d V H ( ( ! D D D J S S J ! D Q ~ ~ Q g f g g f f f u t d J J J H H J V s s q s q 7 w 5 5 5 5 6 7 7 s s y t 7 w 5 5 ; & 6 t : t t 6 : & ; & % & & o . # % o   # X   o o   . o o       X .   : ] 4.,.[ w. XvXHXLXLXLXLXKXLXJXJXLXJXHXLXLXLXLXDX X] ~ bXSX|.:XJ.i i h f F s s D h u $ s 7 # *.S : ; 5 q 7 t 6 5 5 5 5 5 5 ; ; : : o y . 5 q 5 ; ; ; ; = = = = # # = 5 5 5 5 ; ; ; ; ; ; 5 ; ; ; U Z X X 9 :.lX+X1.*.*.q.u.q.1.=.=.>.&.>.&.+.7.:.:.i.i.:.1.e.e.q.S.e.q.(.(.e.q.y.:.>.1.:.U &.U F B d 6 & 5 % & Q _ a.M.M.M.p.p.W W T _ W W _ T T T W T T i e g A U P F S G ,.+X:X|..X:X:X:X:X:XH.l.v..X1X9X9X9X9XfXMXVXVXNXVXNXNXNXVXVXVXNXNXMXNXVXVXMXfX5X5X0X<X:X;X;X:X;X;X;X;X;X<XwX5XsXfXVXSXSXHXJXJXJXJXJXJXJXJXJXHXHXHXSXSXZXNXfXqX5X:X:X:X:X;X;X;X;X;X:X0X5X5XfXMXVXVXVXVXVXZXVXZXZXZXZXZXZXZXZXVXVXAXMXMXMX1X[.z.v..X9X9X9X9X3X3X3X3X3X3X9X{.2.( ( ( &.] ( U U U U P Q R T e i j g g r : d t y 6 5 ; # # # # # # # # # # # # # # o o o o o o # # # o o X X o # # # # # # = # # # # # # 3 5 5 5 5 5 w 5 ",
"*.] ] [ [ 6.z.6.6.,.{ ( ~ ^ 5.dXjXgXgXdXgXdX,.J H J S H D Q x.gXgXoX.     t S D yXdXdXgXgXdXgXdXe.    . g g g f u j f g g u d d y u t s y u j dXdXdXdXgXgXgX4X.     & f y y g @XdXdXgXdXdXgX+X[ S.4XgXdXdXdXjXdX4Xu   # q q y 7 y y y d d d d f f f d d d f f d f f f f d u u u d d d d d d d d u f f f u u / yXsXdXdXsXsXgXD     X s B d d d d B d t 6 t s y s y t t ~ gXyXh . 5XdXdXoXOXOXOX{..X|.{.{.{.OX@XoXoX@X@X+X+XgXgXdXdXdXgXdX6.    . u ~ D h x.gXgXdXdXdXdXgX+X.     t d d f d f g g V V d d d d B B d f f gXgXdXgXgXdXgXpX]     $ ] [ ^ ^ ~ j ' @XBXgXgXgXgXgXgXgXdXgXgXBX_.% . B y d d S G G f ^ gXgXgXgXhXgXgXD.! J ( D D D [ gXdXgX1.    o d d S g d d f G d d G ! H ! ~ ~ H D D S S S D S S D ! J S D ~ ~ ~ ] ~ ~ ~ H D J D ^ ] [ [ ) ~ ~ ~ ~ ' [ [ [ ~ ^ ^ ~ [ [ ~ Q ~ [ ' ' 3.g.}.x. .} ' ^ ) D D D S S S g g J S S S H ! H g g D S S S g D D Q ! Q ! Q D h h h g d d d d d S f f f d d s s s s s y 7 w 5 5 ; 7 7 7 t d B s y q w 5 5 ; : t : ; 6 6 6 ; & 6 & # & ; ; X # # X   .     X X X o % % % o X . o o . t S [ z.&XCXDXJXJXLXJXLXJXDXHXbX2XHXJXLXJXJX XH [ 5XSXBXz.DX5Xh f./ g ! y y F d t : G y p ; f H s 5 w 7 7 7 : 5 5 5 5 5 5 ; ; 6 ; 7 : 6 ; & ; 5 5 5 ; ; ; ; ; - # # ; 5 5 ; ; ; ; ; 5 5 ; ; 5 7 s V s q U q.~.( ] ] 4.y.u.:.4.=.&.&.&.U &.-.>.4.:.:.w.q.q.c.(.y.S.c.w.u.S.(.1.w.e.y.w.&.&.U U c B y & 1   o H <.W p.M.p.a.p.W W W T W W _ T T T _ W T T T R g A P F F B H 5.+X.X|..X;X:X:X:X{.b.b.XX3X9X3X5X3XpXfXfXfXfXfXMXMXVXVXVXNXMXfX9X5X3X1X1X0X9X9XqXqX5X0X:X;X;X;X;X;X;X;X:X<X0XqXfXVXZXSXSXJXJXJXJXJXJXJXJXJXHXHXHXSXSXZXNXfXqX0X:X:X;X|.|.;X;X;X;X:X0X5X5XfXNXVXVXZXZXZXZXZXZXZXZXZXZXZXVXVXNXMXMXMX9X9X3X1XD.v.).%X7X9X9X3X3X3X3X3X3X9X.X4.( ( ] &.( ( U U J U H Q R T i i i h g u : d t s 7 5 ; ; # # # # # # # # # # # o # X X X X X o # o o X o o o o # # # # # # # # # o o # # 3 5 5 5 5 5 w 5 ",
"=.( ] ,.3.F.J.z.,.=.] ( J h 6.gXfXgXdXgXdX5X> .     o # % : * oXgX+X. . . d J D >XdXdXsXgXdXdXdXe.    . S G D f h h g g g u d u d s t s t t j aXdXdXdXfXgXdX@X      & s y y g @XdXdXgXdXdXgX3.$   o F.gXdXdXdXdXgXw..   8 q q c y y d u u d f d d d d d f d f d f u d f d d y d d d d d d d d d B u f f d f ~ yXdXdXdXsXsXgXD     X y B d d d d s s 6 y u 7 y 7 y y t ) fXyX~ . 4XdXyX^ .   . % $ $ $ $ . . . . $ . . . u :XgXgXgXgXgXgX6.    . f S Q j 3.gXgXgXdXgXdXgX1X.     7 B d f f g S g s B d d f d B B d f f gXgXdXgXgXgXgXaX(     % [ ) ~ ~ ^ ^ Q h _.pXgXgXgXgXdXgXgXgXgXgXBX4.  : s S G D h S Q [ gXgXjXdXgXgXgX]       + 6 & * [ gXgX5.    o d S S d S g V S S d d f g g g h h S S g S g S g D D ! ! J ~ [ ~ ^ ~ H D H H H H H ^ ] ~ ~ ) ^ ~ ~ ~ ] ' ' ' ' ~ ^ ^ ^ ^ ^ ~ ~ ~ ^ / / / / / ' ' / / Q D D J S F S D h h g S D ! ! S u D [ ~ S d t D ~ D Q ! ) ) ) ~ ~ ( ~ S f d d d S s s s d V d a 7 s y q 7 6 6 6 6 7 6 7 t s s s y w 5 5 6 ; 6 t : & 6 6 6 ; & 6 & & ; q t ; # # X .   . X     o # % % o X # . . . & S 1.{.vXSXJXnXLXJXJXJXJXJXCXCX2Xe.S.PXLXbX1.) ).CXSXBX4XDXaXA.SXBX[ ^ D F t B s 6 B t w 7 ; % S s w w ; s s 6 5 5 ; ; 5 ; ; ; 6 ; 6 ; 6 & ; 5 5 5 5 ; ; ; ; ; ; - # ; 5 5 ; ; ; ; 5 5 5 ; 5 w w p Z U U &.&.U D ] *.:.q.q.>.1.>.&.&.#.&.&.-.i.q.:.:.y.y.e.c._.c.4.4.e.u.(. Xq.1.y.e.4.4.` ] Z q w A   @ @ :.w._ W M.M.p.M.p.p.W T T W W T T T T s._ T T T i g Z Z F F B ! e.+X|..X:X.X;X1X|.x.H.XX1X9X5X1X5X5X5X5X9XfXfXMXNXNX9X1X.X[.[.XX|.|..X|.|.{.H.v.H.H.|.:X<X:X;X;X;XK.K.K.;X:X0XqXfXNXZXSXSXJXJXJXJXJXJXJXJXJXJXHXHXSXSXVXfXfX5X0X:X;X|.|.XX|.|.;X:X0X5XfXhXhXNXVXVXVXMXMXBXZXZXZXZXZXMXVXVXVXNXMXMXMXMXMXpXMX%X X).v.1X3X3X3X3X5X0X3X3X9X1Xw.) &.&.&.] ( X.( H +.( R R T i e i Q g r : d 6 B 7 5 & # # # # # # # # # o o o o o X X X   X # # o o X # # o # # # # # # # # # # o o # # = # # 1 5 5 5 5 ",
"( J D ^ ' { { { ] ( H J J J 1.dXgXdXdXgXdX>X6     ; Z J S h H { yXyXr . . u S D oXsXdXsXdXdXgXdXD..     J h D ( [ ) Q g g g d f s t t s y u j yXdXsXdXgXdXaXF..     > Y N N g oXdXsXdXdXsXgX4.      ` @XgXdXdXdXdXyXh   # N q d f d d d S g g d d d d d d d d d d d d d d d d d d d d d d s s s d d f f d d ~ aXdXdXdXdXsXgXJ     X y d f d d d d t 6 7 7 7 t t t 6 f ^ dXsX~ . 4XgXaX]     & [ ] ~ D u d d B t t 6 6 t h >XgXgXdXdXdXgX5.    . d ! D j <.gXdXgXgXdXgXgXBX.   @ w B u g h ] ! S d y y u u d d B d f f gXgXgXgXgXgXgXMXt     & ) Q ! ~ ~ ,.w.) D ,.@XgXgXgXgXgXgXjXgXgXgX5X* . & J ] ] ) ) [ | BXgXgXgXgXdXgX(       H ( ~ ' } :XgXz.. X o S h D S g S g g d u y d S S S g S g S S g S g D D D D D D D ^ ^ ~ ^ ^ ! D H ! ! ! ! ^ ~ ' ^ ^ ~ ~ ~ ^ ] ~ ' [ ~ ' [ [ ~ ^ ] { ~ ~ ^ ^ ) / ' | ,.} / / ~ ^ ! D D ! ^ Q Q h D ( H ( d u ~ =.[ G g D ! ) ~ ~ ^ ~ ) ) [ ~ [ ! D g F S B u s t s t d s t t 7 7 7 6 6 7 6 5 6 6 6 6 7 7 6 6 6 w 7 ; 6 6 t 7 : ; & & & & # # o & 6 . o . o   o   . # o o # o % # & o o . o y ] c.&XBXJXJXDXbXLXJXLXLXLXJXJX&X^ z.LXHXc.~ 2.+XHXSXiXaXoXBXBXSXJX@Xj g r G y &.Y y 6 q 7 q q % % s N 5 5 y U 6 ; 5 5 5 w 5 ; ; ; ; ; : 6 6 5 5 ; ; ; ; ; ; ; = ; ; ; ; ; ; 5 5 & & q 0 o 5 # q Z Y Y ] U P ( U ] q.:.#.-.:.=.*.*.&.>.#.:.:.-.:.q.y.'.).c.c.e.e.1.u.q.:.y.S.(.q.q.q.=.=.] ] Z b 8 N N X 8 7._.2._ p.a.p.p.M.a.W W W W T W T T T _ _ T _ T T i G Z U F F V ] z.+X.X.X|..X:X|.v.b.H..X1X1X0X5X5X5X5X5X5XfX5X>X:X|.|.+X1X9XpXfXVXVXZXHXZXVXMX3X.X[.z.v.[.|.;X;X;XL.K.L.L.|.;X5XqXhXVXZXSXSXHXJXHXJXJXJXJXJXHXHXSXSXZXVXfX5X0X;X|.XX}.L.K.;X;X;X:X;X|.J.}.|..X.X.X+X1X1X1X%X%X1X9XvXMXVXNXMXMXfX9XMX9X9X9XMXvX9X%Xv.[.3X3X3X3X3X3X1X1X3X3Xz.*.( ] &.U U U U U X.! R E R T e i g g t : S : t y 6 & ; # # # # # # # # o # # # # o o X X o X # # # # - o o o o # # # # # # o o X # # # & # # 5 5 w 5 w ",
"( ! Q R R ' { { { [ [ ] J h 3.gXfXdXsXfXdX:X:     6 S S G D h R H.+X! % . u S D J.dXsXsXdXsXyXsX@X:     G D D D D Q D g f f u d s s t s y t h dXdXsXdXsXsXgX{ .     ] S.&.Y S @XsXsXdXsXsXdX4.      U U %XgXsXdXyXdX4X&   o B y 6 d S S D ] ( G d d d d d V S S S B d d d d B B d B B B d d d d c d d f d f ~ yXdXdXdXdXsXgXJ     X y d d d d V s t 7 y y y t 7 t d & ] gXyX| $ 1XgXdX*.. o > [ ' ) ! D J S H B B d d f H >XgXgXdXdXgXgX5.    . u ! S h ,.gXjXdXgXgXgXgXgXS     6 d d D ] z.*.S f d d u u f d d d f D gXgXgXgXgXgXgX4X.     > ) ^ R Q ) R r g f r f 5.aXBXgXgXgXgXgXgXgXBXz.    V =.[ ~ ,.3.3.gXgXgXgXgXgXgX(     6 ( *.f.s.g.;XVX{.r .   ( D Q S g D S f d f d d S S S S S g S g g g g ! ] ( ! D D H ^ H ! ! ^ H D J ! ! ! ^ ^ ^ [ ~ ^ ^ ^ ] ~ ~ ~ ' ' ~ ~ ] [ ^ ] [ { ] ] ~ R ^ ~ ' / ) ) / / ~ ' Q ! D D Q [ [ ~ H ! H H d t h ^ ! J J D D ~ ! ! D ^ ~ ) [ ' ~ ! D S S S d t s s s 7 y t 7 7 7 7 6 6 6 7 7 w 6 7 7 7 6 7 6 5 6 5 w w t 6 t t ; & o # o # o o & o ; . . . o . & & % o . o o . o o & o o ; F i.'.*XCXJXLXHXHXJXJXLXJXLXLXHXJXF.DXJX7X! =.%X+XJXJXDXSXSXJXJXJXJXSXJ.h h u t ; V y s 7 7 q w 6 6 . 6 s w # N ( & ; 5 5 5 w 5 ; : ; ; ; ; ; ; 5 5 ; ; ; ; ; ; ; ; ; ; ; ; ; 5 5 5 6 ; 5 5 # # q A Z F U V q &.1.1.w.4.:.;.>.>.*.] P &.>.X.&.&.&.q.1.u.'.c.q.4.c.e.1.q.u.(.].q.q.w.*.&.>.4.] V q q 1 4 X o :.$Xq.Q _ a.M.p.p.a.p.W W W W T T T T T _ T T _ W _ e g Z P F F V *.z..X|..X+X:X.XH.x.x.|..X1X0X0X0X0X5X5X9X5X:X;XH.}.:XfXNXVXVXNXMXVXVXZXZXZXZXZXZXZXMX:XH.b.n.XX}.L.L.H.H.L.L.;X;X5XfXhXVXSXSXSXHXSXHXJXJXHXHXHXSXSXZXVXMX9X0X;XXXXXXX}.XXK.K.L.n.x.x.H.:X5XfXfXMXMXMXMXMXMXMXMXMX9X3X3X0XfXNXfXqXMX9X9X9X9X9X9X3X3X.X[.1X9X9X3X3X3X1X1X3X7Xc.=.( ] ] ] U U P U +.( R E E R i e i g u : d 6 7 s 7 ; 5 # # # # # # o o o o o o o o X X o o o X o o o o X o X X # # # # # # X X X # # # & # # 5 3 5 5 5 ",
"S ! ~ ^ ~ =.,.,.*.{ ! H J ^ 3.yXsXsXsXsXsX+X:     6 G D D D h h R ' S 7 . t S h | sXyXsXyXdXsXsX4Xr     B H D D D D G g G g f u u s f s y u R yXyXsXsXsXsX5X!     o OXUXi.Y S oXsXyXsXsXsXdX,.    O &.U z.yXdXeXtXeXyX6.%   w 7 d =.w.! ( ! D u 6 t y t t t t t s y y y t y y y y y y y y y y y B d f d d d ~ aXsXsXsXsXsXdXD     o y d d d S S y 6 6 t t t 7 7 t y s [ aXdXD.. 4XgXyX~     . G D D D g D D D u d f f f D >XdXdXdXdXgXgX5.    . u ! D h ' yXdXdXgXhXdXdXBX5.    ; y d D ( ,.! g f u u u t f f y d f ' gXgXgXgXgXgXgXz..     D / E h ^ / E R g u f u h ] A.aXgXjXdXgXgXgXBXpX%   : =.,.[ ,.3.f.hXgXgXgXgXgXgX(     & u Q 3.f.n.L.:Xv.=.. $ =.=.=.,.[ [ [ ) ] g d B S S B S S d V S S g S ( ] ] ! D ! ~ ] ] ] ~ ~ ~ ! ! ! ! ^ ^ ^ / ,.| ~ ^ ^ ~ ~ ] [ [ ' ' ' ] ] ( ~ [ ~ ~ ^ ^ ^ ^ R Q ^ ^ ~ ' <.A.+X,.Q ~ Q ) {.,.~ g d d B d d f f d d d d f g f f f g h g D h D u t d H F S S V V V s s s s s s y 7 w w w w 6 w 5 7 s 7 6 7 s 7 ; ; : u : : 6 ; & # o o o X X # X o o % > : : % : & % : & % > : : : & s *.(.*XCXHXJXLXJXJXJXLXLXLXJXHXHXCXSXJXDXc.D .XpX2XSXSX4X4XDXLXHXJXJXJXVXK.' j r t ; 7 6 y 7 y N 7 & % & o # w # w U : ; 6 5 5 5 5 ; : ; ; ; ; ; ; 5 5 ; ; ; ; ; ; ; ; ; ; ; ; ; ; ; ; # 5 6 q 0 o w 5 N s V Y ] :.:.1.4.>.&.-.&.&.] ] &.&.&.U U &.:.q.w.q.e.y.S.q.e.y.y.q.:.:.u.:.:.U U &.=.U 7 w X # ,   @ &.u.:.] R W M.M.p.p.p.p.p.W W T T T T T _ _ T _ _ T T e Q K K P F S *.D.+X.X.X.X.X[.v.H.|.+X1X0X0X0X4X0X:X5X0X:XH.n.;X5XfXMXMXfXMXMXpXfXMXAXMXAXAXMXMXMXZXZX9XXXH.n.n.K.|.H.H.L.L.L.;X0XqXfXNXZXZXSXSXSXSXSXHXHXSXSXSXZXVXNXfX5X:X|.XXXX|.|.}.XXXXL.b.H.5XNXVXZXVXVXVXVXNXVXZXVXZXZXZXZXMX5X:X.X1XfXMX9X5X9X9X9X9X3X3X3X%X[.XX9X9X3X3X3X3X1X3X9XD.1.( ] &.] U U F U U ( R E R R i e i f u : t : 6 y w ; ; # # # o o o o X X X X X X X X X X X X X X X X X o o o X # # # # # # X X o # # # # # # # # # , = ",
"H ] =.*.] ! H J ] [ ] ( J ^ 3.sXsXsXsXsXsX@X:     6 D ! ~ ! D D ^ h D D r u D h R 5XyXsXeXsXsXeXaX!   o 6 D h h ! D g g g g u u d u f d t f ' yXyXeXtXdX,X>Xu   O - _.$XPXmXw.+XyXeXsXtXtXyX,.      q.U H +XyXsXrXeXyXyXt   & 7 d =.*.D Q ! d y y s s s y y y y y y y y y y t 7 t t t t t t t t 9 t t t 7 t D >XsXsXsXsXsXaXD     X y y d y d s d s y y y y s y y s d ^ dXyX6.. 1XaX5Xg     % t u u g g S g S u u u u f D >XgXgXdXgXgXgX5.    . t ( g D ^ oXgXdXgXfXdXgXgX{.    o S H D ! D H D f t u S S D H ( H D <.gXgXgXgXgXgXgX> .   . ~ ' / ' | f.f.,.^ g y G S g h 6.BXdXgXgXgXgXgXBXS . . ] 4.z.D.A.g.hXgXgXgXgXgXgX(     # t g | g.h.k.d.| ,.r $ ) [ [ ^ R ^ [ *.*.S g B S S B B B B S S d g S ! D D D D D ^ ! ~ H ! ( ! ! ! ( H H ^ ^ [ <.,.' ~ ^ ~ ~ ( [ ' ' ' ' ~ ! D D ! ! ^ ^ Q ^ ^ Q ~ ^ ^ ^ ' 5.:XoXR Q r h ~ ' ' ^ S S B B y s d f f s f d d u u u u u u f J ! ( B t y V s y y B B B s s V s t y q 7 w q q 0 w q 5 y V s 6 y B 7 ; ; : d t : : & & # # # o o # # # # o % : * : : > : : > * * r : % : F 4.OXbXPXJXLXJXJXJXLXLXLXLXLXKXJXJXLXJXvXD ! .XHX7XDXHXOX@XJXJXJXJXDXDXSXdX3.r r r t ; ; 5 y d V s 7 t 6 o % X X X 7 U : ; 6 ; 5 5 ; ; ; ; ; ; ; ; ; ; ; ; ; ; ; ; ; ; ; ; ; ; ; ; ; ; # # q 0 w 5 5 A s V Z *.&.4.q.U ] ` >.:.>.&.*.] ] &.P +.>.&.&.1.q.1.q.y.). Xc.q.q.y.>.:.q.y.y.4.&.U ` Y w ; 5 # 3 O @ ` u.7.:.[ R p.M.M.p.W W W p.W p.W T T T T a.T T T T T T T R P Z P Z V *.D..X|..X.X.X[.H.XX:X:X9X0X1X5X:X:X0X0X|.n.H.:XfXqXqXfXfXMXVXMXMXMXZXZXZXSXZXZXZXMXVXNXMX9X;X|.|.|.J.H.H.H.L.L.;X:X5XfXhXVXVXZXSXSXSXSXSXSXSXSXSXZXNXfX9X0X;XXX[.XX|.XX|.XXL.XX:XqXNXVXNXNXNXAXMXMXMXMXMX9XMXMXZXZXAXMX9X:XXX|.0XqX9X3X9X9X9X9X9X3X1X.X[.%X9X9X1X3X3X1X3X9XD.1.( &.&.] U U H J P ( R R R R i e i f g t > : 6 7 7 ; & # # o o o o X X X X o X X X X X o X X X X X X X o # # o # # # # # # X X o # # ; & # # # , 5 5 5 ",
"] ] =.4.w.4.*.! H H J H H ^ 3.yXsXtXsXyXeXoX&     r h ^ ) ) ~ ^ ^ ^ ^ Q D ^ D h j G.eXeXeXeXeXeXyXz.    % D Q h Q D h h f u u f d u f d t u x.yXeXeXeXeXyXz.  O   *.{ e.].].S.@XeXeXtXtXtXyX,.  @   K N Z =.yXeXtXtX,XyX+Xt . : ] ] G h h D g u y y 7 7 7 7 y y s y y 7 7 7 y y y y y y y t y y y y u y y y ^ >XeXtXeXtXsXyXh       7 7 t t y 7 y 7 7 7 6 7 t t y s 6 ^ dXyXh . +XaXyXd     ; y y y d B B d S d d u y f Q 1XgXgXdXgXgXgX5.    . B D S D h A.gXdXgXdXhXdXBX+Xo X . d J S D h S g d d S J D h D H ( D z.gXgXgXdXgXgX&X  + o t 6.K.H.f.f.<.5.5.[ ! U J g ! [ { }.gXgXgXdXgXgXBX]   . *.e.z.5.{ / gXgXgXgXgXgXaX(     X u h / <...d.} | ,.^ Q [ [ [ ~ ^ ) [ [ ) g D S S S S B B S S S d S J ! D D ^ h D ~ ^ ^ g D ! J S J ! H J H ^ ^ [ [ ~ ~ ~ ! ! ^ ' ' ~ ~ ~ D h g S S D D ) ~ ^ ) ~ ) Q D h Q / E | f.| ' } ' } ' ^ g d d V B V d f d B B B B d y d d y t y G ( H J S y s s s t y y s 7 y s s y y y 7 w w w w 7 7 q s s 6 7 y 6 : & ; : d u t t & # # # # o X X o 5 & o % t r r t r r r > r r r r u &.c.*XnXPXLXLXJXJXJXJXJXLXLXLXLXLXJXLXDX5.f z.SXpX|.SXJX6X6XJXJXJXgXDXDXgXK...| / u t 6 6 q y y y 7 6 ; 6 : # & o o o 7 U 7 6 6 5 ; 5 5 ; ; ; ; ; ; ; ; ; ; ; ; ; ; ; ; ; ; ; ; ; ; ; ; ; & w 0 w # o 0 Z P V ] &.U &.q.q.q.&.-.:.>.&.&.&.] &.F U &.-.&.1.q.*.:.w.c.c.w.1.:.:.7.7.>.:.q.&.&.&.Z # 5 5 # 5   , ` ^.>.` =.^ T p.p.p.p.W W W p.p.a.W T T T T _ T _ _ T T e T T F B U U F =.[..X|.+X.X[.v.[..X1X5X5X0X5X:X:X:X0XJ.x.H.0X0X0X0X0X9XMXZXZXAXMXvX9X2X%X8XvXMXZXVXMXNXMXqX0X:X;X|.|.J.J.XX|.|.|.;X5XfXhXVXVXZXZXSXSXSXSXSXSXSXZXZXMX9X9X0X:X;X|.|.}.[.H.XX;X:X0XMXZXZXSXZXZXZXZXZXZXZXZXAXAXVXMXMXMXMXMXqX5X;XXX;XqX5X3X5X9X9X9X9X9X1X[.XX3X9X1X3X3X1X3X9X).1.*.*.*.] &.&.( F P H R R E E i e i h g f : : t 7 s ; ; # o o o o X X X X X X X X X o o X X X X X o X # o # # o # # # # # o o o # # # 5 5 5 5 5 5 5 5 w ",
"5.] H ! 4.e.z.6.] ! J H J h ,.5XsXeXeXeXeXoX&     > ' 3.5.*.) ^ ^ ~ ) [ ~ ~ ^ h h <.eX,XeX,XeXtXeX:X%   . d D g D h g h f f d f y d f t f u :XeX,XeXeX,XyXr     o e.4.4.;.Y J oXeXeXeXeXtXeX=.      B N s s D.,XeX,XtXeXyXD.% . d J f D ^ D S t y y 7 7 7 7 7 y 7 7 7 7 7 7 7 7 7 7 7 7 7 7 7 7 t t 7 y q t h >XeXeXeXtXeXyXh     X q t t t y q q y s y y t y t 7 7 u ~ yXyX^ . @XaX>Xg     o 6 y y y y y y y t y y y u D 1XgXdXdXdXdXdX6.    . d G y J h ' dXdXgXdXsXgXiXV   X . y J H D D g S f S J H D ! ! ! D D H.dXgXdXdXdXaX,.o     g x.dXgXg.f.l.3.[ ! ! ! D =.*.,.[ { gXgXgXdXdXgXBX(     s H g u u j gXdXgXgXhXgXgX(   . % t g ^ ' }  .' ) [ G h ^ ) ' Q ^ ^ ~ ) ! D H d V V V V B V S S S H J ! ! ^ ^ Q ^ ^ ~ ] D S H S S J H H H ^ ^ ^ ^ ~ ^ ^ ! D H D ~ ' ' ~ D D S J S S D D ~ ^ ~ [ ^ ^ Q Q h ^ / E } <.} / } | / / ^ f f d S d u g f d V B y y y d B B B y y B H ( H S y y t s y u s s y t s s V d y y w 6 5 6 7 7 y y y 6 7 6 & ; ; ; : f f u : & # # # # o X # X 5 & o % u u f u g g g g D h j H 4. XnXPXJXPXJXJXJXHXJXHXDXJXLXLXHXJXJXS.r ' [.VX9XpX7X+XBXSXJXJXSXDXjXjX:X3./ / ,.| g y & 5 N V F y 6 t 7 ; & ;   X 5 X ; ] y 6 6 5 5 5 5 ; ; & ; ; & & ; ; ; ; ; ; ; ; ; ; ; ; ; ; ; ; ; ; ; w ; 5 5 5 q p A ] Y Z U ] u.:.>.&.#.&.>.&.P ` :.U &.:.>.-.:.q.>.[ 4.c.1.q.1.:.=.1.:.U P &.U Y ` q # # @ o # O 3 >.q.>.` &.1.Q _ W W T p.p.W W p.a.p.T T T T _ _ T p. ._ e T T _ H B U U H ,.[..X.X+X|.H.H..X3X9XpX5X5X5X:X:X:XH.f.J.:X:X:X;X:XfXMXMXpX Xw.1.*.) *.1.1.w.c. X%X1X9XqXMXfX5X:X|.J.H.XX;X;X;XK.;X5XqXhXNXVXZXZXZXZXSXSXSXZXZXZXAXMXqX9X0X:X:X:X|.H.H.H.XX;X0XqXMX9XAXZXSXSXZXZXAXAXAXAXCXZXHXZXMXMX9X9X5XqXfX.Xn..X0X5X5X5X9X9X9X9X9X1X.X1X3X1X3X3X1X3X9X[.1.*.*.&.] &.+.] Y P D R T _ E T e i g G u : > d y d ; & # # o X X X X X X o   X o X o o o X X X o o X # X # # X # # # # # # # # # # # 1 ; ; ; # # # ; = ",
"5.{ H D D ! ^ ~ [ [ ^ H H ^ <.5XeXrXeX,XeX}.&     h ,.g.<.~ ^ ^ ^ ^ ~ ~ ^ Q ^ ! ^ ' oXeXeXrXrX,XeXyX*.. . : u g D g g g f d d t y s f r f ~ 5XeXrXrXeX5Xe.    X 7 F.OXe.#.` =.@XrXrX,X,XtX,X=.      s s p s H :XyXtX,X<XeX>X,.% o G f ~ [ [ D y y 7 7 t y 7 6 6 6 7 7 q y 7 7 7 7 7 7 7 7 7 7 7 7 6 6 w 0 6 h :XeXeXeXeXeXyXh     X 7 7 6 7 y 0 w w 7 7 7 6 7 6 t 7 t ^ sX>X^ . |.yX>Xh     . 7 y y t y y 7 t 7 t t y y D :XgXdXsXdXdXdX5.    . t t y u u h D.dXsXgXdXoXr . y   . g H S u D D D u g D D h h D G D ~ >XdXgXdXgXgX2Xd   + . ) g.gXgX}.r $ D Q ^ ,.,.[ [ ,.5.5.<.oXgXgXdXdXdXBXt     o y d t f j aXdXdXdXdXgXgX!     o t u H ^ ^ ^ ^ ] ! D ! ~ ^ ~ D h Q ~ ] [ *.! f d d V S S V S g S J D H ! ^ ^ ~ ~ ^ ^ ^ H S S g g S S J H ^ ^ ^ Q ~ ^ Q ! H H D ^ ' ' ^ D D S S d J ( ~ ^ Q ^ ~ ^ ) ) ^ h | <.<.| f.<.<.<.x.f.f.<.~ ^ ~ ! ! ~ ! D D S S S S g d u y 7 7 y u D S u t t s t y s y s y s t s s V t t y q 7 7 7 y y t 7 t 7 7 6 6 5 ; ; : d u t : & & # # # o # # o ; & . $ r r r r u r r g g h R 5.%XCXJXLXLXLXJXJXJXDXDXDXDXJXJXJXLXJXDX| ' [ 3.5X{.D.,.&XLXJXHXJXVXjXeXG.R E j j j h g y 7 V 7 ; t y y 7 5 6 7 ; X # X   o &.V ; 5 ; ; w 5 ; ; & ; ; & & ; ; ; ; ; ; ; ; ; ; ; ; ; ; ; ; ; ; ; ; # 5 w 0 N A Z Y Z U &.Z K U ;.#.U U :.:.&.` &.U &.&.X.&.i.q.*.w.c.c.w.q.1.:.q.:.&.` >.] Y V 5 o   w # @ O O X.y.9.U &.4.w.j T _ T W a.a.W W p.a.p.T T T T _ T _ p.p.T T T _  .( y U U ( ,.[..X|..X|.{.+X5X9X9XfX5X5X0X:X:X|.x.H.[.|.|.;X:X:X.X).w.*.) 1.1.( d 1.OX X:.J ( 1.l.~.[..X:X0X0X0X;X|.;X:X0X;X|.;X5XqXhXhXNXVXVXZXZXZXZXZXZXZXMXMXMX9X9X0X:X1X:X|.H.H.XX;X;X;X;X.X;X X[.).l.w.w.w.*.1.e.c.).%X9X9X9X3X3X0X1X:X:X.XH.|.0X5X5X9XpXMX9X9X3X+X.X1X3X3X3X1X1X3X{.4.,.*.*.*.( U ( U P D R T _ E R i i g G g r > u y y ; & # o X X X o X X X X X X X X X X o o X X o o X o X # o X # # # # X # # # # # # # # # # # # # # # ",
",.] D ^ Q ^ ~ [ 6.D.D.6.~ h <.5X,X,XeX,XeX}.;     =.}.oX5.~ ~ Q Q ^ ^ R Q h D G ^ E | rX,X,X,X,XrX>X{.&   6 D D G G D G d d B y c y f t f 6.,XrX,X<XeXoXf       f e.4.e.;.:.{ J.rX,X,X,X,X,X*.  O   s 7 b Z d 5.,X,X<XtX<XeX4X,.. % d ! ~ ^ D u y t y d d d t 7 q q 7 7 7 7 7 t 7 7 7 7 7 7 7 7 7 7 6 q 0 6 h :X,X,XeXtX,XyXf     X 7 7 7 7 y w 7 w 7 7 6 6 t t 6 t t ^ yX5XQ . |.5X:Xf     X t t t t y y t y t t t t t h @XsXsXsXdXdXfX5.      : d t t S h ' >XdXdX>Xr % s OXd y J G D g g D h j f h Q h h h h R { yXsXdXyXgXfX4.      % j <.dXdX5Xg . : g Q ) } ,.,.,.<.3.g.}.dXdXdXgXdXaX.     # c Z F g j gXdXdXgXgXdXpX!     X q w 7 s d d g u d d g [ +Xh g f h h D ~ =.D f f d S J F S S g S ! D ! ^ ~ [ ~ [ [ [ ( ! S S d S S V S ! ] ] ^ h ~ ^ Q ~ ! ! ! ~ ] [ ) ! J S S S ! ! ! D ^ Q ) ^ ~ ) ^ R ,.| } <.f.<./ s.f.s.f.<./ [ ) ! ^ ) ' ' ~ ^ ~ ] ] ~ g f d s d d t f u t u d B d d d d d u s s d s d u y d B s 7 7 t y y y 6 7 y q w 5 & ; 6 d u t 6 & % # # # # o # o & % . & : * > r r * r g h ^ ,.+XCXJXLXKXLXLXJXHXJXJXSXBXBXJXLXLXJXJXHXBXoXf.} x.,.*.CXJXJXJXJXSX,XK. . ./ j j [ [ u : 6 7 ; > ; ; t y 7 7 y ; ; # X X #   &.U & ; & ; ; ; ; ; & ; ; & & ; ; ; & ; ; ; ; ; ; ; ; ; ; ; ; ; ; ; - ; w 5 w q P U p V ] U U P K #.#.Y P &.-.:.:.P P U U U -.>.1.c.).).w.e.e.u.1.&.&.*.] Z B B w # ; ; # # O 4 -.W.9.u.&.w.1.1.i T _ W T p.p.p.W p.p.p.T T T T T T a.a.W T T T _  .@.G U U ( 1.{.+X|..X|..X1X3X5XfXfXpX5X0X:X}.x.G.|.|.|.|.|.[.v.2.) ( G ( u.y.U o ( y.y.1.+.+.1.w.1.5.b.n.J.;X0XqX5X5XqXqX<X;X;X5XqXhXfXNXVXVXZXZXZXZXZXZXVXMXMXfX9X9X0X0X5X5X:X|.|.;X|.XXH.n.v.b.l.2.) ( w. Xc.H F 1.w.2.@.2.v..X3X3X0X:X:X:X.X|.D.:X0X5X5X9XfXMXMX9X1X[.3X3X1X3X1X1X1X|.5.1.=.=.*.U U U U Z D R T _ E E i i g D G r > t y 7 ; & # X X X X o X X X X X     X o X X X X X X o X X X # # X # # # # X # # # # # & # # # o # # # # = ",
"[ [ [ ' / / / ' ' A.>X}.A.| g.<XeX,X,X,XeX}.:   . 6.:XD.,.) h / R Q Q Q G h h G D Q R A.,X,XeXwX,X,X>X]   . S h h h g u B B s s f a d d h oX,XtXwX,X5X*.  o   . h { e.N.q.;.] }.,X,X,XrX,XrX[ .     q p N s s f J.yX,X,XrX,XrX>X{ . r *.[ ] ( B y y y t y y 7 7 7 6 6 w 7 6 7 y 6 6 7 7 7 7 7 7 t u t 6 t r h +XeX,X,XtX,X>Xh     # 6 q y s : t 7 6 6 y 6 t 7 6 t c y ^ eX,X^ . J.eXoXg O   # y w y y t t 7 7 q 6 7 7 > h @XeXsXsXsXeXsX3.. O O 7 y t t u h Q g.aXpXw.$ ^ >XaX{.h G ! ) ! ~ Q h j R ~ ~ ^ ^ R h E :XyXdXsXgXgXD.  o   . D g } fXsXyX,.    B D / / ' h.3.4.4.,.G.gXdXdXdXgX6X      7 S y t t f aXgXdXgXdXdXaX^ .   + 0 q 7 w q s s 9 9 u j >XaXu d : t d u f ] d d u d S d S J S S D D D D ^ ^ ~ ~ ~ ^ ( ( H J D d S S S S J ~ ^ Q Q Q ^ ^ D D D ^ ] [ [ ' ~ ^ D H H ] H H D D ! ~ ~ ~ ~ Q h / ' ' } <.<./ | <.<.<.| / ) ' ^ Q ) [ [ ^ h ^ ] ] ] J f f f d u d d B B d S D g g h j D h g g g d S d S S d s s s u u u B d t t s 7 ; X ; 6 t f t : ; # # # # # o o o : % $ % : : % r r * > u ( 4. XbXLXLXJXLXLXHXJXLXJXJXDXDXDXDXLXLXJXBXSXDXdX:X|.Q [.LXLXLXJXJXSX<X<. ./ ) h h u ,.=.! : 6 w ; 6 7 ; w w 7 7 7 5 ; # X o o X w ] q & & 5 5 ; # ; # ; ; & # ; ; ; # & ; ; ; ; ; 5 ; 6 ; ; ; ; w ; o # w = w 0 q Z Y &.Y N P &.&.A b b A b Z U &.U U U >.&.=.q.1.*.*.*.1.w.:.*.] H U V s q # ; # ; , 3 @   , q.'.q.q.q.] =.w.Q i T T T _ W W p.W p.p.W T T T _ T _ a.p._ T i i T T ) G U U J 5..X|.|.|.|.|.0X5X5X5X5X0X:X:X|.H.J.|.;X[.H.H.l.2.) ) *.) ! ( U ] U 5 s U >.1.:.=._.2X).w.2.2.s.b.XXqXfXhXhXfX5X;X:XqXqXfXfXNXVXVXVXZXVXZXZXZXVXMXzX9X9XqX5X0XfXNXfX5X5XXXb.m.m.s.5.l.v.l.=.+.q. X~.F 9 ( 1.*.H D ( w.)..X.X.X1X.X.X:X[.H.:X9X5X9XfXfXpXpX3X X+X3X3X0X0X1X3XOXw.1.*.:.1.Z ( ( U U B h T E / E T i i i g u t u s ; ; # o o o X o o o o X X X   X X   o X o o o X o X o . X X # # # # # X # # & & # # # # # # # # # ; = ",
"~ ' [ ,.| } <.g.h.h.:XyX@XJ.:X,X,XrX,X,X,XoX%   . 4.+Xf.[ ! ^ Q Q Q Q D g g h D D D R / J.eX,XeX,X,XeX}.f   6 D R j h g u d f f t y t r 3.eX<X,XtX,X6.%       : h ^  XuXN.] { J.rX,X<X,XrXeX[ .     q N b A V s j oXyXrX,X<XeX,X+X[ $ ! =.,.( y y d t y y 7 7 6 7 6 6 7 7 7 7 7 7 7 7 7 7 7 7 7 t y 6 7 y r h :X<XrX,X,X,XyXf   O O 6 7 7 t : t 7 7 7 t 6 7 7 y s 6 t ^ eX>X] . J.>XoXf   @ o 6 7 7 7 t t t 7 y s 6 7 f f }.dXsXeXsXsXsX4.    O 6 y q y u D ^ j z.uXQ ,.yXaXyX5X| $ u *.! D Q h j [ | ) [ [ ) } g.sXdXeXsXgX.Xu     . g Q ^ / sXsXdX@X$   o S f E f.f.,.=.S f A.sXsXdXdXaX=.      w 6 t y : f gXyXdXsXsXdXyX(     X 7 7 7 7 a s y c y r 5.yXyXr 6 . % u s u S d d u d d d S S S S D g g h ^ ~ ~ ~ ) ~ ^ H H H S S J d g J H ! ^ ^ ^ Q Q ! Q Q D ^ Q [ ^ ' [ ~ ~ h D S S g S D ^ ~ Q ~ ~ ^ ^ ' / / / / E E E } / E ^ ^ ~ ~ ! Q ~ [ [ ~ Q ) ] ) ) D S d d s s y s F ( ! ] ^ Q Q R Q ^ Q h S S S D g g V d V d d S d d d S d s s 7 w ; ; t t > % > & # o # # # o o o : > % % > > : t t % . t 1. XbXJXLXLXJXLXJXHXHXHXJXJXBXDXJXLXLXJXJXDXVXsXL.f.,.&XHXJXJXHXJXVX>XK.<./ R h g u f g ! u t 6 5 # 6 7 5 q w 5 6 ; 6 ; # X X o   # Z 6 5 5 5 ; w ; # & ; ; ; # ; ; ; & ; ; ; ; ; & & & ; ; ; ; q w w ; w w 0 0 p Z Z Y Y Z F Z Z b N P C C Z U P P U U U &.>.:.:.( B *.w.*.=.4.=.*.=.J V y 7 ; # X w @ , O 4 :.#X(.q.q.:.&.4.[ i i T T T T W p.p.W p.a.W T T T _ T p.a._ T e T i i T ! G U U H w..X.X|.|.|.|.4X5XfXfXfX0X:X:X}.|.:X:X|.H.x.<.) ) ) 1.c.w.*.*.:.:.=.] =.1.w.e.q.c.8XZXZX%X[.b.s.2.f.H.qXhXVXfX0X:X:XqXqXfXNXNXVXVXVXZXVXZXZXZXVXMX9X9X9X9X9X5X9XVXNX0XH.f.2.2.s.s.v..XMX3Xl.2.1.i.q.P 2 U &.( H ( G ) 2.2.l.[..X.X:X:X:XH.[.0X9X9XpXfXfXMX9X+X.X1X3X0X1X1X3X+Xe.1.*.=.q.U U ( U Z u i R E E E T i i i g g u : 6 ; ; X o o o X o o X X X X X X         X o X o o o # # X # # # # # # # # # & & # # o # # # # # = ; ; ; ",
"5.l.l.5.z.D.x.5.3.A.H.H.5.} h.<XrX,X,X,X,XoX>   . ~ 6.' ^ ~ ^ h Q Q Q h g g g h h h Q h E :X,X,X<X,X,XyXD.% . g Q h g g u u d t s S f / >XrXrX<X>XJ.%     X ; f d S ] N.N.S.{ K.,X,X,X,X,X,X1..     l K K Z A 7 f 1.:X<XrXtX<X,XyX5X[ $ h =.~ u t u u 6 6 y 7 : 7 7 7 y y 7 7 7 7 7 7 7 7 y y y 9 q y q 6 t R :XtX,X,XeX,X5Xh .     q 7 7 u u r 6 7 6 7 y 7 6 6 : 6 t ' yX>X~   D.eXoXh     . y t 6 6 t t 7 7 y q c y r h oXsX,XsXeXeXsX2..   O y s w y u g Q j u w.u }.yXyXsXsX>X$ $ y ] D h D j ' | Q / ) / } <XyXeXeXyX5X!       > ,.f.f.} >XsXsXyXD.. . y ( | / j j > u r >XsXdXeXyX5X. #   X w 5 ; y t j aXsXsXtXsXsXyX(     # w 5 5 7 7 a y 6 r ^ >XyX}.r &   o s d y s d d s s d V V S S S J ! D ! ~ ) ) ^ ^ ~ ] ( J H H J J H ! J D ~ ^ ^ ^ Q Q D D ^ ~ ~ ~ ~ ~ ' [ [ [ ^ ! S S g S D H ( ^ ^ ' [ ,.,.}  .<.| E E / } <.^ h ! ~ ~ h h ~ ) ~ Q h ^ ~ ~ ~ G g S u B s s s S [ f ) ) ,.| } } ' ~ ^ g f g S H S d s s t f d d u t d d t 6 6 7 6 6 7 s * : t 5 ; & & & # # o % ; : > : t 6 ; % % o % H ).bXJXJXJXLXLXLXJXJXJXLXJXJXDXLXJXJXLXJXHXgXyXoX<.' HXJXJXHXHXJXBXG.s.} / i h D H d S d *.g > : 7 5 5 7 7 q 7 5 ; ; 5 ; # o   o X   5 # # 5 5 ; 5 ; ; ; # ; ; ; ; ; # & & ; ; ; ; & & & & & & 5 N w 5 5 0 q Z Z U U V Y V Y U A P Y U U I K Y X.U U U &.&.&.*.( ( *.1.1.=.=.1.=.] ( U B 5 5 = = 5 ; X ,   3 q.(.u.q.q.q.q.y.=.[ i R _ T T T T p.p.W p.p.T T T T T T p.p.T T T T i T T D F U U ( c.+X.X|.|.|.|.4X5XfXfXfXfXfX5X5X0X|.H.g.<.} / ) 2.l.v.[.).w.1.:.1.1.q.w.e.w.q.w.[.bXHXIXZXVX9Xn.b.b.XXqXhXhXfX0X:X0X5XqXfXNXVXVXVXVXVXVXZXZXZXZXMXMXqXqX9X9XqX9XfXfX:Xv.b.b.v.n.[.;XMXZXAXc.1.w.w.c.q.=.q.q.1.:.&.+.1.*.) ) 2.l.{.1X.X1X:XXX.X5X9XpXpXfXMXMX3X|.1X0X0X0X1X3X1Xz.,.*.*.q.&.Y U U P G i T T R E E R R i g D u > 6 & # o o o o X X X X X X X               X o o o o o o X X X o # # # # # & # # # o o o # # # # # ; ; ; ",
"^ Q ^ ~ ~ Q ^ ] ~ ^ ^ ' ~ ' G.,X,X,X,X,X,X,XQ   . D 6.,.[ ] ] ^ ! ! ! D S g g g j D Q j R E H.,XrX,X,X,X,XA.* * D D D u u G u d u r ' <XrX,X<X,Xz.r .     # y f ( ] J 6.F.6.3.oX<X,X,X,X,X,XD.. .   V U I z q s t t z.>XeX<XrX<X<X,X>X3.> ^ R j u f u y 7 y 7 y 7 7 q y y 7 7 7 7 7 7 7 t t y y c 6 ; 6 r r } ,X,X,X,X,XrXyX5..   o B y 7 : 6 t 7 t y y y 7 y y y y > <.5X>X~ $ H.>X,X~ . + # y t 7 7 y t t t y y y t r ^ >XeXtXeXtXtXyXz..   @ : 6 p q 6 S ! u u g f +XyXeXrXeXeXoX^ . S H Q D g [ <.R } } ' <XyXsXyXyX}.g .   . > [ | d.| } :X,XdXeXyX| . & F f r u u g r 3.yXsXeXsXaX1..     o 5 p s t r | yXsXtXtXtXsXaX*.+   + q q y t s s u u Q J.yXyX6.>     ; y s s t y d s s d V B d S d S ! ! ! ! ~ ~ ^ ) ~ D g h J g S J g S ! H D D Q ^ ^ ~ ^ ^ ) [ ~ ' ^ ~ ~ [ [ [ ^ ^ h S J S J D D ~ ^ ) [ ,.| d...d.d.| <.f.x./ g f ~ ) | | } { { ' / / ' ' ) ' ^ ^ ^ D D H D D ^ ) h h [ [ } / | } [ ) D d g S d d d d V d d S d d t u f t 6 6 7 7 6 6 s t S y 5 5 # # # # X X & 6 & : & ; ; o o .   q q.iXJXJXJXLXLXLXHXHXJXJXJXJXJXDXJXJXJXJXJXSXgX<Xg.D.JXJXJXJXJXSXhXh./ R R R h g S d d 6 ] 4.h r > ; ; w w w w 5 7 5 ; ; ; # # o # o   # V w w w w 5 ; 5 ; # # ; ; - - # # # ; ; ; ; ; & ; # ; ; 0 q w w N 0 0 q A U Y N N Y A Y Z P U U U b l Y U N A &.=.1.&.U H *.=.=.( U *.( H ( J t # X ; # o o 5 , < k :.(.q.q.y.e.q.q.q.( [ R / E T T T W W W p.p.W T T T _ T p.a.W T T T T i T T D H ( J *.)..X|..X:X|.|.>X5X5X5X5X5X5X0X:X|.n.f.} } } ,.2.l.v.[..X{.c.w.w.e.w.1.w.c.).[..X9XvX3X1X+X.X.X.X0XqXNXNXfXqX5X5X0X,X5XqXfXVXVXVXVXVXVXZXZXZXZXZXVXMXqX9X9XqX9X9XpXfXMXpX5X:XXXXXXX.X9XAXZX.Xw.w.w.e.c.e.e.u.q.1.&.w._.~.5.@.! ) 5.[.XX:X9X0X:X0X5XpXfXpXMXNXpX:X:X0X5X3X1X3X3Xc.=.*.*.=.*.Y F U U G i T T R R E R T i h h u t 7 & X X o o X X X X X X                 o X X X X o X X o o o X X # # # # # # # o o o o # # # # # # # # ",
"h Q ! D J J h g S g h h j j <X,X,X,XtX<XtX,XoX$ $ r 4._.+XS.=.^ D D G S S D D D Q h h h h j j 3.,X,X,X,X,XyXyXE > f u g g u f h j g.,X,X,XeX5X6..       # s d ! &X] h 4.z.{ 3.eXrXeXrX,X,XrX>X,.. . y s N N q p s t r A.>XrX,X,X<XrX,XyX>X| E R j f : y y 6 6 7 y y y y q 7 7 7 t 7 7 t y y y y 6 t a > u r A.<X,XrXrX<X<XrX@X' . . 6 6 6 t t u y 7 y y y y 6 : > r j K.,X,X..R G.,X,X:X*   + 6 6 6 7 7 7 t y u t r u r A.eXrX,XrXrXtX,X5X.   . : w p s 6 f f g d f r ' >XyXeX,XeXeXyX1.% u g g h ~ / E E d.,X,XeXyX5X&X> .     : ] / <.<.} } x.sX,XtXeX>X[ . & t u S D D } ,XeXeXyXyXD.$ o     0 5 s > > j >XsXeXeXtXtXrXyXH.$ $ % r r r > r r r 3.5XyXeX>X{ .     q q s y s y y s s d V B d S D S S S ! H ! ! ~ ^ ! ~ H h S S D S H ( ! D ~ ! h D D ! ! Q Q Q ^ ^ ' ^ ~ [ [ [ [ ~ D S H S J S H ! h Q [ | /  .d.h.} } / ' ,.} h h ,.D.>XgXhXhXfXdXyXyX<X:XoXoXA.x.6.3.} ' ' ^ ~ ~ Q ! ! ! D Q ^ Q ^ ! g d d s d f d d f f f d d u u s s s t s w 6 w 6 y f H t 5 5 ; & & # # # X 7 5 V 5 X X X X   - &.$XHXHXbXBXHXLXLXLXJXJXJXJXJXJXDXJXJXJXLXDX5X,X;XoXJXJXSXSXgXSXsXg.R i j g f d y s N J y d 4.! * > 7 7 o 5 w 5 5 w 5 ; ; & # & # # X   5 &.N 5 ; 5 5 ; 5 ; # # ; ; - # # # # ; ; ; ; ; & & % ; 6 B 0 N q Z N w # q A N B V J B y Z A U U Z Y Y U U P Z Z U *.( =.q.q.( J *.*.*.S S 7 ; ; # 5 #   0 5 O   z -.q.q.q.q.q.q.:.] ] 4.z.i R T T T T W W W a.p.T T T T W T a.a._ T T T T T T R F U ( J =.[..X|.|..X|.:X5XfXfXfXfX0X:X;XH.x.g.f.f.f.f.l.x.n.XX.X.X1XpXBXvXpX7X7XpXMXMXvX9XMX9X1X1X.X:X0X9XqXfXNXhXfX5X5X5X5X,X5XqXfXNXVXVXVXVXVXZXZXZXZXZXNXMX9X9XqX9XqXfX9XfXVXZXVXfX0X:X:X.X;X3XMXAX3X X[.c.w.1.1.1.2.2.1.[. X Xv.w.2.) ) ,.5.v.|.5X9XfXfX9XfXpXfXMXMX9X:X:X0X3X1X1X3Xv.*.*.=.*.*.U F P U S i T R T T E R R R h h u t 7 #   o X X X   X                     X   X o o X X o # o o o X X # # # # # o o X o # # # # # # o o o # ",
"J J J J J J H ] J h Q { 3.oX<XrXrX<X,X,X<X<XeXoX,.^ h h g J f S B B B d g S D D h ! ! ~ Q h h j | J.,X,X,X>X,XrXA.3.,.} ' } ,.3.oXyX>X,XeXA.[         o s t { 4XS.J { F.F.J.>X<X,X,X,X,X<X,XeX>XS.[ f s 7 q w q q 7 t h A.,X,XrX<X,XrX,X<XeXrX,X5X+XS.t 7 : s 7 y 7 7 7 7 7 7 t 7 7 7 t t t t t y t r ' | K.,XeX,X<X,X,XrX,XyX@Xz.] f d y d t y s 6 7 y t y > S ^ | G.rX,X,X,X,XrX<XeX,X:X,.g r u 6 t y 7 t u t r D ,.K.yX,XrXeXrX,XeXyX5X{.] d > 7 q w s d f S y d f u ~ A.,XrX,X,X,XyX@X<.3.,.| ,.3.d.K.,XsXeXyXoX,.. . .   > [ ,./ ' | / / | :XeXeXeXyXyXD.[ D h h ^ <.@XyXsXyX4Xz..     o X q s t ^ ,.oXyXyXyXyXeXeXtXrXyX+XA.g.A.B.A.A.J.}.,XyXyX,X>X4X:   X X N s s y B d y y s B V B d V J S S S J D H ~ D ^ D D D D H S S J S D ( ! D H ! ! ! ^ ^ ! ^ Q ~ ~ ~ [ ' ^ ^ ' [ [ H H H H J J H Q ^ ^ ) ' '  .d.d. .} } ^ ^ h j j ,.J.,XsXyXgXdXgXgXhXgXjXgXgXjXjXBXgXaXA.f.h.3.^ ) ! D B S d h g S g u d S S g S g d d d f d t t y d V B s s y w q q y t S y 6 6 ; ; # o o o 5 s 0 Y 0 o X X #   s e.bXSXDXDXHXLXLXLXLXJXJXJXLXJXDXJXJXJXJXJXDXjXdX<XaXSXSXDXVXsX}.R E Q j f d s s s s V H t f =.( u r ; 5 w ; w w 7 w 5 ; ; ; # X o o o   # N w 5 ; ; ; ; ; ; # # ; ; - ; - & & ; ; & & & & & % & 6 c 5 q q 0 N 0 w N s Z Z U V F N N A U Y N b 0 b b U ` ` ( ( *.q.*.H S U ( &.=.s 7 7 5 # w o @ q N # , C U &.:.q.q.-.` 4.:.Y >.'.! e i T T T T W W W a.p.T T T _ W p.p.W T T T T T T T T Z U ( H 1.[..X|.|.;X|.:X0X5X5X5X5X5X:X;X;X|.}.}.|.J.H.H.|.|..X.X:X1X9X9X1X9X9X9X3X9X9X3X0X0X0X5X9X1X0X5XqXqXqX5X5X5X5X5X5X0X5X5XqXfXNXNXVXVXVXZXZXZXZXZXZXMXMXqX9X9XqXMX9XfXMX9XMXMXfX9X9X5X0X0X9XfXNXVXVXMXMX9X9X9X8X2X%X3X9X1X.XXX[.v.l.2.} } } s.H.:X5XfXfXfXfXfXMXMXfX:X:X4X3X1X1X3XD.*.*.=.*.*.&.U U U B i e T T T E E R R h h u t 1 + X X X X                       X X X   X o o X X o o # X X X X X # o # o o X X o o o o # # # # o # # ",
"H H H H U H H H H ( +X+XyXeX,XrX,X>X>X,XrXeX>X>XpX1XoX( d V S d Z Z B d d u u u u g f g h D D g h Q } K.yXeX,X,XsX,X<X<X<X<X,X>X>X4XyX}.] %   @   o ; s r h {.aX'.e.@X+XyX4X5X,X,X>X>X,XeXrX>XeX>X>X+Xz.6 q q q 7 7 7 r u A.,X<XrX<XeX,X,X<X,XrX,X4XD.o . o y t t 7 7 7 7 7 7 t 7 7 7 t t t t t t ! @X>X4X>X>X,X,X,XyX5X5X>X>X>X>X4X+Xz.y y y 6 7 y y 7 : r f z.+X>XeX<XyX>XyX,X<XeX<XeXrX4X&XoXf 6 7 y y y u t z.>X5X,XyX>XyX>XyXyX>XyX>X>XyX%Xz.t q l y 6 d y t d f u t g ~ J.5X,X,XyXyX,X,X<X:X>XyX>X>XyXyX+X,.> . . . . u ^ [ ' j E ) Q ^ / / x.,X,XyXyXyX>X>X@XoX:X5XyXyX5X%XD % .     ; q t t ).4XyXyXyXyXyX5XaX>XyXyXyXyXyXyXyXyXeXeXyXyX,X,XyXyXaXc.      & s y s t y y s y s B d B V d d d S S g g D ! [ ~ D D D S J ! J J ! ( ! D ! ! ! ! D ! Q Q ^ ^ ~ [ ^ | ] ^ ~ ] ~ ~ D J J ! H ! ] ~ ) ' <.f.<.a.d.j./ / [ R h ' D h R / / ' ' ' | <.d.h.G.K.:X>XyXdXfXfXf.R x.H.D.[ ^ ~ f g u f r h ~ ~ S f f u f g f f d d u u S t 7 s B N s s 7 w q q q 7 y y B s y q 0 w w 0 N p w w # # # # O X U $XHXDXDXDXHXJXLXLXKXKXLXLXLXJXBXJXJXJXLXJXJXHXgXgXgXDXDXjX<XL.} ^ j h S J G d d y s B F t d *.) r % ; 5 6 5 w 6 7 w ; 6 ; ; o .   o # .     X 5 w ; ; ; 5 ; & & & # - ; ; ; ; & # # & & & & & # ; 5 5 5 5 # 8 w w q N Y Z Z q F Z 0 q N =   8 0 4 b #.&.&.U U =.1.J H U V q 0 V 5 7 5 X 8 @   w P #   U q.q.:.U -.>.:.q.>.] 4.OXe.% $ e i T T T W W p.p.W T T T _ T p.p.W T T T T T T T T Z U ( ( w.{..X|.;X;X|.:X>X5X5X5XqX,X,X<X:X<X,X<X;X:X:X>X,X:X:X:X5X5X5X1X:X0X:X.XXX.X;X:X:X;X:X0X0X0X0X5X5X5X5X5X0X5XqX5X5X0X5X5XqXfXhXNXVXVXVXZXZXZXZXZXVXMXMX9XzX9XqXqXqXMXMXMX9X5X5X5X0X0X0X0X0X5X5X5X9X9X9XMXMXAXAXAXvXMXlX9X1X.XXXn.n.n.b.f.f.b.v.H.|.5XfXfXMXNXNXNXMX9X5X3X3X1X1X3X{.2.) =.*.&.&.( U U G i i i R R R / R R h h r : + X     X   X       X X     X X X o o o # # # o X o X X X o o o X o o o X X X X o o o # # # # # # o # # ",
"V Y Y Y Y J J S S ) {.{.{.J.D.A.A.l.5.w.z.A.H.{.D.H.{.D o - 5 B c B B s d u u u f u g g f u g u g D h j | g.J.;X<X,XeX,X,X>XoXoXJ.5.h .     O O o w 6 f f ' 5.J.uXOXOX+XoX{.H.A.v.z.5.5.z.z.D.D.G.H.J.S.  # & 6 y 6 y t t r 3.K.<XeX,X,X,XeX,X,X<X{.t       6 y t y y y y t 7 t y t t t t y y y u =.{.J.J.{.J.h.A.x.D.x.D.A.D.D.J.D.[.c.o . ; y q y q y t t r F.{.J.H.H.z.D.D.D.F.D.D.A.J.[.D.F.: . o 7 7 t t t e.{.J.J.J.A.D.F.c.D.A.A.D.J.H.H.z.  5 # 7 t f y d t f d y u u j <.h.K.P.<X,X,XrXrX,X<XoX}.g.~ % .     . S [ ~ ) / ^ ^ ) ~ ^ Q ^ D Q } x.}.;X<XeX,XeXyX,X>X}.H.,.* .       5 5 q t [ {.oXoXJ.A.A.D.F.D.).D.v.D.).D.D.H.H.J.J.{.H.J.K.J.J.D.d       y d t s d y y B y s B s B S d d g d S d S H ( ~ ! H ! ! J D S S J J ! ^ D D J H D D Q ~ ^ ! D h ^ ] ~ ~ [ [ ] ~ ^ ~ J H J J ! ! ~ ~ / <.g.d.d.j.h.g.' ^ h h ^ S D h ^ R Q D R R R ^ R E E E E E / ' [ h [ h Q ,.^ Q ~ ( ^ ~ ,.2.5.,.~ r r D ( ,.[ ! f u u d S U y ; 6 w w w w ; 6 w 5 w 6 & 6 6 6 w w w w w q N w b w 3 3 , # o 5 :.6XJXSXDXgXSXJXLXLXLXKXKXLXLXDX4XJXJXSXJXJXJXHXVXDXDXBXjX<X .E j h D S H H g u u t u y B y u ! g > o ; o 1 ; ; & 5 5 ; 6 # o # & o . + o o   X ; 5 ; ; ; ; ; ; & # # - ; ; ; ; & # o o & ; & & # # # 0 # , 3 5 0 w w Z V p B N 5 q q 5 q p w p b I I Y Z ` ( B y y t B 7 w 9 ; X ; 5 X 3 @   N Y w O &.q.X.0 U &.>.;.9.9.y.4.u.*.  . $ e e T T T W p.p.p.T T T T T T W W W T T _ _ T T T R Z ( ( ] e.{..X|.;X;X|.:X5XsXsXfXhXfXsXqXwX<X;X;XwXqXsXhXhXhXNXhXfXfXfXfXfXfX5X9X5XqXqXqXqXqXqXqXqXqX0XqX0X5X5X5XqXqX5X5X5X0X5XqXqXfXhXNXVXVXVXZXVXZXZXZXVXMXMXqX9XMXMXqXqXMXMXMXfX9X5X0X1X0X0X0X0X0X5X0X;X;X1X1X.X1X1X.X.X.X.X1X0X1X1X;XXX|.:X0X0X0X.X|.|.;X>X5X9XfXfXNXfX9X5X:X3X0X1X9X.X1.) =.*.&.&.( +.U ( i i e T T T / R R h g r r # X     X   X     X X X     X X o X X X X X X X X o o o o o o o X X o o X X X X # # # # # # # # # o o # ",
"d d d d d d d B d d S S d : % . .     . . o % & % & % .     # q B B y y y y u u t d g h g D f f g g g h Q h ^ ^ Q Q ] [ ~ S d y %       . & 5 y d : f a D 6.6.A.@XF.(.(.>.s o o             & o & # o .     . & q 7 7 y 7 t t g ' <.g.A.J.D.f.,.F :       % 6 6 7 7 7 7 7 t t t t t t 7 7 t t t t t u d f > . . . . . . . . o % & & o .     . & y y y y y t y y d d 6 % . . . . . . . % & % % %       & 7 y y y d d d t % . . . . . . . % % & & .       & 7 y y s s s d u y u d h h ^ ' ^ R ~ [ ) h S B & . . . $ r R / <.| / } ~ ~ ) [ / / [ } ^ ' ~ ^ ~ [ ~ ~ [ *.! F d y .         o 6 7 s t t u g H S : % .   .       . .   . . o % & & & & % % & & o .     # 7 s 7 y y y y y y s s s B B V V V B S F S g S S ! ] ] ~ ~ H D J S g S J J S g S S S S S D ! D D ~ ( ! ~ ~ ~ ) ~ ! H S d J H ~ ! D ^ Q ) }  .s.j.h.j.} E / / ^ h ~ / Q E ' h ^ R E E R E R / R ^ ) ^ Q ) ! g u u f S S H H ! [ [ [ ( S t f ~ *.[ ~ ~ f u s N U V 6 & 6 ; w 5 5 5 ; 5 w 5 w w w ; 5 5 5 5 3 8 0 0 A n 3 3 3 @ 3 X 5 :.iXJXDXgXDXJXJXKXLXLXJXJXLXJXuXVXJXVXaXSXJXJXpXfXSXDX<X} R ^ R ^ ~ g J ( D ! ( u y d s B q & ( =.t : % ; - ; ; ; 5 7 7 ; & & % o o o + + X O o # 5 ; # # ; ; ; # - - # # # # # # # # & % % # & # ; o X w 5 & ; 6 5 ; B 7 ; p 7 w 5 ; & 5 q b p p P ] Y p s s 0 # ; B V y q y w # ; X 5 X # b C 3 @ -.-.Z # 3 0 &.>.r.r.&.N (.S.: % $ $ r i e T _ p.p.p.W T T T T T T W _ T T T _ _ T T T / F &.&.=.z.|.+X.X;X;X:X>X5XsXfXhXhXhXfXfX5X<X:X;X:X>X5X5XdXhXVXVXVXVXVXVXVXNXNXVXhXhXqXqXqXqXqXqX0X0X0X0X5XqXqXqXfX5X5X5X5X5X5XqXfXfXhXNXVXVXZXVXZXZXVXNXMXMXMXMXMXMXfXfXqXqXzXNXMXMX9X0X0X0X0XqXqX0X0X0X0X0X9X5X9X9X9XMXvXpXpXvXfXMXMXfX5X5X5X5X0X0X0X0X0X>X>X5X5X5XfXfXfX9X5X0X5X0X1X3X+X5.[ :.>.] >.( +.U H g i e i R T E R j g g r * % X     X X             o X   o o o + + o X o X X   o o . . X X X X X X X o X X o o o o # # # # # # # # ",
"s y s s s s s d d d d d u t 6 t y y y d d B d B s s y t 7 7 y B B y B s y t t t f t u h h D g D g g g h D h h j h t > % . . .   o . & 7 6 7 s y 7 f > J 1.,.F.oXF.'.cX'.P f s ] y.U N 7 s N N N y y y t 6 ; 6 q q 7 7 7 7 t t t g Q g r $ $ $ $ .     o % 6 y y 7 7 7 7 7 t t t t t t t t t t t t 6 r t t : 6 6 6 6 6 6 6 7 7 7 7 7 7 6 6 6 6 7 7 7 7 7 7 7 t t y t 6 : : 6 6 6 t t t t t t 7 6 6 : 6 6 t t t 7 t u u t : : 6 6 7 t t 7 y y t t 7 6 6 w q y s y s s s d u y u d g u u h h Q h r % * % . & : r D 2.<.,.<./ <.<./ [ ' ' ' ' } ,.} ' [ ~ Q Q ^ D D u : o . o .   o o 6 7 s y 6 s y s d u u g d 6 y 7 6 7 y y 7 7 7 y 7 7 7 6 6 : : 6 6 6 6 6 6 6 w 6 y s y s s y y s y s s s d B V d V d d S G S G D ! ] [ ~ ! ! ! H H H H J S S S S H H J ! D D ^ Q ! ( ] h R ^ ~ [ ! H H ! ! ! ^ ^ Q ^ ^ ^ [ '  .d. . .} / ,.,.^ ^ 3.f.f.3.<.f.3.<.| } | <.} / / / ) / ^ [ ] S t u u d d S g D ) ~ h g g D ! ~ ] ~ ' [ Q h d t 7 7 % ; y 7 w 5 5 5 5 5 w w w w w q q q w 8 8 8 8 k b k 3 3 3 , , ; 5 q.bXHXJXSXBXJXJXKXLXLXDXJXJXJXDXJXSXgX4XCXJXSXSXyXSXjXj.E ^ ^ j ,.~ ! J H S *.[ G y t y V s 7 S S > : o # # ; ; ; ; 5 w 6 & ; & # o + o + X   O # 5 5 5 5 5 ; - # - ; # # # # # # # & & % % % # # o X o # 5 & w 6 ; s 5 ; 7 q q w w w w w q q p A p w s V N 6 ; & 5 6 5 ; & # 5 - # 5     5 N k 3 q U s 7 N 5 A >.9.:.i.:.e.w.s & & % $ Q e e T W p.p.W W T T T T T T _ T T e T T T T T T ) Z ( &.*.z..X.X.X:X;X:X>X5XfXhXhXNXhXfXfXfXsX>X;X;X:X5XqXqXsXhXgXgXhXhXhXfXfXfXfXfXqXqXfXqXqXqXqX0X0X0X5XqXqXqXqXfXqX5X5X5X5XqXqXqXfXhXNXVXVXVXVXZXVXVXNXMXMXMXfXMXMXMXfXfXqXqXMXZXNXfXqXqX0X0X0X0XqXqXqXqXqXfXfXNXVXZXZXSXHXSXSXHXSXVXNXfXfXqX5X0X0X5XqXfXfXfXfXpXpXfXfXfXpX5X0X0X5X1X5X1Xl.] =.=.&.&.( +.( H u i e i R R R R h g g u : o       X                         o X X o o X     X X o o X X X X X X   o o X X X o o o o # o # # # # # ",
"t t t t t t y y s y y d d s d B y y y s s y y y s s y d B B s s s s s s y y t t t u u h h Q h D S f D h h h g u d u s d s s q w y y y s s s d t a f =.).=.=.6.6.F.UX$X&.V a J OX].U q s s U N q B y s s y 7 7 q 7 7 7 7 7 t t r f S D D D H S 6 : : 7 y 7 7 y y 7 7 7 7 7 t t t t t t t t t t t t t t t t t t y 7 7 y y 7 7 7 7 7 y t 7 7 7 7 7 7 7 t t t t 7 7 7 7 7 7 7 y y y y y q 7 y t t t y y y y y t 7 7 6 6 7 7 t y y y y y y y y y 7 7 7 q q y q y t t s d d d u y u u t f g f u S ! ! D ! H G ! D h [ ,.<.} } E | <.^ [ ' ~ ~ ' [ / / ,.,.) ~ ! D D ! S F F 7 6 7 B N s s y y s s s t s d S J ( H B F V y s F B y y y q 7 6 6 6 6 7 y y y y y y y s B y s s s s y y y s y y s s d d d d d d B S S S S ! D h Q ! ^ ! ~ ! H J J J J S S H S J S D ^ ] [ ^ h S H ^ ~ ~ ^ ~ ! D D ^ ) [ ' ^ h D Q ~ [ /  .d.d.' } / ,.~ R Q ,./ <.} } <.} <.d.<.f.f.g.g.<.<.} / ^ ~ D ] J S d s d B d g ! ~ g G G G ! Q ) [ ) ^ j h H S : 6 : t s 7 6 5 0 w w w w w w w w w 0 q w q b b b z k 0 3 , 3 3 @ X 6 w.bXJXJXBXgXHXKXJXLXJXHXDXJXJXHXJXaXoXBXSXHXJXZX>XDXjX ./ R f r h ! g F S G J F y t 6 y Z V 7 6 & & : o ; 5 o ; 5 ; 5 q q 6 ; & # o o o o   X o # 5 ; ; # # ; - - - ; - # # # # # # & # % % & # & # # # X # # 5 # w Z q p V N N q 0 w w 5 5 = 5 w w w N Y Y Z N B s 6 1 5 & & 5 o = X X # K 0 @ = Y q.q.4.H w U X.&.*.1.6X'.5 o O , c % e e T _ p.p.p.W W W _ T T T T T T T i T T T T T T Q P &.*.=.v..X.X.X:X;X:X0X5XfXhXNXNXVXVXNXNXhXfX5XfXqX5X0X<X<X,X>X,X5XqXfXfXhXhXhXfXfXfXqXqXqXqXqXqXqXqXqXfXfXfXfXfXfXqXqXqX5XqXqXqXfXhXNXVXVXVXZXZXVXVXNXMXMXfXqXfXMXMXfXfXfXqXMXNXZXNXMXMXqXqX1X0XqXqXqXqXqXqXqXfXNXZXSXSXSXSXZXZXZXVXMXfXfXqX5X5X5XqXfXfXfXhXhXfXfXfXfXfX9X5X0X1X0X1X3X3Xv.*.&.>.*.*.&.&.U J u e e e i R R R i i g u : .   O                                 X o     X X X o X . . o o X X o X X X X X X o o o o o o o o o o o ",
"7 t t t t t y y y y y s s y y y y y y y s y y y y y y s B d s u d d y y y y y y 7 u f h ^ ^ h h h f D h h h D g u s f y y 7 q s B y y y s t 7 a f 1.uXq.H D ,.A.UXcX9.K 7 j F.CXq.C q d 4.>.A q B y y y 7 7 7 7 7 7 7 7 7 u t 6 f h h h h D D f t 7 7 7 6 7 7 6 7 7 7 7 7 7 7 7 t t t t t t t t t t u t t t 7 7 7 7 7 7 7 7 7 7 y y t 7 7 7 7 7 7 7 t t t t t t 7 7 7 7 7 7 7 7 7 7 7 7 7 7 y y 7 7 t y t 7 t t t t t y y y y y 7 7 7 7 7 7 7 7 7 7 7 7 7 6 7 t s s d d d u y u B d y y y d f d u f d d S h j Q | | } ' E } } / ) ) ~ ~ [ [ Q ' ,.,.~ ! ! D ! ( H d s B B d B 0 7 y y d d B S S V F ] ( d y d H J s d V s t q w q 7 6 6 6 7 q y q y y y y y y y y y y y s y y y s y y s B B B s d s d S H S S J h h D ^ ^ ^ ! ^ D h S S J J S g ( H ( ~ ! ] [ [ ^ D H h ' ^ ~ ~ ! ( ~ ~ ) [ [ ' [ ~ ^ ~ ,.,.,.<.f.d./ / Q [ h Q ^ } ^ <./ | | / <.' ' d./ } f.' ' <./ | ) ! H S J s 7 s V F F ( ! S d d S ! ~ [ ~ ^ ^ ^ ~ ^ D u % : d d t 7 w q q w 0 0 w w w w b N N q 8 8 8 4 z k k 8 3 , , , # B w.iXJXDXDXJXJXLXLXLXJXDXJXHXJXHXyXz.SXSXSXJXJXBX5XDXjXh.j j D D g f G S H d ( F y t 6 6 B N y 7 6 t : o ; = # ; 5 5 w 0 q q 6 ; # X X + X     X o # # 5 5 ; ; ; ; ; ; - # # # # # # # # # # o 5 o & 5 X o X 5 5 5 s p s N s s p w 5 w w w w q w 5 w s 0 5 q q 6 5 ; & & ; & 5 5 X o   @ K z @ 0 I 9.S.y.] r % U ;.P S z.c.X l N , @ 8 * e T _ W p.p.p.p.W W _ T T T _ T T T e i T T T T _ Q U &.=.1.).+X.X;X;X;X:X>X5XfXMXVXVXZXZXVXVXVXVXVXNXqX<X:X;X;X;X}.;X;X;X:X:X:X:X:X:X:X0X0X0X0X5XqXqXfXfXNXNXNXNXhXfXfXqXqXqXqXqXqXqXqXhXNXNXVXVXVXZXVXVXNXNXMXfXqXfXfXMXfXfXfXfXMXMXVXVXNXMXMXMX5X0X0X;X0XqXqX5X0X:X.X.X:X3X9XfXMXMXfXfXfXfXfXfXqXqXfXfXfXfXfXhXhXMXfXfXfXfX9X5X0X5X0X1X1X3X[.=.( *.*.&.>.&.U H u e e e T E R i i r u r %     O                                 X o o o # & & o o .   X o X X X X X X X X X X X X o o o o o o o o ",
"7 7 t t t t t t t t t t t t t t y y y t y y y y y s y d d y y u d y t t t t y y y t u ^ ) ^ Q ^ h h Q D D h ~ h d f d d d y t s t t d s u f f f ` _.e.H f { 4.@XUX=X#.b f e.bX_.Z A s 4.uXy.A l s y y y q 7 q 7 w 7 7 7 7 y y t t f g h g g J S t t 7 7 y y y t 7 7 7 7 7 7 7 7 t t t t t t t t t y t 7 7 t y y 7 7 7 7 7 7 7 7 t y t 7 7 7 t 7 7 7 7 t t t 7 7 y 7 7 7 7 7 7 7 q 7 7 7 t t t 7 7 7 t t 7 7 7 7 t t t t y y q 7 7 y y y y y q q t t 7 7 7 t t u d s d d d d y s t y s d d u u d d t u u u f g h ' } } / E / ' E ~ ~ Q ^ ) [ ^ } | | ^ ! D D ! ( S d d J S u d s d d B S H ( ( ( F 7 y y t B F ( ( d y d s s s q q q 7 6 7 7 y y q q q y y y y y y s s y y s s t y y y d B B B s d t s S J S S S g h ! ] ' ~ ^ ^ D D J H ! H J S d d S D D ~ ^ [ Q D H h [ ~ [ [ ~ ! D ^ ^ ~ ~ ^ ^ ) [ [ ~ h ) <.3.} } R R R h h h Q Q ^ Q [ } R ,.} ' <.' } g.' }  .<.g.' h ! G V t 7 s s s B F ( U S S J H ~ ^ [ ^ Q ~ ' [ [ [ S ! ! d t y s N B q q 0 w 0 0 w 0 l l q 0 k z z k b k 8 8 4 , ,   s w.pXJXJXJXHXJXLXJXJXJXBXBXSXpX@X4XSXSXSXBXJXHXVX,XjXjXhX| i * h ,.h g B S J F S d y 6 7 s s 7 7 d d ; & o - 5 5 5 5 5 5 5 6 7 w ; X   X + X X O o o # 5 5 5 ; ; ; ; ; - # - # # # # & # # # o & o & 5 X # # q 7 N V ; 7 p w 5 5 ; # 5 w w w 5 q w 5 5 # X # # # o o ; 5 & ; # @ 3   @ A K 8 8 A -.q.>.4.*.( ( >.b :.7Xl.: C C q U @ + * e T W p.p.W p.p.W W _ T T T T T T T T T i T T T _ Q U *.:.1.[.+X|.;X;X;X:X0X5XfXMXVXVXVXVXVXVXZXSXSXVXVXNXfXqX,X:X|.|.;X;X;X;X:X:X:X:X:X0X0X0XqXfXMXNXNXNXNXNXNXNXfXqXqXqXqXqX5XqXqXqXqXhXhXNXVXVXVXVXVXVXNXNXfXqXqXqXfXMXMXMXMXMXMXMXNXVXZXVXMXMXMXqXqX0X0X0XqXqXqXNX9X3X:X.X.XXXXXXX;X:X0X0X0X5XfXfXMXVXVXNXVXVXNXNXMXfXfXfX9X5X0X5X0X1X0X3X{.1.( *.*.] &.+.U ( u e i e T E R R i r u 6 o   X O   X                         . o X o o o & & # o o .   X X X X X o X X X X X X X X o o o o o o o o ",
"7 y y y t t t t t t t t t t u t u y t t t y y y t y t t t t t d d u t t t u y t t t u D ~ ^ ^ ^ h Q ^ ~ ^ ^ ~ h f u t u u s d d d f u u g t > J N.:.J s e.e.@XbXe.:.U N ] OX4.V Z y B 4.*.s y c y q y y 7 7 7 7 w 7 7 6 6 t t 7 t t t u u u d t 6 t t 7 7 6 6 t 7 7 7 7 7 t 7 7 7 7 7 7 7 7 t y t t 7 7 7 y y 7 6 7 7 7 7 6 6 6 6 7 7 7 7 7 7 7 7 7 7 t 7 t 7 7 y 7 7 7 7 7 7 y 7 7 7 7 7 7 7 7 7 t t t 7 t 7 7 7 t t y q 7 q t 7 7 7 t y 7 7 7 t 6 6 7 7 t t t y y y d d d y y f d s 7 s s u u u u d u d u u Q [ } ' ' ^ ' [ ^ ^ ~ ^ R / ' / / | } ^ ^ D D H H S d d S D ! H S S F U H F G y y B y y t s d S ! ( d 6 y y y y y 6 6 6 6 7 7 y y q q y y y y y s q s s y 7 y s 7 y s s d B B B s s s d d S J H J J g D ) ] ~ ^ ^ D D D J H D S d F G S S g ! ~ ,.] Q D ! ^ [ ' ! ~ ! D D D ^ ~ ] ] [ ~ [ ! h ~ ,.3.| } R ^ Q Q j f d g h u u ^ R ^ R Q ' E / d.E / s.x.f.h Q D G V y 7 q q 7 6 7 y F V U H D ~ [ ~ ^ ^ ^ ~ [ [ [ ( [ ( u 6 s Z P A N s q q q q 0 q l l l q k l b k z 0 8 k 8 , # ; S z.BXJXJXHXDXSXJXJXLXDXBXDXSXgXSXJXSX:X<.aXSXJXVX,XjXjXsX<.$ r z.9X[ g u U B S ( ( S y y s 7 7 6 d d ; & # ; 5 ; 5 w 5 5 5 5 q q w #   X X X o o o o o # ; ; ; ; ; ; ; ; - ; & & # # # # # # # # % # % & ; w ; ; s 7 w 5 5 5 ; ; ; # ; ; ; # X # 5 5 = ; 5 5 ; 5 ; # 5 ; o # X @ @ @ l I @ 4 4 :.(.q.] y.).c.*.B 5 ].&XS B z < X.q.1 $ e e T W W W W W W _ T T e e T T T e e i i e T T T _ ! ( *.*.1.|..X|.;X;X:X:X5XfXfXNXVXVXVXVXVXZXSXSXZXSXZXZXVXhXhXhXNXhXhXNXVXNXMXfXfXNXNXNXNXNXNXNXVXVXNXNXNXVXVXNXfXqXqXqXqX5X5XqXqXqXfXhXNXNXVXVXVXVXVXVXNXNXfXqXqXqX9XfXMXMXMXNXfXNXNXVXZXZXZXZXNXNXfX9XqXqX5X0X0X0XqXMXfXfXfXMXfXqX9X9XqXfXMXMXNXVXVXVXVXZXZXZXVXNXNXMXfXfX9X5X5X5X0X0X0X3X.X5.( *.&.] &.+.U U u i i i i R R R h r u 6 o     X   X X           X         o . . X & & & o o o o o . . X X o o X o X X o o o X X X o o o o o o o # ",
"q y y y t t t t t t y y s y u u t t t t t t t y 7 t t t t t t d d u t t t t t t t u u g ^ Q ^ D h h ^ ~ ^ ^ ~ h d f d B d s s u u f u f u J e.%Xq.J S N.OXF.@X{ 1.:.Y p V ] V s 6 t S U Z 6 B B y y s y q 7 7 7 w 7 7 6 t 7 7 7 t t t u r r u t t t 7 7 7 6 7 u 7 7 7 7 7 t 7 7 7 7 7 7 7 t t t t 7 7 y y t 7 7 7 7 t t t t t t 7 7 7 t y t t t 7 7 7 t t 7 7 7 t 7 7 7 t 7 7 7 7 7 7 7 t t y y 7 7 7 7 7 7 7 7 7 t y t 7 7 t t t t t t y t 7 7 7 6 7 y y y t y d y y d d d y y t s s s s s y u t d d d f u u h ~ ~ ^ ^ ) [ [ [ ~ ] ) ~ ' | | | | ' ^ Q D D D J S s d ! ) [ *.*.*.( S y t y y y y s y y d G S D ] G u y s y y 7 7 7 7 7 7 7 y y y y y 7 q q q y y q y y 7 t s 7 y y s s B B B B d d d d d J H H S S ( { ~ D D ( ~ ! D H H J S S F B S H H ) ,.,.^ Q D ( D ] ^ ! D D J D S J D D ( ~ D ! S g R [ f.<.^ Q [ } [ Q D g f J D ~ ^ ^ / Q R ^ Q R '  . .H.x.R Q ! H H d 6 t y y y q 6 6 t 7 B J J ~ [ ~ ~ ~ ^ ^ ^ h ~ [ =.[ S d s A A A N N s q q q 0 b q q q q k l b k k 8 8 0 w 5 # # S A.BXJXJXbXgXDXJXJXJXJXDXDXSXDXgXSX:Xs.n.>XDXDXjX<XhX<X .R z.fX4Xg.^ f u B y d S S t : 7 y y s 7 s s 7 X X # ; ; ; 5 5 5 5 5 5 q q ; X   X X   O O X X # 5 5 ; ; ; ; ; ; ; ; & & # # # # # # & o & # # & 5 6 X ; 7 ; ; # o X # = ; ; ; ; = ; 5 ; 5 w 5 5 5 ; 5 5 ; & # # # #   #   b K , , , X.(.W.&.=.q.y.c.:.F S.c.7 b I k 7.~.c.: $ e e T W W W p.p.W W _ T e i T T T T e i T e i T T _ ! *.:.*.4.|..X|.;X;X:X0X5XfXfXhXVXVXVXVXVXVXZXZXVXVXNXNXhXhXfXfXfXfXfXhXVXVXVXVXVXVXNXNXNXNXNXVXVXVXVXVXVXVXVXhXfXqXqXqX5XwXwXqXqXfXfXhXNXNXVXVXVXVXVXVXNXNXfXqXqXqXqXqXfXMXNXNXfXMXNXVXZXZXIXZXVXNXNXNXNXNXfXqX9X5X9X9X9XfXMXMXMXNXNXVXVXVXZXZXZXZXZXZXZXZXZXZXZXVXNXfXfXfX9X5X5X5X0X0X0X3X.X5.*.*.&.&.&.&.U H u e e i i E R h h u u % X         X X         X X       o . X o o & o X .     . o o o X X o o o o X X o o o o o o o o o o o o o o ",
"q q y y t t u u u u y u u t t r t t t t t t t t t t t t t t t y d u t 6 : 6 t u t u u h ^ h Q D h h ^ Q ^ ) ) Q J S S B y y s 7 u f f f h _.vX:.f s U S.{ 6.] f 1.` p Y F S t s 7 f H V q s q q y c B y q 7 7 t 0 w 7 6 t t 7 7 7 6 t u t r d u t 7 6 7 t 7 6 6 7 7 7 7 7 7 7 6 6 6 7 7 t t t 7 t 7 6 7 t 7 6 t t t t t 6 6 t t y 7 6 7 7 7 7 7 7 7 7 7 7 7 7 7 t t t t t t 7 7 t t t t t t t t 7 t y t 7 7 7 7 t t t t t t t t t t t t t t 7 7 t 7 7 7 7 7 y y d y y y d s s s s d s s s y y d u u d d d d f d H g ) D ! ~ ^ ! ~ ~ ^ ^ ^ ' | <.| / ^ ~ ! ! J H V d d S ~ ] ( B u u d u t y t y y B H J d g ! S ( H d y d B s 7 6 6 6 6 7 7 y s t y y y y y q q s 7 7 s y y s s y y y s s B B B d s s d f V J J S J ! ! D h D ! D D J S g f d S F S S d ! ! ^ R h ~ ! ( ^ ^ h D ~ g g S H H J H H d S S D g g / f.<.' ) / ) ,.^ f d d f ! ,.[ ) } / ' ' ~ } d.x.x.g.' h [ S F J y t B N s y y 7 6 7 6 7 S ( ( ' [ ~ ~ ' [ [ h Q [ *.[ S d y B A V N N s q q q q A N q q l 0 0 l l 0 q 0 5 5 w # & D H.yXSXJXDXSXSXSXDXJXDXDXgXgX5Xf.' / E n.hXDXDXjX<XdXh.E i 4XSXH.i e h u B B d s t 7 t t 6 y 7 7 7 s 7 o & # # # & ; 5 5 5 # - w q 5 o X X X O # # o o # = # - ; ; ; ; ; ; ; & & # # # # # # # # o & % o 5 & X q s s ; ; ; # - ; 5 5 5 # # 5 # 5 ; # ; 5 # w 3 # 5 5 # # #   @   w K 3 b Y I t.(.7.:.&.&.+.&.q. XbX:.b I x 7.#X~.c.$ e e e _ W W W p.p.T T _ T e T i T T T e i i e T _ _ } *.*.1.*.4..X.X|.;X;X:X0XqXfXhXhXVXVXVXVXVXVXVXVXVXNXMXfXhXhXfXfXhXfXfXhXNXNXhXhXhXNXNXNXVXVXVXVXZXVXZXZXVXVXNXfXfXqXfXqXqXwXwX5XqXfXhXNXNXNXVXVXVXVXVXVXVXNXMXfXqXqXqXqXfXMXNXNXfXNXNXVXZXZXZXZXZXZXVXNXNXNXNXZXNXNXNXNXNXNXVXVXZXVXZXZXZXZXZXZXZXZXZXZXZXZXZXZXZXZXVXMXfXfXfX5X0X5X5X0X0X3X.X5.=.=.&.&.+.&.X.U u e e i R E / i i u :             X X X         X   o X X X o o # X .         . o o o X X X X X X X X X o # # # o o o o o o o o o ",
"y t t t u u 6 t t r u t t f t t t t u t t y t y t 6 y t t t y y 7 6 6 t 6 6 t d u u u j ^ h D D S g h R ^ ^ ^ ^ h g G S s t f d f r f ! 4.=.J d s ( 4.H { ] f J ] V &.Y U N q y r s J Y q N b p s s y q 9 q t 7 7 7 7 6 6 7 t t 7 t t d u r d u t : : 6 6 6 6 7 7 7 7 t 7 6 6 7 7 7 t t t t t 7 6 6 6 7 7 7 7 7 t 7 7 6 6 7 t t t t t 6 6 6 6 6 7 7 7 7 7 7 t 7 7 7 7 7 7 7 7 7 7 7 7 7 7 7 7 7 7 7 7 7 7 t 7 t t t t 7 7 t t t 7 7 t t 7 7 7 7 7 7 7 7 t t t y y y s s y y s s s s y s s y y y y d d d s d d S J ! ~ h D [ ! D D ! ~ h h ~ ) ,.,.~ R ^ ^ ~ H J g d d d ( ( J u y B y y S ( S S d J J f d H J G H ( d s d y s 6 6 7 7 7 7 7 y y y y y y y q y y y y y q 7 y y y y s y d d d s s d s d B V S J J ( H J ( H D S D ( ! D h g g d d B B V B g g h h D h J H ( D h h ! S g H ! J S H g d S S S d g h ^ [ [ [ ' ^ ~ ' u u u u g ~ ) ,.| } } | ' | A.x.} Q Q S H H J B s s s s s y y 7 t y 5 6 7 B ( ~ ] ~ D ~ ! ^ h h ! ~ ! f t s q q s s q N N q q q N q q q b q 0 l b l 0 w 0 0 8 1 ; ^ J.yXJXJXJXHXBXyXjXyXyX4X4XJXSXJ.A.yX5XZXVXSXSXhXR.k.<.5.D.gXVX<Xa.R / u B U J V t : : 7 6 y 7 7 ; 7 7 # # X # & 5 5 5 5 5 # # - ; ; o X         o # ; # # # ; # ; ; ; ; ; ; & # # # # o # # # o # #   & & & 6 ; 5 6 5 ; ; ; ; ; ; ; ; ; ; ; & # ; 3 5 5 = # 5 , @ , 3 # X     q U b A U A r.^.9.#.#.U A U &.1.1.  3 L k ;.#X(.c.(.* e i T T p.W W W W T T _ T T T i T T T e i Q 2.f.b.v.v.l.2.*.*.5..X|.;X|.;X:X5XqXfXhXNXhXVXVXVXVXVXVXVXNXhXNXNXVXVXNXNXNXNXVXVXVXVXVXVXVXVXVXVXZXZXZXZXZXZXZXVXVXVXhXhXfXfXfXqX5X5X5XqXqXfXNXNXNXVXVXVXVXVXVXVXNXNXMXfXqXqXqXqXqXfXNXNXMXMXNXNXNXVXVXZXZXZXZXZXZXVXNXNXNXNXNXNXNXVXVXVXNXNXNXNXVXVXVXZXZXZXZXZXZXZXZXZXZXVXNXMXMXfXfX9X0X5X0X0X1X3X%X5.,.=.*.*.&.&.+.( u e i i i / / h r 2 % .             X X X     X X X X X o X X X o         . o o X X X X X X X X o o o o o o o o # # # # # # # # # ",
"y y d u r r t d f t t u u d u u r t t : 7 y t y t t y t y t t 7 7 6 6 6 6 6 t d t u r j Q h D D D D Q h Q ^ ^ h D D G d y t f f u f ( =.] V s d s J d h =.d f ] ] V Z U ] N q w t 7 Y Z A y w A A N y q q q 7 7 7 7 7 7 7 7 t t 7 t t u t t d u t : 6 6 6 6 6 6 7 6 7 7 7 6 6 6 6 7 7 t t t 7 7 6 6 7 7 7 y 7 7 t 7 7 6 6 7 t t t t t 6 6 7 t 7 7 7 7 7 7 7 7 7 7 t 7 7 7 7 t 7 7 7 7 7 7 7 7 7 7 7 7 7 7 7 7 7 t t 7 7 7 7 7 t 7 t t 7 7 7 7 7 7 7 t t t t t t y y s s s y s s y y y d d y y d y d d d d d d S J H ! D ! ] D S H D D h h D h ^ [ ~ D Q D ! H J d d d d ! [ ! S S G d J H J G d d S J g f D H G J ( d u d s y 7 6 6 6 7 7 7 y y y y y y y y y y y y y q y y s s y s y d d d s s d d d B V S S S S S S g g D S g J D S h d d d d S V V d S S D D S J h D D ^ D ^ J S S H H S g g d d S B V d S S j R R ^ ^ ^ ^ Q d u t d S D ^ ,.^ ' } / <.<.f.<.R R ^ ! ( S S s y 7 7 7 7 y B V y B V V y t S ! ~ ! D ! ! ! g g D D D u t q q c s s q s N p N A A s p q q 0 0 l l l l q q q w 1 7 ~ H.:XDXJXJXDXVXsXdXjXDXaXSXSX5XH.HXSXJXZXpXJXJXdXL.W  .) H.gX,Xj.K.;X} G y N s s s 6 : : 6 w 7 s ; 5 7 ; ; X o & ; ; 5 5 5 5 - o ; w - X # w o X X X # ; # # # # ; ; ; ; ; ; ; ; & # # o # # o o #   & N B 6 6 ; ; 5 ; ; ; ; - - ; ; = ; = = ; # o # # # # # @ 3 , #   @ 3 # K &.q U >.P u.(.q.U #.` Y Y y B t   X O O X.Q.].y.(.1.$ i T T _ p.W T _ W W W _ T T T T T T T T 2.H.;X0X3X.X.X{.l.[ ( 5..X|.|.|.;X:X5XqXfXhXhXNXVXVXVXVXVXVXVXNXNXNXVXVXVXVXVXVXVXVXVXVXVXVXVXVXZXZXZXZXZXZXZXZXZXZXVXVXVXhXfXfXfXfXqX,X5X5XqXfXNXNXVXNXVXVXVXVXNXNXNXNXNXNXfXqXqXqXqXqXfXNXNXNXMXNXNXNXNXVXZXZXZXZXZXZXZXVXVXNXNXNXNXNXNXNXNXNXNXNXNXNXNXNXNXVXVXZXZXZXZXZXZXZXVXNXMXfXfXfX9X0X0X0X0X0X3X%X5.,.=.*.*.+.+.+.+.B e e e i / ^ i r o .                 X       X X o X o o X .             . o o X X X X X X X X X X o o o o o o # # # # # # # # # ",
"y 7 7 t t u r i u j f f u u t u f f t t t t t r t t y 7 t t 7 5 6 6 6 : : : t u y u f Q Q Q Q Q h D h h h ^ D h j g g d d d u t d =.*X(.J p d s N V S d f > d e.4.q s U s w 7 p ; s N A U P A A Y A q q q 7 7 7 7 7 7 7 7 7 7 7 7 7 t y t t d u t 6 6 6 6 6 6 6 7 7 7 7 7 6 6 6 6 6 7 t 7 7 7 7 7 7 7 7 7 y t t t 7 7 6 6 t t t t 7 6 6 7 7 t t 7 7 7 7 7 7 7 7 7 7 7 7 7 t 7 7 7 7 7 7 7 7 7 7 7 7 7 7 7 7 7 7 7 7 7 7 7 7 7 7 t 7 7 7 7 7 q y 7 t 7 7 7 t t t 7 y s s s s s s y y s d d d B B B V B B B d d S D D D h ! ~ D S J G S S h h h h Q ^ D D D ! H J d s B S ! [ ( S f H =.( S : d D S ! H f S H H H d ( U d d s 7 7 6 6 6 7 7 7 y y y s s y y y y s 7 y y y y y s s s s s d d d d s s s s s s d d d d d S S S S H ! ! ! H J D S S d S S S S J D ! ^ D D D ! D ! ! H H J J H J S S S d d V B B B F S g h h ~ ^ ) ^ j t d d f g h ~ ,.E / | / <.<.E R Q ^ Q D H F J t y y s s V V B B s s V V y 6 d H g g g H ~ ] ! h g h D g s y q s q N s A A N N A A N N q q l q l q q q 0 w 8 w 5 2 ,.oXoXBXJXLXHXgXsXDXDX>XJXDXK.' >X+XSXOXw.).HXSXdXR.R.H.j z.sXK.k.wX<XR r y V f f t ; % : w s 7 s 7 ; ; ; o o & ; ; & 5 w w 0 7 = - - ; w q 5     X o o o o X # o - ; ; ; ; ; ; ; ; # # # # # # X   # q ( B 5 & o o # # # # # # # # # # # # # ; # # = # # # = = #   @ 3 O O X.`.q U &.U q.(.q.-.U ` ` &.q ] _.H # 3 k X.-.C -.u.).=.r T T T _ W _ T W W W _ T e i i e i T T 2.XX5XqXqXqX0X3X:XD.[ ! 2.:X|.|.|.:X0XqXfXfXfXhXhXNXVXVXVXNXNXNXNXVXVXVXVXVXVXZXVXVXVXVXZXZXZXZXZXZXZXZXZXZXZXZXZXZXZXZXVXVXhXhXfXhXqX5X,X5X5XqXfXNXNXVXVXVXVXVXVXNXNXNXNXNXNXfXqXqXqX9X9XfXMXNXNXNXNXNXNXNXVXZXZXZXZXZXZXZXZXZXVXVXVXNXNXNXNXNXNXNXNXNXMXNXNXNXNXVXVXZXZXZXZXZXVXVXNXNXMXfXfX9X0X0X0X1X5X3X%X5.1.1.=.*.&.&.+.( g e i e i / ^ r %                               X o X X . .             X X o o X X X X X X X X X X o o o o o o o # # # # # # # # ",
"y 7 q y u r i R <.}.oXx.,.[ [ ) ^ j u f t f [ =.H V s s u t s y 6 6 6 : & : 6 : u u g / / ) ^ R h h h h D ^ h h f D D B s t d D z.%Xq.V a f a J q.:.U d s f d H F N V J s s s 7 p V Z J ( =.U Y Y N q 0 q 7 7 7 7 7 7 7 7 7 7 7 7 7 u y t u s t 6 : 6 6 6 6 6 7 7 7 7 7 7 6 6 6 6 6 7 7 t t 7 7 7 7 7 7 7 y t t 7 7 7 7 7 7 7 t 7 7 6 6 7 7 7 7 t 7 7 7 7 6 6 7 7 7 7 7 7 7 7 7 7 7 7 t t t 7 7 7 7 7 7 7 7 7 7 7 7 7 7 7 7 7 7 7 7 7 7 7 t y y 7 t 7 7 7 7 7 7 7 y s s s s d d s s s d d d B V S S S V V V d S S g D g H ! D D J S d S d f D D D ! J h D ! D G B d d s G ( ] S D g S u u g J D H ! ( H g D ( ( S H J t y B 7 7 7 7 7 7 6 7 7 y s s y y y y s s 7 y y y y y s s s y y s s s s s d s s s d s d B d d S S S d S H S S S d G S J G S S J J H H ! ! ! ! ~ ! H h S D J J D S S S S S d S S S V V F S D D ~ *.~ ~ ~ Q g f f u ! h ~ ,.E ' ' / | <.E R ~ ~ ^ ! S F S s B d s s B B s y s 7 y y y t d F d g ! { [ ( ! D D h ! D d s q y s N N A A N A Z A N N b p b q q q q 0 w w w 5 5 u 3.>X>XrXBXJXJXgXjXDXjXDXDX:XG.<XH.~ [ & F '.DXSXhXtXh.}.pXJXaX<XC.L. .e t B V V f u t t s 7 q q q w ; ; #   o & ; ; ; 5 w w 0 5 ; = o X 5 q # O X X o # # o   X X # ; ; ; ; ; ; & & # # # # # 5 o o 5 A &.& # o X # ; ; - - # # # # # # # # # 5 = # # o @ o @ X   # , @ 0 &.q.U U i.&.*.w.q.&.U -.#.U b 4.OXe.X # k k o.r.;.#.(.(.v.e T _ T T _ T T W W _ _ T i i e e e T 2..X0X|.0XhXqX5X9X9X.X2.~ 2.:X|.|.|.:X0XqXfXfXfXfXfXhXNXNXNXNXNXNXVXVXVXVXVXVXVXVXVXVXVXVXVXZXZXZXVXZXZXZXZXZXZXZXZXZXZXZXZXVXVXhXhXfX5XwXwXqX5XqXfXNXVXVXZXZXZXZXZXZXZXZXNXNXNXMXqXqXqX9X9XqXfXNXNXNXNXNXNXNXVXVXZXZXZXZXZXZXZXZXZXZXZXVXVXVXVXVXVXZXNXNXNXNXNXNXNXVXVXZXZXZXZXZXVXVXVXNXMXfXfX9X0X0X0X1X0X3X%Xw.1.=.1.=.*.&.>.*.g e i i j ^ g $ .     X X                         X X                 X X X X X X     X X X X X X X o o X X o X X o # o o # # # # ",
"6 7 6 7 f j E  .<XhXsX;XG.h.g.d.<.} ^ h h Q ' [ H d d d u H U q 5 6 6 ; : : : ; t r R ' ' [ ~ Q Q ^ Q D Q ~ h h h D S d y t d ! ] g s s a h H OX'.:.] ] f f V H U N V d s N q V Y N.Y V B J d U Z N q q q q 7 7 7 7 7 7 7 7 7 7 6 6 u u t u y 7 t 6 6 6 6 6 6 6 7 7 7 7 7 7 7 7 6 7 7 t 7 7 7 7 7 7 7 7 7 t t t t 7 7 7 7 7 7 t t 7 7 6 6 7 7 7 7 7 7 7 7 7 6 7 7 7 7 7 7 7 7 7 7 7 7 t t t 7 7 7 7 7 7 7 7 7 7 7 7 7 7 7 7 t 7 7 7 7 t t t t y 7 7 7 7 7 7 7 7 7 t y y s s d d s s s d d d d V S S S d V d d B d S D D ! ~ H D J S V S d d D D ! ! J g g D D S d y t t d H ] S g D f [ ! ! H S g g g ~ *.( D H ! D H S y y 7 q 7 q q 7 6 7 q y s s y y y y y y y y y y y y y s s y y s s s d d d s d d B B B B B B S d S S G d d S G d S H ] ( ( J J J ( H H S ) ~ ! H g g g S S S S G S F S B g S G D S S J F S D ~ [ D R ~ [ ! ~ Q g [ ,.} } / } | E | <.E E [ h ~ ( S S S V B B s y s y y y y 7 y y y y s V d g { 4.| h h ! ! ! ^ S u 7 q q N A N V A A A P A A A b p b q q q w 0 0 0 w 5 5 d z.dXVXgXgXHXLXJXHXBXDXSXVXh.tXhX<.r u U U %XHXHXVX<.g.SXSXDXDX<Xj.h.E e u s 7 V t t u f y 7 5 w w 7 ; ; ;   o X # & 5 w w 5 5 5 - = ; ; ; y 5 o o o o o # # o o   X # # ; 5 5 ; & ; - # # # # # 5 5 # P Z # X ; # ; 5 ; ; ; # - # # # # # # # # # # # 5 w = X X 5 w 3 3 n :.-.N :.U ( e.1.&.U X.X.#.A -.nX_.%   3 4 L -.7.r.r.y._.l.e T _ _ T _ T T W W T T T e i e e i 2.[.1X|.s.n.qXqXqXqXqX9Xb.) 2.+X;X|.|.:X0XqXqXfXfXfXfXfXhXhXNXNXNXNXVXVXVXVXVXVXVXVXVXVXVXVXZXZXZXZXZXZXZXZXZXZXZXZXZXSXSXZXVXVXVXhXsXqX<X<XwXqXqXqXfXVXVXZXZXZXZXZXZXZXZXVXVXNXNXNXMXqXqX9X5X9XfXNXNXVXVXVXVXVXZXZXZXZXZXZXZXZXZXZXZXZXZXZXZXZXZXVXVXZXZXVXNXVXVXNXNXVXVXVXZXZXVXVXVXVXVXNXfXfXfX9X5X1X0X0X1X3X+Xl.1.>.1.1.=.&.+.( g R R R h g : . +       X X X               X     X     X X         X X o X X X X o o X X X X X o o o o X X o X o X X o o # # # # ",
"u d d u j j E d.j.h.h.j.j.d.a. . .<.} [ ,.[ ^ j S u u t u ! ( w 5 5 6 : : 6 : : r f ~ } ~ ^ ^ ^ ~ ] ~ D D ! h g D S d d s d S H h f 7 V ] | {.F.e.&.d f f d U ` K y V 4.1.V P J 4.q.V ] w.*.4.>.N s q 7 q q 7 7 7 7 7 6 6 6 7 7 6 6 y y t y y 7 t t 6 7 7 6 6 6 7 7 7 7 7 7 7 7 6 7 7 t 7 7 7 7 7 6 7 7 7 t t t t 7 7 7 7 7 7 t y 7 7 6 6 6 6 6 7 7 7 7 7 7 7 7 7 7 7 7 7 7 7 7 7 7 7 t 7 7 7 7 7 7 7 7 7 7 t 7 7 7 7 7 7 7 t t 7 7 7 t y t t 7 7 7 7 7 7 7 7 7 7 7 t y y y s f d d s s d d d B d S d d d d d d d G S g D ! D D J S S S S S S S ! D H D D D H S d s B B S ( *.! g f ( ! D ! D ] ( ) ] ~ Q ! ~ D ~ ! ( G y V V y 6 6 7 7 6 7 y y B s y y y y y y y y y y y y y s s y y s s y s d s s s s s d B B B B B S J J S S S J J d f S J H ( ( ( ( ( ( ! ! ( ~ ! g D D D g S S S G S S S d g h g D J J J D S S H ] h j ^ ,.) ) ^ ) } <. .| <.| <.} | <.} <.3.) *.! S S F B S B B B B B s y y y y y 7 s B N f f ] | ] h h D J D H d t q q q s V A A V s N N A N N q q p q q q 0 w w w w 5 5 J D.fXjXjXBXJXJXLXDXDXSXdXJ.hXdX' j ~ ( F *.DX+X>XaXgX{.BXJXHXHXSXDX,X} j u d : d : : : ; ; ; 5 ; w s ; ; 5 # X X # # # 5 w w 0 q 5 5 ; w w N 5 X o o # 5 w w 5 o   o o # # ; ; ; & & ; = # # # O w o N U 5 # # 5 ; ; # # # # # # # # # # # # # # # ; # X   X   o @ ,   k -.:.#.q.>.] 1.4.( *.&.&.U C n kX'.0   q C L $.$.U &.:.:.e.2.i T _ _ T T T T T T T T e e i i e ) XX0X;Xn.}  .;XqXqXqX5XfXH.) 2.:X;X|.|.:X5XqXqXfXfXfXfXfXfXhXNXNXNXVXVXVXVXVXVXVXVXZXZXVXVXZXZXZXZXZXZXZXZXSXSXZXSXZXZXSXSXZXVXVXVXhXsXwX;X;XwXqXqXqXfXVXZXZXZXZXZXZXZXZXZXZXZXVXNXNXMXfXqX9X5X5XqXfXfXVXVXVXVXZXZXZXZXZXZXZXZXZXZXZXZXZXZXZXZXZXZXZXZXZXVXVXVXVXVXNXNXVXVXVXVXVXVXVXZXVXNXMXfXfXfX9X0X:X0X0X1X9X.Xw.2.*.1.q.1.&.( ! G ) ^ h u r %   X X         X             X X     X X X X X X       X X o X X X X . . o X X X o o o o X X o X X o X X X o o # o o ",
"d f g j j E  .h.h.j.a. . .d. ./  ...} Q h h h ~ Q u r u r u t ; 5 5 5 5 6 6 6 6 : u ^ ) ^ ^ D D ~ ] ~ D Q Q g u g g g d t s S H f a V =.5.J.@XS._.J f r J { 4.4.K Z V ] :.Z A U e.4.V e.S.&.] Y s s q 7 7 7 7 7 t 7 7 6 6 6 7 7 7 6 u u t d y 7 t 6 6 6 7 6 6 6 7 7 7 7 6 6 7 6 6 7 7 t 7 7 7 7 7 7 7 7 7 t t t 7 7 7 7 7 7 7 7 t t 7 6 6 6 6 6 7 7 7 t 7 7 t t t 7 7 7 7 7 7 t 6 7 7 7 7 7 7 7 t 7 7 7 7 t t 7 7 7 7 7 t t t t 7 7 7 t t t t t 7 7 7 7 7 7 7 7 7 7 7 t t y f f d d y d d d d B d d d s d d d d B S g g D D D D g d S d S D D ! ~ D D D D D D g y y y s d S ] ! d g g D [ [ =.H D D Q ~ ] ^ ! ] ) ,.5.*.V s s 7 6 6 7 6 6 7 y s s y s y s s s s s s s s y y y y s y y s s s s d d s s s d B B B B B B J S d d S F H J S d B S F H H U H ! J ! ! ! ~ ! h ! ! H D J S S S S g f d d d g ! ! J J S S S J ] Q f Q [ ^ } / ' ) } } | d.d.} <./ R } ,.[ ) ,.] D S F S F F V B B s s s s s 7 t y s V s B y J ~ ^ h g t u g D S s s p N V Y Y Z B s q w s q q q q q q p q 0 w 5 3 = ; 5 ] }.hX<XG.>XSXJXJXDXgX<XK.hXSXH.e ^ ! ! B :.+X5.5XSXgXH.+XHXHXJXSXSXhXd.i D G f 7 ; 7 t : : 6 ; ; w y 7 ; w 5 o # # + o 5 0 q l 5 7 7 - - - q ; # X   # b Z b = X   X X X # # # & # & - # # # # # 5 # U A X X ; 5 ; # # o # # # # # # # # # # # # # # o   o 0 Z C 8 @ 3 #.;.U :.&.P q.4.H ( ( U &.U X.nX#X5   q c C b m C A N k U U ,.i _ _ _ T _ _ _ T T T T i e i e i 5.3X:Xn.<.} s.;XqXwX0X5XfX.X) 2.:X.X|.|.:X5XqXqXfXfXfXfXfXfXhXNXNXNXVXVXVXVXVXZXZXZXZXZXZXZXZXZXZXZXSXSXSXSXSXSXSXSXSXSXSXSXDXVXVXhXfX,XwX:X<X5XqXqXfXMXVXZXSXHXHXHXHXSXSXSXSXZXZXVXMXMXMXqXqX5X5X5XqXqXfXhXVXZXZXZXZXSXZXZXZXZXZXZXZXZXZXZXZXZXZXZXZXZXZXZXZXZXZXZXZXVXVXVXVXVXNXNXVXZXVXNXMXfXfXfX9X5X:X1X1X1X3X.Xw.*.) w.w.=.( +.( g h u r $ .               X               X X     X X   X X X           o X X     . o X X X o o X o X X X o o X X X X X o o o o o ",
"1.! f j E  .s.a. .' ' } }  . .j.j.d.3.| h u u f h ) [ [ ~ ^ d 6 w 5 5 6 6 6 6 6 7 * r h ~ ) D t g D ! Q ) ~ D Q D g d d S J g > t V :.4.,.' ] 4.] f f D ,.S.*Xy.P N d ] &.U U F S J J Y U U &.b 7 y y 7 7 7 7 7 t t 7 6 6 6 7 7 t 6 u t t d y 7 6 6 6 6 7 6 6 7 6 7 7 6 6 6 6 6 6 7 7 t 7 6 6 7 7 7 7 7 7 t t t 7 7 7 6 6 7 7 7 t t 7 6 6 7 7 6 7 7 t t t t t t 7 7 7 7 7 7 7 7 6 7 7 7 7 7 7 7 t 7 7 7 7 t t t 7 7 7 t t t 7 7 7 7 7 7 t t t t 7 t 7 7 7 7 7 7 7 7 7 t y s u u y y y d d d d d d f d t s d d d u u d D ! ! D S g d S d g D D [ [ D h S g g S f d B s d d d ( ! S ! [ *.! ! D ! ^ ' ' ~ ~ *.,.1.,.( g u 6 7 7 w 6 6 7 6 6 7 q y y y y s s s s s y s s s y y y y s y y s s s s d d s s s s d d B B B d S V G S S J S B F V S d S H J H H H D H ! S ~ D ! ~ ( D ! ! ! H ! J S d d s d d ] ] H S d V d h H D f D [ [ ,./ } } R }  .}  .s.| } R h h u g h ( H H J U J F F F V B B s q B y d d s V w B 6 J [ ] g B d t d D S B s p Z J U Y V s s s p p q q q q q 0 0 0 8 8 w 5 - ; ; { >XtX;XK.hXBXHXJXSXSX<X<XhXJ.) ) *.( F q *.BXSXyXg.3.D. XJXJXJXJXBXx.<./ i g g & ; y t : 6 6 ; ; 5 7 w ; 5 5 o X + o # w q q q q w ; # w o w = X X X @ # w w = o X X X X X # # # # # # # o o o 0 5 C U q X o # # # o o o # # # # # # o o o # # #     o o o # 0 C I A #.;.-.U U F =.1.&.*.*.U &.U Y &.q.5 # # w l N 0 8 3 8 8 8 w ( Q i _ _ T T W W W _ T T T i e i e ) .X1Xn.s.<.s.;XfXqX0X:X5XfX0X,.2.:X|.[.|.:X5XqXqXfXfXfXfXqXfXfXNXNXNXVXVXVXZXZXZXZXSXSXSXSXSXSXSXSXSXHXHXHXHXSXSXSXSXSXSXSXSXDXVXVXhXqX<X<X;X<X5XqXqXMXNXZXZXHXHXHXHXHXHXHXHXHXHXSXZXMXMXNXfXqX5X0X5X5X5XqXfXNXZXSXSXSXDXZXZXZXZXZXZXZXZXZXZXZXZXZXZXZXZXZXZXZXZXZXZXZXZXVXZXZXZXVXNXNXNXNXMXfXfXfXfX9X5X:X:X:X1X3X.X4.*.*.w.w.1.1.z.c.b.c.l.w.*.q               X X             X X             X X           X X X     o o o X X o o O O O X X o o o o X X X o o o o o ",
"(.) g ' <.s.s.d.a. . .} ' '  .'  . . .[ ^ D G G D h Q R ^ ) d 6 q q 7 6 6 6 6 6 : : : g ( H u u g f g g g D ~ ! S S V H U s f t d e._.] J S ] =.s d j { 4.4.N.H C b U ` A U F Z h e._.N.;.Y A k y y q w w w 7 7 7 6 6 6 6 6 7 7 6 : u u r s y 6 6 6 6 6 6 6 6 6 7 7 7 7 6 6 6 6 7 7 7 t 7 7 6 6 6 7 7 7 7 7 7 7 6 t 6 6 6 6 7 7 t 7 6 6 6 6 6 6 7 7 7 7 7 7 7 t 7 7 7 t 7 7 7 7 6 6 7 t t t t t 7 7 7 q t t t t 7 7 7 7 7 7 7 7 t 7 q 7 7 y 7 7 t t y y 7 y 7 6 7 7 7 7 7 y y s y y y y s s s s d d s s d d d s d d d S S S S S S d S H D D ~ *.[ ^ ^ D g S D d B y B d d f ) ! D D ! ^ ^ ^ ~ ^ ~ ] 1.z.z.[ H g u t t 6 t t y t 6 w w w w 0 q q s s y y y y s s B s s s y y y y s s s s s s d d s s s s s s d d s d V V d d d S J H H J d d B B G F U H H D D ! ! f S S J ] ( ! ~ ! ~ ! D S u u f d u H D [ D S S S ( ! D h ~ ~ ' } / [ <./ / } / <.<.} d.E ~ D t t t u y d S H ( U H F F F F V V B V V 7 y 6 w y 6 d ] ] S H S G H ! J V Z Z P H U Y V N s A >.A q p w q b w q 0 w 3 3 5 5 o s ,.>XsXwXhXsX,XgXJXJXgXk.wXj.j Q 1.! J F ; vXJXJXuXgX,XK.yXHXCXpXpXz.R | R i f g ] S 6 6 y 7 : : ; 5 7 w ; ; = X   o 5 w w w w 0 0 w = 5 # ; q # X X X o o @ X X # + X   O + o # # # # # # o o 5 8 O >.Z X o X o X o # # # # # # # # # o o o # # #   . . . .   X O 4 U :.&.U &.U =.q.>.*.] ] &.&.F y F &   w 8 w z l n 8 w q q U U t e i T _ _ T _ _ _ _ T T i e e i e v.9X;Xm.m.k.;XqXfXfXqX:X0XfX5Xf.<..X;X[.|.:X0XqXfXfXfXqXfXqXfXfXfXNXNXVXVXZXZXZXZXZXSXSXSXSXSXSXSXSXSXHXHXHXHXHXHXSXSXSXSXZXVXVXVXhXqX,X<X0X:XwX5XqXfXMXVXZXHXJXHXHXHXHXHXHXJXLXJXHXZXZXNXNXMXqX9X5X5X5X5X5XqXfXMXVXZXSXZXZXSXZXZXZXZXZXZXZXZXZXZXZXZXZXZXZXZXZXZXZXZXZXVXVXVXVXVXVXNXNXNXVXMXMXfXfXqX9X0X:X:X:X0X1X.X1.=.1.z.[.1X9X9X9X9X9XMXMX9XXX*.&     X     o                       X         X X X X X X X X X X X X X   o o X X X X o X X X # o o o X X X o o o X ",
"u j R /  .s. . . .}  . ./ / } }  .d.3.[ ~ ! G u u j / ' [ ! t 6 0 w 7 7 6 6 ; ; 6 6 > u g f t d g d d t t f H ! H S ( ] d f t S S.OX:.` J H e.] V J ] h H 4.=.J :.y.V N p N w s f 6.&X(.;.Y l c c c q 0 0 0 q 7 7 7 6 6 6 6 6 6 6 t S D D S s 6 7 7 7 7 7 7 7 7 7 7 7 7 7 7 6 6 7 7 t t 7 7 6 6 6 6 7 7 t 7 7 7 7 7 7 7 6 7 7 7 y 7 7 7 7 7 7 7 7 7 7 7 7 7 t t 7 7 7 t 7 7 7 7 7 7 7 7 7 7 7 7 7 7 7 7 7 t t 7 t t 7 t 7 t t 7 t 7 t 7 y y t 7 7 7 7 7 7 7 7 7 7 7 7 7 7 7 y y y y s s s s d d d s y s s s s s d d d S g g g g d S J ! S D ! *.[ ~ ~ g g ! ! g d y B B d d ! ) ) ~ ~ ~ ~ ) [ [ =.1.,.! f r u > t t y y t t y 7 0 0 0 w w w q q s s y y y s s s s s s s s y y y y s s s s s s s y y y s s B B B s s d B d y y d S d d d u U B S S S F F J D D ! ] S S g S ( ~ D H D ! H D D S d d S t f Q [ D D S S ~ D f ! ,.[ ) } } / ) ' } } / <.| } f./ 2.~ t t t t 7 7 t y y B H U F V B y s Z P B 6 y q 5 5 ; y ( [ =.( g H ] [ ! H H J U U U Z F V N Z :.P q q 0 q w w w 0 w 3 3 5 5 o d 3.,XwXwXhXtXK.dXDXdXh.k.R.R i ~ ( H B =.cXLXHXJXSXVXdX<XdXSX}.R / e f Q i <.[ [ *.J : > ; ; ; ; 5 5 w w ; ; = o   X # 5 w w w 0 5 5 ; ;   o ;   o X X X X   X # # o X   O + o o & ; # # & 5 1 # w Z &.o X X o X o o o # # # # # # o o o # # o @ O   & 6 6 &   X @ 3 &.;.U Z U ] ] =.] U U &.*.( V o 6 5 & 0 8 8 q l b A q l U u.P t e i _ _ _ T T _ T T T i i i e i Q .X0Xb.m.n.;XqXqXqXfXhXfX1X0XfXH.5.|.|.XX;X0X5XqXqXfXfXqXfXqXfXfXfXNXNXVXZXZXZXZXZXSXSXSXSXSXSXSXSXSXSXHXHXHXHXHXHXSXSXSXSXZXVXVXhXfXqXqX,X0X0X0XqXqXfXNXVXZXHXHXHXHXHXHXHXHXJXLXLXHXZXZXNXMXMXqXqX5X5X5X5XqXqXqXfXNXVXZXZXZXZXZXSXSXSXZXZXZXZXZXIXIXIXHXHXIXIXZXZXZXZXZXVXZXVXVXZXVXNXNXNXNXMXMXMXfXqX9X0X:X:X:X1X3X.X1.=.l..XpXZXZXMXMXMXNXZX0X.X0X.X=.                  X X             X         X X X X X X X X X X X X X o X X X X X o o X o X # # # X X X X X # # # ",
"h h Q } | ' E / ^ ' / / } } ' } <.<.} ^ u r t t h ) <.| ~ d 6 7 w w 7 7 6 6 ; 5 5 6 : t u t t u 6 t u u t t u f S ] ] f f f ] &XiXy.N.q.] e.e.Y N s H ! 4.e.] d w.:.V A b q s s f =._.=.Y A A N c c l q 0 q q 7 7 7 6 6 6 6 6 6 7 t g D S g s t 7 7 7 7 7 7 7 7 7 7 7 7 7 7 7 7 7 7 t t 7 7 7 7 7 7 7 7 t 7 7 7 7 7 t 7 7 7 7 t t 7 7 7 7 7 7 7 7 7 7 7 7 7 7 7 t t 7 7 7 7 7 t t t 7 7 7 7 7 7 7 7 7 7 7 7 7 t t t 7 7 7 7 7 y t 7 7 7 y y t t 7 7 7 7 7 7 7 7 7 7 7 7 7 7 7 y y y y y s s s s s y t y y y y s u s f d d S S S S S J H D H Q [ [ ) ~ D D ! ( g s B V s y d f ( ] ~ ' ,.4.2.[ ! g d t : t t u s u s d G B y y y y y q 6 6 7 q y s s s s s s s y y s s s s s y y s s s s s s s B s s s s y y y s B s s V V d s s d y d g H d S d B d B S S H ! ) [ g g D S f u D ! H D g S G S S d S S u ^ [ ^ Q D D ( H g ^ ,.,.,.,.[ ,.} Q / | / <.| } f.Q *.! y y y y y 7 7 7 7 7 7 y s V V y q y y y 7 y w ; 5 6 y ] *.=.( S ~ *.,.] ( ] ] ] ] ( V V V N A U Y 0 w w w 5 0 w w 5 = 3 5 1 & J A.,X<XwXdXjX,X,Xh. .k.wXa.E R ! ! G P K mXLXJXgXdXDXdX<X,XhXfX;X} j * D ^ Q ~ [ ^ r > : 7 : : ; ; ; 7 7 w w 5 # X X o # 5 6 w w & 1 w w # o #   # o o o X   X # o X     X + + o & & # # # o X O 5 X.Z X X o o # # o o o o # # # o o o o # # o o 3 0 5 y J J U N 8 U ;.U ` ` U ( ] S B U ( >.U J 7 & . X w b w b 9 N 8 b N q Z &.q 6 e T _ _ T T T T T T T i i i i i 2.zXXXs.m.L.wXqXqXqXhXVXVX5X:XfX:Xb.|.|.XX;X0XqXqXqXfXfXqXqXfXfXfXNXNXVXZXZXZXSXSXHXHXHXHXHXHXHXHXHXHXHXHXHXHXHXHXHXSXSXSXSXZXVXhXfXfXsXqXqX5XwX5X5XqXfXfXNXZXSXSXHXHXZXZXZXHXHXHXJXHXZXAXVXMXfXfXqX9X5X5XqXqXqXqXqXfXNXVXVXZXZXZXZXSXSXSXHXHXHXHXHXHXHXHXHXHXHXIXZXZXZXZXZXZXVXVXVXZXVXNXNXNXMXMXfXfXqX9X0X:X:X:X1X3X.X2.4.{.9XVXMXfXqXNXNXVX0Xb.m.n.9X Xu     X           X X           X             X X X X X X X X X X X X X X . X X X o o X X X # # # # o o X # # # # ",
"! Q ' | / j j j Q ^ / / / / [ ' j i g ! H u u D ~ [ } ~ D u 7 6 w 6 6 6 6 6 5 5 5 ; 6 t t u y t 7 7 u y t t u u S J f f f J @XbXe.S.'.*.=.e.s p p J ] 4.=.*.=.4.).*.Y N 0 K V s f { S f &.I b A v c l q 0 q 7 7 7 7 6 6 7 6 6 6 7 t g D g d t 7 7 7 7 7 7 7 t t 7 7 7 7 7 7 t t 7 7 7 7 7 7 t t y t t 7 7 7 7 7 7 t t 7 7 7 7 7 7 7 7 7 7 7 7 7 7 7 t 7 7 7 7 7 7 7 7 7 7 7 7 t t t 7 7 7 7 7 7 7 7 7 t t t 7 7 t t 7 7 7 7 y y t 7 t t t y t t 7 y 7 7 y 7 7 t 7 7 7 7 7 7 7 y t t y y y y y s y y y y y t t y f s f d f d g g S S G S H ) ) ,.} ) [ ) ~ ~ ! g B B s d S S g ] 1.6.5.,.^ u t f t t t d d u u d V S F H F B s s y q q 6 6 6 7 y s s B s s s s y y y s s s s s y s s s s s s s N s y y s s y B B B s s B B B s s s B d ! ! u d B B B F F S D ) *.*.D u S S G g S ( H S f d S S S d d J S ~ ,.[ ^ ! H *.J S D Q =.,.[ } [ ' <.,.} } <.<.} | ^ [ S y y y y s y y y 6 7 7 6 6 6 q 6 N w ; y B N w w 5 5 6 ( =.! ] ! ( =.,.] ( ( ( ] ] ] V V B N N A b q w w w 5 q w 3 = # , 3 # : ( H.,XwXR.sXjXjXT.j.R.tXtX ./ R D g G K z xXKXDXaXyXDX,XL.K.<XK.<.r u f pXD.,.R ) H r : 6 : ; w ; : ; 5 w w w w 5 # X X # 5 w 5 5 1 & & # . # # o X O o o o X X   X X     X O o +   # # X # 5 #   U U X X X # o # # o # # # # # o o o o o X X O # X w q q 6 B 4.>.&.>.U P ` U S 7 & t V ( &.( ; . . ; - 5 N b w A c w b b 0 y ( 9 5 t e R _ _ T T T T T i i e e i i i v.MXn.s.m.;XqXqXqXhXVXVXSXfX:X5X0Xn.|.|.XX;X0XqXfXqXqXfXqXqXfXfXNXNXVXVXZXZXSXSXHXHXHXHXHXHXHXHXHXHXHXHXHXHXSXSXSXSXSXSXSXZXZXNXhXfXfXfXqX5XqX0X0X5XqXqXqXqXVXZXZXZXZXAXAXVXZXZXZXHXZXZXMXNXMXfXfXfXqX9X9XqXfXfXqXqXfXfXNXNXVXZXZXSXSXSXSXSXHXHXHXHXHXHXHXHXHXHXIXZXZXZXZXZXZXZXZXVXZXVXNXNXMXMXMXfXfX9X9X0X:X:X:X:X1X[.2.v.fXVXZXMXMXNXNXfX0Xn.s.s.<.;X9X4.#         X             X                   X X X X X X X X X X X X o X X X X X o o X X X o # # # # o X X o @ # ",
"D g Q ) h r t u f g Q / / ) ~ ^ D u u H ! S g D ' ~ Q Q g t 6 5 6 ; ; ; ; ; ; ; w 5 5 6 7 y d y y y 7 6 t y d d f f t t D 4.OXe.4.&X4.e.4.J S s V ] { ] S.y.S.iXF.4.] U &.-.U p J *.s F ` K C z c c q 0 w 7 7 7 7 7 7 6 6 6 6 6 t t g g g f u 6 7 7 7 7 7 7 t t 7 7 7 7 7 7 7 t 7 7 7 7 7 7 t t y t 7 7 7 7 7 7 7 t t 7 7 7 7 7 7 7 7 7 7 7 7 7 7 t 7 7 7 7 7 7 7 7 7 7 7 7 7 7 7 7 7 7 7 7 7 t t t t t 7 7 t t t 7 7 7 7 7 7 t y 7 7 7 t y t t y y 7 6 t t 7 7 7 7 7 7 7 7 7 q y y y y y y y y y t t t t t t t f s s d d d d d d g S S J ) [ ,.| ) [ ] ] ( ! S V V V V d d *.z.*.J t r u u u t d d y y B F S F H H U ( U V s s y y 6 6 6 6 7 7 s N B B s s s s s s s y y y y s s s s s s s s s s y y B B B V J V V B B B B s y s d D D D S d B y y B B d S ) *.~ h g G B u u g J S S d d d d d S d S D [ <.[ Q G ( =.g d g D [ [ ,.} <.,.' ' <.<.} 3.g./ j ] S y c B V V N B B y y y y 7 7 6 5 0 0 5 5 5 w 5 5 3 5 ; y ] ( *.( =.1.1.*.( U U U ] U V Z A p p A q A 0 w N w 5 ; # # o # , # r | K.sX<X<XeXDXjXtXR.wXhXhXG./ R Q G F c k GXLXJXBX<XdXqXL.h.x.' i y y HXJXVX:Xi h H d y s 7 w q 7 7 6 ; ; 5 ; 5 w ; X X o ; 5 # # & & & # o # # o X @ o o # # o   X X     X X O X # X o #     w &.P # X   # X o o # o o # # # @ O O O X X     X # # o # 5 Z 5 # P ( &.V :.:.&.V s t s J H Z s U t 5 q N p 0 p Y Z N N N w 0 0 P s q u e E _ T T T T T T e i e i i e Q :XMXn.s.m.wXqXqXqXhXhXVXSXVX5X:X0X[.|.}.|.;X0XqXfXqXqXqXqXqXfXfXNXNXVXZXZXZXHXHXHXHXHXHXHXHXHXHXHXHXHXHXHXHXSXSXSXSXSXSXZXVXVXfXfXfXfXqXqX5X5XwX0X0X0X0X0X0XqXNXNXNXMXMXfXqXMXNXZXAXMXMXMXMXMXfXfXfXqX9XqXqXfXfXfXfXfXfXfXMXNXVXZXZXSXSXSXHXHXHXHXHXHXHXHXHXJXHXHXIXIXIXZXZXZXZXZXZXZXVXNXNXMXMXMXfX9X9X9X5X1X+X:X:X1XD.l.%XVXVXVXMXNXfX5X0X|.n.m.m.<.H.MX.XB                       X X X     X         X X X X X X X X X X X X o o X X @ O o o X X X o # # X X X X X o # # ",
"u ! ~ h u u u 7 t h ^ [ 2.) r r h S g S S D D G f f u u t ; 5 w 6 ; ; ; ; ; ; & 5 ; 5 6 6 7 y y 7 y 6 : 7 t t y 6 d f g ] w.6.J F.w.:.*.f ,.OX=.H { ,.4.S.J ] D.S.e.4.q.7.A N Y N.F S >.U P I C p p q 0 7 7 7 7 w w w 6 6 6 : 6 r u h h h g y 7 t 7 7 w w 7 7 t 7 7 7 7 7 7 7 t 7 7 7 7 t t t t 7 7 7 7 7 7 7 7 7 t t 7 t 7 7 7 7 t 7 7 7 7 7 7 7 t 7 7 7 7 7 t 7 7 7 7 7 7 7 7 7 7 7 7 7 7 7 t t t 7 t 7 7 7 7 7 7 7 7 7 7 7 7 t t 7 7 7 7 7 7 t 7 y y t t y q 7 7 7 w w w 7 q y y y y y y y y y y y y y y t y t t s d f d h S g g S J S ~ [ } } ~ ^ Q ! ] ( S V V B B S d d f d t t t y 7 s s u u S S S S S ( ! ! ! ( ( F s s B y 7 6 6 6 7 7 y N B B s s s s s s s y y y y s y s B B B B s y B s s s s y s B B B S B d d d s d y S S ! g B y B B B d s g ! ! ,.! f B V d d S S g S d d d d d S H H ! [ ,.Q g g ] ] J g d ] ) [ 3.' 3.<.^ ,./ } 3.x.h.h h ,.B B B V F J F F F V s t q y s y q 0 s q q 5 w w w 8 5 5 ; V ] ] ] 1.4.1.*.] U U ` ] U V B N N N N b N w w A 0 # ; # # o # # o u <.R.wXwX<XdXDXjXhXR.wXtXjX,X' ) Q B F U q.LXLXJXHX5X<XhXqX .' Q f 9 (.LXSXjX5X} e : % ; 7 6 6 6 & 6 ; ; 5 7 w ; w w # X X - ; o X # w w 5 5 # X X @ @ @ @ # = # @ o O O O O X X     X X   o # w q     5 X X X X # + + + o o o O O O O X X o X o # o # w O # 5 N Y F 6 V ] s V ` J s y V y s 4.:.y K Z w # # - s S U q w A C N y 0 y r e R R T T T T T T T T T i i e ) 9XMXn.s.m.wXqXqXfXhXVXSXSXZX5X:X0X[.J.|.|.;X0X5XqX5X5XqX5XqXfXfXNXNXVXZXZXSXHXHXHXJXHXHXHXHXHXHXHXHXHXHXHXHXSXSXSXZXZXVXVXVXhXfXqXsXfXfXqXqXqXwX0X<X:X;X;X;X0XqXqXqXqXqX5X5XqXfXMXMXfX9X9X9X9X5X5X5X5XqXqXMXfXfXfXfXfXfXfXNXMXVXVXZXZXZXZXSXHXHXHXHXHXHXHXJXJXJXHXHXHXHXIXZXZXZXZXZXZXVXNXNXMXMXMXfXfX9X9X0X1X+X1X:X:X[.[.vXZXVXVXMXqX5X0X0X:XXXn.m.s.n.fXMX=..                     X X X X X X         X X   X X X X X X X X X X o X @ @ O o o o o X # # # # # # # # o o # ",
"g h Q ^ ~ ^ D d u u u h f r r u u g S t t f S D ! D f r t 7 ; o 6 : : : > & & & & ; 5 6 7 7 7 t d B d 6 6 7 y y t t d S ] 6.] { e.=.&.f h F.iX4.] e.1.=.] V d [ =.4.4.(.y.#.>. Xq.J ] :.:.U C z b p q q 0 q 7 7 7 w w 6 7 6 6 : r h ^ / ^ h t 7 t 7 7 w w 7 7 7 t 6 7 7 7 7 7 7 t t t 7 y t q q 7 7 7 7 7 7 7 t t t t t t 7 7 7 7 t t 7 7 7 t t t t t t 7 7 7 7 7 7 7 7 7 7 7 7 t t t t t t t t t t 7 7 7 7 t t 7 7 7 t t 7 t t 7 q 7 7 t t 7 7 t 7 d J d 7 y q 7 7 7 w w w 7 q y y y y t t y y s y t y y y y y d d d d d d d g S S S H J ~ ,.,.[ ~ ^ D ! *.*.J B V F V S J d f u t t y y s V J H D ! ! ( ! H H ! ! ! ! ( H d d V s 7 7 6 6 6 q y s B B B B B s s s s s y y y y s s B B B B B B s s s y y y y y u u d d d d d s s V u H G S y d y s s B S ! ] ) h D S S V G d u D S S B S S d d D ( ( ~ ( ^ f u g ( ( H S g ~ *./ <.' <.<./ | } / f.3.| j ~ =.J B B V F J J F F F S F F B 7 w 7 w 0 5 q 5 5 0 w 5 3 5 5 s ] ] *.=.,.=.] ( U P U U U Z B Z U P Y b A q w A w # ; # # + o @ o j x.wXwXwXsXhXVXhXR.k.R.k.C.;X} / Q B S y.q.'._.SXHXhXsXhX<X .E D : y cXSXBXsX|.^ $ ; ; ; ; : 6 : > ; ; & 5 q q w ; p ; # X - ; o # 5 q 5 o X   X       @ # # # @ @ O O O O O X       o       X X   X X o     # X X X X o X O O O O X o , 5 # X o # 5 w w w # , P ` S : S s 7   w N C C s H 1.e.J Z b l q ` N.4.( D ] H w V U P y q t r e R T i T T T T T T T T T i e 2.9XMXH.s.m.wXqXqXfXNXZXZXVXVXMX5X0XH.H.|.}.;X0X5XqX5X5X5XqXqXfXfXNXVXZXZXSXHXHXHXJXJXJXJXHXJXJXHXHXSXSXHXSXSXZXZXZXVXVXVXNXNXhXqXqXqXfXfXfXfXqX,X<X;X;X;X;X;X;X0X0X0X0X;X;X;X1X0X9X9X5X0X0X0X0X0X0X0X0XqXqXfXfXfXfXfXfXfXfXNXMXNXNXVXVXZXZXSXHXHXHXHXHXHXJXJXLXJXJXHXJXHXHXIXIXIXZXZXVXVXNXNXNXMXMXfXfX9X9X3X1X+X1X:X.X[.1XMXVXMXMX9X5X9X9XfXqX;Xn.b.s.n.qXVXc.:             X X     X X X X X X X         X     X X X X X X o o X X X o O # o o o o # # # # & & & # # o o # ",
"h h / ' ' [ [ ! G S S d t t t y g g S S d f g g d r > : 7 6 ; 7 t t 6 : ; & ; 6 6 6 ; ; 7 7 t t d F S s t 7 7 q y y u u f J { z.=.=.d t H 6.{.=.e.1.! H ` F u ! 3.,.=.4.q.] _.*X` U :.q.'.#.b N N b l q 0 q q 0 7 w w w 7 6 6 : f h / / ^ f 6 y t q 0 w w w 7 t t t 7 7 7 7 7 7 7 7 y y q y q q y y y y y 7 7 7 t t t 7 7 t t t t y y t 7 y y y t y y t t 7 t t 7 7 7 7 7 7 7 7 t t t t t t t t t t t 6 6 6 t t 7 y y y t t t 7 y q 7 7 7 7 7 7 y t F ] J y q q q q q 7 7 7 7 q y q y y t y y y s 7 7 7 t y y y s f d g S g g S g S S H g D ,.,.[ ~ ~ ! ~ *.*.U F V F F V H H 4.D S S J H H ( ! ~ ~ =.*.*.! D ! ! ( ~ ! ] H d f J V y 7 6 6 6 7 q s B B B B B s s s s s y y y y s s y y s B B S S S B B d d u u u u d d d d f s d d H S s B d D d B s B d D ~ Q ~ D f d d s d S J S J J H H G d D S S S h f f f g ) ( D d D D 1.| <.| <.| E | / } f.d.} j [ [ D H H F F J F S S S S J H U V 7 5 5 w w q 5 5 q w w w 5 ; q U *.&.=.=.=.] ( U P U U U Y Y Y U Y I n Y A 8 0 5 & & # # o o X o R G.wXwXwXhXhXhX<Xa.L.j.p.k.qXs.E Q y ] _.&.q.% c.HXfX,XtXj. .} ) d ,.BXZX|.} R * : ; ; ; ; > t r * 6 ; o # w 7 w ; 7 - X X - 5 ; 5 w q # X X   O       3 0 0 3 @ #     O   O O O   o X     X       X X o X X X o X X X X X X X X O   # q q 5     o # w l ,   l U Y t : : : ; - o w C C U 4.w.s ; w 8 3 8 &.cXDX4Xz.c.c.1.( F H &.H u G r h i i T T T T T T T T T i e 2.9XMXXXs.k.wXwXqXfXNXZXZXSXZXSXfX1XH.J.|.J.:X5X5X5X5X5X5XqXfXqXfXNXVXVXZXSXHXHXJXJXLXJXJXHXHXHXHXZXZXZXSXZXZXZXZXVXVXNXhXhXNXhXqX5XqXqXqXqXqXqXwX<X;X;X;X;X;X;X;X|.|.XXXXXXXX|.;X;X1X1X:X:X:X1X1X0X0X5XqXqXqXfXfXfXfXfXqXfXNXNXNXMXNXVXZXZXZXSXHXHXHXHXHXJXJXLXLXLXHXHXJXHXHXZXIXZXZXZXVXNXNXMXMXMXfXfX9X5X3X1X:X1X:X.X[.3XMXNXMX9X3X3XMXNXVXfX0XL.m.s.n.0XfX.Xt   X X     X                 X X X X       X     X X X X X X o o X X X X O # o o o o X # # # X o # # # # # # ",
"^ h R / } | } [ ) Q g g d s s q u u d u u t 6 6 > > > ; ; y 7 6 t t t : t 6 t t t t & 5 0 ; t u y B D ~ g u 6 t 6 y y t f ] 5.=.=.Y s h 1.6.H { H H f H &.P B g A.A.F.].;.J F.$X-.&. X{ e.U q c y y s s q q w 5 w ; 7 7 7 7 ; 6 D ) ' ^ f u y 7 y y 7 t y u r u t t t y t t t t y 7 7 7 7 7 7 7 7 7 7 7 t 7 7 7 7 7 y y y y 7 7 6 6 6 6 6 t 6 6 7 7 7 7 t t t 6 s 5 7 t t 6 6 7 : : : t 6 6 6 7 7 y y 7 7 y y t t t t t t 7 7 7 6 6 y c 9 7 y 6 r f ~ *.d 7 6 t t u t y 7 y 9 c y y 7 y t y y t t y y 7 7 q y y y d d y B d G g d d V V d ! ' ,.,.[ ] ( [ =.=.H F S V V J J 5.c.[ ] ( ( ] ( ] ( ] [ ^ D h h S S H ^ ( ! H ( F c P P q 7 q 7 9 y 7 s V Z Z Z V N d s y y y y s y s s s s s B B V B F B S U d H d S d S S d d f S S H g u D g G d d d g d f ! [ ' Q ] g S S d B d S d H g g ) [ ! g G D S S D h D S ] ] S S S S ] <.3.f.3.<.<.| <.<.f.g./ R ,.! ! ( H F F F F H H F ] *.H d d 7 ; 5 5 w 0 B N w w 5 w 5 5 8 P ] ( [ =.=.( U U U U U U V U I Y Y I C b b l 8 5 # # # o o # X : } L.wXwXR.L.wXhXsXhXhXk.j.R.tXd.j ^ *.U u.:.CX5.r ) d.<XtXwXj.) u u 5.%XD.j $ $ : : & ; 7 : f s t d d 6 # # w w w ; 5 w ; X X # 5 q w s # o #     O   , w 0 q 3 , @   X O O O @ O O O O O X X X X X X X X o o X X X X X X X X X X   X X   o 5 ; o   5 o # 3 8 Z U #       o ; 3 3 # K U q.:.V 5 V 7 3 C X.X.N (.).).w.$XHX&X*.1.c.z.2.) i i i i T T T T T T T T e e e 2.9XNX;Xs.m.;XqXqXhXVXZXZXDXSXZXVX5XH.H.|.|.:X5X5X5X0X0X5XqXqXqXfXNXVXZXZXZXSXHXJXJXJXJXJXHXHXHXSXZXZXSXZXZXVXVXVXNXfXfXhXhXhXhXfXqXqXqXqXqXqXqX0X;X;X:X0X;X;X;X|.XXJ.H.n.b.b.n.XXXXXX;X:X:X0X:X;X;X:X0XqXqXqXqXqXfXqXqXfXNXNXVXNXNXNXNXNXVXZXZXSXSXHXHXJXJXJXLXLXLXLXLXHXHXHXIXIXZXZXZXZXVXNXMXMXfXfXfX9X9X3X1X1X1X:X|.XX9XMXfX9X3X1XMXZXSXZXVXfX;Xm.s.m.;XqX3X[   O O         X                     X X X X     X X X X X X X X X X o o O o o o o o # o o o # # o o o o o # ",
"~ Q R / ' } } [ ~ ) ) Q u t y y y y t 6 6 : ; ; : & & 7 7 y u d u 6 : : 6 t u : : : 6 5 ; 7 t : t g D D D d t 6 : t : r t d f *.&.7 V 4.1.J 4.` J S S ] q.P s S { ,.OXN.I =.e.'.;.q.4.] &.Y q N B s p q 0 w 7 7 5 y 6 ; 6 6 7 : u D Q h u t 6 7 : 6 t t t 6 6 t : 6 7 6 6 7 7 6 7 6 6 t t 6 6 t t 7 7 7 t t t t t 7 7 7 7 7 7 7 t t 7 7 7 7 t 7 7 7 7 t t 7 7 7 5 6 7 6 6 t y 7 6 : 7 7 7 7 7 7 t 7 7 q 7 : 6 t t 7 t t 7 7 7 7 7 y q 6 6 7 7 6 r f ,.,.u y q 7 q q y y y y y y y y y y 7 6 y d t t y y t y y y d t y B F S G S S J V J H S ~ ,.,.*.=.*.=.=.=.( H U J J F H ( 5.~ ] ] ] ) ! ) ] D D ^ ! S ( f g S D H ! ( ( H B V J s s 7 7 5 w 6 s V F V F F F N N N y B q s s y y y y y s B B d d d s V d V s F S H J J ! ( [ ! H ~ ( ] D H D g d t u D ! ^ } z.,.D d y y B d S S ! G D [ ,.[ D D H ! ! ! ! H ! [ F.] d S G f ' f.' <.} } 3.,.d.g.g./ R 3.D D ( H F F F S S B ( ( S u t F 7 5 5 ; 5 s F Z 0 1 5 5 5 w 5 y H [ ,.,.[ D J P P Z Y Y U Y U K I K K A n b 8 5 # # X # o o . t <.K.R.R.L. .;XhX;XqXR.k.k.W k./ ) ^ *.q.# (.JXpXf.} / L.hXwX' Q g [ z.,.r $ u r : y y 6 : ; : : d d : : o # 5 w w 5 ; w 5 o X # # = = 5 o o +   O O @ 8 8 8 8 @ O O X X O O O @ + O + O O O X       X X   X X X X X X X X X X X X + o X X   X N U V o # , # X.&.0 . % o o o # # @ 0 P Y >.U N ] p # @ A ;.q.y.>.q.&.t d =.'.iXOXD.+X).,.g e Q e T T T e T T T T e e e 2.9XNX;Xs.m.;XqXfXhXZXZXZXZXZXVXMXpX}.H.}.|.:X5X5X0X0X0X5XqXqXfXfXNXVXVXZXZXZXHXHXJXJXHXHXHXHXHXSXZXZXZXZXZXZXVXfXqXqXfXhXhXVXhXfX5X5XwXwXwXwX0X;Xn.b.s.<.s.m.n.H.|.|.H.n.b.b.n.n.H.XX|.XXb.<.} ) / ) 2.m.H.0XqXqXqXqXqXfXNXNXVXVXNXNXfXfXNXVXZXZXSXHXHXHXJXJXLXLXLXLXJXHXHXHXIXIXZXZXZXZXZXNXMXMXfXfXfX9X9X3X1X1X1X:X|..X9XfX9X9X3XvXSXJXHXSXVXMX:Xb.s.s.n.qXMX1.o           X X                     X X X X     X X X X X X X X X X o o + o o o o o o o o o # # o # # # # # ",
"H D h ^ ) ' / / ) ) ~ ^ g u y y y y y y 6 : ; & ; 6 y y t : r u B y s d : > > : t 6 o ; 5 6 s 6 r r u D ] H y y 6 t t r r : J =.f s =.*.f ] ` B ( f S =.u.P q s Q ' &XiX;.` 6.=X;.#.K -.I b b b c l p p 7 w 5 w 6 5 6 6 7 7 ; t : t u u t t 7 7 a 6 6 6 6 t 6 : 7 7 6 7 6 7 7 q y y t 6 6 t t : 7 t 7 7 7 7 7 7 7 7 7 t 7 7 7 6 7 7 7 6 6 7 7 7 7 7 7 t 7 7 7 7 y 7 6 t y t 7 6 6 6 7 q t 7 7 7 7 6 6 7 y y 7 : 7 7 7 7 7 7 7 7 6 7 7 7 7 q q q t D ! g 6 0 q y b p N y y 7 y t q q 7 7 y s s t t t t t t y y y y y B B S S J F J d U J s S ] ,.,.,.,.*.=.4.1.( U U J U H ! h r f ~ ] ] [ [ [ ) ( ] [ D S f ( ( H H U ( ( H H d s J s 7 w 7 7 7 7 y V F V S F Y Z Z N w N s p a s s s y y y s s B y B 7 s y y y y y d d u f f g D g D =.D S f u S d f u u ) } <.~ j u u S B d S d g ! g Q ~ *.! g D H ! ! H H H ! *.=.S u d S d ' ,./ <.| ^ ,.[ } f.g.' ' 2.D ! ( H J F J H S y J B V S V s 6 w 5 w q N N 0 5 w w 5 5 5 # 5 H 1.,.,.' h S Z Z Y Y U #.&.U K U #.Y Y b l 8 1 # o @ # o   o h h.<XR.R.R.s.wXqX;X;X .L.k.W  .E Q ) =.( . $XJXVXx.<.2.L.<XR./ i Q 1.6.H % * > t 6 ; ; & ; : ; % t t : 6 ; 5 5 w q w ; 5 ; o X # # # # ; o o o   + X < w 0 8 0 # @ O X     O @ # o O O O O O O O O O       X X X X X X X X X X X X o O X   X X X q P K q   C U Z q d g : ; X   , w A Y -.Y b #.#.8 l U U @ b U #.:.r.q.*.Y :.(.e.=.S. XD.D e v.R T T T T T T T T e e e 2.3XNX0Xs.s.;XqXhXVXZXZXBXVXVXfXfXMX:XH.}.|.:X5X5X0X5X0X5XqXqXfXNXNXVXVXZXZXZXSXHXHXHXHXHXHXHXZXZXSXZXZXZXVXNXfX5X0XqXhXhXVXVXhXqX,X0XwXwX;X;XL.s.} / E E E E ) s.n.|.|.H.b.b.m.b.XX|.n.<.) E / Q / ) / / } b.;X0X0X0XqXfXNXNXVXVXVXNXfXfXfXNXVXZXZXSXHXHXHXHXJXJXLXLXHXHXHXHXIXIXIXZXZXZXZXVXMXMXMXMXfX9X9X3X1X1X:X:X|.:X9X9X9X9X9XZXLXLXHXDXZXMX0Xn.s. .m.0XVXc.%           X X               X     X X       X X X   X X X X X X X o o o o @ @ o o o o o o # # # o # # # # ",
"d f g ^ [ ) ^ ^ ^ h ^ [ ~ g t y y y s B y : > ; : y y t 6 : 6 y 9 q q 6 : u 6 > & ; 7 5 6 w 6 y t u f h D D d y 7 6 t 6 t f J d S ] ] f J =.s Y S f H 4.:.A s d j R F.uX;.N.OX'.` ;.y.q.I 0 A Z n b q q 7 5 5 7 ; 7 ; 6 7 ; t > 6 6 t u d y w 7 7 7 7 7 7 6 6 6 6 6 6 : : 7 7 6 7 7 7 t y 7 6 6 6 7 7 7 7 7 7 7 6 6 7 7 7 7 7 7 7 7 6 6 6 6 7 7 7 7 7 7 7 6 7 7 ; 7 y 6 6 6 t y 9 9 9 9 9 9 t t t y y 7 6 : : : 6 7 7 7 7 7 7 7 7 6 6 t 7 6 6 0 7 J S u y q c 6 0 q s q s q q 7 s N y q w 7 y y t t t t t t t t y s V f d S G S V J H J J ( ( 4.4.4.4.,.,.=.=.*.] ] ( U H J S H ^ [ [ ( ) [ [ ! D S D ! H f S J H J ( ! ! H H d B F V 7 w w 7 w q y V S S V Z Z P Z A N V s p V s s s s s y y y s q B 7 y y 7 y y y B d u u t u g d H ] D D H G d y 6 t u g g ,.,.[ ^ S d F t G g S ~ D ^ ! ~ g u S S J H D ! ! ~ g f d J d g h [ [ / | } } <./ | h.<.R <.,.D ! H F S S S S B y 6 d d 6 B s 5 ; 5 5 q q q 0 5 w , 5 5 5 , & B *.,.[ ~ g V A A U ` &.>.q.U U #.U Z A b 0 8 5 # # # o X . & ' G.R.R.R.m.k.wXqX;XL.h.L.d._ E / Q Q ( t ] bXSX>XK.h.|.K.R.<XtXf.Q *.4.D r 6 % 5 w 1 ; 6 ; ; ; ; ; % 6 7 5 5 ; 5 7 w 5 5 # X X # = = # # X o     + O < 0 0 w w @           O @ @ + + O + O O O O O X       X O O O + + O O O O O O X   O   O #   X # A >.>.U V s :.1.*.( B ; 5 8 8 C Y ` p A A z `.mXnX$XY @ O 8 8 4 P -.;.7.r.u.>.U 4.[ : u [.E T T T T _ T T i e e e @.1XMXqXs.s.;XqXhXVXZXVXVXVXNXfXfXVX:XJ.|.|.0X5X0X5X5X0X5XqXqXfXfXNXNXVXVXZXZXZXSXHXSXSXSXZXZXZXZXZXVXZXZXfX:X:X:X0XfXNXVXNXNXfXqXqX0XwX;X;XL.s.} / / }  . . .} } s.n.|.XXn.b.b.b.H.XXm.2.2.m.s.s.2.2.2.} } s.n.;X;X0XfXNXNXNXVXVXVXNXfXqXqXfXNXNXVXZXZXSXHXHXHXHXHXHXHXHXHXHXIXIXZXZXZXZXZXVXMXMXMXMXfX9X9X3X1X1X:X:X.X1X5X0X3XvXZXHXLXLXLXHXZXMX5X;Xm. .s.;XVX{.6     X     X X             X X     X           X X X X X X X X X X o o o o @ @ o o o o o o o o o o # # # # ",
"Z B d G D g u g h g h ~ ) ! g d t t t t > % > : t f u t t 6 6 : y 7 6 6 : r : 6 1 6 ; : 6 t d y u u h D D ! D t l 0 y 6 r S t g ( =.f ] ,.] V U f f { 4.&.B a f D Q S.S.=X&XOX` Y (.=X>.b Y V N l 0 7 7 7 7 7 6 t ; 7 5 6 7 t 6 : : : f d q 6 0 7 6 6 7 7 6 6 7 t : : r > : : 6 7 7 7 6 6 7 7 6 6 6 7 7 7 7 7 7 7 6 6 6 6 6 7 y 7 7 7 6 6 7 7 7 6 7 7 6 6 6 6 7 y 7 t y t 6 : : t t t t t t u t t 6 6 y y 7 7 7 6 7 7 7 7 7 7 6 y 6 6 t 6 7 y w q : t : t t : u u u t f t s p q 7 7 w s s 7 7 y y y t t t t t t s t r f S D S J S ! J ( ] ( ] 4.4.4.4.,.,.=.=.*.] ] ( U J ] e.=.] ~ ] [ [ ) ] [ [ j r D g u t S J d D D ! ( ~ ! y B F y y 5 w w q 7 s S J J J J F Z V V s N s p p s s s y y y s q q s y y y y y y y s u u u u d d u g g f f S g d s t s y g h 3.,.) =.! S S d S D H ] ~ Q h D g d S u S S S H H ! g f D ( B S D [ } / 3.| } <.} <.x./ R z.] D ! U J F S S S B y B d B V 6 7 ; ; w w q q q q w 5 # # # 5 5 1 d *.,.] h f V A A Y ] _.q.` U Y Z Y V N p q 0 5 # # @ @ o & r } V.L.R.k.a.k.R.wXG.L.n./ / }  .<.,./ Q ~ CXBXBXx.h.s.|.<X;XtXtXf.) w.4.f & : 6 ; # = o 6 7 ; & 6 ; % & 6 5 # o # 5 7 w 6 5 o X # 5 = # # o       o O , 8 3 # 3     @     O O O + + + @ @ O O O O O     X O O X X O O + O X O O O X         O   o 5     8 U Z V F ] H [ w.4.] Z w 5 l P p p A I r.GXPXJXLXCX(.0 # @ @ C U X.U #.:.4.w.1.* $ $ ) i i T T T T T T e e e e ) %XMXqXm.s.;XqXhXVXVXVXVXVXNXNXNXNX:X[.|.;X0X0X0X0X5X0X5XqXqXfXfXfXNXVXVXVXZXZXZXZXZXZXZXZXZXZXZXVXVXVXNX0XXX;X0XfXVXVXVXNXhXqXqXqXqXwX;XL.b.s. . .<.s.s.s.s.b.f.f.n.XXXXH.b.b.H.|.XXb.m.b.b.l.m.m.s.s.s.2.m.b.XX;XqXNXNXNXNXVXVXVXNXfXqX0X5XqXfXNXVXZXZXSXZXHXHXHXHXHXHXIXIXIXZXZXZXZXZXZXVXMXMXMXMXfX9X9X3X1X1X:X:X+X1X3X0X9XAXHXJXLXLXLXHXSXAXqX0Xn.s.s.;XNX.Xy X                 X       X X             X X X X X X X X X X X X O o o @ @ o o o o o o o o o o o # # # o ",
"c y y g g u g D h j h ' } ^ h D f f r u r r f t j j r r r > r u t r > r r r > & ; & > r r r f f r u D h h Q Q h t t t r r r r h ,.~ ^ =.e.] H H f { g.z.=.d a j h h e._.UX'.=.` N.UXOXU V : d t B s t t r > > > : : t ; q ; 7 > : : : t s y 7 q 6 t 6 : > t S ( *.,.2.,.Q r r r r t 7 6 7 w 6 5 6 6 7 t t t 7 t 6 6 7 y y 7 7 t 7 6 6 6 6 6 7 7 6 7 6 6 6 6 6 t t : : : > > r > ^ ] | 1.3.,.{ ~ u u r r t t 6 ; 7 7 7 7 7 7 7 7 7 6 7 7 6 y y ; y t r r t h ~ [ [ | [ ^ f s t s f f f t 7 q y y y y y y t t t t r d r r f h D D j ~ ~ [ ] ] ] 4.=.*.] =.=.=.] ] *.] *.( S H H H g D [ ~ ~ [ [ ' / h ~ ~ u t d d S t g ^ ^ ~ ^ Q g f S u u : t t r : f h J J H J h D h S g s V A A A N s y y s s y y y y y 7 y t s s s s d d d d S d d d u d t u B s ; 7 d d h 5.v.,.*.H ( F S S S D ] ] ^ g u u B d y d B S S J ) ! J ! ( S g h ' 3.f.h.s.| <.}  .x.E [ z.! D ( F F F S V d s 7 7 ( ] d 7 7 5 6 q s V q ; 5 5 5 5 # # ; 5 & B *.,.] S d B Y Z Y ` OXy.Y Y N V B N b p q 0 5 # # # o # & u <.L.R.R.k.k.;XL.K.j.j.z.} | / <.b.<.E i x.z.BX;X ...<.:X5X,X<Xj.j ) 1.( f t 7 7 5 # # & o 7 7 o ; ; ; & 5 5 5 # # ; ; # 6 w X X 5 w # = # X o +   O # 8 8 8 5 w X o #       O O O O o + O O @ @ @ @ @ X X O X X   X O O X     X O O O X     o     @ 1 @ 5 P q & B J B V F ( >.P , N U A p Y b z X.;.$.` e.cXPXCXcX'.-X_._.y.e.(.&X+X{.,.* * * i i T T T T T T T e e e e ) .XMXqXm.s.;XqXhXNXVXVXVXVXVXVXVXqX}.H.|.;X0X0X0X0X0X5X5XqXqXqXqXfXNXNXNXNXVXVXZXZXZXZXZXZXZXVXVXNXNXfXqX;X|.0XqXVXVXVXVXNXfXfXqXwXqXqXqX;XL.m. . .s.s.b.n.n.b.b.b.n.H.H.n.b.n.n.H.n.b.b.n.n.b.b.m.2.} } 2.m.n.;X0XfXNXfXNXNXVXVXVXVXNXfX0X:X0XqXNXVXVXZXZXZXZXIXHXHXHXIXIXZXIXZXZXZXZXZXVXNXMXMXMXMXfXpX9X9X1X1X:X:X+X:X1X5XAXSXHXLXLXKXLXHXSXZXfX0XL.s.s.0XVX%Xd X       X         X X     X X             X X X X X X X X X X X X O o @ @ o o o o o o o o o o o # # # # # ",
"y y d g g f u u [ D.}.J.H.A.A.g.3.f.f.g.z.A.H.S.z.J.H.J.A.g.6.3.3.f.f.3.g.D.D.=.7 { F.g.3.g.3.x.D.D.5.h 5.{.J.A.5.g.A.A.J.H.D.2.r 5.@X4X@X@X@XOX+X5XyXyX4X6XaXgXpX+X=.F.^.:.J 6._.F.'.iXuXpX5X4X@X@XoX|.@X%X4XyXpXuX'.s 5 7 7 6 6 6 6 y y y 6 t r r r [ oXVXVXpXgXBXBXgXgXBX4XF.j r > r t ; 6 s 6 6 7 7 t t 7 7 6 6 t s s y 7 6 6 6 6 6 6 6 6 7 6 7 6 6 6 6 : > % r r > f 5.4XBXgXgXgXgXgXgXBXBXBXyXA.^ > > t 6 7 7 7 7 7 7 7 7 6 7 7 6 6 ; > r r > ^ {.yXaXgXyXaXyXyXaXaX@X6.h r r r t y y s y y y y y y t t t e.&XpXaXaX5X:X}.}.D.J.A.1.{ =.:.=.] ] =.*.H J *.] ] ] *.] =.=.H f r ,.6.f.d.g.A.G.oX:X:X4X+Xd d J J { D.{.}.oX}.A.x.z.f.f.5.5.6.5.5.g.z.x.S.A.z.x.A.J.>X{.( s Z Z Z A A N s s s s y y y y y y y y y s B B B B d s 6 d t S d B y B s B s t S H ~ ).5.D J H ( d D D D [ ] ~ D u u y y s d B V S ( 4.D ( S H d D ! <.g.G.G.x.d.d.<.g.d.E | 2.D J U F F J J S S B 7 7 s F 7 t ; q q 0 w q w ; 6 w w 5 5 = 5 5 # ; d U H F F A Z Y J ] e.>.V V V V V N p p q w 5 # # 3 # # ; h x.wXR.R.j.L.;XL.k.h.<.' j Q j / <.x.} E qX<.VX}.d.L.h.5X|.f.G.E ' g g d t 6 w 7 7 w y J 7 o ; & 5 & & 5 w w 5 ; # 5 5 ; 5 5 # X # w 3 = # o o #     # k 8 q q 5   X   O X O O @ O + o O O @ @ @ < , , + O     X O O O O O O O O o # # # , X   @ O O O 8 Y Z 6 V 6 t y 7 o # 0 N &.q.U 5 # 8 4 < O < C -., , :.PXLXKXLXLXJXCXDXDXHXDXCXD.* $ r i e T T T T T T T i i e e Q .XMXqXk.s.;XqXhXNXVXZXVXVXVXNXfX>XH.n.J.;X0X0X0X0X0X5X0XqXqXqXqXfXfXfXNXNXNXNXZXZXZXVXZXVXVXVXqX0X0XqX0X;X;XqXhXVXVXNXNXfXfXhXqXwXwXqXqXqXwX;XL.n.n.n.n.L.;X;X;X;XL.n.b.b.f.b.m.b.H.XX;X;X;XXXXXXXn.n.n.n.n.0XqXfXNXNXNXNXVXNXVXZXZXVXNX5X:X;X0XqXNXVXVXZXZXZXZXIXIXIXIXZXZXZXZXZXZXVXVXVXNXMXMXMXfXpXpX9X9X3X1X:X+X:X+X1XfXZXSXSXJXLXLXJXHXZXZXfXqXXXs.s.5XVX+Xs               X X X X   X                 X X X X     X X X X X X O o @ @ o o o o o o o o o o o # o # # # ",
"y f g Q ~ ) ~ h 5.:X>X,X,X,X,X,X,XeX,X>X,XyXyX{.J.yX,XyX<X,X,XrXrX<X,XrX,XrXyXe.% {.yX>XeX<XeX<X>X4Xz.i z.:X,XeX,X,XrXeX>XyX@Xz.r z.4XyXyXdXgXaXMXgXgXgXgXBXBXaXbXpX] ] #.Y ] F._.4.UXbXBXgXBXgXgXgXgXgXBXBXgXgXBXBX X; # ; ; 7 6 7 7 7 t 6 > r [ J.aXgXgXdXdXgXgXgXgXgXgXgXgXgXgX>Xz.^ r r t 6 6 6 7 7 t 7 7 7 6 6 6 7 7 6 6 6 7 6 7 7 7 6 7 7 6 7 w 7 7 : > > u ~ F.iXgXBXBXgXgXgXgXgXgXgXBXBXgXgXgXBXpX+X1.: 7 7 7 7 7 7 7 6 : y 6 6 y : f { F.>XyXaXyXaX>XdXyXyXyXyXyXyXyXyXOX,.f r s y y s B y y y y y t t 1.%XyXaXyXyXyXyXyXyX5XyXyX,.U ] =.=.*.] H ] ] ] ( *.[ ] ] H J t f { >XyX,XeXeXeXeXrX,XyX4XS.f : > t ~ @XyX>XyX>X,X,X,X,X>XeX,XrX,X,X5X5X5X5X5X,X,X,X,XyX5X{ 7 6 A A A A A N N N y y s y y B s B B d s s s y y y d y s s t V B B t y y s H H D ~ ! J J F F d J ] ! J =.~ ^ S u d B y s s s d d J ! ( S H ( g g ~ <.H.K.K.k.h.h.x.G.} E | [ D ( H F F F V V V s ; y S F s y y w 0 w w q q 6 0 w 5 , 5 = # 5 5 & & # 6 d F A Z P J U U P Z Z A V N N p p q 0 w 5 5 3 # ; 7 ( J.tXR.R.L.wXR.k.' ' ' r j r g ,.<.s. .n.k.H.d.x.d.x.g.:Xg.i ' e i > & : t ; ; 5 q 7 7 7 B & o ; 6 & # w 6 5 ; ; # 5 w w & # 1 o o # 5 @ X   o # O   , 4 @ , 5 o   O o o X O O # # @ O # # @ O @ @ @ @ # O     X o o + O # # # # o # # O X O #   O , @ A Y 5 s F S y y q w # # Z :.&.;   5 0 < o.7.-.-.7.7.X.3 3 (.=X*XnXLXLXLXLXLXJXHXpXr * e e i T _ _ T T _ T i i e e Q XXMXqXn.m.;XqXhXNXVXZXVXVXVXfXfX:Xn.x.H.:X0X0X0X0X0X0X0XqXqXqXqXqXfXfXfXNXNXNXNXVXVXVXVXVXVXNX0X;X0X0X;X;XqXfXNXVXNXNXNXNXhXqXqXqXqXqXqXqXqXwXwX0X;X;X;X;XwX0X5XqX0X;XH.n.n.n.H.|.:X5X5X5X0X0XqXqX0X0XqXqXqXqXhXNXNXNXNXNXNXVXNXVXVXZXZXMX5X;X;X0XqXNXVXVXZXZXZXZXIXIXIXZXZXIXZXZXVXVXVXVXNXMXMXMXfXpXfX9X9X1X1X1X:X1X:X9XZXZXZXSXIXHXJXLXHXZXZXqXqX;Xs.s.qXVX.Xy   X X X       X     X                     X X         X X X X X X X X @ @ o o o o o o o o o o o o o o o o ",
"~ ~ ) [ } ,.<.<.3. .h.<X,X,XtX,X,X,X<X,X,XJ.f & % t 5.>X,X5X,X<X,X,X<XeX<X:X] .   : 5.5X<XtX5X>X=.; .   . > f.>XtX,X,X5XoX' * % . % r z.yXyXdXdXgXgXgXgXdXBXbX4X( &     X - H S._.;.I ] @XgXgXgXdXgXgXgXhXdXgXgX{.D o       1 6 6 q 5 7 6 r f {.gXgXgXgXgXaX@Xc.( f ,.D.iXgXdXdXdXgXdXaXD.r 6 7 y 6 6 6 t 6 7 6 7 7 6 : 6 t y 7 7 6 6 t t 6 6 w w q 5 q 7 t > ~ +XpXgXgXgXaXMXpX{.w.! t H 1.OXgXgXgXgXgXgXgXgXD % 6 7 w 7 y ; 7 7 7 q 7 f h H.yXtXeXyXyX:Xz.,.B f [ 5.+XyXyXyXtXyX5X! % 5 7 d c c q q s B y V 7 f f ^ J.,XyX,XsXA.J.yXsX>Xw.o   ( :.] U ] ] ( ( ( ( ] ] *.( > f f | yX,XrXrXrXrXrX,X4X4.% + .     & t f ,.J.,X,X,XrX,X<X<X,X,X4X}.5.6.6.4.6.3.F.+XyXrX,X,X)     O U Z A Z N B B B B B s s s s y t s 7 w y q y y y s y q s V f ( ! D H V d J ! ] S S S S B F B s d u ,.D ( ( S G B s t t y y J d S J H D ! ~ ^ ^ / s.h.j.j.j.G.L.A./ E [ ^ D ] J J J F J V d w 7 7 s y 7 7 7 6 y q q 7 w ; 5 w 5 5 5 5 5 5 # 3 5 # o 5 A F Z F U Y U &.V Z N N s A N p q w w w 5 w w 5 s | <XtXR.k.j.k.R.k. .} j G g u r Q <. .L.qXk.h. ./ ~ [.f.x.h h f f J S V : : 6 6 : & & ; 6 y ; ; ; 6 # X 5 5 o o 5 5 = 5 5 5 ; 0 5 X # 3 @ o X X X O O   8 &.8 , @   o   O @ # # o o # # # @ @ @ # # @ @ o # , O # # , o # @ o o # o , 5 q w # # , @   0 U 5 ; *.! d 6 y B y # l U U V q N 8 O I ;.:.;.7.9.;.#.I n   < < z t.mXmXcX*XPXKXmX+ * r i e _ p.W T _ _ T T T i i Q [.MXqXn.n.;XfXfXVXZXZXVXNXfXfX0X;XK.H.J.;X0X0X0X:X0X0X0X5XqXqXqXqXqXfXfXfXNXNXNXVXNXVXVXNXNXhXqX0X0X;X;X0XfXhXNXNXNXNXNXhXhXhXfXqXqXqXqXqXqXqXqXqXqXqXqX0X0X0X0X0X0X0X0X0X0X0X5X9XqX9XfXMXMXMXMXNXMXzXMXNXNXNXNXNXNXNXNXNXVXVXVXVXVXZXZXZXVX0X|.|.0XfXNXZXNXZXZXZXZXZXZXZXZXZXZXVXNXNXNXNXNXMXMXMXfXpXpX9X9X1X1X:X.X0X1XpXSXDXDXSXSXSXHXHXHXZXZXMX0XXX<.s.NXVX{.5   O   X .               X                   X X X       X X X X X X O o o o o o o o o o o o o o # # # # # ",
"D D Q ^ ~ ) ) ' ' / E j A.eX<X,X,X,XeX,X,X3..     . % R K.5X,X<X,X,XtX,X,XE .   X   * A.,X,XA.*     .   & > r A.,XeX>Xz.r . . . & B ] ' ' >XdXsXgXgXgXgXgX4X! .     X = = f ] 6.N.;.#.Y 7 { +XBXgXgXgXgXgXgXyX^ .         # ; 7 y 6 7 6 t ] >XgXgXgXgX4Xz.r .     . . . r 6.@XdXdXdXsXgXaX+XH > 6 6 y 6 t : y 6 y y y 7 6 t y 7 7 7 6 7 7 7 6 w w ; 7 6 > h 6.aXgXBXgXgXgXD.=.  .       $ . % % | J.aXgXjXgXgXD.    & s 7 7 7 w 6 t 6 : { @XeXeXyX,X{.[ % $ .   . . . r 1.oXyXeXeXyX6.. B d : B c 0 q s s y V s s t u f ' D.yX,X} ' ,XeX,X{..   ; *.U &.>.] U ( H ! ] [ ( d 6 f f g.eX,XrX,X,XeX<Xx.f . o   o o y s d S ^ Q | ,X,X,X,X,X,X,X<X,.. . . . + 6 & % t | K.eX>X<..   O U Y Z Z Z B B B B y y s s s y 7 y 7 7 s y y q y 7 y s B d H ,.! f d B S H ! ! g S H F S V B d d d u D g ( J ( U B H d J S B G D J H ! ! ] [ ~ ,.g.x.j... .d.x.x./ / | ^ D ( S J V S J V 7 q ; & ; 7 V U F 7 ; q w 7 5 5 w 0 w 5 5 5 # # 5 5 5 w # o 0 Z P Y Z Z U U Y V p N N s N N p p q q w l A q S 6.,XdXwXwXk.k.R.L. .R i u t u r r / j.j.k.s._ } ^ ,.2.R r * r f S f : 7 t ; % : 7 ; ; ; y 7 7 5 6 ; # 5 6 5 & & 5 5 = 5 ; 5 w A q @ X w w X @ o     # O 8 U 3 , #     @ O @ # o O O @ @ @ @ @ @ @ # # # o , , , < # # o # o o o o @ # , N K C q 8 5 , A N 5 U =.( d : N V q 9 X.U N ; w 8   k X.-.;.r.r.9.7.^.].-.` K C n < < 3 b K ;.W.y.$ r r e i _ W W T _ T T T E T i R v.MXMXXXn.0XhXfXVXVXVXNXMXfXqX0X;X;XH.J.:X0X0X0X0X0X0X0X5XqXqXqXqXqXqXqXfXfXNXNXNXNXNXNXNXfXqXqX;X;XL.;XqXhXhXNXNXNXNXNXhXhXhXfXqXqXqXqXqXqXqXqXqXqXqXqXqXfXfXfXfXfXfXqXfXfXfXqXqXfXMXVXZXZXZXVXNXMXMXMXMXMXNXNXNXNXNXNXNXNXNXNXVXVXZXZXZXZXMX:XJ.;X5XfXVXVXZXZXZXZXZXZXZXZXZXVXNXNXNXNXNXMXMXMXMXfXpXpX9X9X1X1X:X:X0X1X9XZXHXHXHXSXSXHXSXDXZXZXMX:Xn.<.b.NXNXD.#       X                 X                   X X X X X   X X X X X X X o o o o o o o o o o o o o o # # # # ",
"g g g f f h ^ / ^ ^ f r ^ oX,XrX,X,XeXeX,X3..     & & r ^ 4X,XeX<X,X,X<X<X{ . O   & % H.,X>Xj o     & H H u j g.,XeX{.> .   o 6 S ! [ ] f D.sXdXdXgXgXdXgX,..     o N ` Y Y =.N.^.0.I L p f =.gXgXgXgXgXgXgX%X.       1 w ; ; d 6 7 u f ,.aXgXgXdXgX4Xt .       X 5 5 5 : r h @XaXgXsXsXdXgXiX]   6 7 6 t 7 7 7 y y t 7 7 t t 7 q 7 6 7 7 7 w w w 7 6 t j @XgXgXgXgXgXyX] .   X   X # ; y 6 t u r r ,.gXgXgXgX4XX     7 6 6 q 0 : t > ,.:XyXrXrXyXz.*   .     w y 7 7 f t h }.yX,XyXoX% ( OX! u 9 P N 7 s B B B B S V J S ] @X,XJ.* :X<XeX@Xu     U U &.*.U U J H ( ] ( t 6 6 t r }.,X,X,X<X,X,X|.r .     2 y t U ] V y u j E G.eX<X,X,X,X,X>X>   X   5 V U U U U H ,.:XeXF.. o   U U J P Z Z B N N s q s s s s s V B B s y y y s s q s 7 s D [ D f y d s d d d S S F s y y B V d B y V S B S d B J ( J ( =.J ( ] ( H ! ] ~ ~ [ [ 5.z.g.A.3.3.f.3.E [ [ ! ! ( H F U V J J 6 ; 5 w ; & 6 s q w q q w 5 5 w q q 0 5 5 # # # 5 5 5 # # # w N Z Y A Z U Y P A N N N p N N b p p N N b A s H A.tXwXT.R.k.j.R.R.s.R h G : t t f [ j.a.a.k.} E r 1.~ > h d > H ( r 6 % : ; ; ; o & 6 y 6 6 7 o & & # # 6 7 w w w 5 ; w 5 w 5 5 w 5 @ 5 = o o # X   O , # 3   O # #     O @ # @ @ o @ @ @ @ @ @ @ # # , # , , 8 , , , # o o O o o O @ # , l 9 , # 3 w p w 7 U J t : ; 5 w w N &.U 5   O P W.7.A A -.r.t.t.9.7.q.q.y.r.-.#.K C #.I n k n U 2 u e e i _ W W T _ _ T T T i i i f.9XNX;Xn.0XhXhXVXZXVXMXfXfXqX0X:X;XH.H.:X0X>X0X0X0X0X0X5X5XqXqXqXqXqXqXqXfXfXNXNXNXNXNXfXqXqXqX;XL.;XqXhXhXhXNXNXNXNXNXhXhXhXfXqXqXqXqXqXfXqXqXqXqXfXhXNXVXZXVXVXMXfXfXfXMXVXNXNXNXAXZXZXSXZXZXVXMXMXMXMXMXNXNXNXNXNXNXNXNXNXNXVXNXVXVXZXZXZXfX|.|.;X5XfXVXNXZXVXZXZXZXVXVXVXVXNXNXNXNXMXMXMXMXMXfXfX9X9X9X1X:X:X.X3X3X+XpXHXJXJXHXHXHXSXZXZXZXMX;Xn.s.XXNXMXe.X       @   X                                 X X X X     X X X X X X X X X o + o o o o o o o o o o # # # # ",
"t t t r r j Q / ' ^ f t > { <X<X,XrX,X,X,XA..     9 # > r ' >X<XeXeX<X,X,Xz.%   O ; j >XeX<.r     X s s S Q E J.rX,X4.    o 5 S h g t u r 5.dXgXdXgXgXgXgX.     # w Y =.&.U :.^.].7.M k 0 6 r BXgXgXgXgXgXgX_..     5 l q 6 ; : q : r 6.gXdXdXdXgX+X.       O 8 w 5 0 s 6 6 t r {.yXsXdXtXsXgX4XH o % 6 q y 6 6 6 7 7 7 7 7 7 6 7 7 6 7 q 7 w w w 6 r ,.gXgXdXgXgXgX+X> .   O   5 0 q w t ; 6 6 : t > [ aXgXgX5X  O   6 y 6 q w u r 5.yXeXeXeX<Xz..   O   0 s Z V s V s B f h H.,X<XyXf H %XoX^ & 6 w N q s V V B B Z F Y S A.,X>X~ ) ,XeX,X[ o X 0 U U Y Z V d V S H s 6 B y d j :X,X,X,X,X,X<Xz.. +   w P B g ] J t B d g j g.,X,X,X,X,X,X>X      o 6 d U H ] U ( ] A.eXK.%     Y ] U U U F V Z Z A A V V V V B B y y s s d d q 0 p w d d ) ~ D D u d V F S s s s B s B y s y y s s y s B d d y F B F F &.H &.*.( ] ] ( ] *.( *.,.,.5.x.x.g.A.<.Q 3.[ D ( H F Z B S J S U 5 s w 6 6 q s q q V q w 5 5 w q q w 5 5 # # # # 5 5 # # # # q P P A Z P A Y A A N N b N A N N A Z Y U b d { J.dXtXR.R.L.k.R.j.s.| Q u u 6 6 t j i _ a.k.} R g =.] > S : 6 : S H S y s y 6 ; % : 7 6 6 6 y # & ; ; # ; 5 5 5 5 # # 5 3 w w # w w   @ @ # # X o X # q K l #   O # O   O @ # # o # @ @ O @ @ @ + @ # , , 1 , 9 , # # o o X X o o O @ @ 8 q 8 8 , w A p # 7 B > . . ;     & A U s o X l &.mXPXnX].&.U >.-.X.9.y.N.t.r.t.W.y.:.&.;.;.t.`.v : r e e e T W W T _ _ T T i e e i 2.9XNX0Xn.0XNXhXNXVXVXfXqXqXqX0X:X:Xn.H.:X0X>X0X0X0X0X0X5X5XqX5X5XqXqXqXqXqXfXfXNXNXNXfXfXqX0X:XL.K.0XhXhXfXNXNXNXNXNXNXNXNXhXfXfXfXhXfXfXhXhXfXfXfXNXVXZXZXZXVXVXVXVXVXVXVXVXZXZXZXZXZXZXHXZXZXZXVXMXzX9XMXNXNXNXNXNXNXNXNXNXNXNXNXNXVXZXZXVXVXqX|.XX:XqXhXNXVXVXVXZXZXVXNXVXNXNXNXMXMXMXMXMXMXMXMXfX9X9X9X3X+X.X.X0XfX[..XBXSXJXHXHXHXHXHXZXZXNX;Xn.m.0XVXfX,.        X   X               X X X X X X X X   X X X X X X X X X X X X X X X o o o o o o o o o o o # # # # # ",
"u t t u u f h R ^ ) ( J g r J.,X,X,X,X<X,X@X% X   5 w : > r g.eX<X<XeX<X<XoX%     > 5.yXK.f %     V J G g j i <X,XoX[       s u r t y t f z.gXdXgXgXgXdXgX. O   w V J =.=.] 9.N.t.Y b n 8 s r fXgXdXjXgXdXgX).      q 6 5 q y q 6 t ,.gXdXgXgXdX7Xu   o   X ; q y ; y 6 7 t : u j :XyXsXdXsXyXgX&Xf . 7 9 q 7 6 7 q q 7 7 7 7 6 7 w w w w 7 7 6 7 t *.pXBXdXgXjXaX4Xf     X # 9 6 q 7 7 7 6 y y 7 : r r F.gXBXyX  X   6 y 6 q 7 t ,.yX,XrXrX,XK.> .     5 B V y f s s s y y r R oXyX,X3.h +XyXH.% . N N s s N s y B V N F ( x.eX,X5.$ oX,X,X+X$ o o U U U J Y V J V V w q s t u | ,X,X,X,X,XrX<Xz.      s U H t ( s 7 s B S h 3.<X,X,XrX,X,X>X.     0 w y U U U ] ] ] | rXyX] 1   Y *.*.&.&.( U P F F F F F V V s B B B s y d d V B 7 B t f ! ! D ~ H S V s B s V B s B B V N N N N N s w B y s B B V V P B Z Z F U U U ( ] ] ] 1.,.,.z.6.z.3.g.} / l.~ S ( F F N F s V H ( N s w 5 ; ; 5 5 6 q w 5 5 5 5 w w 5 5 5 # # # # 5 5 # # # # w A Z A A Z Z A A K N b b A Y Y Y P U U U U J 3.K.tXtXwXR.L.R.L.k.k.} Q u r u G t h R  .s. .E j [  Xw.r t B . % t u t y ; : 6 ; o o & 6 6 6 7 7 & & # 6 # & ; ; ; # # # 5 5 w 3 w 3   # 3 # w w o     # 0 , O O O O @ O O @ @ @ o o # @ @ @ @ @ @ @ , , , , , 1 , X o o o o o o o # # < 5 8 8 5 # w Z w t d S u & . & # 5 F P &   5 w 3 O 8 +.q.&XnXmX*X-X].-.X.#.:.:.;.r.q.q.:.r.t.9.-.c * e e e i T _ _ _ W T T T i e e i *.3XNXqXL.0XhXNXNXVXNXfX5X5X5X0X;X;Xx.H.:X0X0X0X0X0X0X0X5X5X5X5X0X5XqXqXqXqXqXfXhXNXNXhXfXqX0XXXH.:XhXVXNXNXNXNXNXNXNXNXNXNXfXfXfXfXNXfXfXNXNXNXfXNXVXVXVXZXZXVXVXZXZXZXZXZXZXZXZXZXSXSXHXHXHXHXHXZXVXMX9XMXMXMXNXNXNXNXNXNXNXNXNXNXNXNXVXVXZXZXVX0X[.XX0XqXNXNXVXVXZXZXVXVXVXNXNXNXMXMXMXMXMXMXMXfXfXpX9X9X3X+X|.[.0XVXH.v.3XMXSXHXHXHXJXHXZXZXNX;Xn.n.qXNX1XH                       X     X X X   X X X X   X X X X X X X X X X X X + o o @ o o o o o o o o o o # # # # # ",
"y t 7 6 t t f h j f f H S R 3.<X,X,X,X,X,X,X,.      5 > > r ' >XtX<XrXeX,XyX]   . > J.>X| u %   & V : r r j g.yXeXA.f     w B t d t y y : 5.dXdXdXgXgXdXMX.     # V S ` ] ] 9.9.I p q 0 w 6 > gXgXgXgXgXdXgX_.+ X   q 0 y q 6 6 : g yXgXgXgXdXgX5.o       ; p 7 6 7 : 7 t 6 6 t > [ yXyXsXsXeXsXaX>Xr   6 q y ; 7 7 q 7 q 7 7 7 7 w w w 7 7 6 : t ! pXgXgXjXgXgXBX( .   X X 6 7 6 7 6 : t : t 7 7 6 6 r f gXgXgX#     5 6 7 6 : f 4X,XyXeX,X5Xu   o   q V s V V 7 a 7 7 6 t t > ,.>X,XA.i :X,X<X{..   w N s B N y d s U P S x.,XyXoX* 6.,X,X,X]     V J U Y Z V V N 7 7 q q f h K.,X,X,X,X<X,X,XF.  X   q F B t u : s y y u h 5.,XeX,XrX,X,X:X.     0 q q P &.&.*.] =.{ J.4X=.y   V *.*.&.] U H J F F F S B B B s B B d y B ( ] y y y 7 d d ! h g D d d F V B s s B B F F J V V N s N B Z s B s N N Z s B V Z A Z B F U U U &.( ( ] ] *.[ ,.} f.^ [ 5.! J ( F F F y V F S H ] w 5 5 w w 6 6 5 1 w 5 5 5 5 5 w 5 5 5 # # # # # # # 5 5 # o 5 l A A Z Y A Y I A N b Y I U U U U Y Z ` H 5.G.L.wXwXR.k.k.n.<XL. .) u g t t D ^ ' s.s./ i r > =.c.. c.%XF H *.$ % 6 7 % o 7 y 7 6 ; & 5 6 7 o . # 5 ; ; ; 5 5 w w 5 5 5 5 3 3 # X X @ X # w ;   O q l #   @ O   O @   O @ @ o o # @ @ @ # # # # , < , # , @ , O O X # o o o # # # < # , , # 1 y V 6 t u D D u y : q s 5 O   5 q q w w 3 #     7 &.u.iXPXmXy.N 0 4 A -.q.>.:.9.9.q.7.c e e e i T T T T _ _ T e e e e e e ! 1XMXqXXX;XNXNXVXVXNXfX5X5X0X;X;X|.H.H.:X0X0X0X0X0X0X0X5X5X5X0X5X0X5XqXqXqXqXfXhXhXhXhXhXqX;Xn.XXfXVXVXVXVXVXNXNXNXNXNXNXNXfXfXfXNXNXNXNXNXVXVXNXVXZXZXZXZXZXZXZXZXZXZXZXZXZXZXZXZXZXSXHXHXHXHXHXZXZXVXMXMXAXAXMXNXNXNXNXNXNXNXNXNXNXVXVXVXVXVXSXMX:XH.|.0XqXhXVXVXZXZXZXVXNXNXNXMXMXMXMXMXMXMXMXfXfX9X9X9X3X1X.X[.9XZXXXH.:XpXVXSXHXJXLXHXZXZXMX;Xn.;XfXfX).t           X         X X     X X X   X X   X   X X X X X X X X X X X + + o o o o o o o o o o o o o # # # # # ",
"; ; : 6 6 u h ! g r 6 6 t f R +X,X,X,X,X<X,X}.%   + # 7 ; & u |.<XeX,X<XeX,X+X% . D yXoXh > .   Z B t f ~ [ >XyXyX[ . .   q B y 7 7 w y : 5.gXgXdXgXgXgXBX      o s f J ` :.q.#.b 0 w q 0 6 r gXgXgXdXgXjXgXD.    O c 9 6 7 q y r {.gXdXdXgXgX>Xo     # 5 w ; w 7 7 7 6 6 y 7 y t r z.yXeXsXrXsXdXyXe.%   9 & y 7 7 7 q 7 7 7 7 6 7 6 w 7 6 6 : ! 4XBXgXgXVXgXBX5.  +     7 7 7 7 7 7 6 7 6 7 w 7 q 6 : r {.pXpXt     w q y > h @XyXeX,X,X,Xz.. o   O A y : t w 7 6 7 7 0 5 6 t r J.eXA.i oX,XrX>X[ . , N N s A P N V Y Z ! A.rX<X,X' h 5X,X,XA.& . 5 U U U U U F V q q w y t { ,X,X,X,X,X,X,X,XF.      w c y t r > t 6 q y g ,.5X<X<X,X,X,X>X.     5 q y s ( ] &.*.*.[ 6.).1.F X V >.*.*.&.] ( U H H J F S G G B s y B G J F d y B y d d ( ( u D ( H V V B B V V N s s d F J U U U V V B s N s N s B Z A Z A P P U U U #.&.&.&.&.&.&.( =.] [ ,.^ 2.,.D H U S V B V s d J V &.q ; ; 5 5 ; 5 9 0 w 5 5 5 5 5 w w 5 # # # # # # # 5 # o o # , 5 8 N Y U Y Y I Y Y Y I I I U P Y A F V ] h.L.k.R.R.wXk.k.R.;Xk.} h f D u f ~ / <.s.' / ^ u t 1.d t ] 1.( =.: & % 6 t ; ; 6 6 ; & & & 6 ; 6 & o ; ; ; ; ; 5 5 w w 5 = w 0 0 w w w   3 w o         N 8 X   # o O     O @ # # # # # @ @ @ # # , < < # # @ < @ , 1   O # # o o o o # # # # # + q q 6 6 g D ( ! G d & & 7 X O < 8 0 5 5 #     B s 6 q w   P ].GXPXnX=X(.W.y.Z C U #.>.q.P u e e i i T T T W T T i e e e e * g .XMXMX|..XhXNXVXNXNXfXqX5X0X;X;X;X|.}.:X5X0X0X0X0X0X5X5X5X5X0X0X5X5X5XqXqXqXfXhXNXhXhXfX:XH.H.0XNXVXNXVXVXNXNXNXNXNXNXNXNXfXMXNXNXNXNXNXNXVXVXVXZXSXZXZXZXZXZXZXZXZXZXZXZXZXZXZXZXZXZXHXHXJXHXHXHXZXZXZXZXCXZXAXVXMXVXNXNXNXNXMXNXNXNXVXZXVXNXZXZXfX:XXX;XqXfXNXVXVXZXVXVXNXNXMXMXMXMXMXMXMXMXfXfXfX9X9X9X3X1X|..XfXVX;XXX1XfXMXZXHXJXLXHXSXVXqXXXn.0XNX5X1.o     .               X X     X X               X X X X X X X X X X X + + + o o o o o o o o o o o o o # # # # ",
"6 7 y B G S D D f : y y : r f 5.,X,XrX<XrXeX>X[ + + # ; ; 2 t [ eXrX,XeX,X,XyX' $ 1.yX6.r .   # B H D h ^ | yXyX@Xr     o N q q y 0 y 7 : 5.dXgXgXgXgXgXMX.     7 f f V ] y.N.Y n l q q w w r gXgXgXgXgXgXgXD.. O O 8 c 6 6 7 > =.BXdXsXdXyXgX,.      # ; 7 w l 7 w q 6 7 5 0 6 : > j >XeX,XsXeXeXyXaX. +   y 6 7 7 7 q 6 6 6 7 6 6 6 7 7 6 r r z.BXdXhXjXgXgX&X* o   O ; : y 6 7 7 7 6 q w 7 7 q q q 6 > ! CXpXu .   , 0 6 r 2.sXsXtX,X,X,X(       5 5 6 t 7 5 ; ; w w 0 q 6 7 t j rXH.E :X<XrX<XJ..   5 Z Z A C U Y U U H D.,X,X,XoXo {.,XeXoXs     U U U U U J N w w p V > F.<X,X,XrX,X,XrX,XF.  X   V U y d D f J U B y f 1.>XG.K.,X,X,X>X      w w q V ( =.&.=.=.] *.[ =.*.  N >.*.*.&.] ( ( H H H J F S S S B d d t t d t u d d d S ( ] D G ( U s s V V V V B s t V V F Z F J Y B V Z U Y U &.U Z Z Z U U U U U X.&.&.&.&.&.U U U ( ! =.[ ^ 5.) D ( ( J F F F V s d s V w 5 5 5 5 5 5 w w w 5 ; ; ; 5 w 5 # # # # # # # # # # 1 5 , # # , N P I I Y Y I P ` ` U I Y Y Z Z V d { h.wXR.p.a.R.a.j.k.L.j.E R g u r h ^ E  . .E E r g ( & # :.( o B . % o 6 6 7 : & & ; 6 6 ; 6 & . ; 6 . ; # - - ; ; ; w w 5 5 3 w q # # w 5   X # o   X w l 5 @ O     O   O O # # # # # # # @ @ @ , , , < # # # , < 8 q   o # # o o X o # @ @ # # , V & . B D D D G G t s V y o , k 8 q 5 = 7 Y U B V B U U N # O O :.cXPXKXKX=X-X^.A @   8 P u e e i e e T W p.W T e e e e e $ u [.MXVX;XXXfXNXNXfXNXfXqX5X0X:X:X:X:X}.;X5X>X>X0X0X0X5X5X5X5X5X5X5X5X5XqXqXfXfXNXVXNXhXqX;Xn.;XqXfXNXNXNXVXNXNXNXNXVXNXNXMXMXNXVXVXVXVXVXVXVXVXZXZXSXSXZXZXZXZXZXZXZXZXZXZXZXZXZXZXSXHXHXHXJXJXHXHXZXZXHXZXZXZXCXAXAXVXVXVXNXMXMXMXNXMXNXZXVXVXVXVXZXfX;XK.0XqXNXVXVXVXVXNXVXNXMXMXMXMXMXfXMXMXfXfXfX9X9X9X3X1X.X+XMXVX;XXX0XfXMXZXHXHXLXJXHXVX9Xn.n.qXfX:X!                       X X   X   X               X X X X X   X X X X X + + + o @ @ o o @ X o o o o o o o o # # ",
"7 6 6 6 6 6 : > r 6 6 7 6 t r h :X,X,X,X,X,XyXA..   o w = 6 > : K.eXtX,XtXeXeXA.$ +X4Xr 6 +   - u S d g h x.yXaX,.%     6 d t y y y y q 7 e.gXdXgXgXBXgXBX.     7 S g h *.1.] l 0 6 q q 6 : r gXdXgXgXgXgXgXF.    X y w 8 q 6 r {.yXdXsXsXdXyXD       # q w 6 7 w 7 7 7 6 7 w 7 7 r u x.yXyXeXeXtXsXaX)..   & 7 6 y t 7 w 7 7 7 7 6 7 5 9 7 t ] gXgXgXjXdXhXBX5.      # 7 7 6 t 7 7 7 7 6 7 s q y 5 7 6 7 d _._.t     @ q t j J.yXeXtX,X,X>Xd     O 5 7 7 7 6 : B s y y 7 w w w 7 f D.}.} ,X,X<X,X,X'   + q V Y U P Y U U ( H.,X,X<XrX( Q >X,X,X|     7 S H U Y Y s 5 7 7 f D >X,X<X,X,X<XrX,X,XF.. O   Y V *.[ ~ *.=.H w q B ,.z.3.L.,X<X,X4X      5 w q V U ] ( ] ] ] ] ] =.*.*.*.=.=.*.&.] ] ] ( ( H J J S S S S B S d d S g s B V S S S ( S H ] F B s s d d B B B s y s B F F V B B B s A F F P P Y P U U P P P P U #.&.&.&.&.&.U U U ] =.^ ~ 3.D G ( F F B 7 y 7 w w y q 6 5 7 7 5 5 5 ; 0 w 5 5 5 w w 5 5 ; ; ; # # # # # # # # # # # # # 8 K I Y K K I I ` U U F V N B y d f | L.wXk.a.k.k.s.s.k.R.d./ Q r g r r E }  .} E R * * U & o & & c : : % % : % t ; 7 & o 7 7 & 6 ; ; o o # X ; ; # # ; 5 5 w 8 5 5 5 0 q w X l X   ; # X   , 8 , O X X     O @ @ @ # # # # # # , , , @ O @ # < # # @ # , 0 3 X # # # # o o o O , 5 o N s ; . G ( Q g D ( ( U Z ;   5 # O , l U >.:.4.=.V P A s b P :.q.&.] U U -.(.CXPXPXnX=Xu.=.* e i i T T T p.a.W T i e e e * $ * ~.lXVX0X[.5XNXNXNXfXfXqX0XwX;X;X:X:XK.;X5X>X0X0X5X5X5X9XqXqX5X5X5X5X5XqXqXfXNXVXVXNXhX0XJ.|.qXfXqXfXNXNXMXfXNXNXNXVXNXfXNXMXMXNXVXVXVXVXVXVXZXZXZXZXSXSXSXZXZXZXZXZXZXZXZXZXZXZXZXHXHXHXHXLXHXHXHXIXZXIXHXZXZXCXZXZXZXZXVXMXMXMXMXMXMXNXNXMXVXMXNXVXVXfX;X|.qXfXVXVXVXVXVXVXNXNXNXMXfX9X9XfXMXfXfXfXfX9X9X3X+X{.1XMXMX|.;X0XqXNXVXZXHXLXJXHXZX0XH.XXqXMXD.6 X                         X X         X X X X         X X     X X X X o X X X o o o o o o o o # # # o o # # # ",
"7 7 ; : : : : > 6 6 6 7 7 t * r 6.eXrX,XrXeXyXoXr .   w w w > : ,.,XeXeXtXeXyX>X[.yX6.> &     : y t t d j oXyX>Xf . o o s V S u y y y q t z.gXgXgXgXdXgXBX.     6 S h H ^ S s p w w y & 5 t r gXgXgXgXgXgXgXF.      0 9 q q > ^ 5XdXsXsXsXyX+Xu       5 q 7 7 7 7 7 7 7 6 6 6 6 6 : r | 5XeX,XrXrXtXdX4Xt   o w 5 7 7 6 w w 6 7 6 y 6 6 q 6 > yXBXgXgXgXdXgXgXt       ; w w 7 7 7 7 6 7 s B V y 6 s y 6 y 6 t f 7     q 0 : [ aXsXeXeXeXeX}.%     # q y 7 6 7 s F s 7 7 7 7 7 w 6 7 1.@X3.,X<XrX,X,X>X.   # Y Z U U U U U ( oXrXA.A.yX5.$ K.,X,XoX.   o H U U U 4.U w ; s > A.5X<X' <XtX,X<XrX,XD..     J H ] ~ [ ,.4.:.U q : ) ' | K.eXeXeX+X.     w 5 q y y d H J U U U U U ] &.*.>.=.>.*.&.] ( ( U U H J F F J S S J S d S S F u d u D D u g y d 7 y s y s d ] U B s s s s q s s s B V Z J U ( &.*.*.*.*.*.&.&.&.&.&.&.&.*.>.>.*.&.*.( ( { D ^ ,.D H U V V V 7 7 q s q w 6 6 6 s V 5 5 5 w w q w 5 5 w w 5 ; ; = ; # # # # # # # # # # # # # 5 N Y U I I U U #.` U Y Y p q & : f 3.L.R.R.R.R.k.k.j.n.L. .' u g u u ^ R  .} T / v.,.%   6 # 1 # 7 t d t . % t V ; 7 o ; & y y ; & y 7   . # o - - - ; ; 5 5 w w w w w w 0 # 8 w   # # X X   , o O O @ X   O @ # # # # # # < < , , , @ O # , , # # o # 3 8 5 # o o o # o # # # 3 o & y 6 . . g ! D G g ( ( U w X X #   # , Z q.u.] s 7 V ` &.U P n n r.9.y.4.*.>.A N q.c.cXKXLX2X* r e T T T p.R.a.W T i e e e * * * w.9XMX9XH.:XNXNXNXfXhXqX0X;X;X:X:X0X|.;X0X>X0X0X5X5XqXqXfXfX9X5X5XfXqXqXqXfXNXVXVXVXfX:XJ.0XfXfXqXfXMXNXMXfXNXNXNXNXNXNXVXVXNXNXVXVXVXZXZXVXZXZXZXZXZXSXSXSXZXZXZXZXZXZXZXZXZXZXZXIXHXHXHXJXHXHXHXIXZXIXIXIXZXCXZXZXVXZXZXVXMXMXMXMXVXAXMXMXMXMXMXNXVXhX5X;X0XfXNXVXVXVXVXVXNXNXMXMXfX9X9XMXMXfXfXMXfXpX9X3X.X[.9XNX9X;X;X0XqXNXNXZXHXJXJXHXZX0XH.;XqXfXw.&       X X                   X         X X X X         X X     X X X o o X X X o o o o o o o o # # o o o # # # ",
"; ; 5 6 6 : 6 : : 6 6 6 6 y 6 t ^ >X,XrX,X,XsX>X[ $   # ; o : & h 4X,XtXeXeXeXsXaX4XS o     ; : : : t > ^ aXgXA.7     ; S d S S S d y 7 : w.gXdXgXgXgXgXpX  +   & u h ^ ] H d q w 5 0 5 7 7 > aXgXgXgXdXdXdXS.  O   w q l q : e.dXsXeXtXsXyX{.*     X 7 7 7 t t 7 7 6 6 7 7 7 7 q 7 : j >XeXrXeXtXeXsXaX[ .   5 s s y 7 q w 7 t q 7 y y 0 6 [ gXgXgXgXgXgXgX&X      # w w w w w 7 7 7 y B H H d 6 7 6 6 7 s ; t 7 w 5 q 6 r }.yXsXtX,XeXyXA.      5 w 6 6 6 6 7 B y t 7 6 7 w w 0 6 H +XA.eX,XrXeX<X>Xh     V P U ( U U U ( +X,X3./ 5XoXj { >XeX>X[ .   B &.Y V V s 5 q t D 4X,X3.E >X,XeXeXrX,XF.%     7 H =.,.,.[ ^ d 6 q t f h 3.<XeXrXyX4Xo     5 0 ; 7 7 : F =.J Z U P U &.&.&.>.>.>.&.&.&.U U U U H J J H J V S H ( ( ! ( H d D D ) [ f r d s y 6 q s V V V V s y y q s s B V F J U ] &.*.*.=.1.=.*.*.*.&.&.*.:.4.q.w.4.4.4.:.=.*.{ ] [ ' [ [ D H U F F V s q w q q q 7 y 6 V J 6 ; 5 0 w 0 w 5 5 5 5 5 ; ; # # # # # # # # # # # # # # # # q P U U U U U #.U U Y V p w o t h h.<XR.R.wXk.k.k.j.s.L.k./ f g g ) } / } / g.fXfX2.r : & & # 5 & 6 d S S F ( ; ; : 6 6 6 6 ; 6 & 6 ;     # o # - ; ; # # # 5 3 w 5 # # p w 3 w o X =     @ O O @ # o X   @ @ # # # # # # < , # , , , # , , < < # o # 3 8 8 5 # # # o o # # #   O c y 6 & : g Q Q ^ ~ [ U B o o o , U U &.&.:.(.q.6 J ] Z V Y #.;.9.#.8 9 B Z y.$Xc.q.] 7 y B w.$ e e T T T a.M.p.T T i e e e $ $ $ ) 2XMXqXXX|.qXNXhXNXfX0X;X;X;X;X0X5X|.|.5X>X0X,X5XqXqXfXfXfXfXqXqXfXfXfXfXfXNXVXVXVXfX|.;XfXfXfXfXMXMXNXMXNXNXNXMXMXfXfXfXMXfXMXVXVXVXVXVXVXVXZXZXZXZXZXSXZXZXZXZXZXZXZXZXZXZXIXZXIXHXHXHXJXHXHXHXHXZXZXZXZXZXZXZXZXVXZXZXMXMXMXMXMXVXMXMXMXMXMXMXMXMXMXfX:X:XfXNXVXVXVXZXVXVXNXMXfX9X9X9XMXMXMXfXMXpX9X9X3X.X{.vXMX0X;X0X5XqXNXVXZXZXHXJXHXZX0X[.0XhX9X,.o                           X X X         X             X X X X X X X o o X o X o o o o o o o o o o o o # # # # ",
"; & & ; 6 ; : : ; ; ; 6 6 t 6 : j A.eXrX<XtXeXyX:X* . X 0 w % 6 > A.fXyXtXsXtXsXdXH.o       : : u t 6 f F.aXgX,.X     t d h D ^ D S s t t z.gXgXgXgXgXgXBX.     6 D D h h D d s N y q p w % r aXdXdXdXdXdXdXv.      6 q 6 6 u @XyXeXtXtXyXyXD..     5 t 6 t 6 t 7 7 7 6 7 7 7 6 6 7 t r J.,X,XrXtXtXeXyXS..   , N s y 7 6 6 6 7 7 6 6 6 6 ; z.aXgXgXgXgXgXgX,.      5 q w 0 q 0 7 7 7 t u S S t 7 6 y s q q y 6 w 0 N q y h gXdXsXsXeXeXyX5.      6 : ; 7 q 6 7 d y t 7 6 w q q N 7 f oX<X,XrX,XeXrX,X4.o   7 V F Z A V Y J >XrX{ e [.yX6.r >XeXeXJ.%   w N q 7 : 5 7 s > 5.yXoXj E >XeXrXrXeXeXJ.>     7 H ! j u R [ ] B q t r ^ A.rXeXeXsX5X.     # q q 6 7 u 1.6X1.A U U P U #.&.&.&.&.&.&.&.U U U U P F J J J V S S H ] ( F S S ! [ ~ ) ~ D B y B q s N s 7 s s s s N V V V V Z F J U ( ] ] [ *.=.*.*.*.*.*.*.*.*.=.1.4.w.w.1.q.:.=.=.4.,.[ 5.] S S F Z V V J F s w 7 w 6 6 5 s V 5 ; ; w w w w 5 5 5 5 5 5 ; # # # # # # # o # # # # # # # # w Y U U P Y U P Y Y V s 7 5 ; r ' L.wXR.wXtXwXR.a.a.j.R.k.R D r Q 5.' R R ' s.<./ j $ % X # & # 5 B 6 % d F y & 6 o o . & 6 7 6 ; o           # - ; # # # # 5 w w 5 # # 0 5 X q = X       # , o # # o   O @ @ # # # # # # , , @ , , , # , , # , # # # 1 , 8 8 X X o o # , 5 w 3 w q ; o . * g r h G D S B w w w Z Z &.q.q.q.~.:.>.4.U U Y d w n U #.-.u.U F *.] S f ~ ! ] c.*.* u e e T T p.a.M.a.T T i e e e $ $ $ G XX9XqX;XXX0XNXhXhXfX0X;X;X;X:X0X0X|.|.5X>X0X0X5XqXfXfXfXfXfXqXfXfXfXfXfXhXVXVXVXVX5X|.0XfXqXfXMXNXNXVXMXMXNXMXMXMXMXfXfXhXfXNXVXVXVXNXNXVXVXVXVXVXZXZXSXSXSXZXZXZXZXZXZXVXZXZXIXHXHXHXHXHXHXSXZXZXZXZXZXZXZXZXZXVXMXMXVXVXMXMXMXMXMXMXMXMXVXMXMXMXMXNXNX5X;XqXVXVXVXVXVXVXVXNXMXfX9X9XfXMXMXMXMXMXfX9X9X3X.X.XMXVX3X:X0XqXqXNXVXZXZXHXHXHXZX;XXX5XNX9X*.X   X                         X X               X       X X X X X X X o o X X X X X X o o o o o o o o o o # # # ",
"t : : d F d : % r t t t : > r t j g.yXeXeXeXeXyXaX[     # - ; % : D aXyXsXdXsXdXdXH.      o > t t 6 t f gXgX5Xu     % S D ~ ^ Q H g u 6 : e.gXgXgXjXgXgXBXo     & G ! D D h J H V y 6 y 7 t r pXdXdXsXsXsXdXz.    X q y y t D yXyXeXtXeX,XyXS..     F S S S d B B B d d d d s y y s d f 3.,X,XrX,XtXdXyX@X.   O q y 7 6 6 6 7 y q 7 7 y t t @XBXgXgXdXgXgXgXo       w q w q q q 7 y t t y d d : 6 6 6 6 s q V s N 7 q 7 S 5.yXdXsXsXtXyXyX6..     7 t 6 y y y d F y 6 6 7 y s s c y u A.eX,XrX,X,X,XrXz.    5 U B V V B f h 4XyX^ $ Q >XoXj x.,X,X>XD o   5 q 6 6 w : t r oXyXA.u f >XeXrXeXeXeXoX:     % : r f [ 5.5.*.B 6 : f 4.oXyXeXdXeX5X.     0 5 w ; t d @XuXw.Z o l Z Z U #.&.&.&.&.&.&.&.U U P P F F S V s V s s S B y V B S [ [ ] ! g J y q q q w q y y 7 7 7 q q N B N A V F H ( ] *.*.=.=.*.*.&.&.&.&.>.:.:.4.:.:.:.:.:.:.:.=.[ ,.D.5.( S V s s s s y s s q w w 7 q 6 5 w 5 ; ; ; 5 w w w 5 5 ; ; 5 ; # # # # # # # # # # o o # # # # # N Y Y P Y Y A V V s 7 & ; ; r ' L.wXR.R.wXR.wXk.a.a.j.k.E ) * h <.' / R E <.<.E e > ; o & 1 & . & % & B B y % & & 5 7 X & ; ; ; ; ; ; .   X - - - # # ; 5 5 w 5 5 5 3 0 5 = w P       O # , # o @     O @ O # # # # # # , , , 5 , @ O # , , , # , , , < 5 0 # # o # # # , 5   q q & & : r g i h h g 6 ; # w U U A A &.:.7.r.u.1.(.e.s ; s q N C X.;.U $XcXOXe.e.F.F.,.D ) D * * e e i T p.p.M.a.T T T e e e $ * $ r l.9X9X0XL.;XqXhXfXqX0X;XXX;X0X0X0X|.|.0X0X0X,X5XqXfXfXhXfXfXfXfXMXMXfXfXhXVXVXVXVX5X:XfXfXfXfXVXVXMXfXfXfXfXfXfXfXMXMXfXfXfXfXfXfXfXhXfXNXNXVXVXVXVXVXVXZXZXZXZXZXZXVXVXVXZXZXZXIXIXIXHXZXZXZXZXVXVXVXVXZXZXZXZXVXVXNXVXVXVXMXMXMXMXMXMXMXZXMXMXMXMXVXVXfX;X9XVXVXVXVXVXVXVXNXMXfX9XfXMXMXMXMXMXMXpX9X9X3X{.1XZXZX9X0X0XqXqXMXNXZXZXHXHXZXZX;XXXqXNX3XH o                                       X X     X X     X X X X X X X X X X X X o o X X X o o o o o o o # # # # ",
": & 6 B S t > : t t t : > > f f ~ { oXyXsXyX,XyXyX}.>     w ; ; 6 * D.gXyXdXsXsXsX:X: @   ; : : 6 t r 5.gXaX,.t .   H *.[ ~ ~ [ ! S s y t z.gXgXgXjXhXgXBX. .   g ( ) Q j f g D J f u t t r > aXsXsXsXsXsXyXz..   X B V V S [ yXeXrXrXeX,XyXl..     F S S S B S S G S S S S S S F S V h ' ,XeXrXeXeXdXdX%X%     7 7 6 ; 6 w y d B s B B s f gXgXgXgXgXgXgXgX      + q y y s s s s d d B S S S t 6 7 y s V V s B s V Z B f F.dXdXdXtXeXsXyX,.      s d f B B B S S y t t 7 y s s y B f 3.yXrX,XeXrXrX,XH.o     B U ( U S f ' yXyXD % . J.yX,.j 5XeX>X5.    # 5 7 : 6 6 > | 5XyX~ & h >XrXeXtXeXsXoX:     ; t t D z.oXz.! y 6 % ^ +XyXsXyXyXsXyX. .   ; 5 : t > { aXpX=.B o , Z U U &.&.>.>.>.-.&.&.U U U U J J J F V V V B B V Z V Z F J J S S J V s N N N s s q y y s B s s B V A V V S F H H ( *.*.*.*.>.>.>.>.>.>.>.>.>.>.:.:.:.>.>.*.! [ ,.,.6.H S S V N s 7 q q q q w 6 5 6 q ; 5 w 5 5 # 5 5 w w 5 5 # 5 5 ; # # # # # # # # # # # # # # # # X = q Z P Y Z A s q w 5 % & X t <.L.R.T.k.L.k.L.L.j.a.j.n.<.} Q }  . .' ' ' } l.2.,.r . o . . & . & : % > & o % ; & 5 ; # # & & o & w X   o o # # # # # ; ; 5 = # o 5 = 5 w p - &.U   = 3 5 # o X       @ @ @ < , # # , # , , 5 5 , o O @ < , , # # < , < , w w 5 # , # # # , q Z 7 5 ; : : g u u g u 6 X - N b # P u.:.>.7.7.>.1.q.e.w.U &.Y y w I #.:.y. XS.1.z.4X{.,.^ D * * $ i i T p.a.p.p.W T T i e e e $ $ $ $ *.%X9XqXXXL.0XqXqXqX<XXX;X0XqXqXqX:X|.:X0X0X0X5XqXfXfXhXMXfXfXfXMXVXNXfXhXVXVXZXVXpX5XBXVXfXMXVXfXfXfXfXqX5XqXqXfXhXhXfXfXfXfXfXqXqXqXqXqXqXqX0X0X0X0X0X5XqXqXNXNXNXNXNXZXNXNXNXMXzXqXzXqXqXzXMXMXNXNXVXNXMXMXMXMXMXMXMXMXMXMXMXMXfXfXfXMXZXZXVXMXfXNXVXMX:X9XVXVXVXVXZXVXVXNXMXfX9XfXMXMXMXMXfXfXpX9X9X1X{.9XZXZXMX5X9XqXqXMXNXZXZXHXHXZXNX;X;XMXVX1Xd o                                       X X     X X     X X X X X X X X X X X X o o X X X X X X o o o o # # # # ",
"6 6 : 6 6 : u S d g D ! [ =.2.,.^ j ,.yXsXyXsXsXsXyXD   O o ; & 2 * Q yXdXdXgXdXgXaX]     5 6 > : r h oXgXaX] ;   % ( [ [ ~ ~ ! S s 6 6 6 z.gXgXjXgXgXgXgXu 6 r Q [ ,.[ / Q R D h h ^ D D h ^ yXsXsXsXsXeXyX5.    . V V S g 3.eX,XrX<XeXeX,X5..     V d d d S S d d d d d d d d S S B g h >X,XrXtXeXeXyX4X%     ; 7 6 ; ; 7 y y y d y y d f gXgXgXjXgXgXgXiX.     # B B s B s B s d d B S S V 7 6 6 y s y s s d s y y B g H.gXdXdXsXtXsXyX,.    ; V V d V B B d y t y s 7 7 7 y s B d ~ yXrX,XeX,XtX,XJ.;   # y F H G S h <.yXyXf & . ,.yXJ.* F.yXyX>X.     6 5 : % t f :XgX@Xr % g :XdXeXeXsXsX>Xd     o 7 t ! &X{.{ : # X . ,.aXyXdXdXyXsXyX] * r t d f j ^ aXyXgX] %   # P Z U ] &.&.&.*.*.&.( U U U U U U U ( U U U U F P P A Z Y B S J B B V F B B p N V s V V N V Z Z A y A V V F U ] *.*.=.*.=.:.:.:.>.>.>.>.&.&.>.:.:.:.>.>.>.] ] 6.~ A.=.h J F V N q 5 5 6 w w q s y q 0 5 0 0 0 w 5 5 # # 5 5 # # # # ; ; # # # # # # # # # # o # o o o # X # q A A V c q w 5 ; & ; X t f.<XwXwXwXwXwXR.a.k.j.L.k./ e | G.W a.} j ) } Q e r ! _.e.t : G *.t . y G & 6 o ; # 5 o 5 o % 6 ; 5 w & ; q w o # # # # # # & # # o ; = = 3 0 4 p y.w w 5 # # X     O O @ , @ , , # # , # , , # # # , # @ @ @ # # # , < < , 5 = o + # , 1 5 5 p 5 o y y o . G g u t %   # 0 Z P q.$X*X(.q.7.-.&.&.Y U q.u.&.=.e.:.#.K 7.q.=.S.4X{.H.[ ~ D u 6 . r e T _ m.a.p._ T T i e e e e $ $ $ $ y c.3X9X0XXX;XqXfXqX5X;X:XqXfXfXfX0X;X:X0X0X5X5XqXfXfXNXNXMXfXfXNXVXVXhXBXVXZXSXVXgXgXZXVXMXBXfXfXfX5X5X0X0X5XqXfXhXhXqXqXqXqX0X;X;X;X;X;Xn.n.n.n.n.n.n.~.XXXX;X;X0X0XqX0X0X;X;X;XXX~.n.XXXX;X;X0X0XqXqXqXqXqXqXMXNXNXMXfXfXfXfXpX9X9X9XfXMXMXNXMXpXMXVXVX0X9XVXVXZXZXZXVXVXNXfXpX9XfXMXMXMXMXfXpXpX9X3X1X.XMXZXIXVXqXqXqXMXMXNXZXHXHXHXZXMXXX0XNXNX.XF #                                       X X     X X     X X X X X X X X X X o X X X X X X X X X o o o o # # # # ",
"; ; ; ; 6 6 f d H ( [ ! ! Q ] ~ f j E :XsXsXsXsXsXaX).    X ; ; 6 > r oXgXdXdXhXgXBX{..     6 & : t [ aXgXA.f X   : F h u r r d d t 6 6 6 z.gXgXdXgXgXgXgX7X2X4X5XyX5X5XyX5X5X4X4X4X4X>X4X>X>XdXsXsXyXsXeXyX5.      V B d u f.eX,XrX<X,X,X,X5..   o y d d d d d d d d d d d f d d B d u j +X,XeXeXeXeXyXpX*     o 6 7 ; 6 t s d s y y d s { gXgXgXgXgXgXgX7X      # B d s d t d s d d d d d d 7 y y y q s t u t 7 y t u u {.dXgXsXdXsXsXaX4..     7 t 6 t 6 t : y 6 6 7 7 6 t u t y u f yX,XeXeXeXrXrX+X7     6 d B S H ^ 5.yXyXf ;   H yX>Xj ] yXeXyX1.    o c t t : ,.yXyX] %   f >XsXtXsXsXsX>Xd     # 7 t ] @Xc.D %   X % 5.dXgXsXdXgXsXdXiX4X+X4X4X>X5XyXyXdXgX~     w y Z V F U U U ] &.&.] ( ( ( ( U ( ( U U U U U F U U U Z U U U U ( U J U F U Y Z Y Z A V A A V V Z Z P P J U ( *.*.&.*.] *.>.:.:.:.:.>.:.:.:.:.>.>.&.&.>.>.*.{ h 5.g.] h H F N w 5 6 5 s V s q s s w w 5 N w w 3 8 5 5 5 # # 5 # # # ; ; # # # # # # # # # # o o o o + 5 o X # 5 q N q 0 w 3 5 & 5 # H x.T.wXwXR.j.j.R.k.k.j.j.L. ./ oXn.a.a.' R h ^ i *.7XHXJXHXz.* y d : H d : & + % o ; ; ; ; # ; o 5 ; & ; 5 q q X # ; # # o o # o ; # 5 5 5 5 0 0 - :.9.X # o       X @ # < , @ # # # # # # # # 5 & # , # @ @ , , # # , < , , 5 ; o O o , , , 1 q ; & & o & % y u g t & # &.&.U U q.=.=.&.:.U I ;.I ` &.U =.:.(. X'.*X=X#X(.c.OXz.^ ^ r r u : + o e i T W a.a.W T T i i i e e e * $ $ $ % *.+X9XqX;XL.,XhXhXhX5X0XhXfXqXfX5X:X:X0X5X5XqXqXfXhXNXVXMXqXfXNXZXVXhXVXVXZXSXBXMXSXSXZXBXNXfXfXsX0X>X0X0X5XqXqXqX0X;X;XH.n.n.m.m.m.s.m.m.m.m.m.m.b.n.n.n.;X;X;X;X;X;X;X;X;X~.n.n.n.b.m.m.n.n.n.n.~.XXXX;X0X0XqXqXMXMXfX9X9X9X9X9X9X9X0X0X5XfXfXpXVXZXZX5X9XVXVXZXZXZXZXVXNXfXpX9XfXMXMXVXMXfXpXpX9X3X1X.XAXZXIXAXMXMXqXMXNXVXZXHXHXHXZX9XXXqXNXzX.X&.w X           O                         X X     X X     X X X X X X X X X X X X X X X X X o X X o o o o # # # # ",
"; ; ; 5 5 5 6 t r u r r g D D u t > u z.sXdXsXdXdXdXaXt     5 ; 5 % r D.gXgXdXdXgXgXMXt     5 ; 6 u 5.VXpX,.;     7 B t r r : t 7 w w 5 ; e.gXdXgXdXgXdXgXaXgXdXgXgXdXdXdXdXdXdXdXdXdXgXaXyXyXeXeXeXeXeXeXyX6..     d s t u x.,X,X<X,X,X,X,Xz..     s u d s d s y y u d d d d d y B t d u oXeXeXeXtXsXdXpX:     # s y 6 q 5 6 y q 7 s d u 6.gXgXgXgXgXgXgX7X.     # q t 7 t t 7 7 7 7 7 6 6 7 7 7 t t 7 7 7 t 7 y 6 y t u {.gXgXdXdXdXsXaXz.      q 6 7 6 6 7 6 6 6 7 7 7 t t t 6 y f f yXeXtXtXtXeXyX4X6     6 d S B D j A.dX>Xf . + : {.aX5.r +XyXdX>X%   + 6 w % r J.yX+Xt .   d :XsXdXyXdXdX4Xd     X 1 6 =.w.] u     . : e.gXsXgXgXdXdXdXMXgXgXpXBXBXgXdXgXgXgXh     5 y V A V V V F H ( ( ( ( ( ( ( ( ( ( U U U U P K Z F Z A N N V J U U J J F F J U U U J F F J U U U J U U ( &.>.:.:.=.] &.*.*.>.=.=.=.:.:.:.:.:.:.>.&.&.>.*.] =.S.oX5.j D D S s 5 5 w 0 N N s N N B q w w q q w w 5 5 5 5 # # # # # # # # # # # # # # # # # o # # # o o o o o o # , w q q w w # # # # ^ L.wXwXk.W k.wXk.L.R.j.a.k. . .L.j.d. .E ^ ~ r u vX7XHXSXpXc.$ $ . u ( : : : 6 * r : & & ; w ; # # X # ; # = 5 X   X 5 5 # # # # ; ; w 5 w 5 5 z 4 0 *X`   @         @ @ < 3 @ # # # # # # # # , # # # # # # # 1 @ , 8 , < 1 8 w # @ 1 1 1 l K p   ; 7 ; .   : f s o # &.q.y.:.V V N b K K Y 7.:.>.>.>.K C >.*.~ ( ] y.&X).u.=X2X[ i * % w 5 + : i i T a.M.a.T T T i e i e e e e $ e : . B c.8X9X9X;XXXwXfXNXfX5XqXqXqXqX5X;X:X0X5X5X9XqXfXNXNXNXMXfX9XMXVXVXNXVXVXSXSXZXZXDXSXZXVXhXfXsX5X0X:X:X:X;X;X;XXXn.b.m.s.<.2.s.s.m.m.m.m.m.m.m.b.n.n.n.~.;X;X;X;X;X;X;X;XXX~.~.n.n.n.m.m.m.m.m.m.m.s.m.m.b.n.~.XX;X0X0X5X5X5X5X5X0X0X0X:X;X5XfX5XVXSXSX7X5XZXZXZXZXZXZXVXMXfXpX9XMXMXVXMXMXMXMX9X9X3X%X1XMXMXVXNXMXMXqXMXMXVXZXHXHXZXZX;X.XqXNXMX.X&.# X       X                             X X     X X X X       X X X X X X X + + + + + o o o o o o o o o # # # # ",
": ; ; ; 5 6 6 6 t r r h Q Q ! D u f r ' yXgXdXdXdXdXgXF..   X 5 & > j 4XBXgXdXdXdXgXBX_.  X X 7 : u aXgX4XH     X B S f g S d 6 7 ; ; ; : e.gXdXgXgXgXgXgXyX4X4X>X>X>X:X>X+X+X+XoX:X@XoXoX@XoXsXeXeXeXeXrXyX4..   . t d B u x.eX,XrX,X<X,XrXA..     s s d d B d y y u d d d d d B V B g f K.eXeXsXsXsXyXpX&     X s B y s 7 q t s y t 6 t 5.aXgXgXgXdXgXgXpX. .   # w 6 6 7 7 7 6 6 6 6 6 6 6 6 6 7 7 6 6 7 7 6 7 7 7 t u oXgXgXdXdXsXgXgXS.      q 6 6 6 6 6 6 6 6 7 7 7 7 t t y y t f 5XeXsXtXtXeXsX1X:     & u d G D j }.dX>Xh .   7 { yX7Xu 5.gXyXaX[     6 5 u ^ yXgXf.:     S >XdXdXsXdXdXyXS     o 5 6 H S t > o # o > 5.gXdXgXdXdXdXgXD.5.5.w.w.4.z.D.aXgXBXd .   # q q q q q y s B V S V V B V V V B B N A A Z A A Z A V V V V Z F F J F F F B S F F F F S S S F F F F B B B B Z U U U H U ( ] &.*.*.*.&.&.&.&.*.>.>.&.&.*.] J z.{.] H =.] ] ( s 5 7 q w N s q q 7 q q 0 0 q q w w 5 w 5 5 5 # # # # # # # # # # # # # # # # o # # o o o o o o O O o # 3 5 5 w 3 # # & [ K.R.wXa.L.wXL.R.R.L.k.a.k./ k.k. .d.' R ) [ R l.|.|.x.J.| j ! r u H G G r & & : 6 : & # # ; # X # # o o X 5 N s ; X # # # # = o X ; 5 w # # X 4 n 4 b ` @ X # @     O , @ @ 3 # # # # # # # # # # # # # # # # , , , , , < , , # , 5 5 < < 8 N 7 - ; ; & & # o y y l U ;.&.U q.:.p w 8 b 0 &.>.` &.&.I C 9.$XOXz.=.( ( =.4.V q.DX+Xr r d 0 # 1 : e e s.a.p.W T T i i e i e e e e e * * % * *. X9X9X0X;X;X0XfXqX5XqXqXqXqX5X|.:X:X5X5X9XqXfXNXNXVXMXfX9XMXZXVXVXVXZXSXSXDXDXSXSXSXZXhXqX5X:X;X|.H.x.b.m.m.s.2. .2.s.m.b.n.;X;X;X;XwXwXwX0XqXqXqXqXqXqXqXqX0X0X;X0X0XqXqX0X0X0X0X;X;X;X;X~.n.m.m.s.s.s.s.m.m.n.~.XX:X0X5X5X0X1X;X1X0X5X9XfX9XVXSXSX5XpXSXSXSXZXZXZXVXMXfXpXfXMXVXMXMXMXMXMX9X9X3X%X9XMXVXVXNXMXMXqXqXMXMXAXSXZXZXNX.X1XNXNXMX2.. X                                         X X   X X X X         X X X X X X X X + + + o o o o o o o o o # # # # ",
"; : 6 5 5 6 6 6 r g ~ [ ~ ^ ^ R h Q ^ h >XdXgXdXdXgXgXiXd     5 6 > | BXgXdXdXgXgXgXgX7Xd   o & r [ BXgXS.:     7 B S d G S d u s 7 6 5 : e.gXdXgXdXjXgXpXr r : : r r : : : : : : * * : & * r >XeX,XeXeX,XeX4..     t s G g f.rX<XrX,X,X,XrXD..     y y d y s y t t t t t t u y y q y t r J.eXeXeXsXsXyXiX%     o w 6 6 w w 7 t 6 7 6 s t D gXdXgXdXdXgXdXpX.     + 5 6 ; 6 6 6 6 6 6 6 6 6 6 6 ; 6 6 6 6 7 7 6 7 7 7 7 r H.gXgXgXsXdXdXyX{..     7 6 6 6 6 6 6 6 6 7 7 7 7 t t s y t u >XsXsXsXsXtXdX+X&     # d d J D h >XfX>Xh .   : h oXpX,.r yXdXgXS.. X O 6 & oXgXgX^       J 4XdXdXdXdXdXaXD     X w 6 s : ; ; # ; ; > z.gXdXgXdXgXgXyXu         . . * OXgXMXH     8 l w w w 0 0 0 q y y q y y q q s s q l q N N N N N C A A A A N V F F F S S S S F J F S S F F F F F F F F V B B V V F Y J U U U ( ( ( ] ] U U U U J Y J J ] 1.] S f S ] e._.=.; 5 ; ; q N s q 6 5 q y q q 0 q 0 w 5 5 5 5 5 5 # # # # 5 # # # # # # # # # o o # # o o o o o o @ O O o X o # w 5 ; & 6 | ,XwXk.R.wXa.a.L.L.L.j. .k._ V.k._ ' } R ^ ) } / } NXs.f.<.{.DX).) ( : u r * : r 6 : & # & ; 5 X # # o o o # ; # . X ; ; o X X # X o # 5 = 5 5 4 4 , k *X&.        @   < @ @ 3 , , , 3 3 , , , # , , < # # # # , 1 8 8 1 , , 1 q 8 5 , , 8 l l   7 - . ; #   & 5 l C X.#.X.L C :.N.U Y 0 Y i.&.` :.U L 8.`.(.6X7Xe.e.c.c.,.( :. X,.$ r t w 5 + t h _ n.p.T T T T e e e e e e e e e * $ $ . t q.%X9X9X0X;X:XqX5XqXqXqXqXfX5X|.;X:X0X5X9XfXfXNXVXVXfXfXfXfXZXVXVXVXZXSXSXSXSXSXSXBXVXhXsX,X|.x.f.<.} / / / / } s.n.XX;X;X;X0X;X;XwXwX0X0XqX0X0X0XqXqXqXqXqXqXwXwXqXqXqXqXqXqXqXqXqXqXqXzXzXqXqX0X;X;Xn.n.m.s.2.2.s.b.XX;X;X;X;X1X0XqXfXfXMXMXSXSXZXaXpXSXSXSXSXSXZXVXMXfXfXMXAXZXVXAXMXMXMX9X9X1X+XvXVXNXZXZXNXMX9X9XqXMXAXZXZXZXqXXX5XNXqX9X( #                                                 X           X X     X X X X X X X X + + o @ o o o o o o o # # # ",
"; ; ; ; ; ; : 6 r u g h g i h Q 2.l.' h ^ dXsXdXfXgXdXgX5.    o : r yXBXyXgXdXdXdXgXgXBX=..   5 * @XgXpXr %   o y d d d d u u B y 6 5 ; : e.gXdXgXgXdXgXgX. .   o & & ; ; ; ; : ; ; 6 7 6 % * >X,X,X,X,X,X,X1.      7 s d g 3.>X,X<X,X,X,X,XJ.*     7 7 t 7 7 6 t t 6 6 6 : 6 6 q 5 6 > r oXyXtXsXsXsXdX4X%     X 6 7 y 6 5 ; : y ; y 6 > r gXdXdXgXdXsXgXgX% o   o 5 5 ; 7 6 6 6 6 6 6 6 6 6 6 ; : 6 6 6 7 7 7 7 q q 6 > D.gXgXdXgXgXdXgX+X.     w 7 6 6 6 6 5 6 6 w w 7 7 7 7 t s d f yXsXsXsXsXtXdX{.o     5 d B D g R 5XfX:Xf     t h 3.pX{.* z.gXdXyXr     : ! BXgXH.% X   o H >XdXdXdXdXgXgXJ .   X 8 9 : ; ; ; 5 5 7 > z.gXdXgXgXgXdXaX.   O O q 5 6 : r pXBX]   O # l q w w w 0 8 q q q q q q q q q l l l l l l l l l l l l l q N N V B B B B B B S V V B B B V V S V F F Z Z V B B s s V V F Y J U U U U U U U F V V V V H H H J : 7 d H e.*.: ; ; 7 7 q N s q w w q s q 0 w q q w 5 5 5 5 , 5 5 5 # # 5 # # # # # # # # # # o # o o o o o o o o o o o O o o 5 ; & % t f.<XwXR.R.j.R.R.R.k.L.j.a.k.a.R.k. .E R } } j R } ;X5Xx.x.:XBX2X%X,.[ t * t & 6 6 & : & # 5 ; w & # # & 5 & .   X X & ; # o X o # ; # w 5 w = # 0 8 k 4 Z y.X @     # @ @ < , , < # o # # # # # # , 1 , , , , # # 1 8 8 1 @ @ 8 , , 5 8 8 w w 5 w V N w . ; 5 # l 0 K &.L L X.I P -.;.I p &.U U ] U &.;.#XxX*XOX Xc.q.4.D.5.z.c.w.^ ! r w # O l y R  .a.W W W _ T e e e e e e e e * * $ $ . $ G z.%X9X5X0X0X0X5XqXqXqXfXhXqX;X;X:X0X5X9X9XfXMXVXMXfXfXfXfXVXVXVXVXZXSXSXSXSXSXSXVXBXgXfXqX0X|.J.H.n.b.m.m.m.n.n.n.;X;X;X;X;X0X0X0X0X0X0X0X0X0X;X0X0X0X0X0X0X0X0XqXqXqXqXqXqXqXqXqX0X0X0XqXqXqX0X0X0X0X;X;X~.b.s.2.@.) @.2.s.b.XX:XqXfXfXMXBXSXSXZXpXMXSXSXSXSXSXZXZXBXfXMXBXZXZXZXAXMXMXfX9X9X1X+XMXVXNXZXZXZXMXfX5XqXMXZXZXZXMX:X;XMXNXzX Xu +   X                                                         X X       X X X X X X X X X o o @ @ o o o o o o # # ",
": & ; 6 6 > : : r g h ^ ] ^ R R Q Q h u r oXjXdXhXdXjXgX&X    o % e.gXBX' z.gXgXjXdXgXgX+X  . o ~ aXgXF.d   X X y B F S d B B B s y y y u z.gXgXgXgXdXdXpX%     8 q l l l q q q w 7 7 & 7 t r >X,X,X,X,X,X,X2.    X ; 7 y : [ eXrX<X,X,X<X,XoXr     ; 6 6 6 6 6 7 7 6 6 6 6 7 6 6 6 6 r r +XyXeXsXsXsXaX[..     X 6 y y 6 7 6 t ; ; ; ; u * yXgXgXsXdXsXdXgX[ .   X ; 6 6 6 6 6 6 6 6 6 7 7 6 6 6 6 6 6 6 7 7 6 7 y 7 7 r D.aXgXdXgXdXgXgX4Xd     5 q 6 6 6 6 6 6 6 w w w 7 7 7 6 s d f yXdXsXdXdXsXyXc.o     6 d B G f ~ yXgX:Xf   O ; g ! 4XaX! j yXgXgX5.    % _.aXaXh % X   w J :XdXgXdXdXgXgXH       8 5 ; ; 5 ; w 5 6 % g.gXdXdXgXgXdXaX%     # w w 7 > : {.bX1.    5 8 b w 0 8 8 8 8 q q q q q 0 0 q l l l l l l z z z l q q l N A A B B B B d d B B B B B B B B B B B s B B V V V B N s y s B B V S F F F F F F V V B B s B f d d f 7 V g S d 7 7 ; ; 5 6 q w w q 0 q q q 6 w q 0 w 5 5 5 5 # , 5 5 5 & 5 # # # # # # # # # # # # o o # o o o O o o o @ o o O # # & % d ..wXT.wXR.R.wXwXR.k.L.k.a.k.R.wXR.a.' i / E [ l.h.H./ R XXD.d : S [ ! u : & : 6 & % ; & & ; o & ; ; & ; ; & o ; ; X X o # # # # X # X # # w q 0 < 8 8 l 8 W.^.@ X O X , , , @ , , , , , # # # # o , , , , 1 1 5 , 8 8 8 1 # # 1 8 , , # 5 5 5 # s B V V p 7 ; 5 l b X.L z X.#.&.&.&.q.9.:.:.U ( J ` U ;.8.^.=X).4.1.:.F ] ^ ,.l.5.f > t w @ O 0 t e W p.W W W _ _ e e e e e e e e $ * $ $ $ . $ G c.1X1X:X:X5XqXqXqXfXfXhXqX;X|.:X5X5X5X5XpXfXVXMXfXfXfXfXVXVXVXVXZXSXSXHXSXSXDXZXVXgXgXhXhXhXhXVXNXhXqXqX0X0X0X0X0X0XqXqXqXqXqXzXzXzXzXzXzXzXqXqXqXqXqXqXqXqXqXqXqXqXqXqXqXqX0X0X0X0X0X0X0X0X0X;X;X;X;X;X;X;XXXb.m.2.2.2.2.s.f.H.:XsXfXVXBXSXDXDXMXBXSXSXSXSXSXZXZXMXMXMXVXZXZXZXAXMXvX9X9X3X1X1XAXVXNXVXVXZXZXMXqXMXNXZXZXVXfX:X9XzX9X9Xw.+ O X                                                         X X X         X X X X X X X X o o o o @ @ o o o o o o ",
"; & > > > > r f ) [ ! g h h h R Q h g Q R 6.gXdXgXhXdXgXBX! .   u +XaX+X> ~ BXgXgXhXjXdXBXd .   ,.BXaX{ :   + ; y d B B d d d s y y y 7 t e.gXgXgXdXgXgXpX    O # 5 7 6 7 6 ; ; 9 9 q q q : r +X,X,X,X,X,X,X1.      ; ; 9 : j >XrX<X,X,X,XrX>Xg     o 6 6 6 6 6 6 6 6 6 6 6 6 7 w w 6 : > >XyXtXsXtXsXyX6..     ; 7 7 6 7 t : > 7 s ; ; : > +XdXsXdXsXsXdXgXD.      ; 6 5 7 6 6 6 6 6 6 6 6 6 5 6 6 6 6 6 7 7 6 q 6 6 7 : ,.BXgXgXdXdXsXgXpXD     & w 5 w 6 6 6 6 6 w w w w 7 6 6 y u D dXdXsXdXdXdXgX1.      B S S G g | aXgXoXr     w d r D.gXz.r D.gXgXaX%   f 4XgXJ.:     # 7 D @XgXgXdXgXgXgX]       9 1 ; 5 ; ; w 5 5 > z.gXdXdXgXgXgXyX.   X = 5 w - 6 6 =.uX=.# X # 5 0 q 0 0 w 8 8 9 q k q q q q l l b l l l z z N N l l q l N A N B c B c s s B V F F B B B B V V B d s s s s s s s s q y y s s B B B V V V B B s s d V S g ( t : V U ] ] f > 5 ; 5 w 5 w 5 w q q 0 6 w 5 5 w w 5 1 5 5 # # = 5 5 3 & 5 5 # # # # # # # # # # # o o # o o + O X X X X X X X o # o % D j.R.wXR.tXwXL.R.k.R.R.L.a.k.wXwXR.k._ R } / <.<.s.f.i $ u ! . X d ( r . & ; 6 : 6 ; & & & & # & 5 ; & & ; & & 6 X       # 5 5 # X # w = 5 = #   # w b l b 0 GXy.    O # 3 5 @ 3 # # # # o o o o , , , , , , , 1 , 8 8 , 1 8 8 1 8 8 5 w p N w   # s q 6 s 7 o B w 0 A n C L I X.X.>.A u.y.U U ] U U Z U X.C U q. Xq.:.*X{ ^ 3./ ^ D > %   1 A N % i W W T W W W _ e e e e * e e e * * $ $ $ . $ * ( c..X.X:X0X5X5XqXqXqXqX5X|.|.:X0X5X5X5X9XfXVXNXhXfXfXfXVXVXVXVXZXSXHXHXHXSXDXZXZXVXBXhXhXfXhXhXfXhXfXqXqXqXqXqXfXNXVXZXZXZXZXZXZXZXZXZXZXZXVXZXZXZXVXNXNXNXNXNXzXzXzXzXzXzXqXqXqXqXqX0X0X0X0X0X0X0X;X;X;X;X;X0X0X0X9X9X5X:XXXJ.:XfXVXVXVXDXDXBXMXDXSXSXSXHXSXZXZXMXMXMXVXZXZXZXMXMXpX9X9X3X:X1XVXVXNXNXMXVXZXMXqXNXVXZXZXMX5X0XMXMXlX).F + + X                                                                         X X X X X X X X o o X @ @ @ o o o o o ",
"; > : > u g h Q u f u g g u u h r h f u f ~ 4XBXgXgXgXhXgX7X. . ] gXgX1.% $ +XBXgXjXdXjXgX%X  . %XBX>Xh o     d s 6 6 t 7 6 6 7 6 7 6 ; 6 e.gXgXgXgXgXgXpX. X   # 5 w w 6 6 6 6 & ; ; ; 7 r r @X,X,X,X,X,X,X1.  O   7 5 5 7 > H.,X<X,X,X,XrX>X,.    . 5 6 6 6 5 5 ; ; : 6 : ; ; w w 6 > r 5XsXsXsXsXsXyX~ .     w 7 y 7 y 6 t H w.: ; 5 ; r 5.gXsXsXsXdXsXaX4X%     ; 6 5 6 5 6 7 6 6 6 6 6 6 6 6 6 6 6 6 7 6 6 t 6 q 6 : u gXdXdXgXdX<XgXMX( o   o 6 5 w 6 6 6 6 6 w w w w w 7 6 7 t =.dXdXsXdXdXdXgXS       J S G G h <.yXgXoX*     ; B u h aXyXu [ gXgXgX2.  4.gXaX,.;     5 w h @XgXdXgXgXgXgX1.      8 5 7 s ; ; w w 5 > z.gXgXgXgXdXdXaX%     5 w w w 5 7 7 Y q q   O c l q 0 0 q q 0 q q q 0 0 0 q q q 0 q l l k k l l q b l q b N B B B F V B s s B B B B s s s B B B B B B B d N N B A B B B d B B d d B B B B B d B V U H *.*.r V F Y ( J s : w q 5 ; 5 0 5 w q q q 6 w w w w w w 1 # 5 ; # # 5 3 ; # 5 3 # # # # # # # # # # # o o o o o o o X o @ X X X X X o . % ~ V.R.wXwXwXL.k.R.k.R.k.k. .a.R.R.R.a.T <.<.<.<./ d.n.x.u * . & # ; : r $ % X # & 6 6 & o & ; 5 5 5 ; # & ; ; & o & o X     # ; ; o # 5 # # X # = w w w 3 n 4 #.#X`   # @ 3 8 3 3 3 5 3 , # # # # 5 1 1 8 < , , , < , , , , 5 8 1 8 8 w 5 ; ; 5 , # B s o   ; s B @ w N C b b #.-.;.-.:.q.w.w.:.] ] J N N X.7.i.y.e.&.9.FXbXaXD.<.r r u o # w 0 & * T _ W T p.p.W T i e e e e e e * e * $ $ . . * $ $ ! w.v.XX.X:X:X0X0X0X0X;X[.|.:X0X5X5X5XfXfXVXVXMXhXfXfXMXVXVXVXZXSXHXJXJXSXSXDXSXSXVXVXhXfXhXhXfXfXfXfXfXhXVXNXNXNXVXVXZXZXZXHXHXHXHXHXHXHXHXHXHXHXHXHXHXIXIXIXZXZXIXZXZXZXVXNXNXNXNXNXNXNXNXzXzXqXqXqXqXqXqXqXMXNXNXNXVXNXMXfXfXhXVXVXVXZXDXBXMXSXHXHXSXSXSXZXVXMXMXMXZXZXZXAXMXvXpX9X9X1X+X3XVXZXVXNXNXMXVXMXMXZXZXZXMXqXqXqXNXlX[.U O o # X                                                                 X       X X X X X X X X X X X @ @ o o o o o o ",
"; : u ! *.,.^ r r r r r r r t > > > r r r e D.gXgXgXgXgXgXBX( . +XBX>Xt . . f gXBXgXgXgXgXpX! u BXBXz.%     # r 7 7 6 : 6 7 7 ; ; 6 6 ; : 5.yX>XyX5XyX7X&X      # 5 6 6 6 6 6 6 6 6 6 5 5 & * :XrX,X,X,X,X,X1.    X o 0 5 5 r | ,X,X,X,X,X<XeXF.      5 6 6 6 ; 6 6 6 6 6 6 ; ; 5 ; : > h yXyXeXtXtXyX>X>       w 5 t 7 7 : ]  X:.6 5   & > [ yXsXsXsXtXsXaXpXJ     ; 5 5 6 6 6 7 6 6 6 6 6 6 6 6 6 6 6 6 7 7 6 6 c q 5 : r }.gXdXhXsXJ.J.gX_.    . 5 5 w 5 6 6 6 6 w w w w w w 6 : t 5.gXdXsXgXgXsXaX      . S d S g h <.dXgX@X% o   w : u u F.gX5.> 4XgXdX[.> yXgX4Xr X   O 5 7 f oXgXdXgXgXgXgXe.      , 0 s *.S 6 5 # ; > z.gXdXdXgXdXdXaX.     , q 8 8 8 5 w w 0 8 q 8 9 l 0 8 8 0 0 9 9 0 q 9 q q q q q w q l l k k l l q q q N A A N B V F B B N N B V V V V B B s B B B y s d d s B B A Z V B B B B d s B B B B B d d B V s d d d J N Y H J : t s ; q 0 5 0 w w q q q 0 0 q y s q 0 5 # 5 5 5 # # , # # 5 # # # # # # # # # # # # o o o X o o o X X X O X + O X o . * [ L.tXR.R.L.L.R.a.k.j.a.j. .k.R.R.R.T E s. .s.} } j.E g.5.1.J % % # % * : ; X 5 6 ; ; o # & ; 5 ; ; ; & o & ; # . o o o X X # # X o # # ; X X # 5 w w w , 3 m O 9.*X# X , 8 5 8 3 3 5 5 , # , , # # , 1 8 8 1 , , 1 < 1 9 5 o , 8 , O o ; - o X o + w w w w - s s w = 5 w Z U U #.X.K 9.:.&.=.{ U s o s P P U '.%Xw.#.W.$X_.oXK.<.r * t   X w & ; r e _ _ _ p.p.W T i e e e e * e * * $ $ $ . $ $ $ . * g @.l.H.XX.X.X.X.XXXXXn.XX:X>X5X5X5XfXMXVXVXMXhXfXfXMXVXVXVXZXSXSXJXJXJXHXSXSXDXVXVXVXhXhXhXhXfXfXfXhXfXfXfXNXVXVXZXZXZXZXHXHXHXJXHXHXHXJXJXJXHXHXHXHXHXHXJXHXHXHXHXHXHXHXIXIXIXIXIXZXZXZXZXVXNXNXNXNXNXMXNXNXNXNXVXVXVXNXhXhXVXVXSXVXDXDXBXBXSXJXJXSXSXSXZXVXMXMXMXZXZXZXAXMXpX9X9X3X1X.X9XZXZXZXNXVXMXMXMXMXNXNXMX9X9XqXNXNX%X+.+ O + + X                                                               X X       X X X X X X X X X X X O @ o @ o o o o ",
"; : r j / ' ^ R g g u u u u u u r u u r t r f pXgXgXhXgXgXgXz.[ gXgX5.X     % +XBXgXgXdXgXVX3.@XgXgXt .     # ; ; ; ; 6 6 6 6 6 6 : 6 7 ; f t > d : f B 6       & 5 6 w w w 5 ; & 6 1 9 5 & > +X,X,X,X,X,X5X,.    o 6 : ; ; 6 G <XeXrXrX<XrX,X>X>     5 ; : 5 9 5 0 6 5 6 7 ; w w 5 y > A.yXeXeXtXtXyX4.      # 6 ; y 6 7 ] S.F.J ; X   ; : f @XyX,XsXtXtXyXaX6.    o ; q 9 2 t 6 6 w w w w 7 : t ; 9 w w 6 > r r 6 y 6 6 r ] gXsXdXdX{./ aXaX$     5 7 ; 5 5 > 7 6 6 w 7 w 6 q 7 > > &XgXdXgXsXgXgX[   o   t S d g f G 3.dXgX}.. .   5 5 6 6 *.7X>Xf =.aXdXsXJ.sXgX:.# X   X y w S oXdXdXdXdXgXdXD.  O   ; ; F S.*.f 5 1 5 > z.gXdXdXdXdXdXyX.     5 w w 5 5 5 8 9 k 9 q k 8 z 0 0 q w 0 w q 5 q 9 9 q l l z k l l l q l l l q q N A N B B V G V V V N B B B V B B s s s s s s s d B B B N B B B B B B B B B B s B d d B B B d N s s t f ] H H U s q s 5 w 6 ; 5 0 q q w w w w w p N p q w 5 5 5 5 5 # # # # # 5 # # # # # # # # # # # # # # o # o o o + O O @ X X o o X X > ' k.T.wXZ.k.wXwXa.G.j.k.k.a.j.R.R.k. .'  .<.) ~ | k.j.h.H.SX%XOX+X%X( % & : 6 B y & & ; & ; # ; # o # # - ; # o o . & . . # & X ; # o o # # o = w w 0 , , z n 4 o.mX'.= 5 # , 3 4 4 3 3 3 4 4 , 8 < 9 + , 8 8 5 5 , , , , 5 5 5 , 5 # 5 w 5 1 c q 5 5 # q V V N s w w 3 l K K q K #.&.:.>.&.] ] &.J d :.q.>.U ] ( Y A 8.7.$X&X6.,.*.d t o & y y u e e _ T W p.W p._ T e e e e e e * * $ * $ $ : : $ $ $ * e d ! @.2.2.1.1.5.2.1.[..X1X0X5XaXyXNXVXVXNXhXfXfXfXVXVXVXZXSXSXJXJXJXJXSXJXSXDXVXVXhXhXhXfXfXfXfXfXfXfXhXhXNXVXZXZXZXHXHXHXHXJXJXJXHXHXJXJXJXHXHXHXHXHXJXJXHXHXHXHXHXHXHXHXHXHXHXHXHXIXZXZXZXZXZXZXNXNXNXNXNXNXNXNXNXVXhXNXVXVXVXZXSXZXBXDXHXHXHXHXHXDXZXBXMXMXAXZXZXAXMXMXfX9X3X9X1X|.9XZXSXZXVXMXMXNXMXMXMX9X0XqX9XNXNX1X:., @ 1   . X                                                   X X X       X X X X X X X X X X X X O O O O o o o o o o # # ",
"; : > r u h ^ ~ ! ~ ] ] ( ! D G h D J H H D g D.gXhXdXgXdXgXgXpXVXyX: ;     > ,.gXgXgXjXjXaXgXgXBXD.*     X ; ; ; ; ; 6 6 6 6 6 6 y & ; : t r u > % r & % ; # # 5 6 6 6 6 6 6 5 & 6 6 5 5 6 * :X,X,X,X,X,X,X4.    . 2 : 6 ; : t A.>X<XeX,X,X,XeX5..   5 ; % y 5 7 7 6 6 6 6 6 w w # 6 r 5XyXeXeXrXrX:X.     X 6 7 7 6 y 7 =._.e.s       ; : r [ yXsXrXtXeXyXyX}.&   o 5 q 6 t % 6 6 6 w 5 5 6 : ; 7 w 0 7 ; ,.pX1.: 6 6 7 > f @XgXdXyXoXr @XpX5.    # > % q 9 6 6 6 7 7 7 7 7 6 7 7 ^ yXdXgXsXdXyX+X  X   o F S S d u g 5.sXgXoXo     w 5 7 6 u +XyX,.$ 4XgXyXsXaX4X  #     s 0 s f oXdXsXdXsXsXdXD.%     ; : u S.S.S . # 5 > 6.aXdXdXdXsXgXaX.     & 5 6 5 w 6 w 8 8 q 5 5 N 5 q q q 0 q 8 c l B y q q k k l z l l l l l l q q N N N N V V B B B B B B s B B S V V B s N B B B B B B B N B B s F d B B B d B B V B s B d y s B B 7 t h H S ( H S t V N 5 5 5 5 - ; 5 5 5 w s B q q w 5 5 w w # 5 5 , , , # # # 5 # # # # # # # # # # # # # # o o o o o + + @ @ X X o o X . r ,.R.R.wXk.R.hXL.wX<XwXR.k. . .k.R.W W j.' E [ ) <.L.K.VX5XR BXLXHXOXG $ % y H 6 7 ; % X o ; & # # & ; ; ; ; ; ; 6 7 ; # o & # 5 X # # o X o # = # =   8 b 4 k L 4 #.CXU X = 8 3 k 4 < k 4 4 4 8 , 8 8 1 1 , 8 8 5 1 , , , 8 8 5 1 # w w 5     9 5 0 q w 0 7 s N 5 # o 5 , N Z P P U &.U Y U >.:.>.>.>.F &.] Y U s ` t.X.O u.e.S.4.5.c.] # 5 y B r e T T _ p.W p.W T i e * e e e e * * $ $ $ $ * % 2 * * * * * e r e r u r u r G 1. X+X0X5XyXaXBXVXZXVXNXfXfXfXBXNXVXVXSXSXJXJXJXJXJXJXSXSXVXVXVXVXhXfXfXfXfXfXfXfXfXfXNXVXZXZXZXHXHXHXHXHXHXHXHXHXJXLXJXHXHXHXHXJXJXJXHXHXHXJXJXHXHXHXHXHXHXHXHXHXIXZXZXZXZXZXNXNXNXNXMXNXNXVXVXVXVXVXVXVXVXDXDXZXDXSXHXJXJXHXHXSXZXBXMXMXVXZXZXAXMXMXMXpX3X3X1X.X1XMXZXVXVXVXVXNXMXMX9XqXqXzXMXNX8X1.1 @ ,   X .                                                                 X X X X X X X X X X X X @ @ O O @ o o o o o # # ",
"; ; > > r r u r : : r t 6 : 6 t d t u u u g f [ dXgXgXgXjXgXgXBXpX{ &   X # ; S gXgXgXgXgXjXgXgXaXh       # ; ; ; ; ; ; 6 6 6 6 6 5 q w % e.MX+XD.} ' ,.5.& > 7 6 w 6 6 7 7 6 5 ; > : ; ; : % +X,X,X,X,X,X,X4.      5 ; 5 ; & : h 5XyX,X,XtX,X,XoXr   O w 7 ; ; ; > : t t 7 y y ; t > ~ >XeX,X,XeXyX,.    X   y 7 6 6 6 y ]  X=.;     X 6 6 > > z.yXyX,XtXeX,XyX2.  X # w > > 7 7 7 7 7 6 6 6 6 : - w 5 6 f OXpXw.u ; & 7 : t [ aXdXyX:Xu [ MX+X7   . > > q 1 9 q 6 5 6 6 7 7 6 q t 4.yXdXsXsXyXaX*.      & s B B d d u x.dXyXH.o     w 5 w 6 t ,.gXF.: z.dXsXdXaX,.      o 5 w ; t J.yXyXdXsXsXdX{.. +   o 6 6 ! z.H . X o > 6.aXdXsXdXsXdXaX      ; 5 w ; 5 6 w 5 l 8 q t ] 1.7 w 9 9 k 8 9 0 q q q l k k k k k k q l l q q l N N N C V N N V V V B B s B B G B B B s B B B s B B B N N B s s y S B y B B d s s B B B B F F B d t ] ! { =.] 1.H 7 s q w ; ; w w q q w 5 5 7 V 7 5 6 w 5 5 5 ; 5 # 5 5 3 5 # # 5 # # # # # # # # # # # # # o o o o o o o + o o X   o O X . f f.R.R.R.R.R.k.a.R.k.wXwXk.a.j.R.R.a.T  .} ^ H ! ^ L.;XfXJ.MXBXe.z.u & : d 7 6 6 6 6 & o & ; - o # o # # # # # ; 6 6 & & . . # w 5 ; # # # # 5 ; # 3 3 b 4 0 m L C < :.=Xq 5 , , 4 0 8 8 8 8 k 4 4 0 8 1 1 , 8 , , , , , 1 8 5 , , 1 1 O # # w 5 X o w w A s s p X # q N 0 @ l A U ] ` U U &.>.:.:.q.q.U U :.U ` >.>.&.$.7.'.S.5.] l.4.s   p 6 : u i E T _ W W p.W T e e e e e e e e $ $ $ * : % % $ $ $ $ $ $ $ $ $ $ * $ $ $ e ! )..X1X5X5XfXMXVXZXVXVXfXfXfXfXNXNXVXSXSXHXJXJXJXJXHXSXDXDXVXVXVXVXhXfXfXfXfXfXfXfXfXNXNXVXZXZXZXHXHXHXHXHXHXHXHXHXJXHXHXHXHXHXHXHXHXHXHXHXJXJXJXHXHXHXHXHXHXHXHXIXIXZXZXZXNXNXNXNXMXMXMXVXVXVXVXDXDXVXVXDXDXDXDXSXJXJXJXHXHXSXDXBXMXMXMXAXZXZXAXMXMXfX9X3X3X1X.X1X9XNXVXZXVXNXNXNX9XqXqX9XzXZX3X:.1 @ k 8 8 Y A X                                                             X   X X   X X X X X X X X @ @ o o o o o o o o o o ",
"5 ; & % > r > > 6 6 6 6 : : : 6 : & : : & : > r >XgXgXsXgXgXgXgX2X>       o 6 > }.BXgXgXdXgXgXgX%Xo       ; ; 6 ; ; ; ; 5 6 6 6 6 5 5 9 6 5.gXaXsXyXyXaX7X> 7 5 5 6 5 > : 6 6 9 ; % ; ; 5 % r +X,X,X,X<X,X,X1.    X w 5 ; ; ; 6 * 1.>XeX,X,XtX<X5X[ . O 8 5 ; 7 : : 6 t 6 7 9 6 q : > g.eXrX,X,X5X}.%       6 6 t y y 7 t V _.f ;     # q t r r ^ +XyX,XeXeX<X,X,Xj   O w 7 6 ; w w 7 7 6 7 6 6 7 5 ; & r 6.aXyX4.:     9 ; t r |.aXyX5XQ r 1XaX=..   % ; 6 9 9 q 6 6 7 7 ; 5 5 9 t @XsXtXsXdXyX{..       s B B B d S u H.sXyXD.      w q w 6 y r +XyXu ^ yXdXyX4Xt       ; w ; S { @XdXsXeXsXsXyXoX  +   # 5 6 % H f ; X # > 3.gXsXeXsXsXsXiX.     5 w 0 w w 5 w q 5 5 ; t iX%X: 7 6 9 C k q q 0 9 9 k l k k k k k k l l l l N N N C C N c c A B N B y y y y y B B B B B V V B B B B N N B B B Z c d S B d B B B s s V F F F N u d ( H 1.5.( D t J U w ; w w ; ; 7 q w 5 ; 5 s F 7 ; 6 ; ; 6 6 5 5 5 5 3 # # # 5 # # # # # # # # # o # # # o o o o o o o o o o X o o X X . h g.<XwXR.R.wXj.k.j.R.wXR.k. .j.R.R.R. . .<.[ H *.) j.;X;X/ H.MX5.$ : . d ( t % 6 & ; ; ; 6 ; - X # # # & ; & ; ; ; ; 6 7 ; o &   X o X # # # # # # = = w l 8 n -.L U #.`.:.o w 8 0 0 0 l 1 9 8 8 3 3 0 5 5 , 5 , # # , , , 5 , O , 8 8 # # ] q.U o # 5 w p q q #   X 5 w o o o s ] &.Z U P &.&.>.:.U :.>.4.Y # p K &.r.$.t.u.:.] ,.D.D o 5 5 ; * e i E T T T W W W T i e e e e e e * $ * $ * : % : * $ $ $ $ * $ $ $ $ $ $ * $ $ e w..X1X3X5XfXfXVXVXVXVXhXfXfXfXBXNXVXSXSXHXJXJXJXJXJXHXDXDXVXVXVXVXhXfXfXfXfXfXqXfXfXNXNXNXVXZXZXZXZXZXZXZXZXHXHXHXHXHXHXHXHXHXIXHXHXHXHXHXHXHXHXHXHXHXHXHXHXHXHXIXZXZXZXVXNXMXMXMXMXMXMXVXVXZXZXDXDXDXDXDXDXDXDXSXHXJXJXHXHXSXZXVXMXMXMXMXNXAXMXMXMXpX9X7X1X.XH.[.1X9XqXMXMXNXfXqX9XqX0X0X9X%X*.1   , 8 9 K &.>.; X                                                               X X   X X X X X X X X X o o o o o o o o o o o ",
"5 5 5 ; : : t t 6 5 5 6 6 ; & & : : 6 : ; & > % ,.DXgXgXgXgXgXgXw..       5 & o h gXgXgXjXgXgXgXw.o X   o ; ; ; ; ; ; ; 5 6 6 6 6 6 5 1 > e.gXdXdXsXeXyX4X.     # 5 6 : : 6 6 5 ; ; 5 5 5 ; r :X,X,X,X,XrXeX,..   X w 5 ; ; 6 6 : > D.>X,X,X,X,X<X@Xr   # & w ; q 6 6 6 6 7 y 7 9 t Q >XrXrX<X,X+Xr   X   # y t t : 7 6 y t u r 7   o 6 6 t t r r ' :X,X,XrXrXeXeXH.> o ; % w q w w 6 6 6 6 w 5 ; 5 6 r ^ >XyX,X]       9 6 : : r {.aXyXz.r x.aX+Xr . X q 5 5 6 7 6 6 w w w 9 c t [ 5XsXsXsXyXoX%       & s ; B B u d D }.yXyXD.      8 0 w y 7 r { aXA.' 5XyXyXz..     @ N w w : H H.yXsXeXeXsXeX@X%     5 , 8 5 ; 7 ; # ; > <.yXsXtXsXsXyX5X.     , 3 q q q 5 w 8 q 7 : S.pX{.: &   , 9 9 9 q N q q k l l k z k k k l l N C C l N C N N N N C c B c y y B B y B G B B B V V B B B B B B B B B B U B t B G B B V B d V Z N N B S ] ,.F.e.F.J r S *.J w 5 5 5 ; y s s q y q 7 N U s 6 7 y s q & 5 5 5 5 5 5 # # 5 # # # # # # # # # # # # # o o o o @ @ @ @ o o X o o   X . h f.j.R.R.wXwXk.wXtXR.R.R.n.'  .G.C.k.d.} } ] U J 5.L.K.T i } BXz.* $ : t 6 y 6 . o o & & ; o ; # # & # & ; ; ; ; & # ; ; & # & X # o # # ; # X X o = = 3 0 l 0 3 z U >.q.(.q X o % & + . + . 1 # , X o   o o   , , 1 1 1 , # @ , 9 C 8 # A i.u.>.7 w N N w q s o   o # # 5 A Z U &.` p A Z X.X.&.:.q.U >.1.B 3 8 k -.t.7.r.q ( w._.h .   - w y r e R R T T W W W _ T i e e e e e e $ $ $ $ $ & % : r * $ $ $ $ $ $ $ $ $ $ $ $ $ * *. X%X1X5X9XfXNXVXVXVXhXfXfXfXfXVXVXZXSXSXJXJXJXJXJXHXDXDXVXVXVXNXhXfXfXfXfXfXfXfXfXfXMXMXVXZXZXZXZXZXZXZXZXSXHXIXIXIXIXIXHXIXIXHXHXHXIXHXHXHXHXHXHXHXHXHXHXIXZXZXZXVXZXNXMXMXMXMXMXMXNXVXZXZXZXSXSXSXSXSXDXSXDXHXHXJXJXSXSXZXZXMXfXfXMXMXMXMXMXMXMXpX9X3X1XXXv.D.v..X1X0X9XqXqXqX0X1X.X[.q.U O       @ , 9 N U ;                                                                 X X   X X X X X X X X X + o o o o o # # # o o ",
"5 5 6 6 6 6 6 6 6 ; & ; ; 6 6 6 ; 6 & ; ; & : : > >XgXdXgXgXBXaX%       w # 5 ; > |.BXgXdXhXgXBX7       5 ; ; & ; ; ; ; 5 6 6 6 6 6 w 7 : g.yXdXtXtXsXyXyX$   O # 5 7 5 6 6 5 5 6 & 5 5 5 > * >X,X,X,X,X,X,X1.      5 5 5 6 6 ; 6 r f J.,XsX<XrX,X,X{.% . & q 6 5 8 6 w 6 6 t 6 : g J.,XrX,XrX:X( .     X w 7 6 t y y y 6 6 6 > 7 & ; 6 6 y : t r u { >XeX,XeX<X<X>XD..   6 6 1 w w 7 : : 6 6 5 7 : r j K.rXrX>X:   X X 9 6 6 : > S >XyXyXh ~ yXyXF.. o , ; > > : 6 5 5 q 7 6 6 h >XyXeXeXyX>X^ .   X X 7 d d y d u f u >XeXyXD.    O w q q q 7 % H }.>XH.sXeX5Xd       N 0 0 q : r D.sXtXtXrXeXeX>X      = 3 k 5 5 w 5 w & > <.yXsXtXeXsXsX>X.     5 w w w w 5 0 6 7 > h +XaXz.: %   , 9 q 0 y q 0 q z z z k l l l l l z C C C c N N N C C Z C N N N B B B B B B G G B B B B B B B B B B B B B B B y d B y d d s d d V F V N B ] ,.D h ] ~ r S =.] 6 w q w # s J V q 7 7 w 5 7 6 ; ; 7 B J F q 5 5 5 # 5 5 # # 5 # # # # # # # # # # # # # o o o o @ @ @ @ o o X o o     % ^ j.R.R.wXR.j.k.R.tXa.L.n.k.}  .L.k.j.h.' j H >.F ,.;X}.h.<.R [ ~ * t *.S % u : : 7 & ; # X o # # # # X o - # & & o & & # & & & F N # 5 5 ; # = # X   w       l Y C q # 3 p U S > g *.w.w.e. X Xq.&.%X%X] . 5 3 , # # # 1 5 , , 8 l C 8 q U P ; V t 7 q s q q w     # ; q Y V V B q V F N Z :.q.7.-.#.:.&.&.q.U 4 m r.t.(.'.u.q.c.bX[ $ 5 4   ; $ r R i i _ p.p.W _ T e e e e e e e * $ $ $ $ % $ $ : * $ $ $ $ $ $ $ $ $ $ $ $ $ * G v.OX%X9X9XfXMXVXVXNXhXfXfXfXfXBXVXZXSXSXSXJXJXJXJXHXDXDXVXVXVXNXhXhXfXfXfXfXfXfXfXfXNXNXVXZXZXZXZXZXZXZXZXZXSXZXZXZXZXZXZXZXZXIXIXIXZXIXIXHXHXHXHXHXHXIXIXZXZXZXVXNXNXMXMXMXMXMXMXNXVXVXZXZXZXDXSXSXSXSXSXSXSXJXJXJXJXSXSXZXNXpXpXfXMXNXNXMXMXMXMX9X7X1X+X.X|.).) 1.v.[..X.X.X[.[.z.1.U c O O       O O     # U w X                                                       X X   X X X X X X X X X X X X + o o o o o o # # # # ",
"5 5 & & ; : 6 6 7 6 6 6 6 ; ; & ; 6 & ; ; ; & & : ,.BXhXdXgXBX1.  #   X # 5 # ; % ] BXjXgXdXBX{.  X   O ; ; 6 : ; ; ; ; 5 6 6 6 6 ; 7 6 > A.dXdXdXtXeXeXyXf .   # 5 6 5 5 5 ; ; 6 & & 6 6 * h >X,X,XrX,X,X,Xz.. .   5 5 6 6 6 - ; : r r }.,XrX,X,X,XeXz.r . : 6 5 6 7 y 6 : > f j A.,X,X<XrX>X]         & ; : t t t t 7 6 : 7 t 6 y 6 ; t t 6 y r t * | :X,X,XeXeX,XeXH.j $ : q 6 7 6 : : 6 : : % r h J.,XeXeXH.      , 9 1 7 7 : : f @XyX{.$ @XyXeXg.& o : > > ; 6 6 q y : r h oX,XyX,XeX+X(     +   y t : d y d f u / eX,XyXoX%     6 B q 6 9 6 % A.rXsX,XeXz.. .   @ l l 6 q f r H.,X,XtXtXtXeX5Xg %   o w 9 8 w 5 ; w : r g.yXtX,X,XeXtX>Xf     6 q s w 7 6 7 : > j J.5XaX,.%     w q 0 w 7 w 0 l C C z l b C N l N C C C C C C N C Z K K A A Z Z A V B G G F H H F F F F F F F B B B V B B y H d y S S V d d d d ( ] V s U e.{ ^ D ] { g S J d 7 w q 0 w V U V 7 w w w w w 7 7 6 ; ; 6 6 ; 5 3 # # 5 5 5 # # # # # # # # # # o o # # # o o o o o @ @ o X X X   o   . > ' h.R.wXR.R.k.wXhXwXa.L.k.s.E / K.<XwXh.| R H Z Z *.<X;XVXH.j ^ f g ] D d u t : : . : : ; # o # # # & o ; ; ; ; 5 & & o & ; o   5 # X # = o o # # o #   5 A Z Z N Z Y U q &.4.6X4XuXZXCXBX%X%X] & 5 ).CX_.: & 5 8 9 # + 1 5 1 8 l l q 0 l Z N y U V & # w s N ; q A ; q Y A q o ;   X w s Y U U #.#.:.q.U Z U 9.X.X.W.;.$X(.].:.=.S.] . 5 b w 5 . G i i i _ p.p.W T T e e e e e e e e * $ $ $ $ $ $ * * $ $ $ $ $ $ $ $ $ $ * * e e u 1. X%X4X9X9XfXMXVXBXgXfXfXpXfXhXVXVXSXSXSXJXJXJXJXHXSXDXDXVXVXNXhXhXhXfXfXfXfXfXfXfXNXVXVXZXZXZXZXZXZXZXZXZXZXZXZXVXMXMXAXAXZXZXZXZXZXZXIXIXIXIXIXIXIXIXZXZXZXZXVXNXMXMXMXMXMXNXVXVXVXZXZXZXSXSXSXSXSXDXDXSXSXJXJXJXHXSXZXVXMXpXpXfXBXVXNXMXMXMXfX9X2X%X.X:X>X( . 6 B H *.*.) ( y 6 1         X @ O   O # X   s #           O                                           X + + X X X X X X X X X X X X X + o o o o o o # # # # ",
"6 6 6 6 6 6 : : 6 6 : 5 ; ; ; ; ; 6 & ; o ; 6 ; & h 5XgXgXgX4Xr X     # # 5 & 5 & f +XgXgXjXgXg       # ; ; 6 ; ; ; ; 5 5 6 6 6 : : 7 > u oXgXsXeXsXrXyXyXD.>   # ; 5 w w w ; ; & 6 t : > r 5.,X,X,XrX,X,X,X|.> .   5 6 6 : 6 5 7 6 : r f 3.>X,X,X,X,XeXH.! $ % : : : : : > f ! A.,X,X,X,X}.D       X & 7 s t : t t y y 7 6 6 6 7 : : 6 t 6 y 7 t t r r Q A.,X,X,X,X,XeX}.,.* 6 6 t 6 : : : > > r | oX,X,XeX5X/       5 8 q 5 5 & y : j A.4XQ ~ ,XeXyX).D % % 7 w w 9 9 6 r ' J.,XeXrXeXJ.f . +     w s 6 t d s f f j }.eXrXeX5X,.% . 7 6 6 q 9 9 6 { rX5XyX<Xh .     5 8 l 9 y 7 h }.yXeXeXeX,XrXyXD.* . % 6 5 9 5 w ; ; : f oXyX,XtXeXrX<XyX=..   & y J S f t t f [ J.yXyX:XQ o     s N N B B q q N C C b b A P A C Z K Z A Z Z Z Z K K K K K Z P P P F H U ( U ( ( H J J F F F F F Z Z F S S ( ( F G H J U H S U ( *.] V V &.,.4.H ^ { d S =.S ; 7 5 w 9 5 y s 7 7 w 5 ; 5 7 6 ; ; 5 6 ; ; 6 5 # # # # 5 5 # # # # # # # # # # o # # # # o o o o o @ o O X X o X o X   * } n.R.wXR.R.R.R.R.j.wXk.p. ./ / }.,XwX .} R u A &.e.K.G.qXs.R 3.u u 1.J u t % : % & & ; 7 5 ; X # # # o ; w ; ; ; & ; o & & o &       X # # # # 5 0 w 8 q A U Y N Y U #.b PXiXt w.v.2.~ h f u t t d ) l.,.u t 5 8 8 5 # # 1 , q C b , q N q q V 7 6 ; 5 7 s w   0 w   w 5 5 o # q A s & J U V Y U U q.9.&.X.&.t.7.7.W.y.OXe.].&. X5.. o # b 0 & : u i i T _ p.p.W T T e e e e e e e e * $ * $ . * $ $ $ $ $ $ $ $ $ $ $ $ $ $ $ e e e ) _.OX1X9X5XfXfXMXhXgXgXfXfXfXfXBXVXZXSXSXSXJXJXJXSXSXDXSXVXVXVXhXhXhXfXfXfXfXhXhXhXNXVXVXVXZXZXZXZXZXZXZXZXZXZXZXVXMXMXMXMXZXZXZXZXZXZXIXIXIXIXIXIXZXZXZXZXZXVXVXNXNXMXNXNXNXVXVXZXZXZXZXSXSXSXSXSXSXDXDXSXJXHXJXSXSXSXZXAXMXpXpXMXBXNXNXMXMXMXpX9X2X+X|.|.:X: o w 8 q o #     X     O O   O     @ @ ,     w #                                               X       X + # # X X X X X X X X X X X X X + o o o o o o # # # # ",
"6 ; 5 5 ; 6 6 ; ; ; 6 5 & 6 5 ; & ; ; # & & ; 5 5 % D.jXgXBXe.      X ; ; & ; # ; % z.gXgXBXOX%       ; & 6 5 ; ; ; 5 5 5 ; : : 6 > r u D.dXyXdXdXyXsX,X,XyXH.r * % f : 5 5 ; ; 2 : % r r g.,X,X,XeX<XrXrXeX>X3.* $ : : % 7 6 6 7 6 ; > t r [ @X5X>X,X,X,X5XJ.j r r f f r j f.4X,XeX>X>XD.>       X ; 6 t t 6 7 t 6 t t 6 6 7 7 5 5 7 6 7 t t t 6 t 6 t > r <.>X,XrX,X,XeX,XoX,.r f r r u r f [ +X5X,X,X,XyX+X.     X 5 6 w 5 w 6 ; & : > =.c.r }.,XrXeX>XD.r r u r u r R A.yX,XrXyX+Xz.o       X 5 6 6 y t t t g j A.eX,XeXeX,XyX5.* : r t 5 l w : u }.,X>XD.$     X w 6 : r r j H.,XeX,X,XeX,XeX,X,X[.r % ; ; 9 8 7 > r r K.yXeXeXrXrXrXrX,X5Xz.{ ' ,.2.,.,.6.H.4X5X5XeXrXoX%     & N V V V V N q b C C C A A Y A A Y P N l Z K C C A Y Z A P Z Z P Y Z V Z J U J F D J J J J H F G F H H F G D H u S J J ! ! ! ! ] ( F s B U S.5.J J f : s *.q 6 6 9 5 w q w 7 7 w 7 5 ; ; 5 5 5 5 ; 5 5 5 5 5 5 # # # 5 5 5 ; 5 # # # # # # # # # # # o # # o o o o o X X + X + + X X r } L.wXwXR.R.L.R.j.a.k.k.a. .r j G.dXk. .R i u 7 =.[.K.G.sX;XE } u y =.=.u r : : & : ; 7 o ; # ; # 5 ; w # o X ; # X # . & ; ; & #       o 5 #   = 3 :.q.5 w Y p w 3 4 4 o.L PX=.% * * . ; ; 7 s H d ,.5.~ 6 8 k 8 8 1 + 1 O @ C C 4 4 A A p s 0 w 5 5 - ; q   o o     # + X + 1 # # & U 1.&.` V A -.:.U ] U +.+.m ].^.'.$Xy.y.U $X_.o @   n C 5 6 t r $ i _ p.p._ T i e e e e e e e e * * $ $ $ $ $ $ $ $ $ $ $ $ $ $ $ $ $ * * e e e g z. X%X1X5XpXfXfXfXfXfXfXfXfXfXMXVXVXSXSXSXSXSXSXSXDXDXDXDXVXVXhXhXfXfX5X5XfXfXfXNXVXVXVXVXVXZXZXZXZXZXZXZXZXZXZXVXMXMXMXMXVXVXZXZXZXZXIXIXIXIXZXZXZXZXZXZXZXZXVXNXNXMXNXVXVXZXZXZXSXVXZXSXpXfXSXSXDXDXDXSXSXHXSXSXSXZXBXMXMXMXvXMXAXVXVXNXfXpX9X2X2X%X{.7Xx.% : 7 # X o       @ @ O @ @   X   X @ # 3 @ # 4 7 ;       X                                                       X X X + + X X X O o o o o O O o o o o o o # # ",
"5 & ; 5 ; 5 6 6 : 6 6 6 ; o ; ; ; ; 5 5 ; ; & # - : D gXgXMX!       # ; & & & # # & r aXgXBX4..     o : & ; ; ; ; ; 5 5 5 ; : : r 6.{.aXgXdXgXyXsXeXtXeXrX,XrX,XH.6.d 7 ; 5 6 & * t [ F.>X,X,X,X,X,X,XrX<X<XeX,XoXS.=.: 7 : % & 1 7 7 6 6 : r Q 3.oX,X,XeX,X>XeX<XoXJ.oX>X5X5X,X,X>XD.! .       # & 6 7 t t 6 y t t t t 6 6 6 7 6 6 7 7 7 7 6 t 6 6 ; : 6 > r h 3.oX,X,XrX,XrXeX>XoXK.K.oX:X>XyX>XeX,X,X>XH.J       o 5 w w 5 5 6 7 6 y > t H t f.yXrX,X,XyX5X:XJ.J.oX@X>XeXyXyX+Xz.h .       # ; q 7 6 6 t t [ g.oXeX,X,XeX,X,X<XyX+Xx.1.r 6 & 5 y r ^ >XyX] .     o y ; g e.D.<XrX,XrX,X<XrX,X<XrXeX,X>XF.6.j & 6 g 6.H.5XeX,X,X,X,X,X,X,X,X,XrXrXeXeX,X,XrXeXrX<XeXeX<XyX,..   X 9 V V B V B s s N C C A K P K P Y Y Y Z A Y K Z Z Z Z A s A P Z A Z Z V B s F B G F G G G F H J F J H J F S G J d F J H ! ! ! ! H S V V V V H 4.! J V d ] N w w w 9 8 w w 6 V s 7 w 5 5 ; 5 ; 5 ; ; ; 5 5 5 5 5 # # # # 3 # ; 5 # # # # # # # # # o # # # # o o o o o X X + X X + o X u <.;XR.R.wXR.R.k.C.R.k.k.a./ h r f.tXL.d.E r : s H .X<Xd.<XG.E } D F H H r r : & & t y ; o 5   o X # # # # # . # ; ; . o & % o o X     X ; # o   w 7 U P N >.Z 5 w b L o.O.8.xXnX( $ $ . = @   o o =.5Xg.r : 8 8 k 8 5 9 # q Z N N 3 w Y N q q w w 5 7 5 5 6   o # # + 1 # 1 o   o c U :.q.U Y p K ;.U U U ( &.-.0.;.:.iX'.>.l iX XS 5 3 @ b K N & ; : e T _ W W _ T e e e e e e e e e * * * $ $ $ $ $ $ $ $ $ $ $ $ $ $ $ $ * * e e e e =._..X1X5X9XfXfXfXfXfXfXfXfXfXfXVXVXVXDXSXSXSXSXSXDXSXSXDXVXVXhXhXfXfXqXqXfXfXfXhXVXVXVXVXVXZXZXZXZXZXZXZXZXVXNXNXMXMXNXVXVXZXZXZXZXZXZXZXZXZXZXZXZXZXZXZXZXZXVXNXNXNXVXVXZXVXZXZXZXZXSXBX|.[.MXSXDXDXDXSXSXSXSXSXDXZXVXMXMXMXMXMXAXBXBXMXfXpX7X2X%X.X|.pXh : & # X     o X   X @ # , @ X = 5 #   X =   X U &.;   X       X                                                   X X X X X X X O @ o o o + O X o o o o o o # # ",
"6 ; ; 5 5 5 ; ; 6 6 6 ; 6 ; 6 : 7 ; # & & & : ; ; & % {.BX2X  .   X & ; & & # # # & * =.BXbXS .   X & 6 & ; ; ; ; ; 5 5 5 5 ; : ! pXBXgXgXgXaXaXpXgXaX5XyX>X>X5X4X6X( . % 9 & & > r &XaX>XyX,XeXyX5X>X,XyXyX>X5XyX4XiX% & ; ; : 9 6 q 6 6 6 : : r * ' J.,X,X,X>X,XeX5X5X5X5X>XoX| % .   <   . - w 6 7 6 t t 6 t u t t t 6 6 7 7 7 7 7 7 7 7 t t y t y 7 7 t > : t * ^ A.:XeXeX>XeX>XeX>X>X,XyXyX,XeX>Xg.r .       o ; 6 6 6 5 6 6 6 & 6 7 6 7 7 r 3.K.rX,X>X5XeXyX>XyXyX5X5XJ.~ * . . o     w 5 7 6 y 7 7 6 u  X5X5X,X,XyX>X5XyXeX>XyX7XiXf o q 7 w 6 r {.@Xt o   # 0 w 6 =.>XyXyX5XyXyXyXyXyX5X,XyX5X4XyXiXiX=.. . e.iXyX>XyX>X,X,X5X5X5X5X5X5X5XyX5X4XyXyX5X>XrXrX,X,XyX:X% .   @ q A V B V V s N A A A K P U P Y A A Y P Z A Z Z Z Z Z A N A Z A A Z P Z N y F F F H J J D F F D F D D F G G G S g S D D D ! ! D D J H F V V S S ] s 7 V 7 q w 5 w 9 9 5 5 6 J B 7 6 5 5 ; 5 = ; ; = # 5 5 5 w 5 # # # 5 5 5 5 5 # # # # # # # # o o # o # # o o o o o X X + o   . + o g f.<XR.R.R.R.R.L.L.L.R.k. ./ [ g oXL.k.s.} r U ] J H.G.K.,XE i <.Q d S u : > : 6 y s s ; ; ; X X X X ; X # # o & 5 ; X ; & & o & X o         #   J s q 7.&.Y # 5 U P 8.$.%.=X9.KX_.: . & 3 b w   f 6.A.h . & 9 k 4 , 5 q w 9 U U # # b Z N 5 w w 0 w   ; # ; X o O , 1 # # +   # X.:.q.:.P N N C >.&.] Y ] &.>.-.W.X.q.cX_.y.5   H u X @ 0 n b 0 o s $ e T _ W W _ T e e e e e e e e * e e * * * $ $ $ $ $ $ $ $ $ $ $ $ $ $ $ * * * e * Q v..X1X3X5X9XfXfXfXfXfXfXfXfXfXhXVXVXVXSXSXSXDXDXSXSXSXVXVXVXhXhXhXhXfXfXfXfXhXNXVXVXVXVXVXVXVXVXVXZXZXZXZXVXNXNXNXNXVXZXZXZXZXZXZXZXZXZXZXZXZXZXZXZXZXZXZXZXZXVXVXNXAXVXZXVXZXZXZXZXSXVX+X{.MXSXDXSXSXDXSXSXSXDXBXBXBXMXMXMXMXMXBXMXMXMXfX9X3X%X.X X+X{.r : .     o o o X o X   @ , 4 5 5 ; - =       U '._.U         X                                         X X X X X   X X X X X X X O + o o o o X X X O @ @ @ o o o ",
"6 5 5 5 5 5 ; ; : : 7 6 6 > r D J y 5 5 & & : & o ; & S _.d &     X & & & & & & & 6 ; u c.w.;     o & 6 ; ; ; ; ; ; 5 5 5 5 ; ; ; J ( ( H s . .     . . % > t 6 u >       . 1 & : % d S h f r . . . .     . & t t f %       & 6 y 6 6 q 6 6 t y t t r r f [ <.5.g.z.e.6.,.) f . .     o . & w w 6 6 6 6 6 t 6 t t t t t 6 6 7 7 7 6 6 6 7 t t t 6 : 6 6 6 7 7 t ; : r > r ~ ,.6.5.e.S.z.z.6.,.[ D t . . .     @ & ; 6 6 6 6 6 6 9 6 6 6 7 q 7 7 y % > h [ 6.6.z.z.g.1.[ ( u . .   . . # # w w 5 w q ; 7 5 7 d d ! Q h $ . $   . * r t t .   X   # w 7 F ] J 7 o   # w q 7 : D h g d : . . . . . $ $ * u t t t       . U ( ! r *     . . .       . . % : t t r t u u r f > % .     , c Z A V V V y s A K Z K P P P Z Z Z Z C C Z A C C A Z Z A Z Z A A Z Z Z Z Z Y Z A F F J F D F D D D D D D D J D D H ! ! ! ! ! ! ! ( U S B V d s V s N s p 5 w w 5 w 9 5 5 q F s 6 5 5 5 5 5 = ; ; # # ; 5 5 5 5 # # # 5 5 5 ; # # # # # # # # # o # o o # o o o o o o X X X @ X o o % D g.;XwXR.R.k.L.R.V.<XtXR. ./ D t v.|.:XE e r 1.:.w.z.g.,XhXh.R x.) : ( u > * % 6 y s 6 & 5 X w ; # ; 5 # ; # & & ; & # ; ; & & & # ; # O 5 X X & B y O X.cXC O q C &.-.$.o.#XW.`.LX( . o , < 3   d w.1.~ > & l 4 z w q w c # ; &.X w Z Z p 5 # # 5 5 w p 5 X   X   , 8 , , O   A >.&.U N A Z N ` &.A V U ( &.;.;.#.M '.OX=.5 :.y.H . # @ b b b 0 ; s * e R W W W T T i i i e e e e e * e e * * * * $ $ $ $ $ $ $ $ $ $ $ $ $ $ * * * e * u 5. X.X1X3X9XpXfXfXfXfXfXfXfXfXgXgXNXVXZXSXVXVXDXDXSXZXVXVXVXhXhXhXhXfXfXfXfXhXNXVXVXVXVXVXVXVXNXVXVXVXVXVXVXNXNXZXZXZXZXZXZXZXZXZXZXZXZXZXZXZXZXZXZXZXZXZXZXVXVXVXVXVXZXZXZXZXZXZXZXSXSXBXfXSXSXZXSXSXSXDXSXDXZXBXBXMXMXMXfXvXMXMXMXMXMX9X3X2X%X.X.X+X~ > o     o ; ; o     X     @ 3 = o o   ; 7 s N w q U q # X                                               X   X X X X X X X X X X X O X X o X X O X X X @ @ @ o o o ",
"; ; 5 ; 5 6 : ; > J ( y 6 u ^ [ J t 5 5 ; & : & & ; & & 6   o . o # & & & & & & ; & & : 6 % ; o   # 5 5 5 5 : ; ; ; 5 5 6 6 ; ; 6 6 ; 7 6 + & + = # ; w ; ; ; ; % & 6 o # 5 6 6 0 5 ; ; : ; & : ; ; 5 w 0 7 6 % o o # & # & 6 5 6 6 6 6 7 7 6 6 6 5 7 6 : 6 % > . % o .     X   + & ; 6 6 : 6 6 6 6 6 6 t t 6 t t t t t 6 7 7 7 6 6 6 6 6 t t t t 6 6 y 7 6 7 ; w w 6 : t t % y % % .     .     .   + + 1 1 q w 7 7 7 6 6 6 6 6 7 ; 7 7 6 6 6 6 w w 7 ; : 6 & . % . . . .     + & y 5 6 q q 5 s q 6 7 6 y 7 7 t f > u : : 5 w s P l q q q 5 # 5 5 w Z B & 6 w 0   6 w 5 ; t 6 > 6 6 q w 9 6 1 7 9 B y ; : ; # & 5 5 5 & 5 & 7 . - - = , , , = - ; y F F s 7 t : y & 7 6 7 w 5 5 8 l N C N A N s q s A K Z Z Y Z K A A A N q l A N N N q N C A A P Y Y Z A A A Y Z A V V Z F H H H H H H H H H H H J G H ! ! ! ! ! ! ! D H H J S s B s N Y A q 5 6 w 5 w 0 5 5 q N 7 5 5 5 5 5 5 ; 5 5 # # # ; ; 5 5 5 5 # # # # # # # # # # # # # # # o o o o o o o o @ X X X X X X X o & ) n.R.wXR.k.k.R.j.j.L.j.k. .Q D S {.:X} Q S.h t 7 =.).H.K.hXh.E l.g g :.d : : 6 ; 6 s & o ; o w 7 5 5 # 5 5 o # X # ; & & % % : % # # @ 5 5 5   . ; % 8 5 '.CXC C ;.X.I X.m Q.GXr.=XnX; 5 , O @ X o { e.D % . 8 z 0 o # 5 # X # w 4.] U Y A s w 5 5 8 A A 5 X O o O , 5 , , o 8 P U q 7 5   N #.&.` V B B U U &.X.#.#.'.e.S & ).N.7 & 8 < M b 0 5 w w r i T W p._ T T i T i e e e e e * e e * e e * $ $ $ % % $ $ $ $ $ $ $ $ $ $ * * * $ e ) )..X+X3X5X9XfXfXfXfXfXfXfXfXfXgXhXVXVXVXVXVXVXDXZXZXVXVXVXNXVXNXhXfXfXfXfXhXNXVXVXVXVXVXNXNXNXVXVXVXNXNXNXNXVXZXVXNXNXVXVXZXZXVXNXNXVXZXZXZXZXZXZXZXZXZXZXZXVXVXZXZXZXZXZXZXVXZXSXSXSXSXSXSXZXZXDXDXSXDXSXZXVXBXBXMXMXvXfXMXMXMXMXMXpX9X1X%X%X XOXD.$ .     # - # o X       X o       X w s N 7 # X @ X # = o                                                   X X     X X X X X X X X o @ o o o X X X o @ @ @ o o o # ",
": 6 5 & 5 : > > r H J : : g ' ^ S t ; 5 ; : : & ; & ; ; o 7 & o & ; ; & ; ; & & 6 & 5 ; % 7 ; 5 % ; 6 5 6 5 ; ; ; ; 5 5 6 6 5 ; ; ; ; 7 ; & q 6 ; 6 ; ; 6 7 6 6 ; w 5 6 w 5 # 5 ; 5 ; o 6 6 ; ; ; ; ; 7 5 6 t > 5 6 y ; ; : : : : 6 : 6 7 7 7 t 6 6 ; ; 7 7 ; : r : : 7 y 7 7 7 7 6 y 6 y : : u : 6 6 6 t t : t t t t t 6 7 t 7 6 6 6 6 6 t t t : t 6 6 ; ; q 6 5 o : 6 : t r > : t 6 6 : & & 7 6 ; 7 6 6 6 ; 7 6 6 6 6 6 6 6 6 : : 6 ; 7 y 6 w : 6 6 : 6 : 6 t y 6 ; ; w w w w 5 5 t y 6 6 6 6 q 6 7 q y 5 B 7 7 d t 6 B B V V K q b s ; w ; 6 7 q 6 ; 0 y s 5 7 5 w w 5 q 5 9 7 7 Y Z w 5 w 7 q 0 5 7 ; ; 7 ; ; w w 7 7 w - 5 5 5 5 w 8 w 6 6 : t F F d d d t V s q a s q C C C C C N N A N q q q A Z A Z Z Z K A N N b b q w 0 q b q 0 q q N A A A Z Z A A Z A A A N N B S F J J J J J H J F J S d H H H ! ! ! ! Q Q ! ( ! H J F s B V 0 5 w w w w 8 w 5 5 w q 6 5 5 5 5 5 5 5 w 5 5 # , 5 5 5 5 w 5 5 ; & # # # # # # # # # # # # o o o o o @ o o @ o o X X X X     * [ L.L.R.R.a.k.j.a.k._ _ R.j./ r : ) 2.D 4.BX,.u ; H =.f.;XR.j.E f.g u U 6 > t 6 7 6 7 5 & # - X w 5 # X & # X # o o ; ; % % % : % # o , @ 5 0 w F w 7 0 O C FX=XX.#.-.9.r.;.L xXmXy.PXu.# 1 q q w ; *.{ S & c z 4 8 5 o 6 X =   X &.>.V w w q w 5 w q q 0 # X # # O # O , o o q A V V s 7 p Y :.>.Y U P P &.U &.X.;.^.OXS.e.e.=.f > X < 4 L n 8 # 0 0 r i T _ W _ T T i i i e e e e e * e e * e e * $ $ $ % . $ $ $ $ $ $ $ $ $ $ * * $ * e G l. X.X1X5X5XpXfXfXfXfXfXfXfXgXgXhXBXVXVXVXVXVXVXVXZXVXVXVXNXVXVXhXfXfXfXfXfXNXVXVXVXVXVXNXNXNXNXVXNXNXNXNXNXVXZXNXNXNXMXNXNXNXNXNXNXVXVXZXZXZXZXZXZXZXZXZXZXVXVXZXZXZXZXZXZXZXZXSXSXSXZXZXZXDXDXZXDXDXVXZXVXVXNXMXMXMXMXMXMXMXMXMXvXpX7X%X+X X_.%X*.. .   o = # . . X       X X   # w q N N 5 - -   X w 5                                                           X   X X X X X X X X o @ o o o o o o o o O o o o o # ",
": 6 5 5 ; > r f Q h S u g h ^ Q ~ S t 6 ; : ; 5 & ; w o t & & ; & ; ; & ; ; & 5 : & 6 6 7 & : & ; 6 6 & 6 ; ; ; 5 5 5 5 6 6 6 5 ; : 6 ; ; 6 ; & & 6 2 6 9 6 & y 6 6 ; y 5 6 & 6 ; ; : ; : % : : 6 7 6 6 6 7 y 2 ; ; % ; 6 ; ; ; 6 6 6 y t 6 t 7 : 6 : 5 ; ; : t > 6 : t t 6 t t t 6 6 6 1 y ; : 6 : 6 6 7 t 6 t u t y t 6 6 7 6 7 6 6 6 7 t t t t t 6 6 6 7 6 ; 7 6 7 : : : 6 : 6 t : 6 6 : ; ; - 6 > 7 6 6 7 7 6 6 6 6 6 6 6 6 5 q y 6 6 7 w w t t 7 6 : 6 : 7 ; 7 w ; 7 w w w q y y 7 7 7 q q 7 7 y 5 q 6 ; s q q 7 y 6 B U U N 5 7 ; a w : s y y y 7 s q 6 6 7 ; 5 w 6 9 9 q q q s q 5 0 q w 5 0 5 0 w w w w 7 s 7 7 ; 7 # 5 5 5 1 5 5 6 6 6 9 c F F y y y y S f 6 7 b b z k C C n z C C b q 0 q c C C C Z Z Z K P Z N N C N q q l q q q q N 8 0 p A A A A C A A Z A V V V F G F F F F F S G F B d H J H H H ! ! ! ~ ! D D H S S F B s s q w 8 w 8 8 w w w 6 w w w 5 5 5 5 5 5 w w 5 1 5 5 5 ; 6 q 7 6 ; & & ; 5 3 5 , # # # # # # # o o o o @ o o @ X o X X o X   o * } L.V.L.R.R.k.k.a. .a.R.k.s.} g d 1..Xq.U CXvX%Xd ; 7 r ;XR.k.E / g * o % % & : y : % 6 ; & ; X = - o # o X X o # # # 5 & & & & % % & # = # w N V p ; , , @ q.mXI ;.r.y.u.r.C I LX$X'.CXB % 6 q p p :.4.; 1 k < O ,   . %     X   o P A 5 5 w 5 w q N N w @   X O # # o # # # 5 q 7 Z B V Y V &.&.` A Z Z Z K m t.t.].S.J w.vX%XJ - 5 4 4 n b 0 8 8 8 6 u i _ _ T T T i i i e e e e e * * e e * * * $ $ $ $ . . $ $ $ . $ $ $ $ * * * $ e e r *.). X+X1X5X5XpXpXfXfXfXfXfXfXgXhXBXVXVXVXVXVXVXVXVXVXVXVXVXVXVXMXfXMXMXNXMXNXNXVXVXVXVXVXVXVXVXVXNXVXVXNXVXVXZXVXVXVXAXMXMXMXMXMXNXVXVXZXZXZXZXZXZXZXZXZXZXVXVXVXZXZXZXZXZXSXZXSXSXSXSXSXDXZXVXDXDXVXVXBXBXMXMXMXMXMXMXMXMXMXMXvXvX9X3X+XOX X_.).t o . # # o o . o X           O w N q X # ; ; -   X N N o                                                             X X X X X X X X o o o o o o o o + o O o o o o o ",
": ; ; 5 6 > u Q ^ Q ,.S u D h ^ ~ S t 5 5 6 ; 6 6 6 % t & ; ; ; & ; & & ; & & 6 & 6 5 & ; : : : 5 6 6 & 6 ; ; : 5 5 6 5 6 6 6 6 6 & & 6 7 & 5 5 ; 7 6 ; ; 7 > > 6 ; 7 6 & 6 & ; 6 6 6 ; ; : ; 6 : ; : ; ; : ; 6 ; 6 7 7 & 5 6 5 6 6 6 y t t y : 7 7 6 q 7 6 t ; 7 7 6 6 7 7 y 6 7 7 s w 5 5 w 5 6 6 7 6 7 7 t s u y y t 6 6 6 : 7 6 6 7 7 t y y y 6 y t 7 6 ; q 6 6 q 6 q 9 q 0 7 5 w w 5 ; q w 7 6 6 6 w w 5 w 6 6 7 q 7 6 6 6 y 5 7 q 6 7 y 6 6 q 9 l w 5 7 7 6 7 7 7 q q q 9 c q 7 d y y 6 7 w 7 y y q w q 6 8 q 7 t S ] J d y 7 6 t ; 7 7 7 t d : 7 7 w 7 6 6 7 6 5 7 ; 7 y y s 7 ; 7 7 ; 6 5 ; w 5 6 w 5 6 q 6 7 7 6 1 q w w w 5 5 5 5 6 6 7 s d t y s y 7 y d 6 q C z C N b b z z n b l q q q b C C C C Z K Z Z K Z K Z N N l q 0 l N l N l l p b N N N C l N N A V V V d B B F Z V F V B B y y F B H S J D ! ! Q ! ! ! D S d S S B y N q 0 8 8 8 5 w 0 0 w 8 w 5 5 w w 5 5 w w 5 1 5 w w ; 5 q q w ; & & 5 5 5 5 5 # # # # # # # o o o o o o o @ X X X X X X X o > | L.k.k.k.C.k.wXh.k.hXwXk._ } S t t ! B - ] uXv.6 U iX:.H.k.,XH.h u % o & o > 6 y : & # ; ; o w # = = ; X o 5 X o # & & & & : . % & & # q N 5 5 X - # # # < @ < #.r.t.W.u.q.-.l 7.PXU bX'.u o ; = @ 5 H y 1 k r.L 5 Z 6 ; X o X o X , U p 0 w = w q s w o X @ O O # # # X # # 5 Y Z V B 7 7 p A Y Y U K c z C o.`.9.b = J s . ] J % , 4 k k 0 3 8   @ # * e T _ T T T i i e e e e e * * * * * e * * * $ $ $ . . $ $ $ . $ $ $ $ $ * * * e e e Q z. X.X:X1X5X5XpXpXfXfXfXfXfXfXgXgXVXVXVXVXVXVXVXVXVXVXVXNXVXVXMXMXNXMXNXNXNXMXNXVXVXVXZXZXZXZXZXVXZXZXZXZXZXZXZXZXZXVXZXVXMXMXVXZXZXZXZXZXZXZXZXZXZXZXZXZXZXZXZXVXZXZXZXZXZXZXSXSXSXSXZXZXVXVXDXZXMXVXBXMXfXfXfXMXMXMXfXMXMXMXvXpX7X1X%X X).).*.. 6 1 # X o .   . X X     @ # O X         # # X X   o # o                                                       X   X X X X X X X X X X X X X X X X o o o o o o o o o ",
"& 6 & 6 t r h [ / [ ' h r j ^ Q / h : ; 5 5 ; ; 6 6 ; 5 5 ; ; ; ; ; ; ; ; ; ; ; ; ; ; ; ; 5 6 6 5 5 ; ; ; ; ; ; ; 6 6 5 5 6 6 6 ; ; ; ; 5 6 6 6 6 6 5 5 6 6 6 6 6 6 6 6 6 ; ; 6 6 5 5 5 ; ; ; ; ; ; 6 6 6 7 6 6 5 ; ; 5 6 6 6 : 6 6 7 t t t 7 7 6 : : 6 : : : : : 6 t t t t t t t t 7 7 7 6 6 6 7 7 6 6 6 t t u y y u t 6 6 6 t 6 6 6 6 6 t t t u t t 7 t 7 6 6 6 6 t t t 7 7 7 t 7 7 q w 5 5 6 7 7 w 6 6 7 7 6 7 6 6 6 7 7 6 7 w w 7 7 y y 7 7 7 q q 9 9 q q 7 7 y q y s s y y d y y y y y y y y y s d d y y y c B B y u d u g u g u j h g r D d S d t u f u u t f f u d s 7 7 7 B d u u u r u ~ ! D u y 5 0 w q q 0 q q 7 w w 6 7 7 6 q 6 7 6 B Z y y y y B y t 7 7 q p q N c b b b b l b C c q l z C C C C K Z K P Z Z A Z N A A l A C K K P A Z Z U U K K A A A A N c c K c Z Z Z Z Z Z Z Z F y q N V V A Z F B S D H H D D S S S S B y s s q 0 8 0 0 q q 0 q 9 6 w 5 5 5 5 5 w w 5 , , N 5 ; 5 7 w 5 ; ; # 5 5 5 # = # = 3 # o o # # o o o o o o o o O X X X O   o g <.K.L.k.L.L.s.j. .n.j.k.R._ i r # o r > u % d ( 6 *.vXJX4XgXDXVXVX5Xz.r * 6 B y % 6 + & # 5 5 ; # # ; # # # o X w 0 # & & % % % .   o 5 1 # y s # p ; # , C z -.9.9.t.r.>.:.:.U 8 `.GXy.iXy.U q = w 0 + k C m =XPXX.Z t 5 q #   o X # w w 5 w = w 7 # @ # # O O # # # # 8 5 # V U U 7 7 s p b A b A &.:.Y b n X.$.$.`.t.u.*.H d 7 - # 4 3 k 4 k b b 8 3 6 e T T T T T i i e e e e e e $ * * $ $ $ * * $ $ . . $ $ $ $ $ $ $ $ * $ * * e e e i R b.[. X+X1X5X5XpXfXfXfXfXfXfXfXgXgXhXVXVXVXVXVXVXVXVXVXVXVXVXVXhXhXhXhXfXMXVXVXVXVXVXVXZXZXZXZXZXZXZXZXZXZXZXZXZXZXZXZXZXZXZXZXZXZXZXZXZXIXIXIXIXZXIXIXZXZXZXZXVXVXZXZXZXZXZXSXSXSXSXZXVXBXVXVXVXNXMXBXVXNXfXfXfXMXMXMXMXMXMXMXpX7X1X%X X_.).S.> o ; 5 #       ; w 5 o       O O         X 5 w #         ; o                                                               X X X X X X o o o o o o X X o o o o o o o o ",
"7 6 1 ; % r ~ ,.,.^ u r h 5.R h j r % & 5 6 6 6 ; ; ; 5 5 ; ; ; ; ; & & & ; ; ; ; ; ; ; ; ; 6 6 5 6 6 6 6 ; ; ; ; 6 6 : ; 6 6 6 6 6 5 ; 6 5 6 6 6 6 5 5 6 6 6 : 6 6 6 6 ; ; ; 6 5 5 ; ; ; ; ; ; 6 6 6 6 6 6 6 6 5 ; ; ; 5 : 6 6 6 6 6 t t t 7 6 6 6 6 6 6 6 6 6 : 6 t t t t t t t t 7 6 6 6 6 6 6 6 6 6 t t t u u u t t 6 6 6 6 6 6 t t u y u y t t t t y t 6 : 6 7 7 t t 7 7 7 t 7 7 q 7 w w 7 7 w 7 6 6 6 6 7 6 7 y s s y y y 7 7 7 7 7 y y y y s y y s B B B V V V B S V S S S B V V V V V V B B B B B B B G B B d u S ! ^ ~ ,.,.[ ' | [ Q ! [ [ ] ( ) ( ~ ~ Q D D ! H S V U J J g u g ! ,.v.z.4.=.1.=.F 6 s y B V s s B V B s y y 6 q 7 y y B B y y y y y y t 6 7 q s q N l q l b b b b N c 0 q l z n n C C C Z Z C C A C N N N N P K U U U Z A A K Y Z K P Z C A Z Z N A A c N Z Z Z Z Z Z A q N N N s V Z Z B B F J J D G G S S F S s s 0 q 0 w 0 q q 0 0 9 w w w w w 5 5 5 w 5 5 1 5 l w ; q V s ; o - ; & & = # # # # # # # o o o o o # o o o o @ @ X X o O + o g f.G.G.j.k.L. .g. . .H.L.s./ i * w . y ~ H u & B : ] CXHX%XgXJXVXaXHXpXh * * S F 7 ; 5 # # # ; ; # # ; 5 X o o # q w # & & & % % o o # # 1 A # # p p w w P r.W.0.;.t.t.9.;.>.i.u.P L mXlXq 7 s 5 # ; V 8 C I C z PXmXX 6   Z 5 # = #   X # w w w 5 # #   @ @ O @ @ @ @ @ , # 0 Y Z 7 q V w 5 k A U K X.>.&.U K 4 k 7.#X^.;.:.6.( 6 X # 3 k A k k b A 8 b y e T T T T T i i e e e e e e $ * * $ $ $ * * $ $ . . $ $ $ . . $ $ $ $ * e $ e i i / b.s.v.[..X:X3X5X5XpXfXfXfXfXfXfXfXgXfXhXhXVXVXVXVXVXVXVXVXVXVXVXNXhXhXhXNXVXVXZXZXZXZXZXZXZXZXSXSXZXZXZXZXZXZXZXZXZXZXZXZXZXZXSXSXHXHXHXHXHXHXHXHXIXIXIXIXZXZXZXZXZXZXZXZXSXSXSXSXSXZXZXVXVXBXBXMXMXMXMXNXMXMXfXMXMXMXMXfXfXpXpX9X7X%X.X X[.c.w.; & = X o X o # # ; ; # X X               # w w o X @ # 7 7 #                                                 X           X X X X X X X X X X + + + o o o o @ o o o o o ",
"6 5 & 6 : f ^ ^ h r r j / ) h h S u : ; 6 6 ; ; ; ; ; 5 5 ; ; ; ; ; & & & & ; ; : : ; : 5 5 5 5 5 5 6 6 6 : 6 6 6 6 6 6 ; 6 6 6 5 6 6 6 6 6 ; : 6 5 ; 5 6 6 6 : 5 6 6 6 ; ; ; 6 5 ; ; ; ; ; ; 5 6 6 6 6 7 6 6 6 5 ; 5 ; ; ; 6 6 6 6 6 t t t 7 6 6 6 : 6 7 7 6 6 6 6 t t t t t t t t 7 6 6 6 7 6 6 6 6 7 u u u u u u t t t y t t : 6 7 t t u t t t t t u y y 7 6 7 7 t t 6 7 7 y t t 7 7 7 7 7 7 5 6 7 6 6 6 6 7 7 y B B B s y y B B B B B V B B V V V B B B V V B B B B V V V S B B B B B B B B V V V V B B B B B d d S ! [ *.,.2.<.<.<.f.<.} ,.[ ) ) [ ' ~ ) | } ,.[ ] ~ ! G S D D ' ^ 2.H.z.,.*.*.) ! y y s y V B B V V V d d s y y 7 y 7 y d y t y y t t 6 t y 6 y 7 7 q 0 w w 0 b b b l l l 7 q l l l l l q N C b C l b q q 0 0 q C C Z C Z A K P K K P P K U P K Z K Z K C Z K K K Z A A A A w q B Z A C N Z C Z F F F F G G B d B S V V q q q 0 0 0 0 8 8 8 w w 8 8 w w w 5 w 5 5 5 5 q 5 ; q N y ; # ; # # # ; ; = # # # # o o # # o o o o o o @ @ @ @ O   # X . u l.h.k.x.G.<.} b.[.' f...G. .R t V F +.[ ! u & 6 6 1.).=.r r gXBX:XBX:X/ e g d V ; X o & & # # # # # # ;   o o # 5 o # & & & & % % % 1 o & F =.5 5 q   p Z &.-.C X.7.r.0.9.;.7.q.7.k L GXy.w # : % d J q l , 4 8 7.PX(.  5 6 U 0 X o # # X # w ; s 5 #     O # @ # # # 3 @ # w 7 # o V A # l K U X.-.#.&.i.&.#.-.X.^.].W.t._.pX,.$ o 3 4 4 n M Y b N 0 p y e T T T T T i i e e e e e * * * * * $ $ * $ $ $ . . $ $ $ . $ $ . $ $ $ * e e e ) s.) i l.[.|.+X1X0X5X5XpXfXfXfXfXfXfXgXgXhXhXVXVXVXVXBXBXBXBXVXVXVXVXNXNXNXVXVXZXZXZXZXZXZXZXZXSXSXSXSXSXSXSXSXSXSXSXSXSXSXSXSXHXHXHXHXHXHXHXHXHXHXHXHXIXIXZXZXZXZXZXZXZXZXZXZXSXSXSXSXZXVXVXVXNXMXfXfXfXMXMXMXNXMXMXMXMXMXfXfXpXpX9X2X+X X[.).).! > ; X o o o ; 5 & o o o X X               # w w X   A :.&.V o   X                                               X X X X   X X X X X X X X X X X + + + O o o @ O o o o o ",
"; 6 & ; t f f j u r r / } f.~ g B y 6 ; : : ; ; ; ; ; 5 5 ; ; ; ; ; ; ; ; ; ; ; : : : 6 5 5 5 5 ; 5 5 6 6 : ; ; ; 6 6 6 ; 6 6 6 5 5 5 5 6 6 6 6 6 6 ; 5 5 5 6 6 ; 6 6 6 ; ; ; ; 5 ; ; 5 ; ; 5 6 6 6 6 6 7 6 6 ; 5 6 6 6 6 ; 6 6 6 6 t t t t 7 6 6 6 6 6 6 6 6 6 7 t t t t t t t t t t t 7 7 6 6 7 7 6 t y y y y u u u u s d s u 6 t y y u u u t y u t t t y y y 7 t 7 t t 7 t 7 7 7 7 6 6 7 6 6 7 6 6 6 6 6 7 y d B B B d y d d B B B B G B B B B B s y y y s y y y y y y s B B B B B B y y B B B B B B B d y y d d d d g g h D / } ,./ / / E E E } ,.} } | ,.| <.| / ^ ! D S H j h h <.x.| [ f.=.Q u d H 7 w V S B d S d d d d t 7 t t y 7 7 y y y d t y B y t d y B 7 6 7 6 7 9 0 q b q q l q 6 q q q q q q 0 q l l C C A C N C C b C l A C A A K U U K K Z Z A P I C C n A K K K K Z C N N q s w y B A N A N C C Z F F F S S F S d B F F Z B q q 7 0 0 0 8 8 w 8 8 w 8 w 8 8 8 8 w w 5 5 0 5 ; 5 w 7 5 ; 5 # ; ; ; ; ; # # # # o o o # # o o o o o @ @ @ O O o     % ) <.J. .J.f.Q r i ) / R } g.| ^ % y F ) h f d t ; : % 1.1.~ D F.BXVXsXR R 3.*.S : 6 7 & & 1 # # # = # o ; X # 5 # # o # # # & ; & & & & & o & q.q o &.N A P K b < L ;.9.0.9.$.-.&.9.;.k 7.PXnXiXt . : d z 8 8 8 A 8 r.xXV   5 q A l O   X X # # w q q # X   O # @ # , , O , 8 O   7 w 7 U &.w A #.#.o.I p 7 U 9.t.-.=X`.0.9.iXHX=.r @ < 4 k 4 k b 0 b 3 3 6 e T T T T i e e e e e e * $ $ * * $ $ $ $ $ $ $ . . $ $ . . . $ $ $ * e e * e } s.T e i 2.v.[..X:X1X0X5X5XfXpXfXfXfXfXfXgXgXhXhXVXVXNXBXBXBXhXBXVXVXVXNXNXNXBXVXZXZXZXZXZXZXSXSXSXZXSXSXSXSXHXHXSXSXSXHXHXHXHXHXHXHXHXHXHXHXHXHXHXHXHXHXHXIXZXZXZXZXZXZXZXZXZXZXZXSXSXSXVXVXBXVXNXMXfXfXfXMXMXMXMXMXMXMXMXMXfXfXpX9X7X1X.XXX[.c.D.% % -   ;   o ; w 6 ; # o         O       @ q q @   w ` 9.V s -                                                     X X X       X X X X X X X X X X X X O X o @ @ @ o o o ",
"; w 5 : t g ^ ~ g r / } | [ f u 7 6 ; ; : : ; 5 ; ; ; ; ; ; ; : ; ; ; ; ; ; ; ; 6 : ; 5 5 5 5 5 ; ; ; 6 6 : ; ; ; ; 6 5 ; ; 5 ; 5 5 6 6 6 : 6 6 6 ; ; 5 5 6 6 : ; 5 6 6 ; ; ; ; 6 ; ; 5 5 ; 5 6 6 6 6 7 7 6 6 ; ; 6 6 6 6 : : 6 7 7 t t t t 7 7 6 6 7 6 6 6 6 6 t y y t t t t t t t t t y y t 6 6 7 t t t t t f t t u u u y y y u s s y u y y u y y t t t t y y 7 7 7 7 7 7 7 7 6 6 6 6 7 7 7 6 7 6 6 6 7 y d B y d d d y B B B d d B B B B y y s s s y y s s s d d B B s s B B B B s s y y s s s s s s d d d d d s d d S S d g h Q ) / / / ' / ' | <.,.| | | | | } ^ ^ ^ Q Q ~ Q ^ [ f.[ ,.<.) u u B B q 6 A N d F H G f g G S t 6 t y d 7 7 7 t 7 t : 6 y t 7 d t B 7 6 t 7 7 6 6 0 q 0 0 0 q 6 7 q q w w 0 w w w l N Z A Z Z Y Z Z A N Z A Z A N Z Y K C N K C A K L P A C A K K A A Z Z A A B q q q N N C C C C A Z V V V d B S B G F S B s q q 7 0 w 0 0 q 0 8 8 8 8 w 8 8 w 8 8 8 5 5 w 5 5 5 w q 5 & ; 5 5 ; ; ; ; ; # # 5 # # # # o o @ o O @ @ o X X X o   # % [ z.{.g.[ ! ! *.,.g h Q D.A.,.r % . * ~ [ f h a f : y c 1.5.5.H.>XjXVXg.R h ! ! : ; % % & & # o # = # o ; # o 5 5 # ; # # # & ; & & & #   & o B P w >.Y p q U 8 3 n #.7.0.8.$.$.#.#.-.9.4 *XPXnXcXJ ! f 5 w b 4 8 3 O FX*XA A 5 A Z l 5 # # q P q 5 5   O   O < # # , , 4 O @ # ; s 7 - ; N 0 , 0 0 I K Y U #.9.9.W.$Xq.#.;.aX@Xr % 8 4 4 n k L n b b b 5 : e T T i T e e e e e e $ * $ $ $ $ $ $ $ $ $ $ $ . . . $ . . . . $ * $ $ e Q ) 2.i i e e ) v.[.{..X:X1X3X5X9XyXfXfXfXfXfXfXfXhXgXhXhXBXMXMXgXhXBXVXVXVXVXBXBXVXVXSXSXZXZXZXSXSXHXSXZXZXSXHXSXHXHXHXHXHXHXHXHXHXHXJXJXJXJXHXHXHXHXHXHXHXHXHXIXHXZXZXZXZXVXZXZXZXZXZXZXZXZXVXVXVXBXMXfXfXfXfXMXMXMXMXMXMXfXvXpXpXpX9X3X1X+X.X{.).v.] . o o ; . - # ; 7 6 ; o o         O X     @ w 8 @   4 U :.>.` 7       X                                                           X X X X X X X X X X X X O O @ @ @ o o o ",
"5 ; : t t D ' / j | | | [ h u > t 6 6 6 6 ; ; 5 ; ; & & ; ; ; : ; ; ; ; ; ; ; ; 6 : ; ; 6 5 5 6 ; 5 ; 6 6 : ; ; ; ; 6 5 ; ; 6 ; 6 6 6 6 6 6 6 6 6 5 ; 5 5 6 ; : ; ; 6 5 ; ; ; ; : : ; 6 ; ; : 6 6 6 6 6 7 6 6 ; 5 6 6 6 6 6 6 6 7 7 t t t t 7 7 7 t t t 6 6 6 7 y y y t t t t t u t 7 t y y u t t t t t t t t f u u u u t t t u t t t t t u y y u y y u t t 6 6 6 6 6 7 7 7 7 6 6 6 6 6 7 7 6 6 6 7 t y y B d y y y y d B B B B d d d d B B B B B B B B B B B B B B B B s s B B B B B B s s s s s B s s s d B B B B B s B B d B h h ^ [ ,.| ' ' } | / E E / ' / E / E ) ) ) ) [ [ } 3./ | [ ^ j y F N q 9 z q 0 7 d H ! D D D f y t y y B 7 6 6 y 7 y s d d y y s 6 y 6 t y 7 6 5 & 5 w w w 7 q 7 7 q 0 q q q q l q l q N l A A N N A A N N A N A N N A Z A C Z Z Z K K U P A C K K Z K P P K Z B q 7 s Z A A A A A A V V V V B B V B B S V V B N s y q 0 q 0 0 8 8 8 0 9 8 w w 5 8 w w 5 5 5 w 5 5 6 w 5 & 5 5 3 # & ; 5 5 5 ; 0 5 # o o o o o O + @ @ o X X X   #   ; 1.D.SXSXCXCXCXHX8X).] S.t r ~ 1.,.z.c.v.2.D h D d f y H 5.{.+X:X,X:XhX5Xj j g t ; % y & & & # o # # # o o ; o & & # w ; ; ; - # # o o # 5 q ; w q.#.` w p P A q , @ I #.0.8.;.8.$.#.I -.I K mX*X&.V e.{ 0 # w 3 , l k 7.LX*X5 = 5 C Z N # w A &.V X   X O O # , < < @ @ 3 3 @ X q Z w #   5 0 w 3 q b &.;.q.r.;.7.^.`.9.;.q.OX{ %   3 4 0 b b I I n b I w % e T T i i e e e e e e * e $ $ $ $ $ $ $ $ $ $ $ . . $ $ $ . % . $ $ * e h ) R i e e i e i l.D.[.|.+X:X4X5X5XyXfXfXfXfXfXfXfXgXfXgXhXBXfXfXfXhXBXVXVXVXVXVXVXVXVXSXSXSXZXSXSXSXHXSXZXZXSXHXSXHXHXHXHXJXJXHXHXJXJXJXJXJXJXJXHXHXHXHXHXHXHXHXHXSXZXZXZXZXZXVXZXZXZXZXZXZXZXVXVXMXMXMXfXfXfXfXMXMXMXMXMXMXfXpXpXpXpX9X1X+X.X{.[.D.z.r : > ; 7 o w ; 5 6 & o . o X X         X X 5 @       # b U Y 7     X                                                               X X X X X X X X X X X X O O @ @ @ @ o o ",
"7 ; : t u h ^ i } d. .| ^ r * u f t 6 5 5 5 ; ; ; ; & & 5 ; ; ; ; ; ; ; ; ; ; ; ; ; ; 5 : 6 6 6 6 6 : 6 6 6 ; ; ; ; 6 5 ; 6 6 5 6 6 5 5 ; ; 6 6 6 6 ; 5 5 5 ; ; ; ; 5 5 ; ; ; ; ; ; : 6 6 ; 6 6 6 6 6 6 6 6 6 6 6 6 6 6 6 6 6 6 7 7 t t 7 7 7 7 t t y t t t t t y y y t t t y t t t t t t u u u y u u u t t u f y u u u t t t y u u u u u d d d u u y u t t 6 6 6 6 6 7 6 6 7 6 7 7 7 7 7 6 6 6 7 y d d d d y t d d d d B B B y y y y y d d d d B B d d s y y y s y s s y y s y B B B B B B d d B B B d s d d d y d d y y B B G g H ~ ) ) } / E ' / ^ R R R Q / ) ~ h ^ ^ Q Q / ' ,.[ [ ~ ! g t F y 5 C l q 9 6 6 6 S ( ) ! g t d y y y B y 7 7 7 7 t B B y t y y 6 6 6 t 7 6 ; 7 6 6 7 w q s B s y q q N N N q c y c q y y N B s s B B B B A B N A N A A Z A B N Z P A N A A A A A A Z Z Z Z Z y y s Z V V A A A N A A B V V s B V B B F V F F V V B s s y w 6 9 9 9 q 0 8 w w w 8 5 8 5 8 3 8 w 5 5 5 5 5 5 5 5 , # ; w 7 5 ; 0 5 # o o o o o o o o o o o X X X #   t 1.7XDXuX8XbX6XOX&.t ] 4.> : _.DXJXBX:X3.} h f r 7 f t F .X.Xx.' h.5XhXBXoX<.f y ; ; & q 5 5 # # # # # # o 5 5 5 1 # 5 5 # ; ; # # o o 5 N q o o p A Y q.w w 5 5 O O @ M #.$.%.$.$.` I I I b b ].*X_.J *.q = 3 @ O z m < W.PXu.# # N N K 0 8 3 o ] Y X   o # < < , < < < @ , # 5 A b 3 5 3 X A p 0 b Y -.r.9.9.9.n ].y.>.:.).{.r   3 @ 3 b b 4 4 k b b b 5 $ e R T i e e e e e e e * e * $ $ $ $ . $ $ $ $ $ . $ $ $ $ $ $ % $ $ e Q R e e e * e e T E <.z.D.[.|.+X:X4X5XyXfXfXfXfXfXfXfXfXfXfXgXfXgXfXgXgXhXhXhXVXVXVXVXVXVXZXZXZXZXZXZXSXSXSXSXSXSXHXHXHXHXHXHXJXJXHXHXHXJXJXJXJXLXJXHXHXHXHXHXHXHXHXHXSXSXSXZXZXVXZXZXZXSXZXZXZXVXBXNXBXMXfXfXfXfXfXMXMXMXMXMXfXpXpXpX9X9X3X%X.X|.{.[.D.[ t : 7 ; 6 ; - # # o . . # ; # o X       X X X = w =           - o                                                         X       X X X O O X X X X X X X X o o @ @ o o o o ",
"; 7 : r g ^ / R /  . .' f > r g ~ D s w w 5 ; ; ; ; & & 5 6 ; ; ; ; ; ; ; ; ; : ; ; ; ; : 6 6 6 ; ; 6 6 5 : : ; ; 6 6 6 6 5 6 6 ; ; ; ; ; ; : 6 6 6 ; 5 5 5 5 ; ; ; 5 5 ; ; ; ; 5 5 6 6 6 6 6 6 6 6 6 6 6 6 7 7 7 6 6 6 6 6 7 7 7 7 t t t 7 7 7 7 t t t y y y y y y t t t y y y 7 t t t t t u u u u t t u u u u t t t t y t y y u u u u u d u u u u u t t t t t 6 7 6 6 6 w w 6 q 7 7 t t t t y y d y y t y B B B B d y y d B B d d d B B B d y B B d d d d y y s y s B y s B s s s s B B B d y y d B B B B B d S d d u S D B g S D ~ 2.2.[ R / } <.<.,.} } } } ) ) g ^ ^ ^ Q R Q [ ^ h D u t d s y q 9 l 5 6 6 6 6 B ! ~ ! D g d s y y B y y 7 7 y y y y t d d y 7 7 7 7 6 y q q 6 6 w 6 7 B F F B y c A A N q q y q y w q 0 q q q y y s B V V A V s N N q A N Z y B y V V A A A A V V V A Z K d s 7 B y V A Z N N N N N N N s s B s B F B s y V V B B N B y w 9 9 9 9 0 w w 0 0 0 w 8 5 8 , w 8 w w 5 # 3 5 , 5 , & ; 7 6 ; # 5 # # # # # o o o o o o o o X X o     s e.S.J f t y t % . . d : . % & ! 1.D.3.d.f.h * 6 V 7 s d z.{.H./ } L.g./ } z.! & ; 5 5 o ; # # # # # # # & & 1 & 1 & # # X ; ; # = # # w q w 0 w 5 U q y.:.  X # 5 O < 4 o.;.0.$.#.` I I M n @ 4 >.cXe.t 5 s 5 # 3 < n n n =XnXw 5 5 5 C K n w q ; >.q   # , , < , , < < , @ # 5 p 0 0 w z C A 8 w K K #.7.;.;.;.0.=Xr.N.'.OX3.r o O 4 8 b 4 4 0 L Y M A ; * i T i i e e e * e * e * e e $ $ $ . . $ $ $ $ $ $ $ $ $ $ $ $ $ * $ * e e e e e e e e T _ _ w.v.[.XX|.oX:X5X5X5XyXyXfXfXfXfXfXfXfXgXfXgXfXfXfXfXhXhXhXVXBXBXVXVXZXZXZXZXZXZXSXSXSXHXHXHXHXHXHXHXHXHXJXJXHXHXJXJXJXJXLXLXLXJXHXHXHXHXHXHXHXHXSXSXSXSXZXZXZXZXZXSXZXZXVXVXVXBXMXfXfXpXpXfXMXMXMXMXfXfXpXpX9X9X9X3X1X+X X X{.[.z.g r : 7 % & % ; # o o . . # ; # o + X X       ; ; w w 5 # @   = p =                                           X X X X             X X X O O O O O O O O O O @ o + o o o o o o ",
"w ; : r R / / / } ..} h r : f Q [ ) u 7 9 5 & & & & & ; ; ; ; ; ; ; ; ; & ; : : 5 ; ; ; 6 5 ; ; 6 5 5 ; ; ; ; 6 : 6 5 5 5 ; ; ; 6 6 5 ; ; ; ; 6 6 ; ; ; ; ; 6 5 5 5 5 5 6 6 6 6 5 : 6 6 6 6 6 6 6 6 7 6 6 6 6 6 7 7 7 7 y 7 7 6 7 6 t t t 7 t 7 t t 7 t t y y t t t t t t y y y 6 7 t t t u u t t u u t t u u u u t t t t t y y u u u u u u u u u t t t u 7 6 6 7 6 6 6 6 6 6 6 7 6 6 7 t y B B y y t y d B B B d d d d d d d d d d B B B d d d B G F F B 7 7 7 7 6 7 y y y 7 y y y s s s y y t t y 6 6 y y t y y y y y d y y B u f g D Q Q Q ^ ) ) ) ] [ [ [ [ [ [ ! ~ [ [ [ ) ^ h h g D t y s y q 9 8 8 5 5 9 : t d D D G S d s s t t t y y y y s s y y y y y y y y 7 6 7 y y q 6 w w 5 s B t y q s B q s N 0 q q q q q q 0 q 0 w q q y s N N V A A y q y q y y s s y y y s B s B V V V V Z F t g t u 7 V Z F y q q N A Z V V V s V F B V B 6 t s s N N N s s s y q 0 8 5 8 8 8 8 w 8 w w w w 8 5 1 3 8 < 3 w 5 o 5 f d d y y 6 & # o o o o o o o o o @ @ @ @ o   o B c.w.$ % y t : t B s o % 6 & t o . r 2.5XD.) g y s s s H 5.D.H./ / f.x.i h [ D % & & & & 5 ; X # ; X ; & & % o % & o X X o ; - # ; ; 5 q w 5 s w - w A N >.@ # 5 # 3 O < n o.Q.9.o.#.` I b A 0 0 @ X.*XY X N q b 0 3 z n C C GXu.# 7 # z L l A w o :.$XU O # , , < < < < 3 , , # @ # 3 , , l P P Z K K X.X.o.7.$.#XmXq.r.9.S.=.* @ < k 4 b 0 8 0 n M A b 6 * e i i e i e e e e * * e * $ $ $ $ $ $ $ $ $ $ $ $ $ $ $ $ $ . $ $ $ $ $ * e * e e e i _ _ _ ) z.D.[.XX|.:X0X5X9X9XpXfXfXfXfXfXfXfXfXfXfXfXfXfXhXhXfXBXVXVXVXVXZXZXSXSXSXSXSXSXSXHXHXHXHXHXHXHXHXHXHXHXJXJXJXJXJXJXLXLXLXLXJXJXHXHXHXHXZXZXHXSXSXSXSXSXZXZXZXZXZXZXZXVXVXBXMXvXMXpXpXpXfXMXMXfXfXfXfXpX9X9X5X5X1X+X.X X X).[.z.f 6 ; o   o % ; o     o ; ; ;   X X X X X X   # o   3 # O O O X Y 5                                                           X X X O O O O O O O O O X X X X @ @ @ O O o o o ",
"5 5 t u j R E ' } } j r d d r j ,.' u 6 5 5 5 6 ; & & ; ; : : ; ; ; ; ; ; ; : : 5 ; ; ; 6 5 ; ; 5 5 ; ; ; ; ; : 6 6 6 6 6 ; 5 ; 5 6 5 6 ; ; ; 6 6 ; ; ; ; 5 6 6 5 5 5 6 6 6 6 6 6 6 6 6 6 6 7 7 6 7 6 7 7 7 7 6 7 7 7 7 7 7 6 6 6 6 7 t 6 6 6 6 6 t 7 t t y t t t t t t t y y y 6 t t t u u u t t u u u u u u u u y y u y y y y d d d d u u u y y y t t y y t 7 7 7 7 7 t y y y 7 y d B B d y y y y d d B B B d B B B B B d d d B y y d B B d y B B B H B 7 6 7 6 6 7 y y y y y y y s s s y y t y y t t y y y y y y y y y y u y y u t t u u u u u u u u u u u f u f r u u t u u S g G d G y y 0 q 9 w w w 5 5 6 : 6 y u u u u u s s s s s y y d y y y y y y y y t y y 7 7 y y s y 0 q 7 7 y s 7 q 7 y N q N N q q q q q y q q s q q y y y s B B B B N y 7 q q y 7 7 y y y y y y y y s B B B B B ! ) D u 6 B V B y 7 0 q N B B B B B d d B S d 6 y y y y s s s s s s N N y q 9 9 w w w w 5 w w 8 w 5 8 , , 3 3 # ; ; d [ 1.*.( B 6 6 & # # o o o o o o o @ @ @ @   X   d 1.r * u J 1.r $ y U & % y 6 o ; t d z.[ f r r B w q 7 V ,.[.3.R R ,.{.R h u % o 6 w ; o ; ; X # # X # & # o o % & & # # o ; ; = = # = w 5 q w ; ; = 5 @ >.U   5 5 , , , @ < o.$.o.I Y Y Y A A K 4 8 nX'.o # A K 0 @ O z n 4 `.PX>.# 5 5 C U P B U q >.l   O O @ < < < < , , , # # , , @ @ A -.` N b n L n $.$.0.=X`.7.L ~.CX5.$ 5 < 4 b p 0 8 0 k n A A 6 * e i i e i e e e e * * * * $ $ $ $ $ $ . . $ $ $ $ $ $ $ $ $ . $ $ $ $ * * * e e e i _ _ s._ i ,.z.D.{.|.+X:X0X5X5XpXfXfXfXfXfXfXfXfXfXfXfXfXfXgXfXfXfXBXNXVXVXZXZXZXZXZXZXZXSXSXHXHXHXHXHXHXHXHXHXHXJXJXJXJXJXJXJXLXLXLXJXJXHXHXHXHXHXZXZXZXSXSXSXZXZXZXZXZXSXZXZXZXVXBXMXMXMXMXfXpXpXfXfXfXfXfXfXfXpX9X7X3X3X:X+X|. X[.)._.l.u ; - - # ; % X     o ; ; o   # # o O X O X X       # #   @ @ - p o                                                           X X X X X X X X O O O O X X X X o o X @ @ O o o ",
"5 7 > r R / }  .| R j D S r u E [ ^ r 7 6 5 ; ; ; ; & & ; ; ; ; ; ; ; ; ; ; : : 6 ; : : 6 6 ; ; ; ; ; ; ; 5 5 5 6 6 6 6 6 6 5 5 5 ; ; ; 5 5 ; ; 6 5 ; 5 ; 6 6 ; ; ; 6 6 6 6 6 6 6 6 6 6 7 7 7 7 6 7 7 7 7 7 7 6 7 7 7 7 7 6 6 6 t 7 t t 7 6 t 6 6 6 t t t t t t t t y t t t u u 6 t t t t t u u t t t t t t u y u u u t t y y y d d y y y y y y y y t t y y y y y y y s s d B B B B d y y y d B d d B B B B d y y y d d d d B B y B G B y y y B B y y J B 7 6 6 6 6 7 y y y y s y y y s d d y y y y t t y y y y y d y y d B d d d s y y y u u u f f f u f u u g f g u u f u u d d y B d B q q w 5 6 w 5 5 5 5 6 5 6 t t t t u y y y y y d y u s s y 7 t t t 7 7 7 7 7 6 6 6 6 7 6 6 6 5 5 5 6 5 9 w 0 q q s s 7 q q q q y q q y q q q 7 y s s B B B V s y y q y 7 7 y y y y q 7 y y y d B B d B ~ ,.,.~ u y B d y 7 7 y B B S F F H B d F S t 6 y y 7 7 q y y q q s B N N N q 0 9 8 5 5 5 5 w 8 w 5 8 3 8 8 # & % g ) ,.[ D u t 6 6 5 1 , # # o o o o o o o @ @ # X   : g r h u ! c.*.G : t d & 6 : ; # s s $ % * : & 6   # ;   f [ 5./ h 5.D.) r $ . % ; ; o o ; ; ; - ; # ; 6 & & & & ; & # # # # o o = = = 5 3 N #   ; w w w 5 u.q   8 @   , , @ k X.#.I Y Y A Y b < < < I cXB 9 >.I N b 0 3 C $.z mXGXU X 5 b Z U U A Z o O       O < , , , , # # @ @ 3 3 @ O n U p w 8 4 X.o.8.7.t.=X;.0.o.$XiXh % # k n b p w 4 3 4 n A A 6 * e i i e i e e e e e * * $ $ $ $ $ $ . . . % . $ $ $ $ $ $ $ . . $ $ $ * e * e e e _ _ s.n.T i ) z.v.H.{.|.:X:X0X5X5XyXyXyXyXpXpXfXfXfXfXfXfXfXfXfXfXfXhXBXBXVXVXZXZXZXZXSXSXSXSXHXHXHXHXHXHXHXHXHXHXHXJXJXJXJXJXJXJXLXJXHXHXHXHXHXHXHXZXZXZXSXSXZXZXZXZXZXZXZXZXZXVXBXMXMXMXMXMXMXpXfXfXfXfXfXfXfXpXpX9X5X3X:X+X.X{. X).)._.4.6 . o # o X     X ; 7 ; X . & w 5 # o @ O O     X @ # , @ 4 4 U V ;                                                               X X X X X X O O O o o o o o o o o o @ o o o ",
"# ; r j / } 3.<.^ i ) ] f r j ' ,.Q r t 6 & ; ; ; ; & & ; 5 ; ; ; ; ; ; ; ; : : 6 ; : : 6 6 5 ; ; ; ; ; 5 5 5 5 6 6 6 5 ; ; ; ; ; ; ; ; 6 6 6 ; 5 5 5 6 6 6 6 ; ; ; 6 6 6 6 6 6 6 6 6 6 6 6 6 6 6 6 6 7 7 6 6 6 7 6 6 7 7 7 7 7 6 6 6 6 6 6 6 6 6 t t t t t t t t t y t t t t t t t t t t u s d y y t t t t y d d d s y y y y u y y y u u y y y y y y y y d B d B B B B B B B B B B d y y d B B B B B B d y y d d d d d d B B B B B B B B B y 7 y 6 7 F y 7 6 6 6 6 6 q y y y s y y y d d d d y y y t t y y y y d B B y B B B B s d s s B B s B y d d u d d d d d d u u u y y y B t y y y 5 q w 6 6 w 5 w 5 5 5 & 6 7 t t y y y y y d d d u u d B s y y t 7 7 7 y 7 7 6 6 6 6 6 6 7 7 6 w w 5 w 9 8 9 q q q s w q q q q q q q q q q 7 7 7 s s B s N V s q q 7 q y y y y y y y y q y B B d u g G ^ <.3.,.! y d d t t 6 6 7 y y d u B d s B d 7 6 s y 7 7 q q 7 w q q q s N B N s y q 9 w w w 5 3 w 5 5 3 w 5 6 g ^ 2.<.,.Q u y s 6 5 5 # # # # # o o o o o o o o   X . > Q x.x.[ ~ f.v.|.*.g S : & % ; y 6 7 & . . % % o   X B J [ ~ z.5.u [  X~ > % 7 6 # o # ; # ; ; # ; ; # 6 7 6 6 ; ; ; # # = o X @ # 3 w w w w 5 w N p   w 8 Z >.3   , 3 @ @ 3 4 M X.I I Y N w 8 z z C K cX-X&.8 b w Y I b C L v 7.PX=XX Y q A P X.5   o o O O   O < , , , , , # O O , 3 @ z K ` s ; 3 4 X.$.9.t.;.#.-.7.8.PX%X% % + < k K p 0 8 k n b b l 1 * e i T i i e e e e e * * $ $ $ $ $ $ . . . % . $ $ $ $ $ $ $ . $ $ $ $ * e * e e T T T s._ T i E l.v.v.[.XX+X:X:X3X5X5X5X5X5XyXyXyXfXfXfXfXfXfXfXfXfXfXfXBXBXVXVXVXZXZXSXSXSXSXSXSXHXHXHXHXHXHXHXJXHXHXHXJXJXJXHXHXJXJXHXHXIXHXHXHXHXZXZXZXZXZXZXVXZXZXZXZXZXZXZXZXBXMXMXMXMXMXMXpXpXfXfXfXfXfXfXpX9X9X9X3X1X+X+X|.[.{.).).[.4.t - o o X X X o 5 ; X X 5 7 ;       X O @ O O O       3 0 p 3 N p - X   X                                             X X     X X X X X X X X X X o o o o o o o o o o o o o o ",
"7 t r j E f.G.<.i [ ] u : r i } ,.h > : 6 & ; 6 ; & & & ; 6 ; ; ; ; ; ; ; ; ; 6 6 : : 6 6 6 6 ; ; ; 5 5 6 6 6 6 6 6 6 5 ; ; ; ; ; ; ; ; 6 6 5 ; 5 6 ; 6 6 6 5 ; ; ; 6 6 6 6 6 6 5 6 6 6 6 6 6 6 6 6 6 7 7 6 6 6 7 7 6 6 7 7 7 7 7 6 6 6 6 6 6 6 6 7 t t t t t t t t t t t u t t t 7 6 7 t y y d d y y y t y y B d d u y y y y y y y y y y y y y B B B s B V B B V B B B B B B B B G S S G B B B d B B B d d B B B B d d d d d y y B S B y 7 7 y 7 6 7 S t 7 7 6 6 6 9 6 9 7 y s y y d d d d d y y t t t y y y y y B d y y d B y u d u u d d d d d d d d d d d d y d B y t y y B B y y y 7 : 7 7 6 6 5 5 w 9 5 5 & & 7 y y y y s y d y y y y y d s s s y y y y y y t 7 7 w 7 7 7 6 q 7 6 7 6 5 q 0 8 9 q q q p q q q q y y y y y q q 7 7 y s B B y s B y 7 y q 7 7 q y y q q q y 0 y s d d d B D / <.,.[ ~ S J J V B s s s y y d t y d d d d y y y y y y q q w 7 7 7 7 q y s s B c c y q 0 w w 5 ; 5 5 w w 6 ( ,.z.z.} h r > t 7 5 ; # # # # # # o o o o + o o + O #   > 2.x.+XH.<.z.l.f.z.[ u 6 & % 6 & & & &   o   . o o   s =.c.1.1.( > g 5.> : : 7 ; # ; # ; # - ; - ; ; # ; 6 ; & & ; ; & # # # ; = # = w b b A p - ; s o X , < +.U   @ 3 @ O , @ 4 Y I A A w   @ b $.n @ N.:.*X:.@ V U I 3 , 8 C 4 ;.LXq s ; # w     O o   O O O O < , < , # # , # # , , O 3 K A # q A z $.9.`.7.t.W.r.m =XHX_.f . # O @ @ p 4 3 4 k z n b 2 e e i i e i e e e e e e * $ $ $ $ $ $ . . . % . . $ $ $ $ $ $ $ $ $ $ $ * * * e T _ _  .T i e T / f.x.x.H.[.|.oX:X>X0X5X5X5X5X5X5X5X5XyXpXpXfXfXfXfXfXfXfXMXNXVXVXVXVXVXZXZXVXZXSXSXHXHXHXHXHXHXHXJXHXHXHXHXHXHXHXHXHXJXHXHXHXHXHXHXHXZXZXZXZXZXZXAXNXZXZXZXZXVXVXBXMXMXMXMXMXfXpXpXfXfXfXpXpXpXpX9X9X7X3X1X:X.X.X{.[.{.).). Xw.s ; X X o o ; o   o 7 7 #             O @ O O   @ , @ 3 4 p p Y Z #                                                   X X X   X X X X X X X X o o o X X X X X + o o o o o o o ",
"* r r R } d.| j f d 6 : r e j ^ ] u > 6 7 ; 5 6 ; & & ; ; 6 ; ; ; ; ; ; ; ; 6 6 6 6 6 6 6 6 6 ; 6 6 5 6 6 5 6 6 6 6 6 6 6 ; 6 6 6 6 6 6 6 5 ; ; ; ; ; ; 5 6 5 ; ; ; 6 6 6 6 6 6 5 6 6 6 6 6 6 6 6 6 6 7 7 6 6 6 7 7 7 6 6 6 6 7 7 7 7 7 6 6 7 7 6 6 t t t t t t y y t t y y y t y y y d d d B B d y y y y y d d d d y y y y d d F F F S S F F G B B B B B B B B B B B B d d B B B B S B B B B B B B B B B d d d d d d s d B B s B y y 7 7 7 7 6 6 7 q B 7 7 7 6 9 6 6 6 6 7 t y y y d d y y y y y 7 7 t t t y y y d d y y y y y d f u u d d d d d d d d B d d d B y d y y d d d y y y t 6 6 t 6 7 6 5 5 w 6 5 5 6 5 7 s s y y d y y y y y y y y y s s s y q y y y 7 6 w w w 6 6 6 7 6 6 6 5 5 8 8 8 8 0 q q q q q q q y y y y y 0 q 7 7 q s N N B B B y q s q 0 6 q y q q q q y N N B d d d d B / <./ g u t y y y y y y y y y y B y s d s s s y y y y y q q y q 7 7 7 7 q y y y y y y y q q 0 0 5 ; ; w ; s ,.,.| ) j u f y 7 & 5 # # # # # # o o o o o o + o o #     u 5.H.+Xg.<.f.,.^ f D . % y 7 & 6 ; & o o &       o   X Y 1.*.t : y B *.g > ; o o # 5 o o # # ; 5 5 ; ; ; ; & & # # ; ; & # # ; 5 5 w z C b w - V F 7 &   # < C :.5   @ 4 # , 3 0 n b 4 b N 0 p K C z 3 @ X &.nX:.Y U b n l k z k z mXnXV o X X o # O   O O O O @ < < < , # # # # o # , @ 3 b Y 0 3 n o.7.L m 9.xX$X^.;.=X*XH . . # < X.^.M n k 0 0 z C C : e e e e e i e e e e e e e * $ $ $ $ $ o . o o o $ $ $ $ $ $ $ $ $ $ $ $ $ * e e R / K.<.e e i T  .2.l.v.D.H.{..X:X:X>X5X5X5X5X5X5X5X5X5XyXpXpXfXfXfXfXfXfXfXBXNXVXVXVXVXVXVXVXZXZXSXSXSXHXHXHXHXHXHXHXHXHXHXHXHXHXHXHXJXHXHXHXHXHXHXHXHXZXZXZXZXAXMXBXZXZXZXZXBXAXBXMXMXMXMXfXfXfXpXfXpXpXpXpXpX9X9X7X3X3X1X+X|.|.[.[.[.). XOXq.7 # X o o X o - ; ; .   X X   o X X X O O O   @     @ w q w w s 7   X X                                               X X X X   X X X X X X X X X X X X X X X O O O O X O o @ ",
"u g R } | E j h h t y : r i h z.( u t : 6 : 6 7 & & ; ; 6 6 5 ; ; ; ; : ; ; 5 6 6 6 6 6 6 6 6 6 6 6 6 6 ; ; 6 6 6 6 6 6 5 ; 6 6 6 6 6 6 5 ; ; ; 6 ; ; ; ; 6 6 ; 6 ; ; ; 5 5 5 ; ; : 6 6 6 6 6 6 6 6 6 7 7 6 6 6 7 7 7 7 7 7 7 7 7 6 6 6 6 6 7 7 7 7 7 t 7 7 7 7 y y y y y y y y t t y y s y y y d B B d d d B B B B B B G G S S B G B B B B B B B B B B B s s s y s s s s s s s y d B B B B B B S S S G B B d d d d d d V F V B y y y 7 6 5 6 6 6 7 6 y 7 6 6 5 w 6 6 6 6 6 7 y y u y y y y y y y 7 t t 7 t y y y d y y y y y d y y y y y d d d y u d d B d s y B y y y y B s t y y y 6 ; 7 t 6 7 5 & 1 5 5 ; 6 6 : 6 y s s s s B d y y d d y d y s s s y q 7 7 s y 7 w w w 7 6 6 q 7 6 6 6 w w 8 8 8 8 q q q q q q q c y q q q 0 0 q 7 q s N s N V V q 0 q q 0 q l c N l l l l C C V B B d u d ^ 5./ i r t 7 7 7 7 y y y q 7 7 y 6 6 6 6 7 7 7 t t t q q q y y 7 7 q q q q q q y y y s s y q q y 6 5 w 5 7 ! Q Q u r t s 6 5 5 5 , , < , # # o o o o o @ @ @ O # o o u 1.5.,.f.D.}.J.f.,.g . % 7 6 . & 6 F y y o . % o X       # + . 2 7 ; S % : : # # # # # o X o # 5 ; # ; & & ; ; & # # & & & o # & 1 8 N N q w ; Y U 7 5   O O 3 :.(.w @   O @ , 8 3 @ @ 8 3 # # # N N b #   # &.cXU s A A l 8 4 n z 7.PXq.          X @   O @ @ @ < < < , , # o o o o # # # # 8 l k n o.$.o.M ^.=X;.-.#.N.1.6     < < 4 #.b 0 3 3 8 b b N * e e e e e i e e e e e e e * $ $ $ $ % % % % % % % $ $ $ * * * * $ $ $ * * * e e e H.b.i e e e T _ / 2.c.v.D.[.|..X:X:X>X4X>X4X5X5X5X5X5X5X5X5XpXfXfXfXfXfXfXfXMXNXNXVXVXVXVXVXZXZXSXSXSXSXHXHXHXHXHXHXHXHXHXHXHXHXHXHXHXHXHXHXHXHXHXHXHXZXZXZXZXZXAXVXVXVXAXAXAXMXMXMXMXMXpXpXpXfXfXpXpXpXpXpX9X9X3X3X3X1X+X|.{.[.[.{._._.OX%X1.6 ; - - # - X ; # . o o # X                   O O @ 5 q N p p s 5 . X       X                                         X X           X X X X X X X X X X X O O O O X X X o @ @ ",
"u j } } E R ^ ^ f 6 5 y r j } [ t : t : 6 6 5 & & & ; 6 6 6 5 ; ; ; ; : ; ; 5 : 6 6 6 : 6 6 6 6 6 6 6 ; ; ; ; 6 6 6 6 5 ; ; ; 5 ; 6 6 6 5 5 6 6 6 ; ; ; ; 6 6 6 6 ; ; ; ; 5 ; ; ; ; : 6 6 6 6 6 6 6 6 6 6 6 6 6 7 7 7 7 7 7 7 t y 7 7 7 7 7 y y y q 7 7 7 7 7 7 q y y y 7 y y y B B B B V B B V B S S B B B S S B B B B B B d d V B V B B B B B s s s B B s s s y s B s s s s y d d d d d B S S S S B B S S S B B d d s d B y 6 y 7 6 6 7 6 6 6 6 w 5 7 q 5 w 5 5 w w 6 6 6 7 7 y y y y y y y t y 7 t t 7 t y y y d y y u u y d c B y y y d d d u u d d B d d s d y B s t s t t y q 5 ; 5 6 7 y 7 6 & ; 5 & & 6 6 : 6 t s d d t d d y y d y y y y y y y q y y y y 7 6 6 w w 6 6 6 7 7 6 6 w w w 0 q 0 0 k q q k q q q c N y y q 0 q q q q s N N B A V q q N b N C N N l l l l l N C A V B s d B ^ 5./ g u y 7 7 7 q y y q q 7 7 q 7 7 7 7 7 7 t t 7 6 6 7 q q y y y y y y y y y y y s s y q q q 6 y q w q y g ^ g u y y 0 3 5 5 , , , , , # o o o o o o @ @ @ @ O   X : [ 5.5.g.:XfXH.z.J.,.*.( B 6 & & % 7 6 y 6   o   X   #       . . F P ( 6 & ; & & o o ; o # o # 7 ; o w ; & ; ; ; o o # # & # # # + 1 q N N q 7 V F 6 & . O @ O A $X#.  , o , # , # @ , @ ,     X 5 q 3 O 4 0 5 &.w.s w q b @ 3 4 n < (.CX&.. o     O   O O @ < < < < # < # @ o # # # # @ =   , b < k I k $.0.].^.;.q.:.e.S . o   , < < 4 $.I 0 < < k b q $ e e e i e i i e e e e e e * $ $ $ $ % & % % % % % $ $ * e e e e * $ $ e e e e e E b.i e e e i T e E 2.c.v.v.H.{.|.|.:X>X>X:X:X5X5X5X5X5X5X5X5XyXpXfXfXfXpXfXfXfXMXNXNXNXVXVXVXZXZXSXSXSXSXHXHXHXHXHXHXHXHXHXHXHXHXHXHXHXHXHXHXSXSXSXSXZXZXAXAXZXZXZXVXVXBXMXAXBXMXMXMXMXMXpXpXpXpXpXpXpXaXaXaX9X7X4X1X1X+X.X|.[.[.[.{._.[.%X%X1.t 7 ; o ; 5 #     X o o X             @     X # , 5 # = p w 5 w & 6 &                                                 X                       o o o o o + + + @ o o o o o o o ",
"i ^ ' / / Q D g 6 y t r j | ,.d 6 6 6 6 6 6 6 ; 6 7 6 5 6 5 & 6 ; ; ; ; 6 : ; ; ; : ; & ; 5 5 5 5 5 5 5 6 6 5 5 6 6 6 6 5 5 5 5 5 6 6 6 6 6 5 ; ; 5 5 5 5 5 5 ; ; ; 5 ; 5 5 6 6 5 5 6 6 6 6 5 5 w w w 6 w 7 6 6 7 6 w 5 5 7 7 y c q y t 7 7 y 7 y y y y s B B B N B V V V B B B Z Z B B B V B B N B B B B B B B B B B B B B s s s s B s y y B B c s s d d B B N c B B B s s d s y d B B B B B B S B B B s s s y 7 7 7 6 6 6 : : & 6 5 6 9 5 8 w w w ; 6 w ; 5 5 0 w 5 ; 5 6 6 7 t t y t t t t 7 w 7 7 y y y t y y t y u y y y y c y f t y c c y f t u H H t t d d y y s 7 y s 7 6 6 7 6 1 6 q y 6 ; & 5 5 5 ; ; 6 : 7 y s y y y d y y d B y y t 7 y y y y q 7 7 7 7 6 6 7 7 7 7 w 7 6 ; q q w w w 8 8 8 0 0 0 8 c l l l c q l l 0 q q q N N N N N A A N N N b z b l l l l l l l b l N V B s s f ~ 5.^ g u y y y q q y y y y y y q q 7 q q 7 q y q y 9 q y 6 6 6 6 7 y y s s y q q y y B y y y y y y 6 q 7 6 D D u t y 0 5 3 5 1 # , , # # # # # o @ o # o @ o X X o   V _.BXDXSXJXHXBXBXBX{.DXJXCX&Xw.G d . . t ( & +         X     #   N s ( ( & ; X # ; 5 X X ; - q w w 7 ; ; X o # = ; = X . o o # # # X + c Z w   V d 7 o . O   O O K =X8   , # # X w U X.Z N U q 3 w =     Z *.V 6 V q.N 9 b 4 n b 3 C K ].X.+   # X     O O @ # # # # # # , # # # # o o X o O w   < L L L t.7.9.9.9.q.V J : %   o , 8 4 n ^.t.@ , z < N 7 * e e i i e T i i e e e e * $ $ $ $ $ % % % % o % . . $ * e e e i e e * * * * e i ) i e e e i i i i R 2.D.c.D.v.[.XX|..X:X:X:X:X4X5X5X5X5X5X5X5X5X5X5XyXyX5X5XfXpXfXMXMXMXMXAXZXZXZXZXZXZXSXSXHXSXSXHXHXHXHXHXHXHXSXSXHXHXHXHXHXIXIXZXZXAXAXMXAXAXZXVXAXAXMXMXMXMXMXMXMXMXfXfXpXpXpXpXpXpX9X5X7X7X3X3X1X%X.X{.[.[.[.[.[. X X%X1X4.: . # # .   o o o # # ; # o       @       X   # 5 #   X # # 5 V s 7 X                                                               X X       X X X X X X X X o o o o o o o o ",
"h ) E / } ^ h f y 6 > u <.A.) : 6 6 7 6 6 6 6 6 : 6 6 6 7 6 5 5 ; ; ; ; 5 : : : ; 6 6 ; ; ; 5 ; 6 6 5 6 5 ; ; ; ; ; 5 ; ; ; 5 5 6 5 5 6 6 6 ; ; 5 5 6 6 5 5 5 6 ; 6 ; w 5 5 6 & 5 5 5 6 5 6 5 5 6 w 5 5 6 6 5 5 5 5 w w 7 7 6 7 0 s s d s B d B B B B B B V B B V V Z V B B B B B B B B d s s s s s B B B B B B d B d B d s s y y y y y s d B V y y y s d B s B y B B d s s s s F S F S B B d s t t 7 6 6 6 6 6 6 6 ; ; ; 5 5 5 7 6 6 1 5 8 5 w w w 5 5 w 5 0 w 6 5 5 5 5 6 6 6 7 7 7 t t t 7 6 7 7 t y t 7 t t y t t t y y y y y y 6 t y q 7 y t u ( ( d d d 6 s t y y 7 y y 7 y 6 7 6 6 y q 7 6 & & ; 5 5 ; ; 6 6 7 y y y y t y y y y y 6 7 t 7 7 q 7 7 7 7 7 7 7 6 6 6 7 7 6 q q 6 6 6 w 6 w w w 0 0 0 q w 8 k q k l l l l c q q q q q N c q N A A N N N N b z l l l l z z b l w s N B s s d ~ 2.D u y y y y 7 q q y y y q 7 q 6 6 7 7 7 7 q y y 9 q q 6 6 6 6 6 6 6 6 q y y y y y s y y y y y y q y 7 t D S t y s q 5 5 5 & # , , , # # # # # @ o @ X @ o @ # X X ( $XCXBXpX7X4X{.4Xz.h t B =.*.*.( =.4.*.1.1.. . o o         X   X P B H ( & : 5 ; # ; # X # ; p 7 o ; ; ; o o # # # # o X o o # # 1 # , N P ; . S s : o       # Z 3 u.=Xb   , # # 8 q , 8 P N U N X = # q U U ] o V U q.Y q A &.b 3 3 w   +   + O   @ # < @ @ # # < # # # # o o # # # o X # o X O o.o.n o.#.X.9.9.;.U V 7 o o X O O , 3 n n 0 0 n 4 8 5 . e e i i i e E T e e e e e e * * $ $ $ % % % o o . . . $ $ e i i e e e * * e * e ) Q i e e e e i i e T *.S.v.v.v.H.[.XX|.oX:X:X:X>X>X>X>X4X0X5X5X5X5X5X5X5X5X5XfXfXfXMXMXMXMXMXNXZXZXZXZXZXZXSXHXSXSXSXSXSXHXHXHXSXSXZXHXHXHXIXHXZXHXZXZXAXMXMXAXMXAXBXMXMXMXMXMXMXMXMXMXfXpXpXpXpXpXpXpX9X5X5X3X4X3X1X+X+X|.[.[.[.[.[.{. X.X1X1X1.s ; X   & - o o ; 7 w ; .               @ # o X X           w w o   X o                                                             X X         X X X   X X X o o o o o o @ @ ",
"r i ^ g.<.^ d y t : u ^ 3.' u : 6 7 7 6 6 6 7 t t u u t t 6 5 6 6 ; ; ; ; 5 : : ; : 6 ; ; ; ; ; 6 6 6 6 6 6 6 6 6 6 : ; ; ; ; ; 6 6 : 6 6 5 ; ; 5 ; 5 6 6 5 ; 6 5 5 5 5 5 ; 5 5 ; 5 5 5 6 6 6 6 w 6 w 6 6 6 6 6 5 6 7 5 ; 6 6 6 w 5 0 6 y y s s s s s B B B B y c B s B s d s d d d d d d d d d s s s B B B d d d d V V V B d d B B B B B B B B B B B d d d d B s s s y y s s s y y t 7 7 6 6 ; 6 6 6 6 6 ; ; ; ; ; ; ; 5 5 5 5 6 & 6 6 8 8 w w 3 8 8 0 w w w 5 5 5 5 5 5 5 5 5 6 7 7 7 t 7 7 6 y y y y y 7 7 7 7 7 7 7 t y y y y 7 y t 6 y y 6 f ! ] d 6 y t 7 y 7 y 7 t y 7 y B y y q y y 7 6 5 & & 5 5 5 6 6 6 6 7 t t y y 7 t y y y 7 ; 6 y 7 7 7 6 6 6 6 7 7 6 6 6 6 6 6 6 7 7 6 7 6 5 q y l l l l b N q q q q l q q l l l q q q q N N N N N N A N N l l N C N b l l l l l k 8 p B B B d d [ ) g u d s q y 7 7 q q y 7 7 7 6 6 6 7 7 7 9 q y y 7 q q 7 7 7 6 6 6 6 6 6 q q q y y y y y y s y y y y 7 d S f t y d q 5 5 5 # # # , , , # # # # # # # # # # # X # w Z &.] S r > > % $ % % %   . . % : r 1.w.&X1.. % o     X         5 q.( ] ( & & 5 # X X #   o ; q 7 ; 7 ; o . X # # 5 ; # o X X # # # # # 9 # . B ] y . . . o o   N Y w u.`.=   # @ O   < O C l 0 @ = A U U U U U U Y ; &.q.P N 5     3 X     O O   O @ O # @ @ # < < < # # # # o O o # # # # # o O m m m $.I 4 I ;.:.#.u.V . . o O @ @ O @ 8 0 3 3 0 b 6 : e e i i i i / T e e e e e e * $ $ $ $ % % o o .   o o % $ e i i e e e e e e e i Q i e e e * e e e i R } D.).v.v.v.D.H.{.|.oX:X:X:X:X>X>X>X>X>X0X5X5X5X5X5X5X5X5XfXfXpXpXfXfXfXfXMXMXAXZXZXSXSXSXSXZXZXSXZXSXZXZXZXZXZXZXZXZXZXZXIXHXZXZXAXAXMXMXMXMXMXMXMXMXMXMXMXvXMXMXpXpXpX9XpXpXpX9X7X3X3X4X4X1X+X.X|.[.[.[.[.[.{. X.X+X2X1X4.6 X # o . . ; ; w w - X                 @ @ o o         = 5 N V w - ; X                                                           X X               X X X X X X X X X o o @ @ ",
"u i [ 3.j r u 6 t r j <.} g r : 6 7 7 7 6 6 t t f f u t t 6 6 6 6 6 ; ; 5 5 6 6 ; 6 6 6 5 5 6 5 & ; ; ; ; 5 6 6 ; ; ; ; ; ; : 6 : 6 6 6 6 6 5 5 7 7 t y y 7 q y q ; q ; 0 y q q w w w 7 7 q q q y y y y y y y y N q q y s s y s p 5 q l c 6 s 6 s s s s s s s y s s d B d d d d d d d d d d d d V d B V S S V d d B B B B d d d B B B F F F F F B d y y y t t 7 7 7 6 6 6 7 7 6 6 : : : 6 6 6 6 6 6 6 6 6 6 5 5 5 5 5 5 5 5 w w 5 6 w w w 3 0 p b 8 4 8 8 8 0 8 w 5 5 6 6 5 5 5 5 6 7 7 q t 7 7 t t t t 7 6 6 6 7 y y 7 7 y y y 7 q t 7 t t t u ] *.S : y t 7 y y 7 y 7 y y 6 V B y y y q 7 6 6 5 & & ; 5 5 5 : ; 6 7 t t y y 7 y y y y y 7 t t 7 7 7 6 6 6 6 7 7 6 6 6 6 6 7 7 7 7 6 7 6 6 B N q q q q q q q q l N c q q l l q q q q q l N N N q q s N q q l c C C N l l l q q l w q s B B s d ~ ) G t y y 6 6 7 7 7 7 7 7 7 7 w 6 6 6 7 7 q q 7 q 7 q y q q q 7 q q 7 q 6 6 5 7 7 7 7 7 y y y s 7 q 7 s S d f y y y 7 5 5 5 & # & # # # # o o # # , 3 , , # # o o # #       . .     o + .   .     . % % % u ( y . ; .       o   X X # :.U ( G 6 o o o o X o X # 6 7 q y N ; o X X # # ; ; # # X o % # # # o # . o F ( d t 6 . ; q Y X # X = u.i.        O O O , 8 O @ Y ` &.U F U ] 4.U 7 V >.4.V       =     # O     # @ O , @ @ < < < < # # # < # # o # # o # o # 3 < x o.$.#.4 4 U P :.$X] #   @ O < # @     3 , b n b B * e e i i i i T e e e e e e e * $ $ $ $ $ % % o o X o # o . $ e i i e e e e * e R i e e e e e e e e T E *.).[.D.D.v.v.D.H.{.|..X:X:X:X:X:X>X:X>X>X>X5X5X5X5X5X5X5X9X9X9XpXpXfXfXfXMXMXMXAXZXSXZXZXSXZXZXZXZXZXZXZXZXZXZXZXZXAXAXZXZXZXZXZXAXAXMXvXvXvXMXMXMXMXMXMXvXvXMXfXpX9X9X9X9X9X5X7X3X4X1X:X1X%X.X|.[.[.[.[.[.{. X.X+X%X2X1X1.6 o ; ; # # ; 6 7 ;     X o     X O O O O             O b Y #.=.U V p o                                                           X X X               X X X X + + + X o o o o ",
": u Q R e r t y r g | <.h r & 7 6 7 7 6 6 t t t f t t u t t 6 & 6 6 5 5 5 6 6 6 6 6 6 6 6 6 5 ; 5 5 5 5 5 5 6 w 7 7 7 7 6 6 7 7 7 t t t t 7 7 q y y y y s y y s N B V B B V s s s s s s s B B B B B s s s y y y q s y 6 F >.] y s N N Z c N y s s s s d B B B B B B B B B B d f B B B B B B B B g S G G G G S B F F F B V B s s B B d d s y 7 6 6 6 7 7 7 7 6 6 6 6 6 : 6 6 6 6 7 6 6 6 6 6 6 6 w w w 6 6 6 5 5 5 5 5 5 5 5 5 5 w w 3 3 0 M #.;.I n b b l k 9 0 w w 5 5 5 5 5 5 5 5 6 7 q 7 7 t t t y y 7 7 7 7 7 y y 7 7 7 7 7 7 y 6 7 y > u [ =.! u u y 7 y 7 y t y 7 t t 7 F s 7 7 6 6 6 5 6 5 ; & & 5 5 ; ; ; 6 7 y t y y 7 y y t y y y y 7 7 7 7 7 6 6 6 7 6 6 6 6 6 7 7 7 7 q 6 6 6 y V s y c N l l q y y q q q q q y q q l l l q l c b b q q l N N q l N N N N l l l l N l 0 q y y c y f D 1.[ t t y s 6 7 7 7 7 7 7 7 7 6 w 5 6 6 6 9 q y y 7 7 q 6 q q 7 7 7 6 6 7 7 6 6 6 6 6 6 6 7 7 y 7 7 7 d d t S d 6 : 5 5 5 5 1 & & & # # # # # # # , , # # # @ # X O #   O +     # # 1 O + o # = o     o   $     . . . o         O   X V B H ( 6 ; # o 5 # # ; & w 7 6 N y & ; 6 ; # o X X o o # # & # # # + + .   % : t F H d V U &.V X # X w y.q.w # o   O < O O b A U U U U Y V :.4.*.U U 6 ( =.V o     # +   O O O O @ < # # < < < < # < # @ , , # # o o X o @   < < x o.$.X.#.U ;.U &.:.a X   @ @ , # w 0 l 8 b b k q t * e e e i i T i e e e e e e e * * $ $ $ $ % % o o + o X o $ $ e i i i e i e e e i i e e * e e e e i T R } D.{.[.H.D.D.A.H.J.{.|.|.oXoX:X:X:X:X:X:X:X>X>X0X5X5X5X4X5X5X5XpXfXfXfXfXMXfXfXMXAXZXZXZXZXZXZXZXZXZXZXZXZXZXZXZXAXMXMXMXMXAXZXAXMXMXvXvXvXvXMXMXMXMXvXvXpXpXpXpX9X9X7X7X5X5X7X3X3X1X:X1X%X+X|.{.[.[.[.{.[. X X.X%X%X3X2X1.7 - - ; ; ; - ; w ; o           X O O O O O     O # 0 0 I #.:.=.( V s #                                                   X         X X             X X X X X X X X o o o o o ",
"u f r r r r t u f [ 5.h u t 6 y 7 7 6 6 6 t t t r u g S u 6 6 : 6 6 6 5 5 6 6 6 6 6 6 6 6 6 6 6 6 6 6 7 w w w 7 w w 6 6 6 6 6 6 y d B B d d B B B B G S S V V V B s 6 B d s q s s s s s s s s y y y y y q q q q 6 q s y t 6 6 y q N y 9 B B B B d B B B B B G S B B B B V S S d B B B B S F V V G G G G G G B d y y t 9 6 6 6 6 : : ; ; ; 6 6 6 6 6 7 7 7 7 7 7 6 7 6 6 6 7 6 6 6 6 5 5 5 5 5 5 5 5 5 5 5 5 5 5 5 5 5 5 5 5 5 5 5 = p p M #.;.;.#.Y K U P A l q w w 5 5 w 5 w w 5 5 w w q 7 7 7 7 7 t t 7 6 7 t 7 7 y 7 7 7 7 7 t 6 q y : u ] =.( t t s 7 7 t 6 7 7 y 6 7 7 t F d 7 6 5 5 6 5 5 6 5 5 5 5 5 6 6 6 6 7 y t t t 7 t y y y y 7 y 7 7 7 7 7 6 6 6 6 6 6 6 6 6 7 7 7 6 7 6 6 7 B V s q q q 0 0 9 w 7 0 0 q 0 q q q q q l N y q c N N q q N q q q y q q q y y y y y c q 0 y y c y y t u *.( : t 6 w 6 6 6 6 6 6 6 7 7 w w 5 5 6 6 6 q B B q 6 7 6 7 q 6 7 6 6 7 7 7 7 6 6 6 6 5 6 6 6 ; 7 7 6 y u t H d 6 % & 5 1 1 5 & & & # # o o # # # # # o o # @ o X @ #   # 5 # 5 5 , , 5 # # X   # X #   # .     o   o     O         O B V J *.: 6 ; o ; & # & . ; ; ; V 7 & & ; ; # o X X X o & # & o + # + + o % o % % & 6 6 6 s 5   #   0 q o U U A 5 5 O O , 4 X.&.U ` U Y w U &.( F *.*.t . % d 6             O @   O # O # , < < < , # < < # # O O # 5 8 b q # 3 @ k M $.r.#X:.q 8 :.U ; X   @ O O @ , w , 4 @ , b q $ e e e e i i T e e e e e e e e e * $ $ $ $ $ . . . # # X # % $ $ e i i i i e e e e e e e $ * e e e R T i ) D.[.XX[.H.D.A.D.H.[.{.|.|.|.:X:X:X:XoXoX:X:X:X>X4X5X0X0X0X5X9XpXfXfXfXfX9XpXfXfXMXMXZXZXZXZXZXZXZXZXZXZXZXAXAXAXVXAXMXMXMXZXZXAXvXpXpXvXvXMXMXMXMXvXpXpXpX9XpXpX9X7X5X3X5X3X3X1X:X:X+X+XOX|.{.{.[.[.{.XX{. X.X+X1X1X7X2Xq.; . ; w ; o w > - - ; ; o         X   O @ , 3 w 0 0 b K #.U ` J a w 7 #                                                               X             X X X X X X X X X X X X X ",
"6 y t t u u u r j ,./ r > 5 6 6 6 7 6 6 6 t t 6 t u G F y 6 6 6 6 6 6 5 6 6 6 6 7 7 7 7 7 6 7 7 7 7 6 7 7 y y y q y s B B B B V B B B B B B B B d S S B B B B s d u G y y d q q 0 q q q q q q y 7 7 7 7 7 7 y y B y y y y d s B s y d g d d B B d S S G B B B B V V B B S S S B B d d B d s s y t t t t 7 6 : : : : : 5 & 5 1 5 6 6 6 6 5 6 5 5 6 6 6 9 w 5 w w 5 w 6 5 5 5 5 5 7 w w 6 5 5 6 w w w w 5 5 5 5 5 5 5 5 5 5 w w w q w A I I ;.t.7.A 0 k z k l q q 6 w 5 5 w 5 5 w 5 w w 6 6 6 6 6 7 7 7 7 6 : 6 7 y y t 7 7 7 6 t 6 ; y t > ! =.( g u y y y y 7 y 7 t 7 6 7 6 t B y t q 6 1 6 5 5 6 6 5 5 5 6 6 6 6 ; 6 t 7 7 t t t y t y 7 7 7 7 6 6 7 6 6 6 6 6 6 6 6 6 6 6 6 6 6 6 7 5 y F B d y s s q q 0 q 7 q q 0 q q q w q w 0 0 0 q q q q q N N q 0 q q 0 q q y y q q q q q 0 y y c y y t u ! H t y 7 6 q 6 6 6 6 6 6 6 6 6 w w 6 6 6 6 7 B y 7 6 7 6 7 q 6 7 7 7 7 7 6 6 7 6 6 6 6 6 6 ; ; 5 6 6 6 t d H y 6 & & & & 1 5 # # & # # o o o # # # # o o o o # o O   X X o X X 5 o #   o o X # X o X o     o X o X O     @   O   @   &.( d ( & ; # X o ; - X   # ; w s 7 & o o % & ; # # # # & o o o o + . . . o o ; & . .   o   o # o   w #   o A Z #   ,   O l Z P U &.P w p Z &.:.&.*.:.=.y 6 7 V U #   X @     O @ O # # # # < < < < , , , < O     # 0 N N 0 3 3 @ n I I M ;.>.U P =.Z ; X X @ @ O < @   @ 3 3 k l w * e e i e e i i i e i e e e e e e * $ $ $ $ $ . .   % # o o & $ $ * i h i e e e e e * * * * $ e e i R T e ) S.{.|.XX{.H.H.D.D.H.[.[.}.|.|.oXoX|.|.|.oX:X:X:X:X:X1X0X3X5X5XpXfXfXfXqX9X9XpX9XpXMXMXMXAXAXAXZXZXZXZXZXAXAXAXZXZXAXMXvXAXAXAXMXvXpXpXpXMXMXvXMXMXpX9XpXpX9X9X9X7X3X3X3X3X1X:X:X+X+X.X.X{.[.[.{. X X X X|..X+X+X1X2X7X2X1.7 ; w 7 7 7 w w ; ; w ; o               @ 4 0 A A 0 4 b Y N 7 7 - o ; -                                                                                 X X X X X X X X X X X ",
"s 7 t y 6 u r u [ [ r r 7 5 q : 6 6 t t t r 6 : t t u y t t u t t 7 6 6 6 7 7 7 6 7 y y 7 7 y s B B d B B B B B V V V V B B B B V B s d B B B c u B d d s s s y f =. X( t y y s 0 q q q q q y q y y y y y y s s B y d y d B d d d d S 1.u g u S d S S G B B d d d d d y u t t t : : 6 6 6 : : : : 6 6 6 5 5 ; 5 : > : ; ; 5 6 6 5 5 6 6 6 5 5 5 6 9 8 8 8 8 8 0 w 9 0 w 6 6 6 w w 6 6 5 5 5 5 w 5 5 5 5 5 ; ; ; 5 5 5 5 5 5 w w 5 q V #.I #.r.I b 4 l z k q 8 w 8 5 5 5 w 5 5 5 w w w w w 6 6 6 y y s y t 7 7 y B s t 7 7 6 6 6 : y y t H =.[ h u d t y y 7 t 6 t y 6 7 t 7 y d t t y 6 & & 5 w 6 5 5 ; 5 5 6 6 6 ; 6 7 7 7 y y y y 7 7 7 7 7 7 6 6 6 6 6 6 6 6 6 6 6 6 6 6 5 5 7 6 7 5 s F y y y y y q 0 0 q 7 q 7 7 q q 7 7 q q 0 0 0 q N N y q A A q 9 9 q w 0 q q q q q q q w w q y q c y s u J ) t 6 6 6 6 7 7 6 6 6 6 6 6 5 5 5 6 6 6 6 6 6 7 5 6 6 6 6 6 7 7 7 7 7 7 7 6 q 7 6 6 6 6 6 6 5 ; ; 6 6 y F J y 6 ; ; & # # , # # # & # o o o # # # 1 # # # o o O o O o   X o o - @ o X X # o o o + o # O +   X X O   #     # O @     &.=.& H 6 &   # o 5 ; o # 5 q s 6 ; & & o o # # # o o # o . o # + + o . . .   #     .     .         X   5 Z Z A o     # @ , , 8 Z &.U A U U U U Y U ` :.>.s o s =.'.5     o   O , @ @ @ @ # # # < , , , , # # o O o # 8 5 5 q 3 3 k I $.9.&.&.&.y.1.w o   X O @ @ l 0 , 3 3 8 b l y : r e i i e i i T i i e e e e e * * $ $ $ $ $ . . . . o X X & & $ $ e i i i e e e e e $ $ $ $ e i i i e e ) D.{.[.}.[.{.H.D.A.D.H.H.J.{.}.|.|.|.|.|.|.oX;X:X:X:X:X0X3X3X5X5X9XpX9X9X9X9X9X9X9XpXpX9X9X9XvXBXZXZXVXMXMXMXAXZXZXBXvXvXvXvX9X9XvXvXpXpXMXvXpXpXMXpX9XpX9X9X9X9X5X3X3X1X1X:X+X+X+X.X|.|.[.{.{.|. X.X X.XOX+X+X%X1X2X7X2X1.y w w w 7 > - ; 7 s 7 ; o         X   X @ 8 b Z p #   - - o > - % ; 7 ; X                                                                               X X   X X X X o X X X ",
"y 6 7 y 7 : S *.[ h r t 6 6 7 6 t t t t 7 t y t t 6 t r r r 6. Xu u q q y f d y y d B V V B B B d d f g j r u g f f f f f t g u u r u f : t r t u r j t t q 7 t r {.aX{.h r 6 y s s s 6 s s t 7 r r d f f f f s d d g f d f f f h ^ {.yX{ f f f g u u u r > r > : > r * r : : : 2 6 : : > : * t : > o 5 8 5 > : > * * t ; & & > : % > > % : : : > : 6 6 6 7 & 6 8 5 6 5 5 w 5 w w w w 5 5 5 5 5 6 ; w w 5 o 6 ; 5 5 5 5 5 5 w = 7 V &.>.K I ;.0 w q N l 8 8 w 8 8 8 5 5 & 5 0 w 5 w 5 6 q 6 & 7 : d F B B s 6 s B 7 6 t 7 y 7 y q t u h ,.[ ^ f y 7 y 7 7 7 t t 6 7 6 t t y u : 6 6 7 6 5 5 5 5 5 5 ; 6 6 6 ; ; ; & 6 y y 7 y V B y 7 t y q 7 7 7 7 7 7 6 6 6 6 6 6 6 6 6 6 : ; 6 7 6 6 V B s y y N c q q q q 7 6 7 q q y y y 7 q q 0 w 0 q s s q p B q 0 0 w 0 9 9 q q q q 0 0 w w w q q l q p y F ( y 6 w 0 5 w w w w w w 6 6 6 w w w 5 5 6 6 5 6 6 6 6 6 6 q 6 6 6 6 6 7 q q 6 7 7 6 5 5 5 w ; 5 ; 6 6 y J S 7 7 6 5 1 # # & # # # # # o X X # # , # , 5 = # o # # o O o # ; ; o X X X X o o # + + o o + + o X o X X X X O O         U 1.: H y & o X X ; ; X & ; 6 ; o o % . . X # o X X X o . o % o + & 1 6 6 & + + + o .         O     O O 8 K C O     O # # , O @ C U >.q.:.&.A q U I I #.-.-.N   7 y.$X&.  O < 1 # # O # @ , @ < , , , < < < @ O O # 1 5 5 w 0 N 8 z I #.N.9.:.:.u.>.5 # X O @ @ < k 0 , , 4 , 0 b y r i i e e e i T T i i e e e e e e * $ $ $ $ $ . . . o # o X o . . % $ e e e e e e e * e * $ $ e i e e e e ) D.{.|.{.{.{.H.H.A.D.H.H.H.H.J.|.|.|.}.|.|.|.|.|.:X:XoX:X:X4X4X4X3X5X9XqX5X3X3X3X9X9X3X3X9X9XMXMXMXVXAXMXMXMXMXMXMXvXpX9X9X3X1X9XpXpXpXpXvXvX9XpXMXvX9X9X7X7X3X3X1X1X:X:X+X+X.X.X.X.X X{.).[. X X|. X.XOX+X+X+X1X2X3X9X&X1.d f d s a 7 a s 7 ; o         o & o     @ 0 b p p   X 5 Y p S t f 7 s q #                                                                                   o X   X     X X X ",
"s y y y y u S ! g t t t t 7 7 q y y t t t y s s u S d r r A.yXpX[ u 1 0 N s s B d s B B B B d y d =.z.l.g.A.f.3.<.,.,.<.,.,.[ ,.,.<.,.,.,.,.1.5.g.D.J.S.B 6 t : r 4XyXyXH.,.~ h f r r h j j f j D h j h Q D ^ ~ ^ ^ ^ ' ~ [ [ <.x.>X,XyXD r 4.5.f.f.g.| | | [ | | | [ | [ ' ,.[ | [ | { } 5.A.5.d ; w w ; u 4.5.5.5.,.[ [ ^ ] ' [ 4.5.x.D.F.z.z.5.[ ^ r > 6 : q # q 7 ; w 6 q ; w w w 5 5 5 5 5 ; w 5 ; w 7 & & 5 w 5 5 , 1 w q ; *.(.>.&.q.A p p q 8 w 8 0 8 3 5 w 6 ; ; ; ; = ; 5 w ; & 6 7 7 6 s S B V s y B s 7 y t 7 6 7 6 7 d g ~ [ ] h t y y 7 s 7 y 6 7 w 7 7 y B F S t : 6 7 6 1 5 w 5 w 5 5 6 6 5 ; & % ; 7 y 7 6 y B y t 7 y y 7 7 7 6 6 6 6 ; ; ; 5 6 6 6 6 6 6 6 ; 5 6 ; 6 B s s y y N c q 9 9 6 6 y q q q q q 7 7 q 7 w w q s N N q p B q 0 q 0 q 9 0 q q q q q q q q w 0 q c b p y G ( y 6 5 w 5 5 w w 6 6 6 6 6 5 5 5 w 5 5 5 6 6 6 6 6 6 6 6 q 7 7 7 6 6 7 q 6 7 6 6 6 6 5 5 5 5 5 5 6 ; 6 y t 6 6 5 5 1 # # & # & # # # # # & & & # # 3 # # # # # # o o o # 5 ; # X X X X o o o o o + + O + + o o X X X O O O @ O     A =.t *.d & . o # o X ; ; ; & ; o . % . & X X X X o X . ; ; & + . + # & 5 & # + # + o o               O O < , # , l A   # # O   o @ w -.:.:.&.U P U K U ` &.*.U ; X &.S.:.w ,   @ # 5 # , @ , , @ < , , , < # # o # o o o 5 w 8 8 C I L 7.q.*.U U s ; X O # # @ < 8 0 4 3 3 3 8 w ; r i i i i e i T T i i e e e e * * * $ $ $ $ $ . . o . o o o # # . . $ * e e i i i e * * * $ $ e e e e e e } D. X|.|.|.|.{.H.H.D.A.D.H.H.H.[.{.|.}.}.{.}.}.|.|.|.|..X:X:X:X:X1X0X0X0X0X0X1X1X1X1X1X1X3X9XvXMXpXMXMXpXpXMXMXpXpX9X9X7X3X3X7X9X9X9X9X9X9X9X9XpXvX9X3X3X3X3X1X1X1X:X+X+X+X+X.X|. X X{.{.{. X X X.X.X.X+X+X+X1X1X3X3X7X&X1.V d d s s p 7 7 - X o     . o ; 6 # # O @ 4 4 3 w p U :.J J 4.] H d s 5 o                                                                                     X           X X ",
"6 7 6 6 6 t t r t t u d s s s B B B s y s N B B u g Q D.:XyXaXyX5.>   , N s y B y y y s s y y t r _.4XaXyX,XeXeXyXyXeX,X>X,XyXyXyXyXyX5XyXyX>XyXyX,XeX>XH 6 & f ^ >XeX<XsX,XyXyX>XyXyX>XyXyXyXyX>X5X,XyX,XyX5XyX5X5XyX4XyX5X>X,XeX,X,X5Xr S %X7XyXyX<XyX,X>X,X,X,X,XyX>XyXyXyX>XyX,X,X>XeXeX,XyX( : ; o : [ &XyXyX>XeX,X>XyX,XrX,XyXyX>X>XyXyX,X,X,X,XoXg.h t . 6 & 7 5 5 ; # q 6 6 5 5 ; ; ; ; w 5 ; 5 ; ; o 6 5 5 , 5 w w ; # 7 4.4.e._.e.s 5 w w 3 l q 0 8 8 5 w 5 ; 6 w ; N Z - w w 5 6 6 : u u d t B s V F ; y 7 : 6 6 7 s u D H [ ~ D u t 7 w 5 y q 7 7 y q w 6 t d d d 7 y B s 6 & & & # & # # & ; & & # ; 6 7 7 y 7 7 6 ; : 6 7 7 7 7 7 6 6 6 6 6 ; 5 5 6 w 6 6 6 6 6 ; 5 5 ; 7 B s y y y c y q 0 q q 7 q q q q q 7 7 7 q q w w q s s q N N B q 0 0 9 0 9 9 q q q q q q q q w q c N N p y G ( B 5 5 5 ; 5 5 5 w w w w w 5 5 5 w 5 5 5 6 q 6 6 6 6 6 6 q 6 6 6 6 6 6 6 6 q w 5 5 6 6 5 5 5 ; 5 ; : t u : : ; & & 1 # # & # & # X # # # & # # # # # # # # 5 , # # # @ # 5 ; - o X o o O O X X X X X X X       X X X O O + O O @   w U 6 ( t & . X # o o 5 & & & o o 7 y ; o X X + # # # o ; & & + . . + & 1 & & # # + o o             O O #   < ,   P q.l @ O o # 5   X 3 U :.:.>.&.` U U &.U &.:.( 7   7 &.q.l 1   X O , # < , @ , 8 < < , , @ O O # +     # q b 8 z z 4 &.` U ; X o   X O # # < 4 k k 4 0 4 8 0 w & r i i i i e e i i e i e e e e $ $ $ $ $ $ $ $ . o o . o X X # # . . $ $ * e e i i e * * * $ $ * e e e e e ,.D. X|.|.|.|.}.{.H.H.D.D.A.D.H.H.[.[.{.}.|.|.}.}.}.|.|.|..XoX+X+X:X1X1X1X1X1X1X1X:X+X1X3X9X9X9X3X1X3X9X9X9XpX9X3X3X9X7X3X3X9XpXpX9X3X3X3X7X3X7X9X7X1X%X+X1X%X%X+X+X+X.X.X|.|.|.{.{.[.{.{. X X.X.X.X.X.X+X+X%X1X4X4X3X7X%X=.f 7 6 > 7 7 w     o o     o ; ; 5 # @ O @ 4 4   q q.(.u.s ( e.=.J s 7 5 #                                                                                     X X           X ",
"y y y s s t u u y y y y y y y y 7 7 6 6 6 7 7 6 u z.yX,XyX,XeXyXD.$   X q 7 7 t t 7 7 7 q 7 7 t u h 2.A.:X,XeX<X,X<XrXrX,XeX5X+XoXoXoXoXK.>XeX,X<XrXrX>XD   . % | >X,XeX,XyXyX@XoXoX:XaX5X>X,X,X,XrXrX,XrX,X5X+XoXoXoXoX@X>XeX,X,X<X,Xx..   H w.H.,X,X<X,XtX,XeX,XeX>X+XD.F.F.F.D.D.J.5X>X>XeX,X=.    & ; > [ e.J.eX,X,XrX,X,XeX,X,X<XJ.g.g.H.,X,XeX,X,X,X:Xz.h r 6 & 5 5 w 7 5 7 6 5 5 ; ; ; ; ; 6 5 7 F ; : & ; w w 5 5 w 5 q :.(.(.S.S.] o X O 3 q K b 8 8 8 w 3 w 6 ; o Y (.:.s s s s y J J S S d S H S V 7 6 6 : t u d S d g ! ) ) ! u y y s s s w y 6 y 7 7 7 u d t g f u d B s 6 ; ; ; # # # # & ; ; & & # 1 y y y 7 7 t 6 7 y y 7 7 7 7 w w 7 6 6 5 5 5 7 7 6 5 5 5 5 5 5 5 5 y V s y s y y y q q q q y 7 7 7 7 q q q q q q 7 w q q y q N N B q 0 0 6 9 q q 0 0 0 0 q q 6 w q q l l N s y F ( B 5 ; 5 5 ; 5 5 5 5 5 5 5 5 5 5 5 5 5 5 6 7 6 6 6 6 5 6 7 6 6 6 6 6 7 q 7 9 w 5 5 w w 5 5 5 w 5 & t H ! t & & & % # # & # # # # X o o X # 5 = # # # # = 5 # # # , # X X = = # X o # # @ O X X X             X X X X O O O o X O   # s 6 d : & X X # # o 5 y ; w . ; s s 6 o # # # o X # % o o # % + + % & & # + # # + o X             O O   #     # , b A , o   o 5 X o @ 3 0 N Z U U &.U Y Z ] >.:.] 7 % # A y.#XA X , , , , , # < < < 4 , , # O # # o X o o 5 l k n 8 O p U 5 o #   o     @ @ < 8 k 0 4 4 @ 4 8 6 : r i e e e e e i i i i e e e e $ $ $ $ $ $ $ $ $ % o o o     + +     % $ $ e e e e e e * * * $ $ * e e i i 2.D.{.|.|.}.|.|.|.[.H.H.H.A.D.D.H.H.H.J.{.{.{.J.J.J.J.[.|.|..X|.|..X+X+X:X:X:X:X+X.X.X1X1X3X9X3X1X%X1X1X3X9X9X1X1X1X3X3X1X1X3X9X9X2X1X1X1X1X1X1X3X1X+X+X+X+X+X+X.X.X.X|.|.|.{.[.[.[.[.[. X.X.X.X.X.X.X+X+X%X1X4X4X4X3X7X%X=.: % s s w X o @ = ; o o o 5 5 . X X O   O 4 k 3 0 U &.s V 4.e.] d 6 o o X                                                                                       X X         X ",
"d y s d s t t s y y y y y 7 6 6 w 6 6 6 6 7 7 6 r |.eXrXB.:X,XeX+Xr     0 7 7 6 y q y q q 7 t t 6 t r r ^ oX<XrXeXrXtX,X,X5X] . .   . . o . $ 5.yXrXeX>Xh     . x.eX,X,X>X,.  . $ . . % ~ yX<X,X,X,X,XrX,XoX> . o . . . $ > ).7X,XrX,X^ .     - r ,.yX,X,XrX<XrX,X,XF.. . . . .   . . . x.yX,X,X6..     6 6 > ; r ,.,X,XtX<XeX,XrX5X,..   . . * D.,XeX,XrX<XyX}.* . : w w 5 ; 0 6 6 5 5 ; ; ; ; ; ; ; s e.# 6 & 5 0 0 5 w 5 ; B >.:.q.q.`         5 C I n 8 3 8 w w 0 # w q N &.Y 7 s B d d ( D ! H t d d B B 7 6 6 > d g D d d D ! ] ! S t y t 7 7 w ; s s u r t r f j r ^ g g d y y 6 5 5 ; & # # # # 1 1 & # 1 5 q y y 7 7 y 7 t y 7 7 7 7 7 6 5 5 5 5 5 5 5 6 w 6 5 5 w w 5 w 5 ; y B y y c y c y q q q 7 7 w w w q 0 q q q 6 7 7 w q s N N l N N q 0 q q q q 0 0 0 9 0 0 q 0 q q q q l q q s F ( B 5 ; 5 5 ; ; ; ; ; 5 5 5 w 5 5 5 5 5 6 6 6 6 6 6 5 6 q q 6 6 6 6 7 7 q q q 6 6 6 5 5 5 w w 5 6 ; u ! ! u : ; & % # # & & # & # # # # % & = & & # # # # o # # # , # O o 5 # # @ o # , # # @ @ O X             X           o @     5 V % t 6 & X o # o X 5 q # X o ; y s s & & # X     o % o o o o o o + + # + o + # # o   X O X     O O O <   , 8 ,     # U 5 # o   # o # =   @ Y Y U *.U U U Z ` ] F 4.U 5 # c ].CX&.  O O   O 1 , < < O @ < , , , , # o # X   # 3 n k 3 A U q # # X X     @ @ O @ , 3 0 4 3 k 0 6 * i i e e e i e e i T T i e e * $ $ $ $ $ $ $ $ $ $ $ % o .     X   X . . $ $ e e e e e e $ * $ $ * * * i h <.).{..X|.|.|.|.}.}.J.H.H.A.D.A.D.D.H.H.H.H.H.H.H.H.H.H.[.{.{.{.[.{.XX|..XoX|.|.{.{.|..X.X+X:X1X1X:X+X:X:X1X1X:X1X1X3X1X1X%X1X1X1X+X.X+X1X1X+X+X+X+X.X.X+X+X+X.X|.|.|.{.[.[.[.[.[.[.{.{.|..X.X.X.X+X+X+X:X1X1X3X3X2X4X9X%X*.f d s %     o # X   o s V s       X       , 0 Z A w w s ( ] d o o 6 6 t 6                                                                           X     X X   X   X     o o ",
"d d s s y y t 6 7 7 y s y 7 7 7 5 5 6 6 6 6 6 : Q 5XeXeX3.E yXrX4X^     w y y s c d s s s s s y c y s d t ,.yX<X<X<X<X,X,Xl..       & w 5 ; % > R oX,X>XH . . > oXyX>Xg.u         & # & % g.,XrX,XrX,X,X:X^       . #   . : * 2.<XrX,X>   O X > t > A.,X<X,X,X,X<X:Xh       1 @ X 5 X % % { >X,XD.      5 & ; 5 & r :XeX<X,X,X<X,X@Xt   X   # 1 r F.>X<X<XeX,X,X}.* % & # w 5 5 6 5 5 5 5 5 5 5 5 7 7 ] S.w 5 # 5 w w 5 w w ; Y X.C A ,   X X   , q K K n k 8 8 q 8 8 q l q 5 N 7 w 7 y y S ] D H H u d d y 7 6 7 ; S J h f S G H ! H g u t y t 7 t y S u f u ^ 5.| ,.3.2.5.~ D B y 7 6 5 , # # # o # # , 1 1 1 1 # # & 5 6 6 7 7 y 7 7 7 7 7 7 6 6 6 6 6 6 6 6 w w w 5 5 5 5 5 9 6 ; y d s y c y c y q q q q 7 q q q q 0 0 9 9 6 9 q q q y N N l N N 0 9 q 0 q 9 9 0 0 q q q q c q w 7 N N N c y V U B 6 5 5 5 5 5 ; = ; 5 5 5 5 5 5 5 5 ; ; 6 5 5 6 5 ; 6 y 7 6 6 6 6 6 7 7 6 6 6 6 6 ; ; 5 6 5 ; ; t u S D g 6 6 5 & & & & & % & & # # # # & 5 ; 6 t y q 5 # # # # # o + # 9 5 = # o # # , , # # @ O X X                           X # &.6 $ : & # o # o O # w q   # X o & % & o o # # # + o + . . . . o % & & # + # & # +   O O X X X O O O O   , # # @ O , N &.N X q w p ; # # # 0 q N U &.U U U P U ] *.:.:.A 5 6 q.bXu.@   8 5 < , , , @ @ # < < < # # # , o # 8 8 z z U >.&.Y Y p X @ # O @ @ O O < 8 0 k 0 l q * * e e e e e e e e i T T e e * $ * $ $ $ $ $ $ $ $ $ . . . . . . .   o . . $ $ $ * e e * * $ $ $ $ * * * e j [ D.{..X|.|.|.|.|.}.}.[.H.H.D.D.A.D.A.A.H.H.H.H.H.H.D.v.D.D.H.H.H.H.H.H.[.{.H.H.H.[.[.[.[.[.{.|..X|.|..X.X+X+X.X+X:X:X.X.X1X+X.X.X|.|.|.+X+X.X.X.X X{.[.|.|.|.|.{.[.[.{.{.[.[.[.[.{.{. X.X.X.X.X.X+X:X1X1X1X4X3X3X2X4XuXOX=.f ;     % ;   X ; p V B s 7 5 &           @ w q Y Z V q X   o   ; y 6 7 7 .                                                           X           X X X X X X X X     X   o o ",
"t y q w 6 7 7 ; 6 6 y d y 7 7 7 w w w 7 y y t f 5.yXrX,XH.* oXrX,Xg.    o s d B B B B s s s s d c B B d y ~ ,XrX,XtX,X<X,X^   < X 5 y 5 # 7 6 : r { :XyXD . . ] yX5XD.> .     , w 0 # 5 r 3.,X<X,X,X,XeXoXr X   X 1 , 8 5 & > r G.>X>X%   O   > ; r } yX,X,X,XrX,X:X:     + # 5 - = w ; : r g.yX+X.     ; ; ; 9 7 > g.,X,XeX<XrX<XJ.%       7 ; : > >XeX,X<X,X,X>X1.    0 5 5 8 5 5 5 5 5 w w w 5 w ; y s ; 5 o # w 0 5 5 5 N :.I Y A l 8 @ # q w N X.C l l 0 8 8 q k 0 8 8 w 0 5 0 q y d d D f ( ( d u t 7 6 6 ; 6 ] c.D *.! S H H f f 6 t y y t y t f f [ <.{.A.| ~ [ ) ) G u u y 7 w w 5 5 1 # # # 1 1 5 6 8 1 5 9 9 q c F U V V s y y 7 6 6 6 6 6 6 6 6 6 6 w 7 w 6 5 5 5 5 6 6 6 d d B s y y q q q q y y y q q q q 0 9 9 6 6 6 9 6 q q q q l N N 0 5 6 6 6 w w 7 w q q q q q w 7 w l A N N y B H B 6 5 5 5 5 5 ; ; ; ; 5 5 5 5 5 5 5 ; ; 6 6 5 6 ; ; y s 6 5 6 5 5 5 6 w 5 6 6 7 6 : ; ; ; 6 5 6 s f f D g 7 7 6 5 1 & & & % & % # # o o % & o & y d t & o # # # # + o # 5 5 5 # # # # # # # # @ O O O X X O   X X             # #   &.( > ; & ; # # # # # X 0 o X X o o o o o o & 5 & # . + . . . o + % & & & # & & # + . O X X X X O O O   O # @ 3 O   5 w P :.Z w q ; X   w N l K P &.*.&.U U &.Y P Z U Y Z 5     &.cX'.#   # # # , @ 1 , @ O O O X O # ,     3 8 4 4 U -.A P *.N       @ O @ @ , 3 8 3 < < # & $ e e e e e e e e e e T i e e * $ $ $ $ . $ $ $ $ $ $ $ . . . . . . . . . . $ $ $ * * * $ * $ $ $ $ * * * e j [ D.|..XoX|.|.|.|.|.|.|.[.H.H.H.D.v.v.A.A.H.H.D.v.x.x.x.x.x.v.v.v.v.x.x.x.v.D.D.D.D.D.H.H.[.H.[.[.[.[.[.[.{.{.XX{.XX[.[.XX.X.X|.[.[.[.[.XX.X.X|.[.{.[.D.[.[.[.[.[.[.[.[.{.[.[.[.[. X X.X.X.X.X+X+X+X1X1X1X4X1X4X3X4X4X9X X*.o . % w w ; ;   o ; 5 # # q V ;           X w Z Z B & o X @   # w y 7 6 7 #                                                       X X               X X X X X         X X X o ",
"7 7 7 w 6 6 6 7 t t d d t 7 7 5 7 7 7 y y y s d }.eX<XK.4X> 5.rX,X+X%     y y d c B d s s s d d B 6 s s t h ,X<X,X<X,X,X>X^       6 ; 7 ; ; 6 : : f oX>X(   % %X5XJ.u $     , 1 w 5 5 w % <.,X,X,XeX,X,XJ.r     o 5 w , w 6 % r } yX@Xr   O X > : > ^ ,X,X,X,X,X,XoX%     o : ; ; 5 # w % % f >X4Xu     . ; ; 6 & > g.,X,X,X,X,XrXJ.%     # # 6 : * 3.,X,XrX<X,X,X{.:   X - w 9 5 5 ; 5 w w w w w ; 6 5 5 0 # # ; w w w w w N :.M ;.X.m k k N p q K >.K 0 0 8 8 w 5 3 8 8 w w ; w N s w 7 u f g D D t 6 y 7 6 6 6 6 S ! h D t D G g u t t 7 t 7 t t t g ,.|.G.f./ h h h g u B 6 t y q 5 5 8 5 1 & 1 1 # 1 5 5 1 5 5 5 , 5 c B B y y y y 7 6 7 7 7 6 6 6 6 7 6 6 7 7 7 6 6 6 6 6 6 7 t S S G B y y c q q 0 q q 7 6 9 0 0 0 0 9 9 6 6 5 6 0 q q 0 q N N 0 5 w w q 7 7 w w 7 w w w 9 w w 7 q l c y N V F y ; 5 5 5 ; ; ; = = ; ; ; 5 5 5 5 5 ; ; ; 6 6 5 ; 6 B B 6 w w w 6 6 w 6 w 7 7 t t 6 6 6 ; 6 6 > t t t G u t y q 6 5 & & # % % % o # # % & y 6 t S J y & # # # # # @ + O X o # # # # = # o < # # # # + + O O O O X     O O O   o =   s ] 6 t ; 5 q w # # w 3 w N o 7 ; . ; ; & o o # o o o + . . . % o o . + . + # # # + + O O X X O O O O O O # #   O ,   ,   P y.N w q   # # w l l &.&.Z U U U Y Y A U U w V U &.5   U nX=XN   , O 1 , , , @ O @ @ X O o < , @ O 4 k 4 I -.0 #.>.; X   @ @ @ @ , O @ # @ 1 @   & e e e e e e e e e e i i i e e e * $ $ $ . $ $ $ $ $ $ $ $ . . . .   .   . . . $ $ * * $ $ $ * $ * * * * $ e h [ D. X|.oX|.oXoXoX|.|.}.{.J.[.H.H.A.v.v.A.D.D.D.v.x.z.z.x.x.z.z.z.z.f.f.f.l.x.z.z.x.x.v.D.D.v.D.D.v.v.v.v.x.v.D.v.H.D.D.D.D.H.[.D.D.D.[.[.D.[.D.v.D.v.v.D.D.D.[.[.[.H.[.[.[.[.[.|..X.X.X+X.X+X+X+X:X1X1X4X4X1X3X4X4X3X7X X( : 6 7 7 a 7 ; o o X     X # o .   X # X     5 V 7 X o + # # 0 B Z V V 7 7 ;                                                                         X X X X X             X X ",
"y q q 7 7 7 6 7 7 t t t t t t t y y s t B t f ] >X>XB.| 4X,.' >X,XeX^     7 f s s B B y y 7 t t 6 6 6 5 : r ,X,X,X,X,X,X,X!     O 6 ; ; & 8 w 3 9 % 5.4X~ : f uX{.f &   X   9 1 & 5 q & % | eX,X,X,XrX,XJ.&     o 1 1 5 5 ; 6 2 f 7X@X>       7 6 > / ,X,X,X,X,X,X:X>     # ; ; w 5 5 5 o % > S.iXS .   o ; 5 5 ; > 5.eX,X,X,X,X,XH..     ; ; w 5 > ' >X,XeX,X<XrX@Xd     , w 7 6 5 w 8 3 w w 5 5 5 5 0 9 1 0 w 5 9 8 8 q w :.>.;.t.I n k m m w q &.L k 4 3 0 0 k 8 8 w q 0 w 5 w w w 5 6 6 u d d d 6 y : 7 6 ; 6 6 f g u g S d d d y y y s t y y t u i ' ,./ j j g d y q q 7 6 6 q y 9 5 5 5 1 & & 1 1 1 5 5 5 1 1 1 5 5 1 1 1 5 5 5 5 9 q y y 7 6 6 6 6 7 6 6 7 t 6 7 6 6 6 : 6 t t ( ( &.B ; 5 6 0 q q q q q q & y y w 0 8 9 8 w 9 w w q y B l N c 0 w 0 6 5 ; 6 0 0 0 q q q q 7 w w 7 q y c y F V s 7 & & # # 5 5 5 # 5 = 5 5 3 ; 5 5 5 ; 5 6 6 5 5 6 5 ; 6 6 w 5 5 w ; : r > u d D S y : y d u t D u t 6 & 1 5 6 7 7 5 # o # # # # o o & : d : > d d & o # + + o o o o X   X o # ; ; # # # + # , , , # o + O O     X X X X   O #     s *.t & ; : w = X # o # w w ; . ; X # & o o # & o . . . . . . . o + .   o + o # # o o X X X X O O O O O O O O O O # ,   #   Z Z N s o o - q # 8 5 w 3 C U U ` U U U U U U ] >.&.0 @ A *XCXq.O   o & , + O O O o # o # , , @ @ @ < 4 b U b U U = X   O O @ , , @ @ , , < < O . e i e e e e e e e e i i e e * $ $ $ $ $ . . . . $ $ $ $ . $ $ . . . .     . . $ $ $ $ $ * $ * $ * * * * $ : ! [ D.{..XoX|..X.X:X:X.X|.|.{.[.H.H.H.D.D.v.D.A.D.D.v.x.x.z.z.z.f.f.5.5.5.5.5.5.5.5.f.f.l.l.f.l.l.l.l.l.l.f.l.l.l.z.z.z.z.z.z.x.v.v.v.b.z.b.z.v.x.z.z.z.v.v.D.D.D.D.D.D.[.[.[.[.|.|.|..X+X+X+X+X+X:X1X1X4X2X3X4X4X3X1X3X9X X] d a - > > f s ; # o O # X   X o w w ; &   o 4 w o O 1 v C b Y J ] U d s ; ;                                                                   X X X X X X X   X X X X X X X X ",
"y y s y 7 y y 7 7 t u u u d s B s B s B B B g ,.>X,X} j 4X@Xj >X,XrXg.. + X 6 w 6 6 7 6 ; ; > : 6 ; ; & ; r ,X,X,X,X,X,X,X!     X 5 6 ; 5 1 , w 1 > r @XH % % ] D % o   X 5 9 6 ; # 5 6 : [ ,XeX,X,X<XrXJ.:     # 5 5 5 5 ; 6 2 : *.=.t     # > 6 > / ,X,X,X,X,X,X+X>     o & & 5 5 # ; y > % *.{.d     # 6 5 w ; > 5.,X,X,X,X,X,XD..     - ; 8 ; : h <X,X,X,X,XrX4XG     , 0 5 6 w w w 5 w w 5 5 w 5 w 5 q w w 5 8 8 5 0 p >.&.].9.I n k L z w U q.K n k 8 8 8 8 8 5 w w 5 5 5 w w w 6 6 6 7 y t y 6 7 7 7 6 6 7 6 r u u g d d t 7 q B y y t t u t h 2.[ h D u u u y q q q 9 9 5 9 q 9 6 5 5 1 1 1 1 5 5 5 1 1 1 1 5 5 5 5 5 5 5 6 5 1 9 y y y V y 7 6 y s y 7 6 7 B 7 6 6 7 s 7 t y H J F t & 5 w q q q q q q q 6 y q 5 0 8 8 q q 0 0 6 6 q y q N N q q 0 w 5 6 6 0 0 0 0 q 0 0 0 0 q q s c y y V F 7 6 5 5 # # 5 5 5 # # # # 3 3 = ; 5 ; 5 5 6 6 5 5 6 6 ; 6 & 7 w 5 ; s : t f S [ ] S d S d F d d H u y d 6 & & % & ; 5 5 5 # # o o X o % ; 6 : t d t %     O o o o o X X     # ; # # # # # # # < # # # o + O O   X X X X X   O # O   q =.% & &     X X # o w 0 # ; X ; X # & o X o o . . . . % . + 2 + 6 6 .   . & +   # # X X X X O O O O O O O O O @ # , # # ,   w U 7 X   ; # 0 ,   X o 0 K I ` U ` A Z P >.&.>.:.:.Z X p #XPX$Xq . 1 + @ @ @ O + O + o O @ < < @ @ 8 n K b U w     O   O @ , , @ @ # , < , # * i i i i e e e e e e e i e e $ $ $ $ $ $ . . $ $ $ $ $ $ . $ $ . . . .   . . . . $ $ $ $ $ * * $ * $ * * $ $ D ] D.{.|.oX|..X|..X:X.X|.|.|.{.J.H.H.D.D.D.D.A.D.D.v.x.x.z.z.z.l.f.f.5.5.5.5.3.2.2.2.,.2.,.2.5.5.5.5.5.5.2.5.5.5.5.f.f.5.5.5.5.f.f.f.5.5.f.l.l.l.l.l.z.v.D.D.D.D.D.D.[.[.[.[.{.|.|..X.X+X+X+X:X1X1X4X4X2X4X4X4X3X3X3X4X7X{.*.s - ; > 7 7 6 % .       X   - p Y B ; 7 &   , w q 8 k L P U U U U S s t ; ; X                                                                     X X     X   X X X X X X X X ",
"B 7 y y y s s 7 y y d d d d d s B s s s y u r {.>XoXh r F.4XE h.,XeXoXr     - ; ; ; 1 & ; ; ; : 1 ; ; # & r 5XrX,X,X,X,X,XH       5 6 & 6 9 1 w 5 & > f u &   . % ; ; o 5 6 ; 6 : ; 5 5 : } ,XrX,XtXrX<XH.% O   & 5 5 5 w 5 6 2 : ; : > # + ; ; 6 > / ,X,X,X,X,X,X:X>     # & ; , , q 5 & & : > d ; 5   o 5 6 5 ; > 5.,X,X,X,X,X,XD..     - 5 w 5 : j oX,X,XeX,X,X>XG .   O 8 5 5 6 w w w w 5 ; q ; 7 6 w 5 w 0 5 5 8 8 q s Y :.*XI K #.C L k l ` (.X.k 0 8 8 3 5 5 5 w 5 ; 5 5 5 w w w 6 6 6 7 7 7 7 ; 6 6 5 6 6 6 t u t u u t s 7 y y 6 t y u r f 5.|.[ f f t 0 0 q q q 9 9 9 1 5 5 6 5 5 1 1 1 1 5 5 5 5 1 1 5 5 5 5 5 5 5 5 5 5 1 1 6 9 y c B y 7 7 s B y y 7 y U y y 7 s F y 6 B F S y : ; 5 w q q q 0 q q q 7 s w 5 0 q q 8 w 0 w w w 0 l q N N y q 0 w 5 q q q q 0 q q q 9 9 9 q y s y q 6 6 s 7 ; ; ; 5 # 1 # 5 # # # # 3 # # ; ; ; ; 5 6 6 5 & 6 7 6 t S d y s s B d ( ( g ! ] ! t t t S S u d u u t 6 6 & % # # # o o o o o o X . # ; 7 : ; : & o o X O X o o o X X     X # # # # # o @ @ < < , , # o @ @ O O O O O O 1 X X @ X 5 :.% ( U % o X o o o 0 w o 6 5 X   # # X X & & % % % % y ( 2 . + y U o &   . 5 . #   X X O O O O O O O O O O O # , , 5 O #   # 0 :.]     o o + o o X , 8 b I &.&.q.:.&.U >.&.#.9.1.U q , u.LX*XF o + @ @ @ @ O O O O # # @ < , 3 z A n A Z   #     @ O @ 3 4 3 # @ # # , + * e i e e e e e e e e e e e e * $ $ $ $ $ . $ % % % $ $ . . $ $ $ . . .     . . $ $ $ $ $ $ e * $ $ r r : $ . t ( c.{.|.oX:X:X;X;X:X:X|.|.|.|.{.[.H.H.H.D.D.A.v.v.v.x.x.x.z.z.z.z.l.f.f.5.5.3.2.2.2.2.2.2.3.5.5.5.5.3.2.2.5.3.5.3.2.2.2.3.3.2.3.3.5.5.5.5.5.5.f.f.l.z.v.v.v.v.D.D.H.[.[.[.|.{..X.X+X+X+X+X:X1X1X4X2X3X4X4X4X4X3X3X3X4X7X[.U - p Y Y f s s 6 ; # o     - V Y p a ; 7 ; X @ 5 K A n C P P Y V s 7 7 7 ; 5 -                                                                                 X X X X X X X X ",
"U s d V s y s B B B B B d s y y y 6 7 6 6 * h 5XrXz.$ . 4.yX3.j ,XrX>X^     # 3 ; 5 1 & ; ; ; : 5 ; ; & & r 5XrX,X,X,X,X,XH     X w 5 & 5 5 1 ; 1 5 ; ; & & 5 # 5 5 5 w 5 5 ; : ; 6 9 1 : | eX,XeX,XeXeX}.% X   % 5 & 5 5 ; 6 2 6 w ; - w w 5 6 6 > / ,X,X,XrX,X,X:X>     # ; ; 5 5 # ; # ; ; ; % & w # 5 ; 5 5 : > f.,X,XrX,X,X,XD.  O   ; w 8 ; 6 h oX,XeX,X,XeX>XG       5 w 5 0 0 w w 5 5 w ; 7 7 6 6 q w w w 9 9 9 ; 7 F $X).U C #.;.X.n 3 V ;.-.b 4 8 5 8 5 5 w 5 5 5 5 w 5 w w w 5 5 6 6 5 w 7 ; ; ; ; w 6 B F H H S d s 7 t 6 t u u u r j Q z.,.^ u y 9 8 9 9 q 7 6 5 5 1 & 1 5 5 5 1 1 # # , 5 5 5 8 8 8 8 8 5 5 5 5 5 5 5 1 1 1 6 9 y 7 7 y y y s y y 7 y J y y q y y s 7 B F G y 6 ; 5 6 q q 0 9 0 q 7 6 y w 1 w 9 q 8 8 0 8 w w 0 q q q q q w w w 8 q l l q q q q q 9 0 0 q y s y 0 6 & y s 7 q & # 5 5 5 5 # # # # 5 # # 5 ; ; 5 5 6 6 5 & 6 7 y B S S s ( ] S S H J h h Q u r t d G ] ( ! g t : : 6 & % # # # o + X o # o + X # ; 7 6 ; ; & X o o @ X X X X X X     X X # - & # # , @ < < , , , @ @ @ @ # o o o # o o @ O X N c.B ( *.7 o       1 q # o 0 V #   # # # # # % % & : . J q.H 1 c B P P   o o o o   # X X O O O @ O O O O O O O O # , , # , 5 #   q y.u.q   # # o o # @ @ 3 b U U u.:.&.U U L #.&.*.] s 5   U cX:.o 1 @ @ O @ @ @ @ O # # @ < < 8 b A C l q X =     , @ @ 3 8 w # @ # # # + * e i i i e e e e e e e e e * $ * * $ $ $ $ $ % % % $ . . . $ $ $ . . .   . . . . $ $ $ * $ $ * r r u u 6 .   ; ! c.{..X+X:X:X:X:X:X:X|.|.|.|.|.|.{.J.H.H.D.D.A.D.v.v.x.x.z.z.z.z.z.z.l.f.f.f.5.5.5.5.5.5.5.5.5.5.5.5.2.2.3.5.5.5.2.2.2.3.5.5.5.5.5.5.5.5.f.l.l.z.z.x.x.z.x.v.D.D.[.{.XX|.{.|.@X+X+X+X+X:X:X1X1X3X3X4X4X4X3X3X3X3X4X3X3X).&.U &.;.Y V V w o o # X # q N N - - s 7 % . o @ 3 X.I K C Z Z N Z p 7 7 7 ; = #                                                                             X X X X X X X X X X ",
"q.H y t 7 y y 7 6 6 6 6 ; ; & ; ; ; ; : & * A.,X>X] o . ! yXA.r K.,X,X5.    # = = 5 1 1 ; ; ; & 5 ; 5 5 & r 5XrX,X,X,X,XrX!     X 5 ; w 5 1 7 : 5 # 6 ; 0 5 5 5 # 5 w 5 & & 7 : ; ; 5 9 : [ yXrXeX,XeXrXJ.% O   # ; ; 5 5 ; 5 1 5 5 5 7 5 w 5 6 6 > ~ yX,X,XrXrXrX:X>     # ; ; 1 5 w 5 ; # # w 6 ; 5 5 6 5 6 5 ; > g.,XrX,XeXeX,XD.. O   w w 3 ; 6 D :X,XeX,XtX,X+Xy       9 w 6 q q w w 5 w s ] s 6 5 5 # w w w 5 8 9 6 s U '.H :.A :.cX&.n b Y u.#.4 8 q l 8 w 5 3 5 ; ; 5 w w w w 5 5 5 5 6 ; 6 6 5 ; 5 5 5 6 y t u d d 7 y t f f / <.} E j j [ [ h g d y C 9 9 6 6 6 5 5 3 5 & 1 5 5 5 5 5 1 , , 5 5 8 8 9 8 8 8 5 5 5 5 5 5 w 8 5 5 6 6 y y 7 y 7 7 7 7 y 7 y y 6 q 7 y 6 s y S F B s 6 ; 5 w q q 0 0 w q 7 6 q w w 9 0 q q q q 0 8 w 8 w q q 0 w w 6 8 q q q 9 8 9 9 q q q q q q q s q 9 & & 7 B s U V 5 & # # # # 5 5 # 5 # # 5 5 ; 5 5 6 6 ; ; 6 6 t B S S r g D ! ! H D h g h g S g f u t * r u Q D u : & # # o + o o o + o o o o % & 6 w w 5 # X X # @ @ X X X X X   X     X # # # # w 5 , @ @ @ @ O O O O o o o # # # # @     w u.B ( ] & . # # X o 0 + ; w Z w # o # # # o o % % & & & & o + B ( Z F 6 & o . o &       X O @ @ O O O O O O O O @ # < # , @   # o q c.y.s X X o o # @ @ - w q P Z K A #.I o.o.Y ` { ] ; o :.:.; # 1 @ @ @ @ @ o # o O @ , @ @ 3 l C l , 3 #     @ @ @ @ , 3 4 # O @ # # + * i i i e e e e e e e e e * $ $ * * * $ $ $ $ $ % % . . . $ $ $ $ . . . . . . . $ $ * $ $ $ : * r u u B 6     . J e.{..X.X;X:X:X:X:X:XoX|.|.|.|.|.}.{.H.H.D.D.D.A.D.D.v.x.x.z.z.z.z.z.l.l.f.f.f.5.5.5.5.5.5.5.5.5.5.5.5.5.5.5.5.5.3.2.2.5.5.5.5.5.5.l.l.l.l.z.z.z.x.v.v.c.x.D.D.[.[.[.|.|..X.X+X+X+X+X:X:X1X1X4X4X3X5X5X5X4X3X3X3X1X1X3X).'.'.^.$X` p - - X X = 5 = ; = = a a d r f D f & w U U K Z Y Y Z Z N q q q p w =                                                                           X X X X X X X X X X X ",
"S d B B y y 6 ; 5 ; ; ; ; 5 6 6 5 ; 5 & % f :X,XoX>   o & 4X@Xr ,.,X,X|..     5 5 5 1 5 ; ; ; 1 1 ; 5 5 & r 5XrX,X,X,XrXeX~       5 ; w w 6 : % : 6 & o & 5 1 6 = 5 5 1 6 & 6 6 ; ; w 6 > =.aX,XyXaX5XoX{.; O   o 5 & 5 5 ; 5 6 = 5 w w 5 5 5 6 5 > ' yXeX,XeXeXeX:X:     # ; ; 1 5 o ; & ; o ; % ; 5 w 5 ; 6 1 ; > z.eXeXrXeXeXyXD.      w w 3 w : ^ >XeXtXrXeX,XD..     X 0 ; ; w q 6 w w w q 1.$XV 7 0 w p w w 5 8 w 6 ; J V H U y  X*XU k b p &.Y l 8 l 5 0 w 5 3 = ; ; ; 5 w w 5 5 5 ; ; 6 ; 5 ; 5 ; 6 7 & 7 y t t t t 6 y t g R ..K.K.G.G.x.} h D u B q 5 2 2 6 6 6 w w w 5 1 & 5 5 5 5 5 1 , , 5 8 9 q l 8 8 8 8 5 5 5 5 5 w 5 5 5 5 6 q y 7 y 7 7 7 6 7 6 y 0 w q q N 0 7 y H F y y 5 5 6 w q q 0 w w w q w w q 0 0 0 q q q q 0 0 0 0 q q 0 0 w q 0 0 q 0 q 0 9 0 q q 0 q q q q 0 q 0 6 6 6 y F y F q 5 & ; 5 # & 5 5 5 5 5 # 5 5 1 ; 5 w 6 ; 6 t t 6 u d S t g u ~ D u g r h [ ,.[ ( ( ! ! ! ) *.*.~ G t 6 & # o o o + o + o o o + o & 1 6 5 # o # # # o @ X X X X X   X     X o X X # 5 3 , 3 , , @ O O O o # # # # # , O @ 3 # o :.H F ( ; .     X o & & q q w w o O + o X X o % & : 6 o . #   1 P P Z &   . o . o +     X O @ @ O O @ @ O O O O O O #   5 O O   X     V 0 5 X   3 @ # @ @ @ # c N Z U K I $.o.#X6X@Xe.6 # `.q.  O < # # # # # @ @ @ O @ @ @ @ 4 b b 3 p 5 @ @ o O @ @ @ @ @ 3 # @ # # o + * i i i e e e e e e e e e * $ $ e e e $ $ $ $ % % % $ $ . $ $ $ $ $ $ . . . . $ $ $ $ $ $ r ) $ r r t S :       V e. X.X.X|.oX:X:X:X;XoXoXoX|.|.}.}.}.J.H.H.H.H.D.A.A.v.x.v.x.z.z.z.z.l.l.f.f.f.f.f.f.l.l.l.f.5.5.f.f.5.f.5.5.5.5.5.5.5.5.5.5.5.f.l.l.l.l.z.z.z.z.z.x.c.v.v.D.[.{.[.{..X.X+X+X+X+X+X+X:X1X4X3X3X4X3X5X5X5X3X3X3X3X1X1X2X).u.;.^.N.q.7.Y 5 #   X @     3 Y a a H ^ } x.z.~ y Z A N Y V Y Z q w q N A Y b w X                                                                                               ",
"S d d 7 6 6 5 ; 5 ; ; & ; 5 5 5 6 ; 5 o % ,.>X,X4.%     % F.4X' j <X,X5XD     # 5 5 5 5 5 ; 5 5 & ; ; # & r yXrXeXtXeXrXeX~       5 5 5 # : % f =.t : q ; ; ; # ; - # & 6 6 & 6 ; w 5 & & ,.4Xg.,.D.=.. { 6     # 5 1 5 5 ; 5 6 5 0 0 5 w 5 5 6 ; > ' yXtXeXeXeXeX>X:     # ; = w o : H OX( : & 6 # # w w & & 5 ; > z.yXeXeXeXeXyX_.      5 5 5 6 & 3.,XeXtXeXeXyX=.      # w ; : 7 w w w w w 5 B =.B o # 5 # w 5 w q w 6 s 1.*.4.V V 4._.A b n b ;.l 8 8 8 8 8 8 5 3 = ; ; ; 5 5 5 5 ; ; ; 5 5 ; ; & ; ; 6 B 6 t d G D g d y y y g E d.T.T.R.R.x.h g B y ; y 6 6 5 5 5 w q q w 5 & # & ; 1 5 5 1 # , 5 8 8 9 q 8 8 8 8 5 5 5 5 5 5 5 5 5 5 6 7 7 6 7 7 w 7 5 5 6 6 w w 0 q q q 6 s ( F d y w 6 y q 0 0 0 0 7 7 6 w 6 w 0 w 8 w 0 0 9 9 q q q q l l q 0 0 w w 0 0 0 0 0 0 q 0 9 6 q q 0 w w 0 6 & & q F 7 6 & 6 w q s 5 5 # 5 o 5 5 # 5 5 1 1 5 5 6 6 6 d d s u d d g D h ' ~ u u ^ =.[ ) D G G G G D ! [ ~ g u t 6 & # # # # & o o o o o o + + X # # o 5 5 # X o + X X X X X     # 5 5 #     o X o # 3 3 3 # o # # # # , , , # # , , #   X ( B B F 6 o ; ; ; # o 5 B s # o # , # # o     o 6 y 6 . # X # y B F ( >.&   ; .           X O O @ O @ O O O O     O O , O X   O X X     &   X   X o # @ # @   1 P P P C L I $.mXCX&X=.t q Y @ X   < < < < < # @ @ O # @ # @ @ 0 b q @ A w X 5 =   @ @ , @ @ 3 # @ # # # + * e i i e e e e e e e e e * $ * e e e $ $ $ $ $ % % % $ $ $ $ $ $ $ $ . . . $ $ $ $ > r i 5.4.$ : $ y S ;       y w. X.X.XoXoX:X:X:X:X:X:X:XoX|.}.}.}.{.J.J.J.H.H.D.D.A.v.D.x.x.x.x.z.z.z.z.z.z.l.l.l.l.f.l.l.l.l.l.l.l.l.f.5.5.f.l.l.5.5.5.f.l.l.l.l.l.l.z.z.z.z.z.c.v.v.D.[.{.{.|.|..X+X+X+X+X+X1X1X1X3X3X4X3X3X3X5X3X3X7X3X3X3X:X1X1Xv.;.#.#.;.;.9.y.t.9.7.#.I A A b b w > ,.A.j.d.d. .u y N p f f s l 8 l A A N A w 3 o                                                                                           X X ",
"d u t 6 6 5 & 5 ; ; ; & & 1 1 1 5 ; ; ; * z.yX<XD .     % ^ yXA.r J.tX5Xz.o     5 5 1 & ; ; 5 5 & ; ; # & r yXeXeXtXtXeXyX~     + # = w 1 ; > e.iX*.: & 5 ; ; ; % o ; 6 & 6 6 5 ; ; ; ; > =.D.r > & . % o   # # X 5 1 5 5 ; 5 6 5 & w w 5 ; 6 5 ; > ' yXtXtXtXyXeX>Xr     # = = 5 5 6 e.aX=.& & X w 8 5 5 6 5 5 ; > A.yXtXeXeXyXyX{.  O   ; = 8 ; > >XeXtXeXeXyXD.. +     q 5 ; s 6 6 5 5 w w 5 5 ; ; 7     q w 5 3 5 w w d ] ] U y : J 4.N n p ` I l 8 5 0 0 5 5 5 3 5 ; ; 5 5 ; ; ; ; ; ; 5 5 ; ; ; ; 6 : H S d d f u u S B B F g i ' C.R.R.L.} g u q 0 w ; 6 5 5 5 3 8 l q 8 5 1 & & & 5 5 5 5 1 1 5 5 5 5 8 5 8 8 8 8 5 5 5 w w 5 5 w 5 ; 6 w w q w 5 5 5 w w ; q w p N q q y B *.F V y q w B q 0 w 0 0 7 7 q y 0 w 0 0 q w q 0 6 6 w q q q N A N 0 6 5 5 6 5 5 5 5 w 6 w 5 5 q s q w q q 0 ; ; y V y 5 & & & q B w 5 5 w 5 5 , # # # & 1 5 5 9 6 6 V J G d B J ! ^ [ | 3.^ ~ 4.*.Q ! ~ d d y t S ! D u t r 6 : % # # # # # # # o o o o o X # o X o o X X , + X X X X X     . 7 V s ; .     X X O @ @ # # # # # # # , , # # o # @ @ @ o ( ( : s t 7 7 w 5 X 5 5 q B w o q 0 o o # # # & ; 6 ; o o o 5 o % & q y # &   X o         X O O O O O O O O O     O O # O   O O   O . o .   X X   X X # q 0 o 8 9 b X.P M o.;.:.4.] ^ > V w   @ < < @ @ < # # @ @ @ X O # @ @ 8 b q # w # X X     O @ 3 3 @ 3 #   X o O . $ e i i i e e e e e e e e * $ $ e e e * $ $ $ $ $ % % $ $ $ $ $ $ $ $ . . . . $ r g D h r vX1.. % % : d o   .   6 w.{..X.XoX:X:X:X:X:X:X:X:X:X|.|.|.}.}.}.}.{.J.H.H.H.D.D.D.v.x.x.x.x.z.z.z.z.z.z.z.z.l.l.5.l.l.l.z.z.l.z.f.f.l.l.l.l.l.l.l.l.l.l.l.z.z.l.z.z.z.z.x.D.D.D.[.{.{..X.X+X+X+X+X+X+X1X1X1X3X3X3X3X3X4X3X3X5X3X9X3X3X1X:X1X%Xc.;.;.;.$.` #.;.9.t.0.t.^.^.;.I I ` =.F.P.Z.C.k.' u u F Y V > w 5 q Z P A 0 w @ w #                                                                                               ",
"s y 7 6 5 5 1 & 5 5 1 & & & ; 5 & ; 5 : r >X,XJ.t       & r +X>Xr 3.yX5X1Xr     1 5 ; ; 5 ; # 3 ; ; & # & r yXyXeXeXeXyXyX*.  O   9 5 ; ; : g 4XyX[ o X   ; ; # & ; ; 5 5 5 5 5 ; & 1 5 ; ] F.,.> > > % ; 5 5 5 # 5 1 5 5 5 5 5 5 5 w 8 5 5 w w 6 % { aXsXsXtXsXyX>X> +   # w ; 5 6 D >XaX=.o     5 5 w ; ; ; 1 ; * D.yXsXsXtXsXaX{.. @   q 6 ; > F.sXsXsXyXaX{.: .     , q S 4.F.S 6 q w w q 5 w 5 5 w w w w w 5 w 9 6 5 y V Z q w w s V q p b U N b 8 8 8 8 5 8 5 , 5 5 5 5 ; 5 ; ; 5 5 5 ; 5 5 # 5 & & t w.5.] D d d B d d u g u r e T  .j.j.^ u t y w 5 5 ; 6 9 w 5 5 w 9 9 5 1 # # 5 5 5 1 5 1 , 1 5 5 5 5 5 5 5 5 5 w 5 1 5 5 5 5 5 5 6 6 7 7 6 6 6 w 5 w 5 w q p w 0 0 k t S [ Q d s s 6 B y q w w w 0 0 w q q w w w w w 9 w 6 w q y q l q N c q q 0 0 w 6 q q 6 6 q q 6 6 q q 6 6 q y q 0 q y Z y 5 # 1 1 1 6 1 5 w B Z w w 5 N q 1 7 y P q 6 t : f t f H S H D ~ ^ [ j [ ,.~ h g g y y t t y y y t 6 6 ; 5 5 # # # # X # # # o # O O O o # # O O O # # o o X X O @ O   o y s 7 &           X O O o o # o o # # o # # # o # # # @ O &.>.6 y u .   5 # % & & 5 5 # 5 q 9   X # o # # & w 5 5 5 & + . o %   . . . . . X       O O O O O O O O O O O X X X X X X X X X       X O 1 + Z u.P +   5 5 , 5 , 8 N q K #.:.U ( ] ] % > # O < O < O < < @ @ @ O O @ O @ @ @ 3 8 3 5 , O O O   O @ , , , , , , @ @ @ . . $ e e i i e e e e e e e e * $ $ * e e e e * $ * $ $ * $ . . % * $ $ $ $ $ $ r Q h j h r ^ yX~ . & & : ;         # 1. X.X.X+X:XoXoX:X:X:X:X:X:XoXoX|.|.}.}.}.}.[.H.H.H.H.D.D.v.x.x.x.x.z.z.z.z.z.z.z.l.l.l.f.l.l.l.l.l.l.l.l.f.f.l.l.l.l.l.l.l.l.l.z.z.z.z.z.x.v.D.D.D.D.[.[.|..X.X.X.X+X:X+X:X:X1X1X4X2X3X3X1X1X1X3X3X3X7X5X5X3X3X:X+X1Xz.;.;.$.;.;.#.$.$.;.9.;.9.9.0.t.0.(.OXJ.L.Z.L.L.j.Q u U U J V s A C N N b p = = 5 ;                                                                                 X X X         ",
"6 6 ; ; 5 5 ; ; # # # & ; ; ; 5 & ; & % 3.yX>X5.%     X * r x.yX,.j yXyXaX)     & 5 5 ; ; & # 3 ; ; ; # & r aXsXsXeXsXeXyX,.$ . . % > > > ~ :XsXyX^ .     ; ; = ; ; 5 5 5 5 6 5 6 5 5 5 : 4.aX4X,.,.oX,.f & 0 , & 5 1 5 w 5 5 5 w 5 5 8 8 8 5 1 5 % [ aXsXsXsXsXeX,X^ . . & > > > r oXyXdX[ &     5 5 w 5 5 5 5 6 r {.sXsXsXsXsXyXoX$   # % > > 6.aXyXsXyXaX{.r .     X 6 y 4.iXaX4.; & # ; # q 5 5 5 5 w w w w w w 6 w 6 y B N 0 ; ; w s s w >.q.p w w 8 5 3 8 8 5 3 , , 5 ; ; ; ; 5 ; ; 5 5 5 5 5 5 ; : > [ 5.5.,.[ H B u d f d y u r i i E / Q u t t 6 5 5 6 6 q 9 5 5 5 5 ; 1 & # # 1 5 5 1 5 1 1 5 5 5 5 5 1 5 5 5 5 5 5 5 5 5 w 6 6 5 ; ; 6 s s 6 5 w w w 5 q w 0 w p 0 z 7 D ,.~ d s N N N s q 0 0 w w w 6 w w w w w w 6 0 q w 0 q y q l q l c q 6 6 6 5 6 7 7 6 6 7 6 6 5 q q 0 w q y q 0 y s Z y 1 , 5 1 1 5 1 5 5 0 q 5 w q F V q t 6 s 7 ; : : f u g h D h h ^ [ [ / } ,.^ f u y y y t 6 t y y t 6 : & 5 1 # # # # X # # # o # O O O O o # # @ O o # O X X X O O O X 6 B s ; .               X X o o # # o O o # , # # o # # w , A u.V B 6 . X # ; & & X o # # 6 q w #   X # . X 5 5 & # 5 c 6 & 6 % 1 & o o o + X       O O O O O O O O O O O O O O       X X X     X O O # X 5 &.(.>.5   X 5 A A 5 @ 3 b U -.>.H ( ] f y   , O O O O < < O O @ O O @ @ # @ @ , 3 , @ , O     O @ O @ @ @ @ @ @ @ @ X o $ $ e e e i e e e e e e e e $ $ $ $ e e e * $ $ * $ $ * % . % . . * $ $ $ g ~ ) h h j r ' ' iX[ & ; ; ; 6 &       # 1. X|..X+X+X:X:X:X:X:X:X:X:X:XoXoX|.|.|.}.}.{.J.J.J.H.H.D.D.v.v.v.x.z.z.z.z.z.z.z.l.l.f.l.l.l.l.l.l.l.l.f.5.5.5.l.l.l.l.l.l.l.z.z.z.z.x.v.v.D.D.H.[.[.|.|..X+X+X+X+X:X:X:X:X1X1X4X3X3X3X3X3X4X3X3X3X3X7X5X3X3X3X:X+X%Xe.;.;.;.$.#.$.I #.#.$.;.$.$.8.9.9.e.S.F.g.j.K.<Xk.i u &.&.V 7 0 C C q b A Y s w ; ;                                                                                 X X X X   X X ",
"5 5 ; ; 5 ; ; & # # # & ; ; ; 5 o o : f >XyXyXh       5 : r ,.rXD.* A.yXyX5..   + 1 5 ; ; ; 5 3 ; & ; # ; t aXsXsXsXsXeXsXyXJ.{.J.{.@X+X4XaXgXyXfXh     @ ; 5 3 ; ; 5 5 5 5 5 5 & & 6 6 : 1.gXgXyXJ.gXgXOXy + w ; w 5 5 w 5 5 5 5 5 5 8 8 0 0 5 5 ; { gXdXsXsXdXdXgX5X|.{.}.}.K.oXyXdXsXdX[       5 5 9 5 5 w 9 6 u oXdXdXdXdXsXdX5X~ > u H ,.oXgXgXdXyX4X,..   O o . : : J S.BXgX%Xu   X w w 5 5 5 5 5 5 5 5 5 5 5 5 5 5 w q w w 7 7 ] H 6 d '.S.q w 8 8 5 3 8 w 5 3 , 3 5 5 ; ; ; ; ; ; ; ; ; # 5 5 ; 6 : : S D H ! ( J S S d B B V y u f ^ [ g r t 7 6 5 5 ; 5 6 0 9 w 5 # # # # & # & 1 5 5 , , 1 5 5 5 5 5 1 5 8 5 5 5 9 9 5 6 6 7 6 5 ; & 6 y B s q 5 5 w 0 w 8 q 0 0 q l u ) 5.*.S B q y y q 0 w w 0 7 7 w w q q q q w q 9 w w q y c y c q q l 0 9 w w w 0 9 9 6 6 6 6 6 5 q q 0 0 q q q 0 y N Z q 1 , 5 5 5 5 1 8 , 5 5 5 5 ; y 7 : 6 : 6 y 6 & 6 u u D ^ ~ h f h ~ ' | ' ) D g u y y y 7 6 7 y y t 6 & & 1 # # # # # # o # # o o o o # o o # # O O O O X X X @ O   O 3 7 B s ; o   X X         X X X X o # o o o # # # # @ @ # w # # y.V &.d   # # o ; ; # X X ; 7 7 ; 7 .   o   X ; # 5 o # q q 6 7 & o o o o o + o O   O O O O O O O X O O O o @ @ @             X       X o X o   q q.>.N X # q l A N 4 8 K :.:.e.OX4.S 7   @ < O O < < < O @ @ @ @ @ @ # @ @ # , # o 3 o     O , O O O O @ @ @ @ @ X o $ $ e e e e e e e e e e * * * $ $ $ e e e e * $ * $ $ * $ $ . . $ $ r f g h ,.H.[ i r r j [ BX*.. o . ; F 5       o :. X|..X:X:X:X:X:X:X:X:X:X:X:XoXoXoX|.|.|.}.}.{.{.{.[.H.H.H.H.D.D.v.x.x.z.z.z.z.z.l.w.5.5.5.l.l.l.l.l.l.5.5.5.5.5.l.l.l.z.z.z.z.z.x.v.v.D.D.[.[.[.{.{.+X+X+X+X+X:X:X1X1X1X1X1X3X3X3X4X4X3X3X3X3X3X3X3X3X5X5X3X4X:X+X%Xw.#.#.$.$.$.$.;.;.#.#.;.$.#.$.#.$.;.9.4.4.3.H.}.<.r . s 5 = X 3 @ 3 w Z Z Z s y 6 X                                                                               X X X X X X X X ",
"6 5 5 5 5 ; & # # # # & & & & 1 ; ; % [ yXyXH.%   X   w % : ~ yX%Xf ' yXyX@X.     # 5 ; ; 5 5 3 ; & ; & & t aXdXsXdXsXdXdXyXgXaXdXdXyXgXaXgXgXfXgXf     o 5 5 w 5 5 5 5 5 5 5 5 ; & 5 6 > ,.dXdXgXdXgXgX%X>   O = w 5 5 8 5 w 5 w w 0 0 w w 0 q w : { gXdXdXdXgXsXsXgXpXgXgXgXgXgXaXdXdXyX~     X w 5 6 5 5 5 5 6 t oXdXdXdXdXdXsXgX4X@X&X4XaXyXdXdXdX5.r .       0 V J h [ |.gXaX@X:     o w 5 5 5 5 5 5 5 5 5 5 5 5 5 5 8 w 5 7 7 f ).e.6 H $Xq.w q w 3 5 5 5 5 5 3 5 3 , 5 # 5 5 5 5 5 5 5 5 5 5 5 & & y : % > > : 6 7 y s d f B Z c d S J H t : 6 6 ; 5 5 5 & 5 w w w 5 # # # # # # # # 1 5 # & 1 5 5 5 5 5 5 5 w 5 5 5 6 6 6 6 6 6 6 6 ; ; : 6 7 y y w 5 w w 0 l q q q q l t *.3.[ S B y y s q w 6 7 q q q w 6 w q q w 6 6 w w w 0 q q q c q N c q 0 0 0 w 0 9 9 0 q 9 6 0 w 0 0 w w 0 q q 0 y c Z 0 5 3 5 5 5 5 3 8 3 5 5 5 5 # 5 5 & 6 & 6 d y ; 6 7 g D D D D t r h / | / ^ h B c y 7 6 q 7 9 y y q 6 5 1 1 , , # # # # o # # o o # # # # # + o O O O X + X X @ O O # q V J d ; .     X   X X X X X X X o O # 5 5 o O # O # @ , , O   :.V ( H ;   ; 7 & & o X # 6 q w ; y 6 .   X X # 5 o o # q Z N & : # # o o o o X X     O O O O O O O O O O O O O O O                   X #     o X 0 U :.>.A   w 5 w 5 # @ N Y ` :.( t o o   < < < < < < < < < < @ @ O @ @ @ # , , , , o @ O   @ @ O @ @ @ @ @ @ @ X o $ $ e e e e e e e e e * * $ $ $ $ $ e e * $ $ $ * $ $ * * $ $ * u g ! h f g h ^ f.R i i e Q BX5.. o . . 7 +       + =. X.X.X:X:X:X:X:X:X:X:X:X:X:XoXoXoXoX|.|.|.|.}.|.|.|.[.H.H.H.D.D.v.x.z.x.z.z.z.z.z.w.5.5.5.5.w.l.l.l.l.l.f.f.l.l.z.z.z.z.z.z.x.x.v.D.D.D.[.{.{.{.|.+X+X+X+X:X1X1X1X1X1X4X4X3X3X3X3X4X4X3X3X3X3X3X3X3X3X3X5X3X3X:X+X%Xw.#.#.$.$.$.;.UX^.$.#.$.$.$.#.` I ` ` &.:.w.w.e.6.J o     # O , 4 0 A Z s B B s ;                                                                                           X X X ",
"5 5 5 1 ; ; ; ; # # # & & & # # ; ; r A.dXyX[ $     # # 5 : % &XiX^ r :XyXyXf     o 5 ; & & 5 3 ; # ; & & f pXdXsXdXdXsXdXaX+X X{.{.@X{.@X4XaXgXgXd     # 6 ; 3 5 5 5 5 5 5 1 1 5 5 1 ; > 3.gXgXgXdXgXdX+Xt     = w w 8 8 5 w w w w 0 9 w 0 N A 0 7 { gXdXgXgXfXdXdXyX%XOX@X+X|.@X7XgXgXgX~     X 5 5 6 5 5 5 5 7 t oXdXdXdXdXdXdXdXpXpXpXgXgXgXgXgXdX{.%     # k 0 6 g =.[ 4XgX{.( .       = w 5 5 5 5 5 5 5 5 5 w 8 5 8 5 5 w ; s =.OX=.7 ] =.Y - w 3 , 3 5 3 5 5 5 ; 3 3 5 # 5 5 5 5 5 5 5 5 w # 5 5 ; 5 t 6 : ; & : 6 : & & > t q y y d J B 6 6 6 ; & 5 & 5 & & & & 5 1 # # o # # # # # & & 1 5 5 5 5 5 5 w 5 w 5 5 5 6 6 5 6 6 6 6 6 : : : : 7 6 ; 6 7 0 6 5 q w w p 7 w N u 3.2.~ d s s d B y 7 7 q 7 7 7 w 6 w q q w w q 9 q 0 0 q q q q c N c q 9 w w 6 0 6 9 q q 0 9 0 6 w w 5 w 0 0 0 0 q y V q 5 3 5 5 5 5 5 , 5 5 5 3 3 , 5 w 5 6 5 q y N q 5 6 c B F F u > r ^ } } / Q G c y 9 7 7 q q q y q 7 7 q 1 , , , , # # # # # o + o # 5 5 # # # o o o O X # X X @ @ O 5 s J J s % .     X   X X X @ o o @ O X # w w # @ # @ # @ , #   # :.J F ( > 6 0 6 ; o o o & ; 7 7 6 6 6 &   X o # = # o 3 w A Z & & 6 %     X o X X   O O O O O O O @ @ @ O O O O O O O             X O   X #         0 q u.q.P   o w Y # # = w p % : t   X     < < < < < < < < < < @ @ @ @ @ @ # # # o O # @   O @ @ @ @ , # @ @ @ o o . $ e e e e e e e e e e * $ * $ $ $ e e * * $ $ * * $ * r r r ! ) D r u r u g h ^ ,.h e $ ^ CXe.  o # o 6 1       O *. X.X+X:X:X:X:X:X:X:X:X:X:X:X:X:X:XoX|.|.|.|.|.|.|.|.XX}.{.[.H.H.D.D.D.x.z.z.z.z.z.l.w.z.l.l.z.z.z.l.l.z.z.z.z.z.z.z.z.z.z.x.v.v.D.H.D.[.{.|.|..X+X+X+X1X1X1X4X3X3X3X3X4X4X3X3X3X3X3X3X3X3X3X3X3X3X9X9X5X3X3X1X:X.X%Xl.#.#.$.#.o.#.#.#.#.#.$.#.#.#.#.#.` #.` #.;.;.9.t.^.t.` 4 @ k 4 n Y A Z V J J s o     X                                                                     X X X           X X X ",
"5 5 5 1 1 & ; ; - # & & & & # # ; % f 5XyX5X^ $   . : ; % > r J.aXz.* D.aXdXD.    o ; ; & & 5 , ; # ; # & f gXfXjXdXsXgXdX5.. .   . . .   > g.gXgXH     o ; & 3 5 5 5 5 5 5 5 5 ; 5 5 5 : ,.gXdXdXdXgXgX+X>   O = w 8 8 5 5 w 5 8 w 5 w w q s B w 6 =.gXgXgXgXgXgXaX^   .     . . u {.gXBX]     o 5 5 6 5 5 w 9 y f oXgXgXgXdXdXgX@X> S [ &XgXdXgXsXgXgX5.  O w l q : S ( [ &XD.H .     X 5 5 5 5 5 5 5 5 5 5 5 5 w 8 5 8 5 5 w ; a H J s V F s w ; 5 5 5 3 5 3 5 5 = ; , 5 5 # 5 5 5 5 5 5 5 5 5 5 5 w w # ; ; 7 ; ; 5 5 ; ; 6 : 6 & & $ g J y 6 6 6 5 5 6 ; ; 5 ; # # & # X X # o # # # # & # 1 5 5 1 1 5 5 5 w w 5 5 6 6 6 5 6 6 6 6 6 : : ; : 6 6 ; 6 6 6 w q w w N w d B s h 5.,.! d y s y s y 7 7 q 7 6 9 0 0 0 q q q q q 0 q w w q q q q q c c q 0 q q w 9 6 9 0 0 9 9 0 6 6 w 5 0 q q 0 q y y V q w 3 3 , 5 5 8 1 5 1 5 8 8 , # 5 5 0 q y 6 y s 5 6 9 9 7 d > f 3.f.| / ^ g g y y 9 7 7 y y q 6 6 6 q N , , , , , # # # # # o + # ; 5 5 # # + o o o + o + o X @ O O 5 V H H s & o   X X       X o o o o o o o # 3 5 , O # O @ @ 3 O # u.J H *.$ B q # ; # o o o o & 6 6 ; % & # X # ; X 5 O 8 N P ( F s % o     X o o O O O O O O O O O O O O O O O O O O O X               +   o X X O     X # N U q.b q :.&.q w 5 s V H ; X   O   O @ < < < < < < < < @ # @ @ @ @ @ # # # O O O O @ O O @ @ @ @ # @ @ o o . $ e e e e e e e e e e * * * $ $ $ * e $ * * * * e e r h Q Q h g f r r r D h r e g g r * ^ SXe.. o . . 6 +         &.[..X+X:X:X:X:X:X:X>X:X:X:X:X+XoX:XoX|.|.|.|.|.|.|.|.|.|.|.}.{.[.[.[.[.D.v.x.z.z.z.z.z.z.z.z.z.z.z.z.z.z.z.z.z.z.x.x.x.z.x.D.D.D.[.[.H.[.|..X+X+X+X+X1X1X1X1X4X3X4X4X4X4X4X4X3X3X3X3X3X3X4X3X3X3X3X9X9X5X3X3X1X:X.X%Xl.$.X.I $.$.#.I #.#.#.#.#.#.#.#.#.#.#.#.#.#.#.$.$.$.0.t.r.9.#.M n I A A A F s &                                                                               X X X         o o X ",
"5 5 5 1 & # # # # # & % & & & # & > 5.dXyXsXaXaXpXpXaXgXpXaXyXyXyX4X* [ gXgXgX%   X # ; & & 5 , ; # ; ; & d gXgXsXhXdXdXBX~ .     1 w w 7 > r yXBX*.    o ; & 5 5 5 5 5 5 5 5 5 5 w q 8 : 3.gXgXgXhXgXgX4X>     # w w 5 5 5 5 5 q q y q 6 6 6 5 7 t =.gXgXgXgXgXgXaXd .     q s w & D aXgX*.  O o 5 5 w 5 5 5 9 t f @XgXgXgXgXgXgX@X%     % +XgXgXgXdXgXpXH   o # s s S B 4.c.f % . X   = # ; 5 ; ; ; 5 5 5 5 5 # 5 5 3 8 5 , 5 7 ; V s s s 7 p w w w w w w = 3 = = 3 3 , , 5 5 3 , 5 5 5 5 # # # w 5 # w 5 6 5 5 ; 5 5 5 & # ; ; ; & : r [ ! d w w 7 6 6 6 & 5 5 5 & & & # X X # # # # # # # # & 1 1 & 1 5 5 5 5 5 6 6 6 6 6 5 6 6 6 6 6 6 : : 6 : 6 6 7 5 ; 6 # 5 w w s ] ] d ) <.[ Q f y d d S d y t q 7 w 0 w 6 6 w w w 0 6 9 w 6 w y c c N q l c q q q q q 7 7 7 7 6 6 6 7 6 w w 6 w q q q q y y Z y 5 5 5 5 5 5 w 1 5 1 5 5 5 6 w q 0 q N y 6 y G 6 6 6 y r f R }.sX} / / h u f u y y q 6 y y q 6 6 6 7 y # , , # , , # # # # o o # 5 5 & # # o o o o o + + + X O O o q U ] ( f % .     X       X o o o o o o o X o , 3 # #   @ O , @   q.U J 1.: 6 6 ; o # o o o o & 7 7 ; o # & o # &   O O q U &.>.&.A X # & ; # o X O O O O O O O O O O O @ @ @ O O O @ O O O O O O O @         X X +     X       +.y.:.q &.` U U V s Y   # # O O   @ < < < < < < < < # < @ @ @ @ @ # , , O O O O @ O O O @ @ @ @ @ # o o . $ e e e e e e e e e e * * $ $ $ $ * * $ $ $ r h ^ ) / Q h i r r r g g u r * > r $ Q r * e +X=..   o   % 1         ( _.|.+X:X:X:X:X:X>X>X>X:X:X:XoX.XoXoX|.oXoX|.|.|..X|.|.|.|.}.{.[.{.{.[.[.H.D.v.v.v.v.v.z.z.z.z.z.z.z.z.z.z.z.x.v.D.D.v.v.D.[.[.[.{.{.{.{.+X+X+X:X1X1X3X4X3X3X3X3X3X3X4X3X3X3X3X3X3X3X3X4X4X4X3X3X9X9X9X5X7X3X1X:X.X%Xw.#.#.#.#.#.#.I I #.#.o.#.$.#.#.#.#.I I #.#.I I $.;.;.;.;.Q.^.^.^.#.p A A X w U q X                                                                               X         o o o ",
"& & & & # # # & # # & & & & ; ; * r yXdXsXsXdXaXsXgXsXdXdXdXdXsXdXgX~ r aXgXaX*.    # ; & & 5 5 ; # ; ; ; g BXgXhXsXhXgXgX]       a N s w q 6 D.BX:.  O   ; & 5 5 5 5 5 5 5 5 5 ; 8 0 8 : 4.gXgXhXgXgXgX+Xt     # w w 8 8 w w w 8 q B B y 7 7 6 7 t ,.gXgXgXgXgXgXpXt     # ` ] q 5 t oXgX4.    X w 5 w ; ; 5 5 : t @XgXdXgXgXgXBXOX      6 ] BXgXgXdXdXgX_.    ; ; 7 y y ( s > ;   # 8 # 5 ; & ; ; ; 5 5 5 5 5 ; 5 5 3 8 8 , 5 q w p 7 7 7 s w 6 w w 5 , 8 3 w = 3 3 5 , , 5 5 , 3 5 5 5 5 # # 1 # 5 5 3 w 5 ; ; 5 5 1 5 5 5 5 w # & r r [ u y 0 0 q 6 6 6 & ; & ; ; 5 5 # o # # # # # # # # 1 5 5 5 5 5 5 5 1 ; 5 6 6 6 6 6 6 6 6 6 6 : 6 6 t t t 6 & 6 7 7 6 7 q q V e.4.,.5.f.<.' Q d y d S ( F B y q 7 0 q q q q 0 8 0 0 6 q q 6 w y c y c q c c q 0 w 6 5 q q q 6 6 6 7 q 7 7 7 6 6 q q q y y s F B 5 , 5 5 5 , 5 & 5 & 5 5 5 7 6 y 7 s V y 7 d J u t : F ' f.sXhXh.E R ) h u g y s y q 6 y q 7 6 6 5 5 5 # # , # # , # o # # o o # 5 & # o o # # # o o + + o @ X   # B ] H S : % o   X O X X X + o # # o o o o o X O , w , # @ O O @   &.J S ,.f 6 5 X # 5 # & & o & 6 5 6 ; X X & # X o O 5 9 P +.U A o o # # ; # o X   O O O O O O O O O O @ @ O O O O O O O O @ O O O   O       O O   X X   X   o   A &.U A b N 5 w s 5 X   X O O < O O < < < < < < # # < @ @ @ @ O # 5 #   O O O @ @ O O O O O O O # + o . $ * e e e e e e e e e * $ * $ $ $ $ * r u D Q Q / / / / Q R j r u r r % : & % r r g u r r H.D . . o o y %         U _.|.+X:X:X>X:X>X>X>X>X:X1X:X:X.XoXoXoXoXoXoX.X.X.X|.|.|.|.|.|.{.{.{.{.[.[.H.D.D.D.D.v.z.z.z.x.z.z.z.z.c.v.v.v.D.).).D.[.{.{.[.|.|.{.{..X+X1X1X1X1X4X3X3X3X3X3X4X4X4X3X3X3X3X3X3X3X3X3X3X4X4X3X3X9X9X9X5X7X3X3X1X+X%Xw.#.I #.#.#.o.I M o.#.o.o.I I I #.#.#.M o.#.#.#.#.-.;.$.8.$.8.0.Q.Q.^.t.#.w @ N X.w X                                                                             X X     o o o o ",
"& & & & & # # # # , , 1 1 # ; & % 6.gXyXdXaX+X5X>X>X>XyX4X4X4XyXaXgXz.  S.gXhXv.    o ; % : ; 8 ; & 5 C B D BXgXgXdXdXdXBX[     X V N w w ; ; r _.B &     5 5 5 5 w w 5 w 5 3 w ; 5 w 6 : 5.gXgXgXgXgXgX>Xr     , 5 w 9 5 5 9 5 9 6 B s 6 t B H F : ,.gXgXgXgXgXdXaXd   . t d t w ; > 4.BX4..     5 5 5 5 # w q t t oXgXdXgXgXgXBX{.      7 & {.BXgXdXjXgXbXy     5 6 7 5 q 5 5 1 1 1 5 5 5 5 ; ; ; = = 5 5 5 5 5 5 5 w w 5 w w 0 0 0 0 0 0 0 w 0 w 5 5 5 5 5 3 = 3 3 3 3 5 ; ; 5 5 5 # # 5 5 5 # ; ; ; ; 5 5 5 w ; ; 5 # ; ; ; ; ; 6 6 U H s 7 6 6 6 6 5 1 & & # & 1 5 & # o # # # # & # o # & 5 & & ; 5 5 ; ; 5 6 6 6 6 6 6 6 6 6 & : : u u t y : : : 6 6 5 q s s t g *.[ [ ) / ' ,.*.G u u G ( F y y 7 5 q 6 5 w w 6 w w 0 0 w w 0 q q q q q N N N 0 6 7 7 6 6 q 6 7 7 5 5 w 6 7 7 6 6 q y y t y s F y 5 1 5 5 1 5 6 6 6 t t t t t t r r u S d : t S H r ^ D.k.G.tX<X .E h ~ g u u u B y y 6 9 9 7 6 : : : : 1 1 # # , # # # # o o o 5 w 1 + # # o o o o X o o o O @ , # V =.] J t ; .   O O X X X o # # # # o o o O @ @ o o # 3 O @ O ,   U =.S S d > 5 ; # 8 q # # . % t & & & & o w X o o O 1 9 U >.P 6 # 7 5 ; # # o X X     O O O O O O O O O O @ @ @ @ @ @ @ @ @ @ O O O O         O + X X   o   o   X   U :.U # ; q 0 ; # @   O O O   O O < < < < < @ @ @ @ O @ @ @ # 8 @ O X   O O O 3 # @ @ @ @ O @ X   . * $ e e e e e e e e * $ $ $ $ * $ e g Q h ^ ) ^ h h ' Q j i h i i $ * $ > * : : % r u $ f iX4.. . % : B %         U ). X.X:X>X1X0X>X:X:X:X>X:X:X:X:XoXoXoXoXoX+X+X+X.X|.|.|..X|.|.|.|.|.|.{.[.H.[.D.D.D.D.D.S.c.v.D.D.D.D.D.).D.D.[.[.{.{.{.|..X+X+X+X.X+X:X1X1X4X3X3X3X3X4X4X3X5X5X3X3X3X4X2X3X4X4X4X4X4X3X3X4X3X3X9X9X9X9X7X5X3X1X+X%Xw.#.I M I I I I I #.#.o.M M I I o.I I I I #.#.#.#.#.$.$.#.$.$.;.9.;.t.t.^.r.7.M 4 p w                                                                 X                   X o o o ",
"& & 1 5 5 5 5 5 5 5 1 1 # # # 6 f @XaXdX:X. $   . .   .       . ' aX4X; g aXgX+X;     6 ; s s q ; 6 q C q g BXgXgXdXdXgXBX*.    o 0 w 3 w w 6 > & o &   O w w 5 5 w 5 5 w 5 5 5 ; w 8 6 : 6.gXgXgXgXgXgX%Xt     # 8 q 0 w w q q c 9 q B y t S 1.=.J ,.gXdXgXgXgXgXaXd     ; 7 7 w ; t > 1.s 6     5 , 8 # 5 w 5 7 r @XgXgXgXgXgXBX Xo O   6 & t iXgXdXdXaXS.      X ; 7 6 & 5 5 1 , 5 5 5 ; ; ; ; ; = 3 , 5 5 5 5 5 w w w 5 w w 0 0 0 0 0 q q q 0 w 5 5 5 5 3 3 ; 5 5 5 5 5 5 5 5 5 5 # # 3 # 5 # 5 5 5 5 w 5 5 5 = 5 w 5 5 5 ; ; 7 & d ( B y 7 6 6 6 6 5 1 1 & & # & ; ; # # # & # # & # # # # ; & & & ; 5 ; ; 1 5 6 6 6 6 6 6 y t t : : t y y 6 : 6 : : 6 y V F y d g ( [ [ Q R } } *.G u y B S y y s q 5 0 0 0 q q 0 0 0 0 0 9 9 6 0 q q q q q N N q q q 7 6 y s u t r : t d y y y 7 7 y y y s s s F y q 5 & 5 6 7 t t u u t u u u u u r u f d t t u D ^ 5.3. .d.L.d.R R j G g f u y y 7 t 6 6 6 7 6 1 & & & 1 5 # # # # # # # # o # # 1 # + o + o o + X X o o o @ @ # 5 U =.! J f % .   o O o X X o # # # o o o o o @ @ o o w w O @ @     U =.U d d . 5 & X 0 y 6 .   o & % # X & B A 1   # O 5 9 F &.B q & 5 ; # # o X X       O O O O O O @ @ O O @ @ @ @ @ @ @ @ @ @ @ @ O @ @ O @   O O O O   X   X     #   N &.Z N Z q # X       O @ # O O < < < O < < @ @ @ O @ @ @ 3 , O   O   O @ @ k 0 3 @ O O O @ o X . $ * * e e e e * e e * e e r r r u Q Q h g r r r h [ e e * e g h h r r r $ $ $ * * r f r ] DX=.. % % d U &         F (..X+X:X:X1X4X>X>X>X>X1X1X:X:X:X:XoXoX.X.X.X+X+XoX|.|..X.X.X|.|.|..X.X|.XX{.[.[.[.[.[.D.D.D.D.).[.{.{.{.[.[.[.{.{.{..X@X+X+X1X1X1X+X:X4X3X4X3X4X3X3X4X4X4X3X3X3X3X4X3X4X4X3X3X3X3X3X3X3X4X4X3X3X9X9X9X9X9X5X3X:X+X%Xw.` I M M I X.I o.#.o.o.I o.#.o.#.I I #.#.#.#.I #.#.$.$.#.#.#.;.t.0.;.;.0.0.t.t.;.I Y q       X                                                       X               o o o o X o ",
"5 5 5 5 6 6 6 6 w 5 1 8 5 3 5 7 ' yXgXaX4.  + + 5 8 1 8 , 1 1 1 D yXyXH % 1XgXgX6 #   , c B & w & 9 l N 6 f gXgXgXdXdXgXgX*.    O , 5 5 , 5 6 & ; w ; 5 8 5 # ; 5 5 , 5 5 5 # ; ; 8 9 9 : 5.gXgXgXgXgXgX&Xt     @ 5 w w w q V Z N q w S d r D =.] f ,.gXgXhXgXgXgXpXd     & 6 w 5 0 6 6 & 5 w o # , 1 & ; & w w 6 r oXgXgXgXgXgXBXOX    O C y . 5.gXgXdXpX(       # ; & % 5 5 1 5 5 5 5 3 = ; ; ; ; 5 3 5 5 , , 3 5 w w w w w w 0 0 0 w 0 q l q w w 5 5 , 3 3 3 = 5 = = 3 = = ; , , # # # ; # # # 5 5 5 5 5 5 5 ; ; w w 5 5 5 ; & 7 & U F y t 7 6 6 6 6 5 ; 1 5 & & & & 5 & & & & & & & 1 & & # & ; ; & & 5 ; ; ; ; ; 6 6 6 6 7 t d d u t : : : : 6 6 7 6 6 y B F 6 B u f ! ) ! R } ) ~ u t B F s y s A c 0 q q q q q 0 q q q 0 q 0 9 q l q q q 9 q q q q q q 7 S S S h u u g D S d d d s y y d V d y B s y q w : 6 6 r t g g u i u f f u r r u t t t t g ^ 3./ E /  .E i i g g g g y d y t t t 5 6 6 6 5 & & & ; ; # # # # o # o # # o o o o o + + o o + o o o +   o O @ q ] ] ] ! t % % # o X # o o o # # o o o o o o o @ o @ , 3 8 3   O l U &.H d : o   # 3 0 q B # . o   . o # 5 0 q 6 # # , + 1 & G 7 # X = = = # # X X X     O O O O @ @ < @ @ @ O O @ O @ @ @ @ @ @ # # # < < @ < O @ O O # o     o O         o q N 0 5 # X   O O O < 5 3 < O < < < < < @ @ @ @ O @ , w 5 @ O @ O   O @ < 3 , @ @ @ , , X   . $ * $ e * e e e e g e i R h f ! g r r u r r h D D > * > r > r u j j r r r * r r r g g $ 5.DXd > r > H ( .         V S. X+X:X:X1X0X>X>X>X>X1X1X:X:X:X:X:XoX+X.X.X+X:X+X.X|..X.X.X.X|.oXoX.X+X.X.X|.{.{.{.{.[.[.D.[.[.[.{.[.[.[.{.{..X.X.X+X+X+X:X1X1X1X1X2X3X3X9X3X3X3X3X3X7X7X3X3X3X3X3X3X3X3X4X4X4X4X4X3X3X4X3X3X7X9X9X9X9X9X5X1X+X.X%Xq.#.#.I I o.o.I o.#.o.X.#.#.#.I #.#.I #.$.$.#.#.#.$.$.#.o.#.#.$.;.$.;.$.;.9.8.;.;.9.-.U w                                                                             o o o o o o ",
"5 5 5 5 5 5 5 5 5 3 1 5 3 o ; o D.gXgXyX% O     ; 5 ; 5 o ; o o > +XgX4.  e.BXdXe.    @ 9 q o ; q y q q 6 d gXgXgXgXdXgXgX*.    O # w 8 8 5 w ; # # o w # # 5 ; 5 3 # , ; # # 5 w 0 q 9 : 6.gXgXgXgXgXgX&X6   O , 5 5 5 9 q s s q 0 q s * > ) [ V r ,.gXgXgXgXgXgXaXy     # ; 5 6 w 5 6 5 w ; 5 = 5 8 & 6 & ; # ; > oXgXgXgXgXgXBXOX    O Z 9 c f yXdXgXpX( + . F 6 & & 6 & 5 5 5 5 5 5 5 5 5 5 5 5 3 3 5 3 5 5 3 5 5 5 w w 5 w 0 0 0 0 8 w 0 0 w 5 5 5 , , 3 3 , , , , , , , # # , # # & 5 3 # # # 5 5 5 5 5 5 5 5 5 5 5 5 5 ; ; ; B ( y u 7 7 6 6 6 5 5 ; ; 5 1 & & & 5 5 & & & & & & 1 1 1 # # & & % & ; ; ; 6 ; & ; 6 6 6 t d G f S g S : % & 6 : t t : 7 t y 6 y 6 6 d d ! ) [ [ g u y y B s q q q q q q 8 w 0 q 0 q q q q l l q l c c y y q q q 0 9 0 q q s V S D h D ~ ~ S d d d d d d y t t y F F s 7 6 7 7 t t u g D g j g g g f u u u u u u g u h R R R R E R j j u u u g y B y 7 7 t 5 5 5 5 5 5 ; ; ; ; # # # # o o + # # o o o o o + + o + + X X X o   o @ # s ] ] { ] r > d w o # # # # # # # # # # o o o o o o o 5 8 z l 0 , 8 K Y J V ; ; + O w 3 & y 6 & o . .   & q & 6 q 5   O 9 +.c y d 6 ; 3 3 3 = # @ O X       O O O @ < < < < O O O @ O @ @ @ @ @ @ @ @ , < < < < O @ O   O #       X     X X   X ; #   X     O O O @ # w , O < < < < < < , @ O O O , 8 5 O   O @ O @ , O < < @ @ @ @ @ # . % $ e e e e e i ) Q h Q i R Q Q g > r > r r ! *.g u % % & & $ . r u r j r u r r $ * g g r {.&X> f f u ( s .         y c. X+X:X:X1X4X0X>X>X>X0X1X1X1X1X:X:X:X:X+X.X+X:X+X|.|..X+X+X+XoXoXoX.X+X+X+X+X|.{.|.|.|.|.|.{.{.D.D.{.[.{.|..X+X+X+X1X1X4X1X1X1X1X1X3X7X7X9X3X3X3X7X9X3X3X3X3X3X3X3X3X3X3X3X4X4X4X4X4X3X3X3X3X7X9X9X9X9X5X5X1X+X.X%X1.#.X.o.o.o.o.I o.o.I I I o.o.I I I I I #.#.#.#.I #.$.$.#.#.#.#.#.I #.#.#.;.;.;.;.9.;.#.Z w #                                                         X         o       X X X   . ",
"5 5 5 ; ; ; ; ; # 5 5 , # ; ; S aXgXdXA.    O # 5 w 5 5 # ; ; & : D.aX{.& ! fXdXpXo   @ , 6 y t B q 5 5 : h gXgXgXgXgXgXgX=.      w 6 0 l q 5 ; w 5 0 N 5 w w # w 5 , 5 # ; w q 7 q 0 6 > 5.gXgXgXgXgXgX%X6   O # 5 w 9 y q 7 : 5 w 6 & > g *.H y r ,.gXgXgXgXhXgXyXd     o w ; 5 5 w # w ; - ; o ; 5 & & 6 # 5 ; > }.gXgXgXgXgXBX{.  X   b 1 5 > [ gXgXgX[   *.vXe.: ; - 5 5 w 5 3 ; ; ; 3 3 3 5 5 5 5 , 3 3 5 5 5 5 5 5 w 8 8 8 9 q 8 8 8 8 8 w 5 5 3 , 3 3 5 3 3 , , , , , , # # # 5 5 5 5 # # # # 5 3 3 3 5 ; 5 5 5 5 5 ; ; ; 6 ( S y t t 7 : 6 5 5 5 ; ; ; 5 & & & ; & & # & & & & 1 5 1 # # & & # # & ; & ; ; ; ; 6 6 6 7 d H D ! ! ! d S y d y G S y d u d y y 7 y 7 ; d ~ ) [ f y 7 t d s s p q N N l q l l l q q q q k l l l l l N l l N N N q q q q 0 6 y s d d g D D u y t t t y y y 6 7 d J F 7 : 7 q 7 7 y y u g u i j j j u u f f u u j j r j e i i i h j r u r t u S B B t 7 6 7 6 5 ; ; 5 5 5 ; ; ; & # # # o o o o o o + + + o X + o + + o X X o o X o ; 7 U *.| ^ r t F 7 X o # # # # # # # # # # o o o o o o O @ 5 l l 8 C 4 U U ] o # 5 8 q w # w 7 . . . . + # q y y 5 1 9 +.P &.( G B s q 3 3 # @ @ @ O X   O O O O @ @ < < < O O O O O O @ O O @ @ @ @ @ < < < < < O < O   O # O O           X o X o = X         O @ @ O # @   O O < < < < , < O O O @ 4 0 @   O O O @ @ < < @ @ @ @ X @ 5 . $ $ r r / [ i 5.z.) h h i ,.,.r > % t > r G *.t : . o . . o % % r r * f u r r r > r f u r ).*.r f > f =..           7 c. X+X:X:X4X4X4X4X4X4X0X1X1X1X1X1X:X:X:X:X.X+X+X.X.X.X+X+X+X:X+X+X.X.X.X.X+X+X.X.X+X+X+X.X.X+X{.D.{.+X.X+X+X+X+X1X3X4X1X3X4X4X3X3X3X9X9X9X3X3X3X3X3X3X1X1X1X3X3X3X3X3X3X3X3X3X3X3X3X4X3X3X3X3X7X9X9X9X9X7X3X1X+X.X-X1.I M I o.o.o.o.o.I I I I I I M I I I #.#.#.#.#.#.#.#.$.$.#.#.#.#.#.I #.#.#.#.$.#.7.;.;.#.A b 0 0 @                                                 X X         o                 ",
"= ; ; ; ; & & ; = 5 , 5 5 ; % S.dXsXgX[ .       # 5 & & & ; & & ; *.BXyX> * 5XgXaX{     1 B B V q 5 5 6 u D gXgXgXgXdXdXgX,.    X q s q q w ; 5 q 5 w 0 0 w 5 0 w 5 5 5 5 w q s 7 w 6 : : 6.gXdXgXgXgXgX%Xt   O @ w 5 w q 6 6 : 7 V s t F H ! r ; > ,.gXgXhXgXgXgXaXf     o ; ; ; 5 5 5 ; w o ; > f H 6 ; # = 3 ; > }.gXgXhXgXgXBXoX.     w 0 ; & > S.BXgX,.D aXBXbX] o o # 5 # 3 3 # # # # , 3 5 5 5 3 3 3 5 5 5 w w w 8 8 8 8 w w 8 w 8 8 w 5 5 5 5 3 , 3 5 5 , , , 3 , , , , # 3 # # 5 5 , # # # # 5 # # # , 3 5 5 5 5 ; # ; : J J y y 7 : 6 5 6 5 5 5 ; ; ; 5 & & & & & & # & & & & 1 5 1 & # # # o # & ; & ; ; ; 6 : : : : g ! ( ! ~ h D ! H H H ( H G G D F V B V N s y u S ( ( S y 6 y B s s s q q N l k l l l l k k l z k k k q l l q l q l l l l q q q 0 0 w 7 7 t y t 6 7 6 5 6 y y 9 y y s S B ; 7 V y 6 6 t t r r r r i i i i j h h R h R h h h g u r i g D u u t r t d y d y 7 7 7 6 6 ; ; 5 5 ; # ; ; & # # # o o + + + o + + o X X X o o o o X o o o X X ; ; H *.] H f d V w o o # # o o # # # # # # # o o o o o 5 @ @ 3 O b 9.A U V =.; #   q q N w 5 y % . o   & % 2 y 6 & , U &.1 o ( ( F s w w 3 @ @ @ @ O O O   O @ @ @ < < < < O O O O O O @ @ @ @ @ @ @ @ < < < < < < 8 < O   # @ #   X X   X       X X # X X X   @ @ @ @   , , @ O < < < < < @ @ O O @ 3 q 3 @ @ O O O   @ O O O o X X o   . d h j ,.VX}.E g.5.{.[ j [ 5.* $ f u > : g *.t * $ . & # % 6 t : % $ $ * u r r r > * f g ~ +X] * r > D _.      X     ; e. X+X:X4X3X3X3X4X4X4X0X0X1X1X1X1X>X:X:X:X:X+X+X+X+X+X+X+X:X:X:X:X:X:X+X+X+X+X+X+X+X.X+X+X.X.X+X+X+X+X1X2X4X1X3X5X5X3X3X5X5X5X9X9X9X9X9X9X9X9X9X7X3X1X1X1X1X3X1X1X3X3X3X3X3X3X3X4X4X4X3X3X3X3X7X9X9X9X9X9X7X3X%X%X-X:.#.M I o.M M M I M I I I I #.I I #.#.#.$.$.#.#.#.o.#.#.#.#.#.#.#.I I I #.#.o.I $.#.#.;.;.#.I n A b w 3 @ O                                         X X           X X o o X X X X ",
"; ; ; ; ; 5 5 5 5 3 # 5 ; % f >XdXdX5XD       - o ; & ; ; ; - - = > yXgX,.$ w.pXgXz.    1 B B s ; 6 y B S ~ gXgXgXdXdXdXgX,.    O y s 6 w 3 # 5 3 w q 6 w 5 5 0 w 5 5 5 5 0 s q 6 5 5 ; > 6.gXgXgXgXgXgX+Xr     5 q 6 5 6 6 6 7 s H F V y t t 6 7 : ,.gXgXgXgXgXgXyXs     X ; - 6 ; # ; ; ; ; ; * %XuX% ; # 3 0 ; > }.gXgXhXgXgXgXOX.   X # 5 w ; ; h 4XgXJ.aXgXgXgXpX=.    w 3 , , # # # 5 5 3 , , , , , , 3 3 5 5 w w 8 8 8 w 5 w w 5 5 8 5 5 5 5 5 3 , , , , 1 1 1 1 , , , , 5 ; # # 5 5 # # # # # 5 5 # # 5 3 5 ; ; 5 # & 7 d ( y t t 6 & 6 5 6 w w 5 5 5 & ; & & & & & & & & & & & & 1 1 & # # o # & & ; ; & ; 6 ; : : : : S D ! D ) h h ^ D D D D J G G J F S F V B B S g y J F H S y d G V V V N N A N N l q q 0 0 l l z 8 k k k k k k 0 0 k z z k l k 0 w 0 w 6 w 7 7 w 9 6 w w 0 q l q q q c B V 6 7 V d 6 : t u t r u j j j j j R R R E R R h h u g u t t u B u t r r : 6 : 6 7 6 q 6 6 6 5 5 5 ; & # # ; & # & # o +   + o o o X X   X X X o + o X X o X X X - w H *.( J d V N w ; & # # # o # # & # # # # # # # # o   O O , 8 l &.I V s *.U 9 o o 6 w w 6 6 : : & . . & & 6 1 6 9 &.+.F y y y y q 1 5 , @ O O @ @ O O O O @ < @ < , < < < < @ @ @ @ @ @ @ @ @ # @ @ @ @ < < < < k , O O O O #   X X #     o       X         O @ @ @ @ 3 8 @ O O @ < < < @ @ @ O @ 3 , @ @ @ @ @ @ X O o + o X o o ; : d u g j } gXoXg.g./ / j i [ f r r % > > ) [ f > . %   . t d d r % $ $ $ > r j g g r r D g 3.vX*.$ : u 5.G &     X     & w. X+X1X3X5X5X0X0X1X0X0X0X0X0X1X1X1X1X:X:X:X:X:X+X.X:X:X:X:X:X:X:X:X:X:X+X+X:X+X+X+X.X.X+X+X+X+X1X4X4X3X4X2X4X5X5X5X5XpXpX9X9X9X9X9X9X7X9X9X9X9X7X3X1X3X3X3X3X3X3X3X3X3X3X3X3X3X3X3X3X3X3X3X3X3X9X9X9X9X9X7X4X1X%X%X1.I M I I I I M I #.I #.#.$.$.#.$.$.$.#.#.#.#.#.#.M o.#.#.I #.$.#.#.I I I #.#.#.#.I #.#.;.$.#.#.-.U Y b b 0 5 # o X                                 X X         X o o o o X X X X ",
"5 5 5 5 1 5 5 5 # 5 5 , # % { yXyXyX4X    O   = # & & 6 5 w # = = : {.yX@X* $ vXdX@Xt     q q ; 5 y Z S S ^ gXdXgXdXdXdXgX,.    @ w w 5 5 5 8 w w 5 5 w 5 & w 5 5 5 5 5 5 0 q 5 5 5 & ; ; 4.gXgXdXgXgXgX+Xr     ; 0 9 9 N B s s t t ; s & 6 6 5 6 : ,.gXgXgXdXgXgXyXd     o ; 5 5 w # 5 ; ; 5 1 3.gXpX% o   o , ; > {.gXgXhXgXgXBX X      w , w 5 ; * ,.BXgXdXgXhXjXgXuX( o   5 , , , # 1 1 5 3 1 , , , , , , , , 5 w 8 8 8 w 5 8 w 5 5 5 5 5 5 5 5 5 3 , , , , 1 1 1 , # # , , 5 ; # # # # # # 5 , 5 5 5 , , 5 = 3 # # ; ; w V ] J y t s & 7 & 6 w 6 6 6 5 5 1 ; & & & & & & & ; & & & & & & & % # o # & ; ; ; & 5 ; & : r t : u G D h Q g Q ,.g r u u D D G G S B B c Z G B g d y d y B y y S S V V s B A N N N q q 0 0 0 0 k 0 z z l l l k k l z z z l k q q 6 s q 7 w 5 5 w q w w 0 q k l l l q q y B 5 7 s B : : r u g h Q R R R R R R E R E R R j f g y t : t : : u r u t : : : : 7 7 y 9 6 6 6 6 5 ; ; & # ; & & ; # + + X + o + o + o X + + o o + X o X o # # X ; s ] =.] d y s 0 o # # # & # # # # & % # # # # # # o o # O , @ 8 K U U Z V ( H F & o 5 w q 7 % 6 : & . . & & . 1 c Z >.>.q.e.H t y 1 1 , , O O O O @ @ O O O # < @ < , < < < < < @ @ @ < < @ @ @ # @ @ , @ < < < < z < < < @ @ # @ X   # o X     X o         @ @ O @ 3 , , 3       < < < , @ @     @ #   O @ @ O O O   X # o   . ; y B ( *.D R i <.hXJ...' j i r 5.g * % % : % ( c.r % % * . o & F G r > > 6 % . G r h ) j r r f r v.HX] % : !  X: .           # q. X.X:X1X3X5X0X4X0X5X0X0X3X0X0X0X1X1X1X:X:X:X+X.X.X.X:X:X:X:X:X:X:X:X:X:X:X:X1X1X:X+X+X+X:X1X1X3X3X1X4X4X4X7X9X3X4X9X9X9X9X9X9X9X3X3X3X7X7X7X7X7X7X7X3X3X3X3X3X3X3X3X1X1X1X1X3X3X3X3X3X7X7X3X3X9XpX9X9X7X3X1X1X%X%X:.I I I I #.#.I #.$.#.#.#.$.$.$.$.;.;.$.M I #.$.#.$.#.#.#.#.#.$.$.#.#.#.#.#.#.#.#.#.$.#.` #.#.#.#.#.U I I K A q w 5 # X                           X X X         o   o o o X X X   ",
"; ; 3 , 5 1 , 5 # w , , & % H.yXsXaXD..     , # , 5 # 7 ; 5 w 8 y y 5.yXrX! . D.aXaXQ .   5 7 : B Z V S h ~ gXdXsXsXyXdXaX5..   O 3 w 5 5 w # 5 3 5 ; 5 ; ; 5 5 5 5 w 5 5 5 5 ; 5 # 1 5 : 5.gXgXgXdXdXdX1Xt +   # w w 7 6 6 6 ; 7 & 5 6 6 ; w 5 5 > ,.gXdXgXsXgXdXaXd   O # # 5 5 5 5 5 # o & d >XgXOX;   X O 8 2 * @XgXgXgXgXdXBX@X.     5 5 5 , 8 % % S.gXgXgXdXhXgXjX7X( . o # w , , 5 , # 1 3 , , , , , , 3 5 5 5 8 8 8 8 8 5 5 5 5 5 5 3 3 3 3 3 , , , , , , , , 1 1 1 , , , , , , 1 1 5 5 , , , 5 5 , , , , # ; 5 & 6 d *.D g u y y 7 ; ; 5 6 6 7 6 & & & ; & & & & & & & & & & & & & & & # # # o # & ; ; : : 6 5 7 s J S g u r g ~ R <.| u > > B F d f D G S B G G D *.*.B t y B B B B d B ( 1.( B B q V C b 0 0 0 0 k k k z z z z z z z z z z z k 0 0 q w w w w w 5 5 w w 8 0 0 0 0 k l c q 9 y y 7 ; 6 t r > j j R R R R R R E E E Q Q Q h g u r t t 6 : & 6 & & 6 > : : 6 6 2 6 6 5 & 5 6 6 5 & & & & # # # # # # + X X + + + + X X o + + X o X o o X   X #   & H *.] H H w o     X   X X & % # # # # # # # o X o o # o @ # , 3 4 n n N V H u U _.Z X # 5 6 & o . . $ $ r r 6 + k C c y F y u t t 5 , 5 , @ O O # @   O O O O @ # < < # < < < < < @ @ @ @ @ @ @ @ O + @ < < < < < z z k k < O   , #   O o       X X   X O O O @ 3 3 3 3 @   8 3   < < , O < < @ # @ @ # # O #   ,   + 6 t > u S S t S c D r r e oXhX| } j f u ' 3.r % o % * ] w.V ; : + o & f ~ h u r * $ > y d u r r r D r r D r 4X2Xu . : 1.1..       o     # 1.{.+X:X>X4X5X3X5X4X0X0X0X0X0X4X4X:X:X1X:X:X:X.X.X.X.X:X:X:X:X:X1X:X:X1X1X1X:X+X:X1X:X:X1X1X:X:X3X4X4X4X3X3X9X9X5X3X5X7X9X9X9X9X3X3X1X3X9X9X7X3X7X3X2X3X3X3X3X3X3X3X1X1X1X3X3X3X3X3X3X3X3X9X3X3X9X9XpX9X3X5X1X%X%XOX1.U #.-.&.7.;.#.;.$.;.;.;.;.0.$.;.;.7.$.$.;.$.$.$.;.$.$.$.#.$.$.$.$.#.#.#.$.#.o.#.#.#.#.#.I I I I I I I K Y A N b 0 0 w 3 # @                   X   X           X   X o o o o o   ",
"5 5 5 5 8 5 1 5 # ; ; 6 % [ yXyXsXyX5.  X   # , 1 , 5 5 5 5 6 6 6 t ^ rXyX1.. { sXaX[..     s S F V d J D ' gXyXsXdXdXyXaXD..   O 5 5 w w w ; ; # # = = ; ; 5 3 5 5 5 ; ; ; & & 5 6 & : $ D.yXdXdXsXdXgX>Xg .     ; & 6 ; 6 & 5 5 6 5 & 5 & # 6 7 % z.dXsXdXdXgXgXyX!     # 6 1 ; 5 5 # % > % ).gXgX5..     # # 2 * 4XgXgXgXgXhXgX+X>     8 5 w # , 5 ; > {.gXgXgXdXgXgXBXpX*.  # # 5 1 o 5 # ; , , , , , , , , 3 5 5 5 5 5 5 5 5 5 5 5 5 5 , , , , , , , , , , , , , , , , , , , , , , # # , 1 , , 5 5 1 5 3 3 5 5 ; 6 % d [ *.d d t 7 7 5 ; ; 6 7 y 7 6 & & 5 6 ; ; & & & & & & & & & & & & & & & & # # % & ; : ; 6 6 6 t H ] ! u r u Q / f.R r * : B S u u H J F B y g Q 5.[ y 7 y d y d S S B H w.S.U s y N l A b 0 8 0 k 8 k z k k k k z z z z z z k 8 5 5 w q q w 5 w w 5 q 0 8 8 0 l l q q q 9 7 7 6 : : r f g h i j R R E E R R R R h h h g g u u t t y 6 : 6 & & & % & & : : 6 q 7 5 & & & & & & & # # # # # # # + X X o o o o + + + + + + X o + o o o X o X   y ] *.] J s 5 q.OX=X:.s Z   X & 5 & # X # # # o o o # o # # # @ 3 0 I ` U U t V ( '.*X:.  % . & : . $ * * * r + 1 < P F y 1.1.u . 2 9 5 # # @ O @ # @ O O O O O O # < < < < < < < @ @ @ # @ @ @ < @ @ O @ < < < < < k z 8 z < O   , # o   O # # O X           O < 3 3 3 # # O 3 0 < O < < < < O #   O # # X X + X o & 6 =.c.t $ H g t 6 t u r r ^ J./ x.} r u u [ [ f % : t h [ t y & ; 1 % S e.~ r r * r u G S & * r r r ! r $ r h BX) % t u H t   #           X *. X+X:X4X4X5X5X3X5X3X5X5X1X4X5X>X>X4X:X1X:X:X:X:X:X:X:X:X:X:X:X1X1X1X1X1X1X:X+X:X1X1X1X4X4X1X1X4X4X4X5X7X9X9XpX9X9X9X7X9X9X9X9X4X2X1X3X7X7X3X3X3X3X3X3X3X3X3X3X3X2X1X1X1X3X3X3X3X3X3X3X3X3X9X9X9XpXpX9X3X3X1X%X%XOX1.c q 8 b U -.;.;.#.;.$.#.$.#.I I #.;.#.$.$.#.#.I I I o.o.I I #.#.#.$.#.#.#.#.o.#.#.#.` I I I I I I M n A A n A A b b b 0 8 4 # o O                           X X     X o o o o X ",
", 5 5 5 5 1 1 5 5 . ; % ~ >XyXeXeXsXoX> .   # # 5 1 5 8 5 ; t : t > ,.yXyXD.. j ,XyXyX,.%   f g d d h h r g.yXsXeXeXeXsXyX>Xu     q 5 0 5 # # ; 5 # # # ; ; 5 3 5 5 5 ; 5 5 5 5 + & > % f aXsXgXdXdXtXtXdX,.$ . . ; % ; o ; w # 5 5 # 5 ; ; 6 ; % r oXdXdXdXgXgXyXgX4.  . . % : % % > & > h {.gXdXaX] #     & % $ ~ aXgXgXdXdXgXgXgX,.  . & 1 # w # 5 5 o D iXgXgXhXgXhXgXgXpX1.( d 6 % o o ; # , , , , , 1 , , , 3 5 5 3 , , , 5 3 5 5 5 3 , , , , , , , , , , , , , , , , , , , , , , , , , , , , , , , , , , 5 # # ; t ( =.! u y t 6 6 5 ; 6 ; t y t ; & ; ; 6 5 ; & & & & & & & # # # & & ; ; & & & o . o ; & ; 6 6 & & G ~ D : 6 r i <.<.i : & ; y y 6 t G F F F S D ^ l.h 6 ; 6 d B G S B V F S ( ] :.V s A N q l l 8 k z n n z z k z z z 8 k k k k k 8 5 5 0 0 w 5 6 0 0 8 w 0 8 8 k l q q 0 6 6 6 t u u i j h R i R R R R R R h g f u u u u u u d t t J u : & & & & & & & # & 6 q q 6 ; & & % & & & # # o # # # o o + o # # o + + o o o + + o o + o X X o o   ; ] 4.=.( J V :.LXKXLXDXCXDX).J o   # 5 o # # # - # # # # o # , , 4 b I I U ] V % F H 1.S.>.+ . o y B u $ * : * 1   1 c i.*.) ) G r & & % # # @ @ @ @ @ O O O   O O @ < < < < < < < < # # # @ @ < < # @ O @ < < < < < k x z z k O   O # # O X X # # X       O O O @ , , , = 3 @   # , O < < < < < @ ,   X o o ; 6 y d d S [ w.Q r r > > % t : r > ,.5.^ J.j u > h D ! t % y > ( D S ; & & % t ,.[ e * e f ~ ! t . $ > % h 2.f r . . g DXt   . 6 *.s   X             ]  X.X:X4X4X3X5X5X5X5X5X0X4X3X5X4X0X>X>X>X1X:X:X:X:X:X:X:X:X:X:X:X:X1X1X1X1X:X+X1X3X3X3X3X3X4X3X7X9XpX9X9X9X9XpXpX9X9X9X9X9X9X9X3X3X3X7X7X7X3X2X3X3X3X3X3X3X2X3X3X1X1X1X3X3X3X3X3X9X3X3X3X9X9X9XpXpX9X9X9X3X3X%X%X$X=.B C q Z U &.&.Z 9.9.M 4 4 0 4 b n I n M I I M n n n M M n M M M M I I I I I I I I I I I I I I I I I Y I I A n n A n b b b q 8 3 , # @                       X X o X   X o o X X ",
", 5 5 5 5 & & ; % > > 3.:XyXsX,XeX,XyXD.D . & ; 5 5 # , # o * > j 5.>XeX,X>X5.f.,X,XyXyXz.f > h h D D j ,.>XyXyXeXsXsXsXyXyXoX^ . & & 6 5 w w & 5 5 # ; 5 5 5 , 1 5 5 5 & & % % & % % D oXdXsXsXsXsXdXtXdXyXz.r . % & o 5 5 5 8 6 ; 5 6 & ; & : r A.dXsXdXsXsXsXdXdX5XS.[ ^ [ [ ] [ ,.A.J.yXdXdXdX4Xu   X   % * ~ 4XgXdXdXjXgXgXgXaXyXz.* . o q # , w 5 5 ; H 5XgXgXgXgXgXgXBXgXaX4X@X{.OXe.. o 1 1 , , , 1 1 , 1 , 3 3 , , , , 3 3 3 5 , , , , , , , , , , , , , , , , , , , , , , , , , , , , # # # # , # , , = # ; % H *.) j u t 6 5 5 6 ; & ; t y t : ; ; ; 6 5 ; ; & & & & # # # o o # & ; & & & & # o o & ; 6 6 & : t D ~ J t 6 > h z.^ r ; & ; w 6 & 6 y B B B f g } f.r > & : y B S S d s V s d V &.=.Y Z Z A N N b b 0 z z z k 8 k k k 8 0 k k k k 0 8 5 5 5 5 5 5 w 0 w 8 8 0 q q 0 0 w 0 7 y u S G D h h j R R R R R g g f u u t u u t y y B F t r ( ( u & & & # # # # o # 1 w 7 7 6 & & & & & & # # X o # # + + # # # # o + + + o o + X o + + o o o O o X y *.1.=.] J U U UXLXLXLXJXJXDXCX).d . . ; ; ; ; ; ; - # o @ # 3 , 4 b I Y U &.t 6 . 7 y ( (.y.% % ( G $ e * u 6 # 2 < ].HX5.D G ! G 6 & % # # # # @ @ O O   O   O O @ < < < < < < , , < < @ @ @ < < < @ @ @ @ @ < < < x x k m l O O     o 5 #   X O       O @ @ @ @ @ @ @ # # 3 @   , @ O < k < < O   o . . u g ! g g D r j [ ~ r e f r > : : t % r 2.,.<.r r u H u f S & > [ ) r > 7 & # u ] ] h e r g z.,.r $ % . $ r w.=.> : % . 1.).% o   ; :.B                 &. X+X:X4X4X3X5X5X5X5X5X3X0X9X0X0X5X>X1X1X>X>X:X:X:X:X:X:X+X:X:X:X:X:X1X1X1X1X1X3X3X3X3X3X1X1X1X4X7XpX9X9X9X9XpXpX9X9X9X9X5X3X3X3X3X9X9X7X3X3X2X2X2X2X2X3X2X2X3X3X3X1X3X3X3X3X3X3X3X9X3X9X9X9XpXpXpX9X9X9X3X3X1X&XOX=.c Z l c N N q # 8 U -.4 4 3 4 b n n 4 4 b b n b n n k n n M I I n b n M I M L I I Y M M I I I I K I I I I I I A n b b b b b q 8 w 8 3 # @ @ X     X         X X . X X X o o o   ",
"5 5 5 5 ; ; ; : ( OXyX>XyXrX,X,X,XeXyXyXyX{.! % & ; 6 5 ; : 4.1XyXyXeXrXrXeXyXeXeX,XyX,X5XyXoX2.^ ' g.oXyX,XyX,XyXeXyXyXyXyX5XaX@X,.f ; ; # 5 5 5 5 # ; 5 5 5 5 1 5 5 ; & & & & S 5.+XaXeXyXyXsXsXyXyXeXyXyXpXiX_.( & ; ; w 5 , # & 6 ; % t H D.yXyXsXdXyXsXgXsXdXyXgXaXaXaXaXdXgXaXgXdXdXyXgXsXgX{.      V 5.2XBXaXgXdXgXdXdXdXdXgXaXBXiXS.U   ; & # < 8 # % ] yXgXdXgXgXdXdXgXdXgXgXgXpX7X6 o # # , , , 1 , , , , , , , , , 3 3 , 3 , 5 5 3 , , , , , , , , , # # , , , , # # # # # # # # # # # # # # , , , , # ; : : ( [ h u t t 6 & & 5 & & & 6 7 6 ; ; ; ; 5 ; ; ; & & # # # # # o o o & & ; ; ; 6 ; & # & ; 6 6 : u u D D g t 6 t ~ 5.f r # # 1 5 6 6 t y d s s d g f.,.r ; ; 6 y y d d V H d d t s V U ] Z Z B N C C b 0 b b b z z z z l 0 k z k 8 0 0 8 0 8 8 5 5 5 5 8 0 w w 0 q 0 8 0 w w y B D D g g g g g g h g g h g u t r : : 6 6 6 q t B F u r D ) g : & # # , , = # o o # 6 7 ; & ; ; & & # # # + + o o o o o # # # # # o o o + + X X + + o o o O o # V =.=.] ] J B _.DXJXSXJXSXDXSXJXJXpX,.: % ; ; ; ; ; ; # # # # 3 , 3 8 b 0 b ] F B H & B y 6 y.e.y y u * r g $ . 1 2 2 q.c.D g D ! &.U 7 & o # # # o @ O O   O O O @ < < < < < < < , , < # < @ < < < @ @ @ @ @ @ < < < x x x x z k 8 O   # # # # o O X X   O O # @ @ @ @ @ = @ # 3   @ 0 , < k < 4 5 = o :.DX,.g ^ [ Q u r * h Q h r r r $ * > % t BXDX<.Q g u > r t % t % > ~ f > > o & 6 ^ [ g * * $ 2.[ % t . . % u ) g r :   . . e.).f   . 6 ] #       O       & 1.[.+X:X4X3X5X5X5X5X5X5X5X0X5X5X5X0X:X:X>X>X>X>X>X0X0X1X+X.X.X:X:X:X:X1X1X1X1X1X1X:X:X1X3X1X:X:X4X3X7X9X9X9XpXpXpXpX9X9X9X7X9X3X3X3X7X3X3X3X3X2X2X1X1X4X1X1X1X2X2X3X1X3X3X3X3X3X7X9X9X9X9X9X9XpXpX9X9X7X9X3X3X1X%X%Xe.Z N N l q q q 0 , l &.I #.#.#.I I I I I I I I I I I M M M I I M M n b M M M L I I A n n M I I I Y I Y I I I Y A b b b 0 0 p q 0 0 w 8 4 3 = o   X X       X X X o   X X o o     ",
"; 5 ; ; ; & % > {.iXyXyXyXyXyXyXyX>XyX5X5X7X6XJ . ; X ; & d uX4XyX5X5X5XyX>X.X+X5X5X5XyXaXyX4XpX5.+XyXyXaX5X5XyX4X>X>X4XyX5XaX5XyXpXS.% o w # 1 5 5 # ; ; 5 5 5 1 1 5 ; & & 6 q &XpXiXyXaXyXaXyXaXpXyXaXaXyXaXpXiXuXJ # w # 5 8 7 # ; 7 & 1.iXpXaXaXaXyXaXgXaXpXyXpXpXpXaXgXyXaXaXaXaXaXgXaXgXaXpX]       %XbXbXpXMXgXgXpXpXpXpXgXgXaXaXBXbXiX; X 5 5 , , # o : ] {.gXgXdXdXgXgXgXgXdXBXBXS.      + , , 1 1 , # , , , 1 , 3 3 5 3 , 3 3 3 5 3 , , , , , , , , # # # , , , , , # # # # # , , # # , , , , , , 5 3 = ; : S ) ^ j r g d t & & & # & o & & & & & # # # X o # # # # # % % # # o o o # ; ; ; 6 5 & & # % & 6 y G f g g H J S f D g * & o & 1 5 q B B B B y y S h <.Q r ; ; ; 7 y d d d H 4.[ f s s d V U F N A N q l b 0 k k k k k k k k k z k k 0 0 0 0 k 0 3 5 8 8 5 8 9 9 w 6 5 6 q 0 6 7 y d u t t r t u u d u u u u t t 6 6 6 ; & 5 q y d J J u u D d 6 & # # , 5 = # = # # 5 7 ; ; ; 5 & & % # # # + X X + o o o # o o o o o o o + X X o + o X o + o # U 1.=.] J V J DXBXJ.5XhXgXjXVXSXSXHXbXS % ; ; ; ; ; ; # # = 3 5 3 3 w b 4 A w U 1.*.( % : H y :.y.: * $ : ! u 6 & + y u : D D H J U F 5   o o o o # o O O   O O O @ < < < < < < < , < # # < # @ < < # @ @ @ @ O < < < x x x x m n n , O , O # # O O o o + o # # < < @ @ # 3 @ @ # @ @ k L @ O < # q q.( s g.x.j } ) u r r r j ^ 5.e f u u % % % f 5X}.j h r u Q [ >   % o ! ( > > ; ; % u j r r * j ,.j f % % % % t : t r :   # .   *.e.&     ; Z .             . B c.{..X:X0X7X7X5X5X5X5X5X5X0X[.:X5X5X:X1X1X>X>X>X4X0X4X1X1X:X:X+X+X.X+X:X:X+X+X1X:X+X+X:X1X3X4X4X4X7X7X7X9X7X7X3X3X3X3X3X3X3X9X9X9X3X3X3X3X3X3X3X2X4X1X1X1X1X1X2X3X3X3X4X3X3X3X3X7X7X7X9X9X9X9XpXpX9X9X9X9X3X3X1X.XOX_.>.N A C q l N q b q C U ` #.$.;.#.#.#.#.#.#.#.#.` #.#.I I I I I I I I I Y Y Y n Y M n n n n M M I I A I I A n n b b b 0 0 0 w 8 8 w w 4 4 w 3 o X       X o o o     X   o o     ",
"& 1 , & 5 & & ; J 6.4.=.^ f > % . . . . > d d .     # & ; . d H y & . % .   . . . . * r h h D f $ r D D { f > . . . . $ $ r f ~ ! f :       # 0 , 3 ; ; = ; 5 5 5 5 3 # # # & ; S ( ] ~ h r . % . . . . % f H H ( d       o # ; ; 5 . 6 % % =.4.=.D u $ . . . $ . . . $ * r f H ] ] ( ] ] ! ^ ] f       . s *.*.=.! f % .   . . . > H { ] [ S   X   + o o # & # . ; *.4XaXgXgXgXaXaXgX7Xc.;       o , , , , , , 1 1 , , , , 3 5 3 , , , , , , , , , , , , , # # # # # # , , , , , , , 3 3 3 , , 3 , , , , 3 3 3 ; & t ! ~ h f r ~ D u : ; ; ; ; o o o o o X X X X   X X o # # # & # # o o o o o o & ; ; ; ; & & & & & 6 S D ! Q ~ ! S t r $ ; # ; 5 1 5 y V B B B y q d r g % ; ; # & 6 s s y t u g ] ( u S J d ] ( P N q l N k l l k k k z l k k k k z k 0 0 0 8 0 8 4 5 8 q 8 5 9 q 7 7 y y y 7 7 6 : 6 6 : > & : t r y y : & ; 6 6 6 6 6 5 & 5 s S S J ! g t u d t & # o # # = # 5 & # 5 7 6 5 5 5 ; & & # # # + o + o # # # # o o o o o o o + X X o + X   o o o 5 U *.] ] J V S iX^ h.hXsXdXsXjXgXgX,.! o t ; ; # # - # # # 5 5 , o # 3 A A l # s S.B *.q.: 6 ( t ( F * $ * u G & + * u u B G H ( U N q 8   @ o o o o # O O   O O @ @ < , , < < < < , < < # < # # < < < < < < < < < @ < x x x x x L n 8 O O X o O   X o # + # # < , < @ @ @ O @ # # 3 , , z N # @ w *X=.S t  .G.R } D.f r u r r ~ D r > f : & o % * |.<Xj u > r h f ; & % : [ ^ %   o ; h ' h $ t e 3.^ f * % $ : > % % > . . #       ( =.    X . ;           X 6 G *.). X.X:X0X7X5X9X9X5X5X9X9X5Xx.H.3X5X5X0X0X0X0X0X>X>X>X1X3X3X1X+X.X.X.X1X1X+X+X:X1X:X1X+X:X1X3X3X3X3X3X3X9X7X3X1X1X1X1X1X1X1X3X3X1X1X1X1X3X3X3X3X2X1X1X1X1X1X1X3X4X3X3X3X3X3X3X3X7X7X9X9X9X9X9XpXpX9X9X9X7X3X3X1X.X X Xy.V q b 0 q l l q q l b Y I -.;.#.#.#.#.#.#.#.#.#.#.#.#.#.` I ` I I I I I I Y n M M M M n n n n n n n Y Y n A n n n b 0 0 8 8 4 w w 8 4 4 w w 3 + X       X X X                 ",
"1 1 , 1 5 1 # & % % % % . . o   @   & o . # # X X X # & % 6 ; ; o o . & ; ; : 6 5 t 6 t : t > r 6 : ; u t o ;   O + & # & & % o . % . X X X ; # 3 3 ; ; = ; 5 5 5 # , 5 5 ; ; & % > % . $ . o . o + @ + . % . o . o .   o o 5 # # 5 5 & ; % > > % o . X + + + #   # # & . . o # . . o     X .         o   o % % % . .   @ O @ # 1 o . % $ % . o   o # & ; 5 # 5 , # ; % f [ ,.,.,.[ D >         X # , , < , , 1 1 1 , , , , , 3 3 , , , , , , , , , , , , # # # , # # # # , , 1 , , 3 3 3 , , , , , , , , 3 3 3 ; ; S ( ! h r h ,.) u > 6 w ; # o o o o o X X X o o o # # # + + + + o + o o o o o & ; ; ; ; ; ; & & % % g ! ! D D D S : . % # @ 6 5 & 6 y B s d d s N ; > $ & # # # & 5 7 y y s t t f t t d J J J V B B N l z k l l 0 0 0 0 0 0 0 0 k z z 0 8 8 0 0 8 8 8 8 8 w w 9 6 7 B H S 7 6 7 6 : : 6 ; & & & 6 t B 7 % & & & & & & ; 6 6 & t S G g u r > : d 7 # & # , # # # 5 5 # ; w 6 5 5 & & & & # o o o X o X # # # # # # # # # o o o X X o + X   o o X ; H ] ( H s 7 > 3.A.sXsXsXtXf.3.i x.4.. & ; 5 ; & # # # # # # o # O     4 3 w =   s U q.q.1.6 & H y + y ( G 2 c 7 $ c u g S B F F Y q # # 5 o o # # # # @ O O O O O @ < , , < < < < < , , , , # @ < < < < < < < < < < < x x x x x L C k @     o , # X   X o # # # < < @ @ @ # # 8 @ @ 3 O , 5   A CXLXLX1.r _ L.E j ' r > t : % g r r * u % o & % e K.;XE r * * ^ u % & & u ^ u % - w ; ^ R r $ r z.x.r * % r D G r > o o ; . X + X   V ( . o X   o X     + w J =.5.e.D.|.+X:X0X7X5XaXaX5X5X5X5XpX:X[.5X3X5X0X0X0X0X0X0X>X>X1X1X1X1X1X1X1X+X1X1X1X:X1X1X1X3X3X1X1X3X5X3X3X3X7X9X9X7X3X3X3X3X3X1X1X1X+X+X+X1X3X3X3X3X2X2X1X1X1X1X1X1X2X3X3X3X4X3X3X3X3X7X9X9X9X9X9XpXpXpX9X9X7X9X3X4X1X+X).)._.( w C C c 8 l q q q q l b b I #.#.$.#.#.#.#.` I ` I I I ` ` ` ` I I I I Y Y A M I I I A A A M n I n n b b n b b b b k k 0 8 4 4 0 4 3 3 w w 3 # o X                           ",
"; # # 3 5 5 , , ; & & 5 5 1 , , 1 1 1 1 , , 1 1 5 5 3 3 , # & ; 5 5 6 y V Z V B d B F S d B V F J U U Z N q w ; & 5 6 6 6 5 ; ; 5 5 5 5 5 5 ; = ; ; ; ; ; ; ; ; ; ; ; ; ; ; & & % % & & & & & o # # # ; ; ; ; ; # # # 5 5 # # 3 = = # # # # # 1 1 5 ; & # # # & & & 1 1 1 1 5 1 1 , # # , 1 1 1 # # # # # # # # # # ; ; ; ; & & 5 5 ; ; # # # X ; ; # # # , , , @ 5 ; & % 7 H 7 & o . X X X + # 5 1 , , # # # # , , , , , , , , , , , , , 3 , , 5 , , , , , # # # # # # , , , , , , , , , , , 3 3 , 5 1 1 , , 5 5 5 G H S g f [ *.] D t 6 5 5 5 5 & # # # & & ; # # o # # # # # & # # # o o # & & & & & ; 5 6 6 6 & : & t d d u y d y ; o o # & w 5 ; & 5 7 y y t 7 7 5 # # & o , # , 8 w w 7 y d t : : : t 6 : & 7 y q l b l l b n b k 0 0 0 8 8 8 8 8 8 8 8 8 8 8 4 4 8 w 5 : & t g D D d t 6 6 6 w w 5 w 5 # & & & 5 5 5 % # & & & 5 ; ; 6 ; & ; t y y : % % ; y 6 5 # & # # # # , # o # 5 ; 6 6 & & # # o o o o # # # o o o o X X # # # + o o X X + + o X o   o 6 S H ( S f h ,.:X<X;XsXK.<.f . % S.JX] > .     X o o @ @ o     O O X O O O X X 5   J y.d _.).: % S 6 y *.:.+.2 6 y t % : u B F Z q A 5 o 5 3 # # # # o X       O O @ < < < < < < 4 8 , < , < < < < < < < @ , , , , < < < x x x x z z n 8 O ,   # q 5     # @ # # # @ O # < @ , @ @ 3 , =   7 U 5.DXHXJXuXf T k.j./ R r r 6 o $ u h u r % o o . : R hXT.} ^ h r [ . . # & t r : & ; % g S > % r ,.A.R r r * <.5.g 2 &   o 5 X #   . . ; ]   .   X # X X & H 1.c.z.z.z.D.|..X:X0X5X5X9XpX9X5X7X5X5X5X5X5X3X3X5X0X3X0X0X1X1X4X:X1X1X1X1X3X1X:X1X3X3X3X4X4X:X+X1X3X3X3X3X3X3X3X3X7X9X9X9X9X9X7X3X2X3X3X1X1X1X1X3X3X3X3X3X3X1X1X2X3X3X3X2X1X1X3X3X3X3X3X3X7X9X9X9X9X9X9XpXpXpX9X9X9X3X1X1X.X{.).).q.y q N N N 9 0 q l l l k l l C K U -.-.#.#.#.#.I I I I I I I ` I Y Y I I I I I Y I I I I M A A M n n b b b b k b b k 0 0 8 w w w 4 3 3 3 = 5 # # o       X       X       X o ",
"; # # 5 5 5 1 , & & & # # # = # , , , , 5 5 5 5 5 3 3 , , # ; ; 6 7 y d B B B B B S S S S S S d J F V y 6 5 ; ; # 3 5 5 5 ; ; ; ; ; ; ; ; ; ; # ; ; ; ; ; ; ; ; 5 5 5 ; ; ; ; ; & & & & # ; ; ; # # # # # & # # # # 3 5 3 # = 5 = = = 3 3 # # 5 , , 1 # # # # # # # # # # # = = # # # # 5 5 # # # # # , , , , 3 = = = = = , , , # , , # # 5 5 # ; = # # , , 3 3 # # 5 ; u S s s y y w 5 5 5 5 w , , , , # # # # , , , , , , , , , , , , 3 3 , , 5 5 , , , , # # # # # # , , , , , , # # , 3 3 3 3 , 5 1 , , , 3 , & ; 6 > > h [ [ ~ D f t 7 7 7 6 6 6 6 6 5 ; - ; # # # # # # & & # # # # # & ; & & & & & 1 & & 5 & & & 6 u u 6 t t 7 ; o & ; 5 5 5 ; & 6 q y 7 6 w w 5 # # # o # o # 5 5 5 7 y d : ; : u 6 : : : 7 q l N N b N k l l l l 0 0 0 0 0 k k 0 0 8 8 8 k 0 8 w 0 7 y d g D D g t 6 6 6 6 5 5 5 5 5 ; # # # ; 5 5 ; & & ; 5 6 5 5 ; ; # & 6 t 7 : & & ; y y q & # # , , , , , # & ; 6 7 6 & # # # o o # # # # # # o X X X X X # # + o o X o + + X X o # X 5 V H S g S [ D.|.}.G.g.f.R $ % & ; *.: % . # o X X X X O O     O O X O O O X 5 X   & U ] *.e.w.y 6 : 2 2 P >.P 6 t H =.y 2 % 2 6 9 q w # , 3 # o o # o X       O O O < < < < < < 4 8 < , , , < < < < , , < < < < , < < 4 x x m m z z n k 5 , O O 5 1 + X O @ # # # O O O @ @ @ 3 , @ , = # > ,.D.oXHXLXbX~ E k.L.' E j u & & & f ^ * > % % . 5 . R yXK.R h g j D $ & o & S r * . % r ] d > $ h 3./ j * r Q H.[ r + o   # @ X X . > % o U ;       5 o y =.e.c.z.5.z.x.D.{..X:X4X5X5X9XpX9X5X9XaX9X5X5X5X7X7X3X0X0X0X0X0X0X0X4X1X1X1X3X3X3X3X3X3X3X3X3X3X3X3X3X3X3X3X3X3X3X3X1X3X3X3X7X7X9X9X3X3X3X7X3X3X3X3X3X3X3X3X3X3X3X1X3X3X3X3X1X1X1X3X3X3X3X3X7X7X9X9X9XpXpXpXpXpXpX9X9X9X3X3X1X+X{.).)._.:.0 N C k c q q k l k k l l l l b C K I #.#.#.$.$.#.I Y I I I M Y Y Y Y I #.I X.` I I I I I I Y A A n b b b b k 0 0 0 8 0 0 w w 4 3 3 3 = = 3 = o X X X X     o o X     X o ",
"# # 5 5 5 5 & # # # # # # # # o - - = = = = = = ; ; 3 3 # & ; 6 t y d d d g S g g g h h h S g g S d 7 ; ; ; ; ; , , 3 5 5 5 5 5 ; ; ; # # ; ; & ; ; ; ; ; & & ; 5 5 ; ; ; ; & & 5 1 , # , , 3 3 # , , # , , , 3 # = ; ; = = = 5 3 = = = = = = = , , , # , , , 3 3 3 = = = = 3 = # # # - - - # # # # # # , , 3 3 3 3 3 3 3 3 3 3 , , , , , 1 , , ; # , , , 3 3 5 ; - o : ] S t : q q w # # # # # , , # # # # # # , , , , , , , , , , , , , , , , 5 5 , , , , , , , , # # , , # , , , , , , , 3 3 3 3 , , , , , , , 5 & & % > ! [ ~ Q h f y y y y 7 7 y y 6 ; & # # # # # # # # # # # # # # # ; ; & & & & & & & & 6 2 : : 6 y t 6 6 6 7 ; ; 5 5 w 5 ; & & 6 6 6 ; ; w w & o % % # # o # 5 1 5 6 6 d 6 : t B 6 & 6 ; 5 w N A A N C b l 0 l l k 0 0 0 0 k k k k z k 0 k 0 0 q q y d g g f y t : : 6 6 7 6 5 & # # # # # # # 5 5 5 5 5 5 5 w ; 5 & # o o & 6 7 6 6 6 ; 7 s s 6 # # 3 # # # # o X o ; 7 6 & % # o o o # # # # # # X o o o o X X + o o o o + + X X X + # o 6 s S u d S { z.x.x.<./ [ r % 6 # ,   &   ; # o X X O O X         O X X O O X     # # . y y d (.cXH % y c + ( ~.( y y y.G . % & 5 N 8 w w 5 , # # X o o @       O O O @ < < < 4 < < < < , < , , < < < < , , < < < < < < < < < x x x k 4 , , O     + # # # @ O O @ @ # # @ @ X # < < 4 @ # 7 r | ,.} @XJXJX6.E j.C. .i ^ g t . . > D > r % . o . . r 5XG.i [ [ f u > . & ; ; : % % % *.,.r * $ ' R ^ r r [ g.} r $ o o   # #   o 6 S y % s ;   # O 0 S =.S.F.F.5.<.z.x.D.}.oX:X4X5X5X9XpXpXpXpXpX9X5X5X5X5X5X7X5X3X5X0X4X1X0X0X1X1X3X3X3X3X3X7X9X7X7X3X3X3X3X3X3X7X7X7X7X3X1X1X3X3X7X7X7X9X9X9X9X9X9X3X3X3X3X3X3X3X3X3X3X3X3X3X3X3X2X1X1X2X3X3X3X3X3X7X9X9X9X9XpXpXpXpXpXpX9X9X9X4X1X1X+X[.).(._.).U N C c q q k l l l l q q q q k l z C A A K U #.` I I Y I Y M M Y Y n n M Y I Y I I I I I I I I Y Y A n b b b 0 p b p 0 0 w w 4 3 3 3 # # = = # @ X X X X     X X X X X o ",
"# 3 5 5 & & & & - = # # # # # o - - - ; ; - - - ; - # ; ; & ; : y u y d g S g g h S S S S S S g d t : ; ; ; ; ; 5 5 5 5 5 5 5 5 ; ; ; & # ; ; ; ; ; ; ; ; ; ; ; ; ; ; ; ; ; & & # & & # # # # # 5 & # , , 1 1 5 ; ; ; ; ; ; ; 5 1 5 5 5 ; = = = = = = = 3 3 3 5 5 5 5 3 3 = = = = = # # # # # # # # # # # # # # 5 3 3 3 , , , , 5 5 5 1 , , , , # , , 3 , , , # X 7 : ( ! u r u y 7 w 5 , , , , # # # # # # # # , , , , , , , , , , , 5 3 3 , , 5 , , , , , , , , , , , , , # # , , , , , , 3 3 3 3 , , , , , , , 5 & & > t ! ! Q h g u t t t t 7 7 y 7 6 ; # # # o o o o o o # # # 1 # # & # # & & & # # & & & 2 2 & : : d t 6 7 6 7 6 w w 5 6 6 5 ; ; 5 6 5 ; 7 s q ; 5 7 6 6 ; # & 1 & 1 & & y y B y B : & 6 ; ; w N Y A C A A N l l 0 0 0 0 0 0 0 k k l l l k k k l q w t d g u t 7 q 7 6 6 6 6 6 6 # # o X o o # , , 1 1 5 5 w 5 q # 5 # # X o # 5 6 w w q w 5 q s 6 & # , # , # # , # o 6 6 6 6 % o . o & # & & # # # X X X o o o o + o o o + o + + X o + & # & & : : y d ! =.5.5.i e u u q 1 4 8 8 # o o # o O O o O X   O O O O X O O + X   X X       ; S U e.1.y 9 c P 1 u.lX~.F . . %   & 1 9 N 5 # w # # # o o o X X   O O O @ @ < < < k 8 < < < , < < < < < < < < < < , , , < < < < < < < 4 4 < < < < < @   X       O O @ o # , # # @ O @ < k # % * } } E R J.DXDX^ R  .P.k.} i * t ; o . > r t % . ; ;   * g.<.Q e.r D u % o   6 d % : . r ~ h j e / R R h $ e ' / * . % .   # o . & & & ; . . w w 5 0 o s 1.D.D.z.z.5.3.z.x.H.|.oX:X5X5X5X9XpXpXpXpXpXpX5X5X5X3X5X5X5X5X5X3X0X3X0X0X3X1X3X3X4X3X5X9X9X7X7X3X3X5X7X9X9X9X9X9X9X9X3X3X3X9X9X9XpXMXMXvXpX9X9X3X3X3X3X3X3X3X3X3X3X3X3X3X3X3X3X2X1X2X3X3X3X3X9X9X9X9X9X9X9XpX9XpXpX9X9X7X7X4X1X1X+X{.[.).S._.:.q N C l q q q l q q q q q q q q q l b N Y I Y Y I I I I I I Y Y A b b M I I Y I I I Y Y Y I I Y Y Y A b p b b p b b b 8 w 8 w 4 3 3 # # # # # @ X X X X     X X X X X X ",
", 5 5 1 & # & & - - - # # # # # # ; ; ; ; ; ; & ; & - - ; & ; ; 7 7 7 t y d d u d f d g S S u 6 6 6 1 1 5 # # & & & & & & & & ; & & & & & & & ; & ; ; ; ; ; ; ; ; ; ; ; 5 ; 5 5 & & ; & & & ; # ; ; & # # & 5 5 & & & & & & 5 5 5 5 5 5 5 5 ; ; ; ; ; ; ; ; 5 1 ; 5 5 1 5 & 1 1 1 1 , , , 1 1 1 # # & # # # # # & ; ; ; ; 1 1 1 # 5 5 5 = 5 5 # , , , 3 , # # # % & ( *.u u y y 7 6 & # # # , , # # # # # , , , , , , , , , , , , , 3 5 5 5 , , , , , , , , , , , , , , # # # # , , 1 , , , , , 3 3 , , , , , , , 1 # & : S ! D h g u t t t t t 7 7 y 7 6 ; ; 5 5 # o + # # # o # # & # # # o + & & & # # & & & & 2 & : : d y 6 7 6 7 w w 7 6 7 6 ; # # & ; ; ; ; w 5 # ; 6 ; ; ; # & ; 5 6 6 5 : y d 7 d t y y 7 6 w q b b N K A A N l 0 0 0 0 0 0 0 k k k l z k l k l q w 7 y u t 9 0 q q 8 5 & 6 6 5 & # # o + + # 1 1 1 1 5 5 9 w q # & o # o o # 5 5 5 5 5 5 ; 7 y 7 & # # # , # # 5 # & 6 6 ; & # + o # & # & 1 # o X o o X o o o o o o X o + o + o o o + # # o     % 6 t J ( ,.2.u > : 1 6 3 4 < 8 # ; o # # # o o o O O O X X O @ @ @ # # o X X     X # t U J :.u._.y 9 Z . +.cXJ ; # . + o # # 8 l N w # # = # X X X X X O O O @ @ @ < < k 8 < < < < , < < < < < < < < < , , , < < < 4 x 4 x x z k 4 4 < , @ X         o o # # , , # # o O < < @ # % r <.E } R ' gXjXyXK.' P.Z.a.R ~ u : & o o r r > & # X o t ^ R |.( > u g . o ; t > ; ; * ~ ) R i ,.3.j j r * { ' r 6 . o & o % : $ o & ; & # 5 w w l 0 & ( S.{.A.D.z.f.z.A.x.H.|.oX:X4X3X5X9X9XpXpXpXpXpX9X5X3X3X5X9X7X5X5X3X0X0X0X4X0X3X3X3X3X3X3X5X5X7X9X9X9X9X9XpXpXpX9X9XpXpXpX9X9X9X9X9XpXMXMXpXpX9X9X9X9X9X9X3X3X3X3X3X3X3X3X3X3X3X3X3X3X3X3X3X7X9X9X9X9X9X9X9X9X9X9XpXpX9X9X7X7X4X1X:X.X{.[. XD.).e.s N N C q q q q l l l q l 0 0 0 q 0 q N A Z A n Y I I ` #.I Y I #.U A b Y U I ` I ` I Y Y Y Y A N A N b b b b 0 0 b b 0 w w w 8 3 3 # , 3 3 , # X   X X           X X X ",
"5 5 5 5 & & & & o o o # # # # # # & & & & & & & & # # - - # & ; 5 6 6 6 6 6 t t t 6 t t y t 6 & 5 1 1 1 1 1 # 1 & & & & & & & ; ; & & ; ; ; ; ; ; ; ; ; ; ; ; ; ; ; ; ; ; 5 ; ; ; ; ; & & & & & & & & & & & & & & & & & & & 5 5 5 5 5 5 ; ; ; ; ; ; ; & ; ; & & # # # & & 1 1 1 , 1 1 1 1 1 1 , # # ; # & ; & & & & & ; ; & & & # # ; # # # # # # , , , # # & & : u *.G u u y 7 y 6 ; ; 1 1 1 1 # # # # , , , , , , , , , , 3 3 , 3 5 5 3 , , , , , , , , , , , , , , 5 1 5 # # , 1 1 , , , , , 5 , , , , , , , , 1 5 ; 6 J D h f f u t t t t t 7 t y y 7 5 5 5 5 # o # 1 1 # # # # # o + # # # # & 1 & & & & % & & & & 6 y t 6 6 6 7 7 7 7 7 y 7 : & # # # # # ; 5 5 ; 6 7 6 ; ; ; ; 5 6 7 7 5 6 6 6 : u y s s 6 5 5 w w w l A C A A b l l k 0 k k k k k k k k l k 0 l q 0 6 t 7 w 0 0 w 5 5 5 6 6 6 5 # # # o # # # 1 1 1 1 5 5 8 8 0 o o o o X o # # # # # # # # 7 y y & # # # # # # # # % ; 6 & # o # & & & # & # o o o o o   X o o o o X X X + + + X X o o + O   X   o # ; d H *.[ g > % 5 w 8 3 8 , # X 5 # # # O O O o # + O O o @ @ @ # @ # O # #   X   o 5 U ( 9 (.(.B & F 5 Z &.u.( & X   o o , Y U w # # # # X X X O   O O O O @ @ < < 8 4 < @ < < < < < < < < < < < < < < < < < < 4 m x m m m z k k 8 < O X X     O @ O @ o < < < # @ # # < X & % [ / ' } <.R <XjXdX..E R.T.a.T R r ; # # ; % > : o # # . r j i D & % d d . ; ; f > & . * 3./ R i }.3.j r e j ' j u % % . . r r u $ & 5 w 5 w q q c q w y w.{.J.H.A.x.z.x.H.v.H.|..X:X1X3X5X9X9X9XpXpXpXpX9X9X9X9X9X5X7X5X5X5X5X3X5X4X0X3X3X3X4X3X4X7X7X7X9X9X9X7X5X9XpXpX9X9XpXpXpXpXpXpX9X9X9X9X9X9X9X9X9X9X9X9X9X9X3X3X3X3X3X7X7X3X3X3X3X3X3X3X3X3X7X9X9X9X7X9X9X9X9X9X9X9X9X9X9X7X7X4X4X1X+X|.[.[.{.).e.V q N N q q q q q l l l l 0 l b b w 5 8 w b N b A A Y I A A n A A b b A n Y Y ` #.#.` U I Y A b b b b b b b p b b b p b w 0 k 8 3 3 , , w 3 3 3 o X X X           X X X ",
"5 5 1 & & & & & o o # # # # # # # # # # # # & & # # # # # # & & & 5 6 6 6 6 6 t t 7 6 7 w 6 6 6 5 ; 1 & & & & & & ; ; ; & & & ; ; & ; 5 5 5 ; ; ; ; ; ; ; ; : 6 : ; ; 5 ; 5 ; ; ; ; ; # & & ; & & & & # # # # # # & & # = ; ; & & 1 1 # # ; # # ; # # # # # # # # # # # # , , , # # # , , , , # # # 3 # # = 5 # & & & & & # # # = ; # # # # # # # , # # # & & & : ] H u t y 7 y q 6 ; # # # , , # , # # , , , , , , , , 1 5 3 3 , , 3 3 5 3 , , , , , , , , 3 3 , , , 5 3 3 3 , , , 1 , 3 3 , , 1 , , , , 1 , , , , 5 ; t S g u f u t t t t t t 7 t y y 7 5 5 5 5 # o # 1 1 , # o o o # # # , 5 , 5 5 1 ; ; ; & # o & & t u t 6 t 7 y 7 7 t t t y t 6 5 5 ; ; ; & ; 5 5 5 6 6 ; 5 ; 5 6 6 q 7 ; y y y 6 6 6 7 6 ; 5 w w w q q l N A A N l 0 8 8 0 0 0 0 0 0 q q q k l q q 0 w 7 6 w q q w 5 5 5 6 5 5 ; # & ; # # # # , 3 3 5 5 5 5 8 8 # # # # # # # , 5 5 5 , # # 6 y d 6 ; , , , # # # & & ; ; & # # & & & # # & # + o o o o   X o o X X X X     X       X   o O   X o o # ; : & t : > : ; q 5 5 8 # & # = 3 # # # # o o o + o O + # # @ @ @ w w 5   O X         + & 5 y cXcX=.X 0 # U *XPX'.V X     b Z q w 5 # X o o o O O   O O O @ @ @ < < < < < # < # < < < < < < , < < k 4 4 < < < 4 k 4 k x x k z z k k < O o X X     X X O @ @ @ @ @ # , O O # ; f 2.<.|.f.R R ' k.T.B.i _ C.M.a./ e s s w # . * : ; ; o 6 r j / * % > S f o ; u u r : % $ R } i ' f.' j e / | h r . & . r 3.w.G : ; 8 w 0 q q q q l q 7 ( D.{.H.J.A.H.x.x.H.D.H.}.:X:X1X3X5X9X9X9XpX9XpXpX9X9X9X9X9X5X7X3X5X3X3X5X5X0X3X3X3X3X4X3X3X7X7X7X7X9X9X7X3X9X9X9X9X9X9XpXpXpXpXpXpXMXpXpX9X9X9X9XpX9X9X9X9X9X9X7X3X3X7X7X7X3X3X3X1X1X3X3X3X3X7X7X7X7X7X9XpXpXpXpXpXpX9X9X7X7X3X3X1X1X+X|.[.{. X Xe.H w C N l l q q p N z l l l l l l l q 0 8 k N C A A b b b A Y A Y n p n Y Y I ` #.` U U Y Y A b p p p p b p b A A b p b 0 q l 0 4 3 3 3 3 3 3 3 # X               X X X ",
"5 5 & & & # # # 1 & , , , # o o # # # # # # # # # # # # # # o & & & & ; 6 7 7 7 6 7 7 7 7 7 5 5 5 ; ; & ; ; & & # - ; ; - # # ; & & & & 5 & & ; : 6 6 6 6 ; 6 6 6 6 6 6 6 5 5 5 = ; ; = = ; # # 5 5 5 # # # # # # = = # = = = = # = 3 = = = = # 3 , , = 3 3 = = = = = = = , , , = # # # # # = = , , , , , , , , 3 , # # # # , , # # # # , 1 1 , # # # # # & & : H *.g u y t q 0 0 6 5 # # , , # # , # # , , , , , , , 1 1 3 3 3 , , 3 3 3 3 , , , , , , , , 3 5 # , , 5 3 3 3 , , , 5 3 3 3 # # , , # # , 1 , , , 5 5 ; d g g f f u t t t t t t t t t 7 6 5 5 w # o o # , # # # + + # & 5 1 1 5 5 5 # # # ; 5 5 5 # 6 6 d d d u d s d y 6 t t t 6 : ; ; ; # # # 5 ; 5 5 & & 6 6 5 5 ; 6 7 y 7 ; 7 s s t 6 y y 6 7 y q 0 q b N A q q q q 0 8 5 8 8 8 8 8 0 q q k 0 l l q q 0 6 w 7 6 6 6 6 : & % ; & ; ; 5 5 w 5 5 3 # # 3 3 3 3 5 5 8 8 8 w w 5 5 5 , 3 5 5 5 , 5 & ; t B y 5 & 5 , , , # & ; & & & & & # # # & & & # o . o o .   X o o X X                         # # 5 = o o & & & : % % ; # # w 5 w ; ; w 3 # # # # # # o X # + + # # @ @ @ A 0 w , O O X X       #   o   u.y.:.U Z 5 o (.LX$Xq X + w w N 5 w - X o o o O @ X O O O O < < < < < < < , , < @ < < , < < < < < 4 4 < < , < 4 4 4 x x < < k k < < O O o   X X   O O O @ @ @ @ @ , # # X . & =.[ / j j i R T a.T.P.R T R.R.a. .e : A 0 # % * : 7 # # . > |.g.% % > H > % % f h r % * ] x.E R  .E i $ <.d.} r . o $ * ) {.5.t w q l q l q b b l l 6 6 ,.{.|.J.H.J.oXH.A.H.A.J.}.:X:X4X3X5X9X9X9XpXpXpXpX9X9X9X9X5X9X9X5X5X0X0X3X3X5X3X3X3X3X3X3X5X3X3X3X9X9XpXpX9X9X9XpXpXpXpXpXpXpXpXpXpX9X9X9X9X9X9XpXpX9X9X9X9X9X9X7X3X3X3X3X7X3X3X1X1X1X1X3X3X7X7X7X7X7X9XpXpXpXpXpXpXpX9X9X5X9X3X3X3X2X%X X[.{. XOXc.=.q l N z l q q p b b l b l l l l z q 5 9 8 q l b C C b b A N b b p p n n n I I ` #.I I I Y Y Y V b b p n b b b b b b b q b k 0 4 4 3 3 3 , , # # @               X X X ",
"; & & # # & # # 1 1 # # # # = = - - # # # # # # # # # # o # & ; & ; 6 7 7 t t y t 7 t 7 7 7 w w 5 5 ; - - ; ; ; > & # 5 3 # w 3 1 ; ; & 5 6 6 7 5 ; 5 y 6 y 6 > r r t t w w 8 1 5 ; ; & - ; - - = ; # # # 5 # # , , , # # ; ; ; % & ; ; ; o = 3 1 1 5 5 ; # # 5 # # & 1 3 , # # # # # # # 5 , , # # # - # # # # = ; ; ; # # , , , , , , # # , , 3 # , 3 # & % h [ D d u t t 6 7 6 5 ; # # # # # , , , , # # # # , , , 5 5 3 3 3 , , , , , , , # , , , , , , 3 3 , , , 1 1 , , , 1 1 , , 1 1 , # , , , , , , 5 5 , 1 # 7 s g ~ g ~ D u t t t y y t t y y 6 : 6 d # o # # , , , , , # # # & 5 5 5 , 5 5 5 5 5 5 5 5 1 ; 5 7 t 7 7 y s s y y s y y q 9 q y q q 0 0 0 5 5 6 0 q 6 6 5 5 ; 5 6 5 ; o = s G t t V d r t d B q 8 b C C l n b k l q 8 w 8 8 8 8 8 8 0 q w 0 6 0 6 w 5 w ; 7 7 7 ; ; ; ; # # # ; ; ; 5 5 w 3 3 3 3 3 8 8 5 5 8 w 0 w w 7 7 w w 1 1 8 5 , , 8 6 5 y c 6 ; 5 # , 3 # w & ; & & % # & & % & o o # # o + O O o o X X           X X               # w q X X o % 2 + & o o o # - o - ; = # 5 w # , 3 5 5 # O O O # # # # @ @ , 0 b O 3 @   O     O   o q w 5 0 y.*X&.@ 8 N w :.CX*X(.*.6 ; & 6 5 ; X X @ o + + O X     O O O @ < < < < < < < < < 4 4 4 < < < < < 4 < < < 4 4 4 x x x 4 < < < < < < < < O       X X + o O O O # @ # # + % u ,./ E R ^ 2.T T ..rXT.T i a.a.a. .E e r q # o % % 6 o # o r G.h.j % r h r r > d t r > *.z.' e x.G.j r i L.j.h 6 . $ f g g S y q q N q q q q l p p p 5 d z.+X}.}.J.z.D.A.D.H.H.H.}.:X:X4X3X5X5X9X9XpXpXpXpX9X9X9X9X9X3X3X3X7X3X0X3X5X5X3X3X5X3X3X3X3X3X9X9X9X9XpXpXpXpXpXpXpXpXpXpXpXfX9X9X9XpXpXpX9X9X9X9X9X9X9X9X9X7X7X3X3X7X7X7X3X8X3X3X1X1X3X3X2X8X7X3X3X9X9XpXpXpXpXpXpX9X9X7X7X9X7X3X3X1X+X.X{.{.{.+XD.c.y q z b l q q q p b b l l l q q N l w w w 9 0 q q N N b b 0 k b b b b n b Y Y U ` U I I Y Y I Y N N p b b b b b n A b p b q q w w 8 3 , 3 3 3 5 # X   X X         X X ",
"; # # # & & # # # # # # # # # # # # # # # # # # # # & # # & ; 5 ; 6 7 7 7 7 7 t 6 6 6 7 7 w 7 7 5 ; ; & ; ; ; ; & & & ; 5 5 5 ; & 5 ; ; 6 6 : : y t : 6 y : > t g h h g t ; & 6 5 5 & ; ; ; 3 # ; ; # 3 # 5 5 # 1 , , # # ; ; 5 ; ; 5 ; ; ; = 3 5 5 5 5 = # # # ; ; & # # , , , # # # 5 5 5 1 , # = = = # # # # # # # # # # # # ; 5 # # # # # # 3 @ 3 # o ; > ~ ) D y y t t 7 q 6 w 5 # # # , , , , , , , , , , , , , , , , 3 , , , , , , , , # , , , , , , , , , , 1 1 1 , 3 3 1 , , , , 1 , , # , , , , , 3 5 , , # ; : g Q h g D S g f u y B t y t 7 6 7 B d o X @ # , , # # , # # # ; 5 5 5 3 5 5 5 5 5 5 5 5 1 1 5 7 7 7 7 ; 6 6 : : 6 7 6 6 6 6 7 6 6 w w w w w q s y y y c y y B B B s s q y H t t s S D u 6 6 0 q q N A l N b b b b q 0 3 3 8 8 8 8 8 w 5 w q w 5 6 w 5 w ; ; ; : 7 5 # # # # # ; ; ; ; 3 3 4 w 8 w 8 8 8 8 8 8 8 w w w w w w 5 5 8 w 5 w 0 6 5 y B 6 # & 5 w 5 , # & & ; ; & o # # o o o o # # # o o + o X o X X X o X X X X X         O # 3 0 w V *.f $ & 9 # . o # X ; # - = # = 5 w , 3 5 w 5 # o O , , # # # @ O O K X.0 # @ o O   @ +   # 5 N q # A P +.*XU , l # >.cXLX(.U y & o ; o X # # o o # O O     O O O O @ < < < < < , < < < < < < < 4 4 < 4 < < < < < 4 < < < < < 4 < O < < , < < , , +     X X O o o O O 3 , + & ) ,.} ' j g.R i T E T.tXj.e _ a.p.W ' j > Z b ; % : # # # 6 * A.x.r & r > > u : ! r r h +Xj i e ,XG.i e K.,X .r . % H u y 7 y q b z b l q q l l N p q 5 H D.+X}.J.H.g.f.x.H.J.H.J.|.oX:X4X3X5X9X9X9XpX9XpXpXpX9X9X9X9X9X9X9X7X5X5X5X5X5X3X3X3X3X3X3X9X9X9X9X9X9XpXpXpXpXfXfXfXpXpXpXpXfXpXpX9XpXpXpXpX9XpXpXpX9X9X9X9X9X9X9X9X9X8X7X7X8X3X3X3X3X3X3X3X7X7X7X8X9X9XpXpXpXpX9XpX9X9X9X9X9X9X7X2X1X%X.X X X|..X).c.F l z b b q q q b b b q q l l q l l 0 w w 9 8 0 q N C Y A b 8 4 4 0 b p b A Y U #.#.` Y Y Y I Y Y Y A p b b b b n A N b b b q 8 4 8 3 3 3 3 3 w # X   X X         X X ",
"# # # # # # # # % # # # # # # # # # # # # # # # # # & # # & 5 6 6 6 7 7 7 6 : 6 : ; ; ; ; 6 6 6 ; ; & # & ; & & & & ; ; ; 5 & & ; : ; ; 6 : : r r t S f u d g ] / / <.2.^ t 6 6 5 5 5 1 1 1 1 1 1 1 & & & 1 ; # , , 1 & # # & 1 # # 5 5 ; ; 3 3 5 5 5 # # # # # 5 5 # # , , , 3 w 5 # # 5 5 5 5 1 1 5 , , , , , # # # # # # # # # # = # # # # # , # 3 # & > g [ ! g y t t t y y 9 6 1 , # , 1 , , , , , 1 1 3 3 , 1 , , 1 , , , , , , , 3 , , , , , , , , , # # , , , , , , 3 3 , , , , , 1 5 , # # # , , , , , , , 1 ; & u ^ h g h [ *.~ g u r y B y y d S U d ; # # , 3 3 , , , , # 5 5 5 5 5 , 5 1 1 5 5 5 1 5 5 5 5 6 7 7 6 6 7 t 6 t y y y t 7 6 7 7 7 7 7 6 5 5 6 6 ; ; 6 6 6 6 6 7 9 7 6 d u ~ D u r H ! D G d 7 6 q y y c q l N b b z l 8 8 8 8 8 8 8 8 9 6 y 6 6 s V 7 6 5 7 6 ; 6 5 1 # & & ; ; 5 5 ; ; 5 w q q q q l l l k q 9 9 6 w 6 6 6 9 9 0 0 w N s 7 6 s V q ; # 5 , 3 5 w 5 ; : 6 6 & # o o # # # # # # # # # o o o o X o O X X X o X X X X O X #   8 U &XSXBX5.. % ; X X # , # # = ; 3 5 5 , @ # 3 3 # # # # @ # @ @ # < , , 4 P 0 @ @ #   O   X   # o w 5 # #   q.mXCXX.  o # X =.cXcX(.U s ; X X # @     O X X   O O O O O @ @ < < < < , , < < < < < 4 8 < < 4 < < < < < k k 4 k x z z z 8 < , 1 , , , @ O   X X     O # O , # , & u [ / E i r <.| / i T rXtXP.i i a.a. .E ^ > V p X o 5 , @ 5 . r <XG.r % r h * % u u e * i i R T L.,XR i L.qXf.r % d V 7 N q 9 l l b b z l l l l l N p q ; ]  X+XoX}.}.J.g.D.J.J.H.J.|.oX:X4X3X5X9X9XpXpXpXpXpXpXpXpX9X9X9X9X9X7X3X3X5X5X3X3X3X4X3X3X3X9X9X9X9X9X9XpXpXpXMXMXMXfXfXpXpXpXfXpX9X9X9X9X9X9X9XpXpXpX9X9X9X9X9X9X9X9X9X8X7X3X2X2X2X2X2X2X3X8X7X7X3X7X9X9XpXpX9X9X9X9X9X9X9X9X9X9X9X3X1X1X.X.X X{..X Xc.( q l b N l q p b N b q q b N l q l q w 8 0 0 8 q z C A A A b 0 0 k b p b A A U #.#.` ` I Y Y Y Y Y Y A A A Y A A A n n A N b 8 w w 3 3 3 , 3 8 5 @               X X ",
"# # # # & & & & & & # # # # # # # # # # # # # # # # # # & ; 5 7 5 5 6 7 6 ; ; ; : ; ; ; ; ; ; ; & & & & & & & # # # 5 ; 6 6 : 6 6 : ; ; ; : t u h / ,.[ f f ,.z./ } J.|.~ > s & 5 5 5 1 1 1 1 1 1 1 & # # & ; & 1 1 1 1 1 , 1 1 3 5 8 5 ; ; ; 3 5 5 5 # # 1 5 1 # # # , , , 3 5 5 ; # # # # , 5 5 5 5 5 , , , , , , 5 5 5 5 # # # # # ; # # # , # 5 5 # 6 : ) ) h u t t t t t q 7 6 5 # , 1 1 , , , 1 1 1 1 1 3 , , , , , , , 3 5 5 5 , 3 , , , , , , , , # # # , , , , , , , , , , , , , 3 , , # # = = , , , , , 1 5 5 : r =.) j h ^ ^ Q h t 6 2 6 : 6 t S J 6 5 5 # # # , , , , , 5 5 5 5 5 5 1 1 5 5 5 5 6 5 5 5 6 6 6 6 6 6 6 6 6 : 6 t t t t t t t t t t t 7 7 7 7 6 6 6 t 7 7 6 6 7 9 7 6 * u ) ) g r D u u S S t 7 V F d V y q l q l z z q k q q q k l l N V B 6 6 s V t q 6 7 7 q y 6 5 ; ; ; 5 5 5 5 5 6 6 6 6 6 w 8 0 q q 9 9 9 5 5 5 5 5 5 w 9 w 0 q V d 6 ; y s q 5 5 o o # # c # ; : 6 6 & # + + , # # # o X X o o # o X     X X X X X X X X O O O # @ 8 N bXHXSXhX5Xf.h % % o #   @ o # = 3 w w # # # # o o # 3 = # , # @ @ # < 3 3 4 0 w     X     O X 1 5 +   X   o , 1 y.PXnXq.5 s   ] y.S.( B 5 o X o                 O     @ @ @ < < @ < , < < < < < 4 4 4 < < < , < < < < k k k z z k 4 < O # # , 5 ,     O X o o O O O @ @ @ O 5 o ) ^ R R j g.' R / i R <XjXtXE i  .a.a. .R u 6 N 3 # o # = 5 . i h. .i t e g : . u r i j R  .k.j.tXR.T  .tXL.h > y F Z C b b N C b b N l q b b l l N l 0 6 =.@X+XoX}.}.}.}.{.J.J.J.J.|.:X:X>X0X5X9X9XpXpXpXpXpXpXpXpXpX9X9XpX9X5X7X5X5X3X3X3X3X4X4X1X3X3X9X9X9X9X9XpXpXpXpXpXfXfXfXfXfXpXpXpXpX9X9X9X9X9X9XpXpX9X9X9X9X9X9X9X9X9X8X7X3X3X2X2X2X1X2X3X3X8X3X3X7X9X9X9X9X9X9X9X9X9X9X9X9X9X9X9X9X3X2X1X+X.X X{.|..XS.&.q q N N l p p b l l l q N N l l l b w w 0 q 8 q l l b N C C b b 0 0 0 b b A ` ` &.` #.` I Y A A Y Y Y Y Y Y Y Y Y N A Y n q w 8 w 4 w 3 # 3 w w # X             X X ",
"# # # # # # # # # # # # # # # # # # # # # # # # # & ; ; ; ; 6 6 w w 5 7 6 5 ; ; ; 6 6 ; ; ; ; & & & & & ; ; ; 1 5 1 ; : > : > > 6 : > ; ; 6 t u R g.>Xg.h j h j R E / ) h t 6 6 ; ; ; ; ; 1 & 1 # & & # # # 1 # , 3 1 1 1 1 & & 5 5 5 1 ; ; 6 w ; 5 5 5 1 1 & & # # # # , , , , o ; 5 w 5 ; w 0 w 5 5 5 5 5 5 5 5 5 5 5 5 # # # # # 3 # 5 5 5 5 , 5 5 & : d *.Q g u t 7 6 t t 7 6 6 & & # # 5 5 , , , , 1 , , , # # # # # # = 3 5 5 5 3 3 3 3 4 , , , , , , = = , , , , , , , , 3 , , , , , , , # # = , , , , , 1 1 1 & : * ,.z./ R E ^ h t 6 6 6 2 : : t ! J d 5 6 w 5 , , 5 5 , , 5 5 5 8 8 1 1 5 8 5 5 5 6 6 5 5 6 6 6 6 6 7 6 7 7 t t y y y t t y y t t t t t t 7 7 6 : 6 t t 6 6 6 7 q 7 6 r R ,.,.Q h ! u h g t 6 y U ] &.J B q q 0 q z k k z z l l l c N N P B t : t 6 6 6 : 7 y y y 7 y s N B N A V V B d d s y q 9 0 l w w w w w w w w 6 6 6 7 q q q s B y 6 ; 7 y q w 5 o # & # & % : 6 ; o o 1 5 1 , , # # + o . X X # o + X X X     X X X X X O O O X @ l :.HXBXdXK.L.<XA.~ > ; + # # o o @ o 3 w 3 3 3 # @ @ # , # 3 3 @   # , < < b b w # o O   O O     # q 5 X   X o   X 5 $XPXPXu.Y ; & o S *.y & o   X   X o O   O         O @ # @ O @ # < < < < < < 4 < < < < < < < , < < < k k k z z n k @       O # #     # X # , 3 , O O @ O O & d z.R j j / <.R E / / j j Z.tX .i _ W  . .j j ; 0 5 @ # , # # % e d.G.j % ,.) $ : u r r <.x.d.d. .tXtX' j.g.h > A B B l k l b C N l N N q q b b l l N l w 7 4.%X4XoX}.H.H.4X|.J.J.}.}.|.:X:X4X3X5XpXpXpXpXpXpXpXpXpXpXpX9X9X9X9X9X9X9X9X5X3X3X3X3X3X1X1X3X3X9X9X9X9X9X9XpX9X9XfXfXMXMXpXpXvXpXpXpXpX9X9X9X9X9X9X9X9X9X9X9X9X9X9X9X7X3X3X3X3X2X2X2X3X3X7X8X7X7X9X9XpXpX9X9X9X9X9X9X9X9X9X9XpXpX9X3X2X2X%X.X|.{.{.+XD.( q y N b l p q q l l N l l N l l l l 8 9 8 8 q q l l N b N C C A A n b b p n Y A U I I U I Y Y Y Y A Y Y I I Y Y Y Y A Y n b b q 0 8 w w 3 , w w 3 #       X X X X X ",
"# # # # # # # # # # # # # # # # # o o # # # # # # - ; ; ; ; ; ; w w w 5 5 5 ; ; ; ; 5 5 ; ; ; ; & ; ; ; ; ; ; ; 5 5 ; > r u h u t 6 : 7 6 6 t t j / } E f u r r i j j j t t : & 5 ; ; ; ; ; & & # # # # # , , , # = 1 1 # & & & ; 5 1 & : r r > : ; ; 5 5 5 & & # 5 5 5 # # # # 5 5 & & ; 5 5 5 5 5 ; ; ; ; 5 5 5 5 5 , , # # # 5 5 5 5 5 3 # # 5 , ; : % ~ ) g f u t 7 6 t 6 6 6 ; & & # # 5 3 , 5 , , 1 1 # # , , 5 5 5 3 5 5 5 5 5 5 3 3 3 4 , 3 , , , , , , , , , , , , , , 3 3 , , , , , , , , 3 3 , , , , , 5 , # 1 % ^ D.J.h.' R h t 2 9 1 & : : u ! S d t y c 0 5 1 1 & , , 1 1 1 1 1 1 1 8 8 5 5 5 6 6 5 5 6 6 6 6 9 y 6 6 6 7 t y y y t y y y y y y y y y y y 7 6 6 6 t t 7 7 y y y 6 r Q f.<.) ' D r t t t t y V F F F B q q l l l l k z c c z z z N y F y d g d 6 6 & : s s 6 ; ; 7 & ; 5 5 5 5 5 6 6 6 6 6 5 5 5 8 5 5 5 w w 7 6 6 6 w w w w w w q 7 6 6 6 6 q q q 5 # 5 5 7 : F t & & & 6 y q 5 # , , # # o X X X + O O + o o X X X X X X X X O O X , O &.DXyXG.a.} L.h.^ > % & # o o o @ @ 3 w 3 3 , # @ @ # # # , , @ @ , , , , 8 0 0 # X # O O     +   # w N ;             q.CXLX*X).=.S & 6 t o   X X O O # O O O           O # O O @ < < < < < < < < < < 4 4 , < < , < < < 4 k 4 8 l c 8 #             O O       @ , # O O <   #   ] [ j j j 3.E i / H.3.j j / ;Xx. .' W W _ i r r 7 q 1 6   % & S e L.<XE r G u : 6 : r r Q ,./ i } K.A.| E u q b n Z y w q b b N l y N N q q b N b N N l q 6 5.4X4XoXoXH.A.5X+X{.J.{.}.oX:X:X4X5X5XpXpXpXpXpXpXpXpXpXpXpX9X9X9X9X9X9X9X9X9X9X9X9X9X7X3X3X3X9X9X9X9X9X9X9X9X9X9X9XfXfXpXpX9XpX9X9XpXpXpXpX9X9X9X9X9X9X9X9X9X9X9X7X7X7X3X3X3X3X2X2X2X3X3X3X7X9X9X9XpXpXpX9X9X9X9X9X9X9X9XpXpXpXpX7X3X3X3X1X+X|.|.|.%X).( q c b b b p b q l l N q q l q q q q q 0 w w 0 l l l q l l l l b b C A C l b n p Y Y I I I Y Y Y I Y A I ` #.U Y Y A A Y n b b b 0 0 w 0 w 3 w w 5 =       X X X X X ",
"# # # # # # # # # # # o o o o o # # # # # # = = # # # # # - ; ; 5 5 5 5 ; ; ; ; ; ; ; 1 1 1 ; ; ; ; # # # # = = = 5 > t h ) ,.( y 6 6 w 6 6 t t r j j i t f : t > u r r t 7 6 0 5 ; ; ; ; = # # = = 3 # # , , , = = = # # # ; ; ; 5 6 6 t u f f f t : 6 5 5 ; 5 ; ; ; ; & & & 5 N s 6 5 w y q 5 ; 5 5 ; 5 3 = , # # , , , , , , 5 5 , 5 5 5 , , 5 # 5 : u [ H g d u 7 7 6 t 7 w 6 5 1 # # , , 5 , , 5 5 5 3 , , 3 3 4 w 5 5 5 5 3 3 3 3 3 , , 3 3 3 3 3 , , , , , , 3 , 3 3 , , , 3 , , , , 3 3 1 1 5 5 3 , , , # 5 , , 5 % r | x.L.h.} h u y 6 5 ; 6 r D ~ D u y B B 9 1 , , # , , , 1 1 1 1 1 8 8 8 5 5 5 6 5 5 6 6 6 5 6 q q 6 6 6 7 7 y y y 7 7 y t t t y y 6 t 7 7 7 7 7 6 7 t 6 7 q y y 6 h } s./ R ~ D B : y s w 9 s B B B N N l N N b N l b N N N c N N y B t S H S d d y 6 q q 0 ; o o ; ; 5 5 5 5 ; 6 6 : ; 5 5 5 8 8 3 = 3 5 ; ; # # # & ; ; ; # # # & # & ; ; ; 5 5 5 5 & 6 t D 1.g ; 7 y d N q 5 # , , , # # o o # O O O + o o X   X X X X X X X O #   , e.DXdXG.s.h. .| h > 5 & # o o # # o # 3 3 , , , @ @ @ @ # # 3 5 3 , # O < , A b 3 # O         #     # A N 0 ; +   5     :.bXHXnX$X4.B . + o   X o O O O O O O       O   O O O O # # < < < < < < < < < 4 3 , < < < , < < 4 x z k k 8 #     O +       O O   O O O O     O # # . . z./ r j <.f.^ j h Q h e r e } f.3.d. .a._ E R j r y c V ; > : > $ <XsX' ^ c.$ : % . : * > r $ g r r r f s z z A C l q s p C l l q N N N l p p b N N N b q 5 4.4X1XoXoXJ.A.5X+X{.{.{.}.oX:X:X4X5X5XpXpXpXpXfXpXpXfXpXpXpXpXpXpX9X9X9X9X9X9X9X9X9XpX9X9X9X3X9X9X9X9X9X9X9X9X9X9X9X9X9XpX9X9X9X9X9X9X9X9X9X9X9X9X9X9X9X9X9X9X9X8X7X3X3X8X8X8X3X2X3X3X3X3X3X7X9X9XpXvXvXpX9X9X9X9X9X9X9XpXpXpXpX9X7X7X7X3X1X%X.X.X.X1X).*.y y c b b b b b l c N l q q q q q q 0 0 8 w 8 q q l N N C C b l l l C C b b n n I I I U I Y Y Y I I I U #.&.` I Y M A Y n n A b 0 l q b q w w w 5 3       X X X X X ",
"# # # # # # # o # # # o o # # # # # # # # # = = , , 3 = # # ; ; 5 5 5 ; 5 5 5 5 = # # # 1 1 5 5 5 5 3 = # = ; ; w 7 > u h [ 6.( y t 6 w w 8 q t u r i u 6 w q ; 7 t t 6 7 w w 8 w 5 5 ; = = = # = = = # # , , 3 = = = 3 = = ; ; # 5 6 r u Q [ ,.! g t 6 5 5 ; 5 & ; ; ; & ; 5 6 5 w w 5 ; 5 5 # = ; 5 5 5 3 , , # # # , , 5 5 5 1 , , , 1 1 , , 3 # 5 : H ] H g d y w 9 6 7 q 9 9 5 5 , 3 , , 1 , 3 5 5 5 5 5 5 3 3 w 4 3 3 = 3 , , 3 3 , , , , 3 3 , , , , , , , , 3 3 3 , , , , , , 1 1 1 5 5 1 5 5 5 3 3 3 , , 5 8 , 5 : r i } j.g.x.f.^ u 7 w 7 t r ~ ) ! g B B B 6 1 5 w 5 , , , , , 1 1 1 8 8 8 1 1 1 5 5 5 w 5 5 1 1 6 6 6 5 5 5 6 7 y y 7 y y y t y s s y y t 7 7 9 6 6 6 6 7 7 q y 7 6 r ,.} / i f f t 6 q q 6 0 c B d B A A N N N N N A N b b N N A N B y t G S r d G q 6 q N q w ; 7 ; 5 6 w 5 5 5 6 s 7 5 5 5 8 8 8 5 5 5 5 5 5 5 5 # & 5 5 5 1 & # , # , # # # & ; 3 5 # ; & [ 5.D d d f f s 7 ; ; # # # # # # @ @ @ O O O @ o X X X X X X X X X O X , @ w.gXsX}.s.} } 3.* : 5 + # & # # o X X = 5 8 5 3 , @ O O <   @ # , 3 , @ @ b n C 8     <   O     O O   X 5 N V V 5   +     s 4.H s : % % +       O o     @ O O     O O O O O O O # < < < , < < < 4 < , , < < < < < , < < 4 4 k k k 8 @                 O O @ @ @ O O O O X   % % | R i E g.^ R ~ Q ^ h i r j R r r ^ _ k.a._ E ^ u G U d > u t > $ / L.E E *.$ % * * % . : > 5 w.s 8 l w z l N N s C C z Z N q l c C b C b p q p N N N b l ; 1.2X4X:XoX}.H.>X|.{.}.|.|.oXoX:X4X3X7X9X9X9XpXpXpXpXpXpXpXpXpXpXpX9X9X9X9X9X9X9X9X9X9X9X9X9X3X9X9X9X9X9X9X9X9XpX9X9X9X9XpXpX9XpX9X9X9X9X9XpXpXvXvXvX9X9X9X9X9X9X7X7X7X8X8X8X8X3X3X7X7X7X3X7X9X9XpXvXvXvXpX9X9X9X9X9X9XpXpXpXpXpXuX9X7X7X3X2X%X+X.X.X1X).1.y q N N N b b N N N N N b q q q q q 0 0 w w 8 w q q 0 0 q l b N b l b b b b b b n M I I I I I Y Y I U I I U U I I Y A I A A A b 0 p b N b w w 5 3 #       X X X X X ",
"# # # # # # # # # O 3 # o o # & - % ; & o # & # # & & & & & 2 6 1 6 o & X w & & # # 6 % X 5 # ; & 6 & & 7 & & ; > > * r r j f f t 6 6 t t : : 6 r r 6 t y 7 w w 0 6 6 : t t 6 6 6 & ; ; ; ; 5 o & 5 5 & ; ; ; o ; X ; ; # o 5 # 9 % & u h ' :Xg.^ f 6 6 6 6 6 & w ; 5 6 ; 5 6 5 % 6 ; 5 & 6 X ; 6 ; 5 8 < , 5 5 < 8 1 5 3 5 , , , , 5 3 # 3 w # 4 # & u ' ^ h j u : t t t 6 y 5 ; - # 5 w 5 & ; 5 # 5 w 8 # 5 1 , 5 w 5 & ; - ; , 5 # # # ; 5 , 1 1 5 3 , , , 3 , w X o 5 , # = ; # 5 6 o ; # , 5 5 , , 8 8 5 ; , , 3 3 5 w 6 6 e / d.d. .} ' h B y y u ! [ [ h B B y 0 5 5 w 5 , # 1 , # 5 5 # 5 ; 5 5 ; ; 7 6 6 6 o q 9 & 5 ; 6 : > y 6 6 u t t u t r r r t t t : r t r 6 y t q & 6 t 6 y 6 t r ) } ^ r g d u ; s t t t : f d V Z Z A Z V B s B y V Z V s F s d D D ~ D g d y 6 5 l c B ; 5 1 7 y s q 7 y t d y 7 w w 8 8 9 9 9 1 1 8 9 8 5 = 1 , w 5 5 o ; 5 5 , , 5 = # # 1 3 8 5 % h 6.,.h B D B F G B & & 1 & 1 # # # 5 # X   , X   X X @   X     X X O O @ , o 4.gXSXVXBXl.D.2Xd . % o % ; o & # o # , 1 , 8 4 , @ ,   #   = ; # 0 # , , U A N w     O               o   o & y B ; X   X       o o   . + + O + O O O   O O       O O O O O O O @ # # < < < < , , < < < < , < < , , < < 4 4 4 4 1 , + X             @ < 4 < 8 #     o   O o . D / / j ' ' ^ ' f Q r r r i R 2.$ e R  .a.E E ' R Q ~ f % % r r > $ ,.h.E h t $ % & % % o 6 6 q q l q q l l N N N N N N N N b q q N N N b l N N N N N N b b w =.&X7X:X:XJ.D.|.|.{.{.|.oXoX+X:X3X4X3X7X9XpXpXpXfXfXpXpXpXpXpXpX9X9X9X9X9X9X9X5X5X7X7X7X9X9X3X9X9XpXpX9XpXpXpXfX9X9X9XpXfXfX9XfX9X9XpX9X9X9XpXpXpX9X9X9X9X9X9X9X9X7X7X7X9X7X8X3X3X8X8X3X3X7X9XvXvXvXpXpX9X9X9XpX9X9XpXvXpXpXpXpX9X9X9X7X3X2X1X+X+X+X%X).*.y q b b b N N b b b b l l l q l q q q q 0 0 0 0 q l l q q q l N C b b b b C N l l C N K U U I I I Y I I Y U ` U I I Y I A Y Y b b 0 b b b q w w w 3 @       X     X ",
"# # # # # o # # # , X X % o o % # o % & ; & & % = = & # # & & ; % % * > o   9 & = ; o % : ; : % & % % > > > > > > % t r r u u u > t : 6 t > > r t t 7 t 7 6 : 7 ; 6 r r > u r : & t : > : o & & 5 ; % % % % % % % > X ; = - & 1 # ; 6 : j ' ..| d t 7 6 6 ; & y 7 ; 6 B F 7 6 6 6 & 5 5 # & & 6 5 # ; o 6 6 o ; & & & 5 3 3 , 5 5 5 5 # q 5 w # 3 w > D | Q h r u u r r r r r r * 6 ; & 1 # 8 , # 5 , # 3 5 8 , 5 1 # & o : 6 % & & ; o # ; # 1 , , , , , , , 3 , X 5 5 # ; ; ; & # . & ; o - # X 5 8 3 # 3 w 5 , 3 3 3 3 5 5 6 r i j <.d.d.} / h h f j [ [ ~ h d B y 6 5 5 0 w 5 5 1 + , w 5 w 6 ; ; ; : ; : > & & y : : t t > & : & > % r r r 6 6 t t r r : > > > r r > t : 6 5 6 6 7 6 6 t > h ) / R i f f r t y : t d d g g V F B J V V V S d V F B F S B S g D ! [ ^ : t 6 : t t u u u * > r r > r r * u t 6 7 6 5 6 w 7 6 6 7 7 6 ; 6 % 6 : & 7 ; 7 o ; 1 1 , = = # # ; 5 3 , 5 r [ 5.} i h h h g u u u * % % % % % &   X   1 # X # X X X   X X   X X O O 3   ; S.aXDXZXDXCXHXaXf J G . 6 o ; # 5 o & X # 8 8 8 , @ @ X o X   & & . o ; X #.p 0 @     @       O O   # N 6 #   o Z s ; o       X       + . o + # O O O   O O       O O O O O O O O # # < < , , < < < < < < < < < , , < , < 4 < < < @ O     X O X     O < < , , < @ O O X   X > [ E R 4X+X^ j Q ' r g r ,.f E <.H./ r  .j.E T i E R r > . % r ] r u i ' R j & % : & & 6 6 y q y N l l l l b N N N N N N N N b l l N N N b N N b b N N N b b w ] %XiX1X+XA.g.|.|.|.|.oXoXoX:X:X3X3X5X7X9X9XpXpXpXpXpXpXpXpXpXpXpX9X9X9X9X9XpX9X9X7X3X5X9X3X3X7X7X9XpXpXpXpXpXfXpX9X9XpXfXfXfXfXfXpXpX9X9X9X9X9XpXpX9X9X9X9X9X9X7X7X7X9X9X8X3X8X8X8X3X3X7X9X9XvXvXvXpXvXpX9X9X9X9X9XpXpXpXpXpXpX9X9X9X7X2X2X1X+XOX.X&XD.( 7 q b b b N N b b b N l l b l l l q q 0 8 8 0 q q l l l l q l b b N C b b C C N b l N b b A K I I A I I Y Y U ` U I U U Y I Y n A b N N N N q q 0 w o       X   X X ",
"o o o o o o # # X w & % . % % % % % % % % % * * % % % % % % % > j ^ 5.%X: & # + # & : % o % % * * * * > > > r > > r r r u r r u u r : d f D [ ,.s y 9 9 6 : r r > % > r j j f r r r % % > > * % % > * * * r ^ ,.J.6.: & # # # 8 5 ; & u z.E E h u ; 6 w ; 6 6 6 t G u t d 6 t 7 9 5 & 5 B & 6 5 & > % % % % > % > % : # # 5 5 # # w # 5 # # # # # & * ' / E | f.G.{.@X>X>XoXJ.J.5.Q r % > ; w , 5 5 = 5 , # # , # 5 & % > * * % > % % : ; & ; # , , 3 3 , , , , 5 w   ; o o > . $ > * % % % ; - 6 # # 5 , < # # = 5 3 3 3 , 5 6 y r r i / d.x.f.3.} E / } / j u S B 7 w 5 5 w 1 5 # 1 & & 5 ; # o % > > > * > > r t : > : % > > * r % > r r u > r r r r r r r r r r j | J.w.> : 7 ; # 6 7 t r > ^ 3.3.E i r r r r u u u h h h Q D g D h D D D g H J J G D ! g H D D h ~ ~ G t t > > r } A.J.>XoX|.A.g.' / [ ] f % ; ; 5 7 7 6 : > % % r r r * * * * % r : : 6 # 5 5 5 5 ; 5 5 5 4 # 6 D 5.<.j j j j / 3.A.J.oX@X@XJ.z.f.' r . % o . + O + X     X X X X X X X X   X e.uXaXDXJXLXLXJXDX&XJXbXq.d 6 o o & o X w o w 3 w w 5   X   o   . $ . % % % U B   = X   w     X     O 1 Z U Y V &   6 V 5 X X         . & + o + # + X O     O       O O   O O O O O @ # < < , , < < < < < < < < , < < , < < 4 < < , , @             O @ < 8 8 @ < < @ O @     > [ E } VX+Xf ! [ r f r *.{.u E / k.E e a.k./ E E E [ r 7 > $ g { Q e i T E j & & 7 ; 5 y y y q y N c b b N N N N N b b N N b N b N N N b b N N b b p N N N b q ( OXiX4X>X|.|..X{.{.|..X.X+X:X1X3X5X7XaX9X9X9X9XpXpXpXpXpXpXpXpXpXpXpX9X9XpXpX9X9X9X3X5X9X3X3X4X3X9X9X9XpXpXpXfXpXpXpXpXfXfXfXMXMXMXpXpXpX9X9X9X9XpX9X9X9X9X9X9X9X7X9X9X9X7X3X8X2X2X8X8X8X9XuXpXvXvXvXvXpX9X9X9X9XpXpXvXpXpXpXvXvX9X9X7X3X2X1X+X+XOX&Xc.H w q b l l N N b N b N l b N l l b q q 0 8 8 0 q l l l N N b l l z b b b b b C A C b l q q b N Y Y Y I I I Y Y I ` I -.#.` I I A N b b A A b w 0 q 5 # X     X     X ",
"o o o o o o # # # o B 4.e.OX@XoXoXoXoXoXoXoXoXoXoXoXoXoXoXoXoX>XyXyXyXyXr . o , # # ] 5.S.@XoXoXoXoX@XoX+X@XoXoXoXoXoXoXJ.A.f.| Q u u g r ! *.| B t 5 5 6 t t r ] 5.S.oX:X>XoX:XT.K.oX@X}.oXoXoXoXoXoX@X>XeXeXeXyX5.% o # 5 # 1 , w % > A.<X' e : 6 w w ; o 7 y ! ! ^ ^ f f F N 5 6 # 9 5 1 1.q.c.+X@XoX<XoXoX+X{.e.1.F w 5 5 # 3 # 5 , 5 5 5 6 % u } H.oXyXeXyX5XaXaX4X>XyXaX5XyXeXyXoX6.' f % o o 5 # @ , 5 # & U q.c.%X+XoXoX@X@X+X+X Xe.q.w , , 3 3 , , , , , # o q.y. X@X+X+XoX@X@X+X+XS.q.] 0 o 5 5 , , 5 = 3 3 3 3 3 5 w 6 ( e.D.:X<X<X<X<X,X,X<X:X+Xz.,.d s 5 5 5 5 5 # 1 1 & & & o V e._.%X@XoXoX@X+XOXc.4.d t ] 5.F.+X+XoX>X<XoXoXoX+X:X:X:X:XoXoXoX:X4X5XyXyXyXz.% & # ; & & 7 =.6.F.:X:X<X;X:X>X@X@XoX@X@X@X>X>XoXK.D.f.3.' ^ ^ Q ~ ! Q ! ! ! *.) Q R h h g g u u r ^ g.oXyX5X5XyXyX5XyX>XyXsX,XyX{ 6 6 ; 7 7 s s d 1.e.D.@XoXoX>XoXoXoX+X Xe.q.( 1 o # & # # & 5 1 3 # & [ 3./ E ..A.oX,XyX5XyX4X4X>X4XyXyXyX>XJ.3.^ > & o   o   o O X X X O X     X 0 S.DXyXdXDXDXcXLXJXLXJXJXOXu % ; 6 & # & # o @ # w w # # ` q.e.OX@XoX+X}.@X@X Xe.q.Z   #   O         # 5 o & q F B q # & N q ; o X o o o .   + + # o O X                   O   O X O O @ @ @ < < < < < < < < < < < , , < < , 4 < < 1 1 @     X     X O O @ < < < < < @   X   o ] z.E ' }.[ h D f r r h v.h f E E W  .R W k.h.} j j E h r % > % h r e 3. .R t q 5 0 0 q c q q q q q l l N N N N N N N b b b l N N N N N b b N N b b p b N N N 6 F OXpX4X4X+X1X2X+X|.oX:X:X:X:X1X3X5X7XaXpX9X9X9XpXpXpXpXfXfXpXpXpXpXpX9X9X9X9X9X9X9X9X7X9X9X9X3X3X7X9X9X9X9X9XpXpXpXpXfXfXfXfXMXMXMXvXpXpXpX9X9X9X9X9X9X9X9X9X7X7X9X9X9X7X3X3X8X8X2X8X8X9X9XvXvXvXvXvXvXvXpX9XpXpXpXpXvXvXpXpXvXuX9X9X9X7X2X2X1X+X+X%Xe.S 7 q b l l N N N N b N b N N b b N l q q 8 w w q l l b N N N b l z b 0 b b b b A Z A c l b b l b N Y I I U U Y Y I I #.#.#.` I I Y K Y Y U A p b p w # O         X X ",
"o o o o o o o # @ # o . : Q 4XyXrXrX,XsXeXyXaXyXyXyXyXyX5X,XyXyXyXyXyXyX> .     o # ; & f 5.yXeXrXrXrXeX,XyXyXyXyXyXyX,X,XyX,XyX>XoX/ e u u u f u : 6 w w 6 6 2 % r D z.sXtX,XtXrXeX,XyXyXyXyXyXyXyXyXyXyXyX,XrXyX3.$     , 5 5 5 ; : > g.yX:X/ . & 6 w 7 t 6 t i ^ A.H.^ r s 9 6 & 6 5 w q & 9 d 5.yXeXrXeXyX5XH > & O O     - 4 3 8 , , # o % [ oX>XyXsXyXyXJ.,.D f f f f h [ 5.>XyXrXeXyXoXx.d % ; 5 , # # 3 1 & ; u e.yXeXeXeXsXyX4X! & X X O @ # , , , 3 3 , # w & 6 ( +XyXrXeXrXeXaXw.6 o X     , 3 5 8 , 3 , 3 3 3 3 5 5 5 ; > u | yX,XeXtXtXrXsX4X,.: o & ; & & 5 5 5 1 # # 5 & # 5 ; & ] :XeXtXtXyXiX( & & . . % % t 5.5XyX,XeXeXsX4XaXyXyXyXyXaXyXyXyXyXyXyXyXyXz.. . . # # w # t r E K.tXtX,XsXeXyXpXyXyXyXyXyXyXyXyXyXyX,X<XJ.' ^ ! ~ ! ! ~ ~ [ [ ) } / / i g h i ,.oX,XeXyXJ.5.] h ! 1.z.yX,X,XaX'     # y y y ; ; 7 f ^ A.eXeXrX,XeXyX>X[ : o o # . X # # # & 1 1 5 ; t ,.<.d.<X,X,XyXyX@X5.{ D t f d ] 6.oXyX>XyX>XF.Q % . + #   O O O O O X     o 7 ).aXyXeXyXyX7 &XLXJXJXJX>XF.D.r & . 7 # X o @ O @ l 0 3 3 = : 6.>XeX,XyX>X>X*.;       X   O O     O X C #   o X y y #   X w A q o     # #   O + # o O O           O       O O O X O O O O @ < < < < < < 4 4 4 < < , < < < 4 4 < < 4 < < O   @     @ # @ O O < < < O < O     o z.gXr >Xx.h r ! $ r r [ ) r j R R k.d.i  .Z.d.5.r i <.} r : o r r j j ~ h f 9 N q q l l l q q 0 0 0 q l b N N b N N N N N b b A N b N N N b b N N p p N N N N 6 B ).iX7X4XoXOXpX%X@X+X:X:X1X:X1X4X5X5X5X9X9X9X9XpXpXpXpXfXMXMXpXpXpXpXpX9X9X9X9X9X9X9X9X9X9X9X3X3X7X9X9X9X9X9X9XpXpXpXfXfXfXMXfXMXMXpXpXpX9X9X9X9X9X9X9X9X9X9X7X7X7X7X7X3X3X2X8X2X3X8X9X9XvXvXpXvXvXvXvXpXpX9XpXpXpXpXpXpXvXvXuXuX9X9X9X7X2X2X2X%X%X&Xw.d w q b l b N N N b b N b N N b N N l l q w w 8 q l l b N N N N N N N q l l b b b C Z Z C N N b l b N A Y U ` I I I I #.` #.#.` #.U I Y A A A p w w 8 3 o           X ",
"o o # # o o # # # X # & % % ,.>XrXtXtX,X| f u g d f f f f g f f [ A.>XyX%     O 3 # # o o r J.eXrXtXeX<Xj j f j u f ^ 3.J.:XeXeXeXeX<X| e r t t r r y y q 6 6 6 6 6 t j K.,XtX<XtX:XQ d d f f u f g g f f Q 5.oXyX6..     # 5 1 5 ; ; r 6.,XeX<X^ % & q y s 6 y j ^ 5.6.f t 6 5 6 5 ; w # 1 5 # % f K.eXrXtXyX| +     O , 3 ; 6 3 @ , 8 # : h H.yXyXyXyX>Xg.r   .       % $ % & % * | }.,XyX,XyXiX1.% o w 5 # , 1 , # % h K.eXrXtXeXyX2.%       o # # , , , , , 5 5 @ 3 # * g.yXtXrXtXeXJ.r       o 3 , @ , 5 , 5 3 , , , 3 , , # w & > > } 5XsXeXtXrXeX:X*     . 5 5 5 5 # 1 1 # 1 # # q y 5 7 r H.eXtX,X:Xu .     o o ; : > > J.sXrXtXeXyXj j d f f d g g g d j R <.J.aXz.. o   ; ; ; 5 : r j d.,XeXtXtXtXoXf f u f h h [ f.|.,XrXtXsXsXoX/ h D ~ ~ ~ ~ ) ) ) / ' / h R / | ,XyXyXoX{ %           % > g.rXyXQ o     6 q 7 6 y q 6 D j oX,XtXrXeXyX<.. .     + o # ; 5 & & 1 1 & . Q f.<XtXrXeX5X|.| $ .     #   #   . $ ' oXyXyXyX>Xz.r   5 X X @ O @ O       & ; *.6.oX,XyX<X=.o OXHXDXoX3.BXSXS.% & & # w @ , , O , 3 0 0 3 . > oX,XtXeXeX6..     o   @ O       O O   q   o     . 6 B 6 # X X w q q +     ,   X # + O O   X       O     O O O   X O O O O @ < < < < < < 4 8 k 8 8 4 4 < 4 4 k 4 < < < < O O O O O @ < < @ O O < < O < @ X X o 6.DXA.DX' [ 4X1Xj ^ h z.r R u ^ e j.L.R _ a. .Q F.D.L.E r t : * r j u S t q 8 l l l l q q q q q q q q l l b N N N A N N N N N A N l b N N N l N b N N N N N N 7 y e.7XpX7X+X|.pX%X+X+X:X:X1X1X1X4X3X5X5X9X9X9XpXpXpXpXpXMXMXMXpXpXpXpXpXpX9X9X7X9X9X9X9X9X9X5X3X3X3X7X9X9X9X9XpX9XpXpXpXpXpXpXpXpXpXpXpXpX9X9X9X9X9X9X7X9X9X9X7X7X7X7X3X3X3X2X2X2X2X8X9XpXvXvXvXvXvXvXpXpXpX9XpXvXvXpXpXpXpXpX9X7X9X9X9X7X3X2X3X%X2X&X4.y 0 N b l b N q l l b N b b N b N N l N l q 8 8 q l q b l b N C N N N N l l l b l b C C C N N N b b b b A Z Y Y I U I U #.-.#.#.:.&.Y Y A A A b 0 w 0 5 # X X X       ",
"# # # # # # # # # # X @ o . D >XtX,XeXeX~ .     X     X X X X . % * [ 4X>     X , # ; # o % f.eXrXrX,X:X$ o . . % % & % * ^ K.yXrXrXeX,X5.* : t : t y y y 6 ; 6 : 7 : r 3.rXrXeXeX:X$       & % o o o # % . % r {.e.      # - ; # ; ; % ,.eXeXyX:X[ $ & y s t t u f h f f t 6 7 # w ; ; 5 # , 5 # > g.,XtXrX>Xr     O # , 3 # o 3 w , & % ' >XeXsXrXyX{.h %       # 5 7 u f [ d q B D j g.>XyXyXaXD.>   O , , 1 5 , 5 ; . g.yXtXtXrXyXh       5 , , , 3 , , , , , , 8 @ 5 % h yXrXrXtXeXz..     @ , 8 8 5 5 3 3 3 3 3 , , 5 5 5 5 # 8 5 % r J.yX,XeXtXeXoX. .   # q q 6 5 & & # # # 5 w 6 q q 6 * J.yXeXyX{ .     X , 8 0 ; : $ | yXeXtXtXyX$     X X X X o o X % % % f F.c.      # - ; 6 % g [  .<XrXeXtXeXK.  .   # & : : r g { 5XyXeXsXyX5X' : g ( ~ ! ) ) R e E ^ h j ' <XeXyX{.g .     O O 5 0 w % > 6.yXH       6 w q 5 q 1 6 u r g.yX<XtXeX5X*     X # # # # # , # o # # % u x.<XrXeXyX:X[ r .       1 , 5 # , 5 5 % r 5.,XeXeXrX}.[   o X + o @ O       .   d ] g.eX,XyX:X,.> ).D.j 3.D.z.j * t & # # 3   @ O O O 4 0 b 5 . ' eXrX,XyXh     X # O O       +       # # U :.X   o 6 B y 5 ; o   5 0 #   +     + O   X             O O O O X X X O X O O @ < < < < < < 4 k < < < < < < < < k 4 4 4 4 4 4 < < < , < < < < O O < < < < < + + > ] gXH.} ' [.JX5Xj j A.<.5.j j h i j.L.T E a. .r ~ } <./ h r > $ u d V q q l z q q l l q q q q q q q q q l l N N A A N N N N N N N N N b b N N N b N N N b l l w 5 1.2XpXiX+X|.iX2X%X1X:X1X3X4X4X3X3X5X5X9X9XpXpXpXpXpXpXfXMXMXpXpXpXpXpXpX9X9X7X7X7X9X9X9X7X3X3X3X3X3X7X9X9X9X9X9X9X9X9X9X9X9XpXpXpXpXvXpX9X9X9X9X9X9X7X7X7X7X7X7X3X3X3X3X8X3X2X2X3X8X9XpXvXvXpXpXpXpXpXpXpXpXvXvXvXpX9XpXpX9XuXuX9X9X9X7X7X3X7X2X7X%X*.7 q N b l l y q l b b b b l b b b b l N b q 8 8 q l l l q l N N N N N C b l b b l l b b C A C N l l b b b b b N Y Y Y I U #.#.&.:.;.I Y Y Z A b b b w 8 , O X X       ",
"# # # # # # # # + # X - , # h >XeX,XtXyX^       # # = # # o # # # % r D.t .     O 3 o 5 ; > 3.eXrXtXeX+X.     o 5 ; N 6 > r j oXyX,XrXeX5X*.. % 7 q 9 7 t : > 6 ; 6 y r } eX,XtXrXoX% +   X 5 1 ; 5 5 , 1 % % > ^ w.& X   - - ; 5 ; ; : ,.rXrXeXyXyX,.% # & t : r r t : t ; ; ; s q w 5 5 # # 5 w ; 5.yXeXeX4X>   X   3 w 5 1 8 5 # 5 > ,.yXeXrXeXsXH.> .     < 8 l c d u ~ S.f s y > f j j oXyXyX@X>   O , , 1 3 # , 5 % 4.yXyXrXtXyX* . O O , , , , , , , , 1 3 , , 4 8 % r aXsXeXeXyX4..     3 8 3 3 3 3 3 3 3 3 5 5 5 5 5 5 5 5 , , # * h yXsXtXtXeX5Xg     5 c 9 1 6 6 5 # 1 # , 5 q y 6 6 j @XaXyX4Xr   O   , q 5 & u > r } eXsXrXyXaX.     # 5 w ; ; ; ; , # & & J y.5 o   X = 5 7 6 > ^ <.T.tXyXeXrX{.@ O O 8 q c B d d D ^ >XsXeXyXyX4Xt . f ! ^ Q Q Q / f./ r r oXyX,X4XS .     o # 5 w q 8 ; % > &X(       ; ; 6 ; 5 w ; : * 5.yXeXrXsX:X. o     # 5 # # # , # # 3 5 u +X5XtXeXeXoX^ .     o 6 c c 6 o 5 , < < # : $ | <XeXrXyX4X4.. o + # # O       o o 7 > } yXeX,XeXyX6.% ,.>XSXSXpX,.* % o 5 3 = #   #   @ @ @ 0 b 7 ^ eXeXyXyXr       , , # @ X           O w N U # o     & q Z A q # o q 1 # ,     + O X             O O O O O X X X X X O O O < < < < < 4 4 4 < < < < < < < < 4 4 4 4 k z z k < k k , < , < < < < < 4 < < +   f j >X@Xj ~ H.pX} j } | f.Q h f r e a.Z.E T a.a.i i h g.,.h r r y y B q w l 8 y l q q l q q q q q 0 q q q q l N N A N b l l N N N N N N b l N N b b b N b b l q p ; ] %XpX9X+X.XuX2X1X1X1X4X3X3X4X3X3X3X5X9X9XpXpXpXpXpXpXMXMXMXpXpXpXpXpXpXpXpX9X9X7X7X9X9X9X3X3X3X3X7X7X9X9X3X9X9X9X9X9X9XpXMXpX9X9XpXpX9X9X7X3X7X9X7X3X3X3X3X7X3X3X3X3X8X3X2X2X2X2X8X9X9XpXvXpXvXpXpXvXpXpXpXvXvXvXpX9XpXpXuXcXcX9X9X9X9X7X7X3X7XuX X( 6 l N l l l q q b b b b l b b q b b l N N q 8 8 q l l q q l N N b N N b b b b b l b b b C A C b N b l l l l N N b N Y Y I #.&.#.&.#.I I Y Y Z A b l 0 0 , O X X X     ",
"# # # # # o o o # # # # # # h <XeXrXeX,X(       # # & & & & % % : . ; y.7 o #   # # & 1 # % 3.eXeXeXeX>X.     O 7 5 ; ; 6 : r i :XeXeXeXeXoX. O o s 7 7 6 > : ; ; 5 6 : { eXtXeXrX:X%     X & 1 5 ; # , , 1 & & s w.% o   & ; ; 6 ; 5 : [ rXtXeXeXeXyX6.$ % & ; 5 9 9 ; ; t t : B s w # # 5 w 5 5 & 6.eXsXyX>X6     O , 3 # 3 4 , 5 % [ >XeXyXsXyX5.>       # 7 a y y y u ! ) e r r r y u r r J.yX+X> . O @ 3 - 3 , 3 3 ; 6.yXtXtXtXyX>     # , , , , , , , , , 3 3 < , 3 ; r aXyXsXyXyX6.      4 4 4 4 4 4 4 4 8 8 3 3 5 8 8 8 3 8 , 4 , ; > F.yXyXsXeXsXD..   # q 8 9 & & 5 # , 1 # 5 9 c 6 t | yXyXaX4.      O w 5 9 w 5 6 r } yXeXeXyXaX.     o : & : ; & ; & 5 ; ; s e.; %   ; ; y q t > r R <XeXeXsXeXoX      = p 7 y S G G g <.eXeXtXsXyX{.% . t D ! ~ ) T R g u / <XtXeX|.$ .   & 6 : t t & ; ; o % S.V -     ; ; 5 5 5 ; 5 5 > 6.eXrXrXeX>X.     o # , # & # , , = % r J.eXtXtXeXD.r .     . 6 d d 7 w 6 & # # - # # 1 > ) :XeXrXrXyX5.$ . o #     @   . ; 7 > [ sX,XeXtXtX,Xg.* 4.4X4X{.BXOXD % 5 3 3 # @ @ O @ @ , < 8 w ] yXrXtXyXf     O # # o X     O       # 6 ; 5 V 5 o X X X # # P U w   @ # K O     #   O   O       O O O O O O O O O O O O O @ O O O < < 4 k 4 4 4 < < < < < 4 < < k 4 k 4 4 < 4 8 < < < < 8 , < < < < o o : / r | yX/ / E j  .s.K.E Q r t S J r  .T.W T R.k.R r $ J =.D d 9 q q q q 0 w 0 q q q l l l q q q q q b q q q l N A N N N N N N N N N N N N b b N N N l p p b p l 0 ; J _.bXpX%XD.+X2X4X3X4X3X:X3X0X3X5X7X5X5X9X9XpXpXpXpXpXfXMXMXpXpXpXpXpXpXpXpXpXpX9X7X3X7X7X3X9X3X3X3X3X3X9X9X9X9X9X9X9XpXpXpXpXpX9XpXMXvX9X9X7X7X7X8X8X3X2X3X3X2X2X3X3X2X2X2X2X2X2X3X9X9XpXpXvXvXvXvXpXpXpXpXvXvXvXvXpX9XpXvXpXuXuXuX7X9X9X9X7XuXuXS.B 6 N N l l b p q l b z l l b b b b b b l N l w w q b N l l l l N N C N C N b b b b b b b b C C N b b N b l l b N N N N C C K U #.#.#.` I I U I K Y 0 0 0 3 @ X X     X ",
"# # # # # o # o # # # # # # h <XtXeXtXyX(       # # # ; & & & & & o ; q.7 ; X X 5 1 5 1 # % 6.eXeXeXeX>X.     + 6 ; ; ; 6 : > r <.eX<XeXeXyX{     w q t t : : 6 w w 9 : [ eXtXrXrX:X%     X ; 5 # = ; 3 , , & ; s *.: ;   & ; ; 6 5 5 : [ rXeXtXtXeXeXeXS.% . 5 5 6 1 5 t : : t 7 : & ; 5 5 1 # 5 & 6.eXsXsX>X6     @ 5 5 3 5 4 # & D aX,XsXsXyXA.$       ; s y t d y d d t r r r r t t 6 6 > D >X4Xd .   < # - 3 , , 3 ; 6.yXsXtXtXyX>     o , , , , , 3 , , , 3 3 3 < 3 ; r aXyXsXyXyX6.      3 3 3 3 3 3 4 4 8 8 3 3 5 8 8 8 5 8 3 3 3 5 & [ yXyXdXsXsXyXt   o 8 8 # 6 & & , # & 5 , C 6 u * {.sXsX4X%       5 6 5 5 0 6 6 > ,.yXsXsXyXyX.     # 6 & 5 ; & & 5 ; o ; V 4.: %   - 6 q 6 6 t Q i :XtXsXsXeX@X.     - 5 ; 7 S S G g h oXtXeXeXsXyXD . o ! ! Q ~ j i G f | sXeXsXF..     V V 6 6 & & # ; ; % :.F # o   ; & ; 5 5 ; 5 5 > 6.eXrXtXeX>X.     o # # ; # # 5 o ; > oXyXeXrXrX:Xr   +   ; y s u y t 6 6 & # # # # # # . % ^ ,XeXeXeXeX,.%     #     # o 5 w > { yXtXtXeXrXeXeXD.* ~ F.r BXDX=.. . w o # # # @ O @ @ @ 3 ; ] yXrXeXyXf     X @ @ X X     O         o X w N w X X o o   o X N >.w , O q ,                     O O O O O O O O O O O O O < < < < < < 4 8 k k 8 < < < < < < < < < 4 z x k < < < < 4 4 < k 3 < 8 < < # & u x.^ j dX/ j j R k.hX .R ^ *.g * $ i  .R._ E P.T.^ r ; ; S t 7 l q q q q q q q q q l l l l l l l q q q q q q b N A A N N N N N N N N N N N N N N N N l p p N b l N ; 7 w.uXpX4X).%XvX1X4X1X1X3X5X3X3X3X7X7X5X9XpXpXpXpXpXpXpXpXpXpXpXpXpXpXpXpX9X9X9X9X3X3X3X3X5X7X3X3X3X3X3X7X9X9X9X9X9X9X9X9X9XpXpX9XpXpX9X9X3X7X7X8X8X2X2X2X2X3X2X2X3X3X3X8X8X3X3X8X7X9X9XpXpXpXpXvXvXpXpXpXpXvXvXvXvXpX9XpXvXpXuXuXuX7X9X9X9X7XvX8Xq.y q N b l b b p p l b b b b l b b b b b b N b 0 w 0 l N l l l l b N N N C N b b b b b b b b C C A N b l N l l N N N l l b N N A Z I U U #.U U I I U Y I Y w @         X ",
"# # # # # # # # # # o # # # h >XtXtXtXeX]       o # & 5 5 1 ; & & ; . ; & # ; o 5 1 5 5 1 : 5.yXeXtXeX>X.     + : & ; ; w 7 : r } eXtXtXeXeX{..   # s t t : 6 ; w w 9 : [ yXeXrXrX:X%     X ; 5 ; - - ; 5 5 ; & o 7 ; o X # & ; 6 6 w 6 [ rXtXtXeXsXeXeXaXA.> o & 6 B s s d ( ( F y : 5 5 1 1 6 5 & 5.yXsXsX>Xr     # , , # , , ; u {.dXsXsXyXyXg .   O 5 y y u u u g u d D h r <.3.f 7 l 8 y > 3.pXd     @ , , 8 4 < , ; 6.aXsXsXsXyX>     + , , , , , 3 3 , , 3 , 3 4 4 ; t aXyXsXsXyX5.      3 3 3 3 3 3 4 4 4 4 3 3 3 3 3 3 5 5 3 3 4 3 ; > }.yXeXsXsXaX5..   5 8 5 & 6 & 1 # ; # 9 9 6 * [ yXyXsX5.    X . 5 7 6 6 9 6 6 r 5.dXsXsXyXaX.     # 0 ; 5 ; ; ; # 6 6 ; % : o > X ; 6 6 & : f [ R :XyXsXsXsXoX.     5 # ; 7 B F F g j g.sXsXsXsXaX1..   u ! ! ~ ^ g g r g.yXeXeXH.    o y J : ; o 1 # 5 ;   ; X # o X & & ; 5 ; ; 5 5 ; 6.eXtXtXyX>X.     X # # o # # X ; > 6.yXeXtXeXyX[       5 y B y t u u : 1 & & # # # # # 5 # % f.yXrXtXeX>Xu . o X @ #   # w ; t ' ,XtXtXtXtX,XsXeXA.u r v.BXz.( : % & # # , , # @ @ @ @ # ; ] yXeXeXyXf       O @ O                 X # o 5 o X # o o , # O   Z :.U K # b   #     @   O O O O O O O O O O O O O O O O @ @ < < < O < < 4 k k 4 4 4 < < < < < < < x k k < < < < < k 4 < , , @ 1 8 # & $ g } / E H.>Xe j j j.<X/ } Q g D t r e a.R._ E C.P.D : N 5 q q 8 l q q q l l q q b p p p p p q q q p q q q q l b b N N N N N N N N N N b b b N b N N N N s s N N b b q ; *.2XbXpX).%XSX4X4X+X.X1X5X4X4X5X5X7X9X9XaX9XpXpXpXpXpXpXpXpXpXpXpXpXpXpX9X9X9X9X3X3X3X3X3X3X3X3X7X7X3X7X9X9X9X9X9X9X9X9X9X9X9X9X9X9X9X7X3X3X3X8X8X8X2X2X2X2X2X3X3X3X3X3X8X2X3X8X9X9XpXvXvXvXvXvXvXvXvXpX9XvXvXpXpXpXpXcXvXvXuXuXuX9X9X9X9X9XvX$X&.q c N N l l b b b N N N N N b b b b b N b N N q 8 8 q N b l l l l b N N C C C b b b b b b b N C N N b l N l l N N l q q l l b b b b A Y I I I I U U I I I b @     X X X ",
"# # # # # # # # # # # # # # h >XtXtXtXeX]       # # # = ; # # # # # ; 5 ; ; 5 # 1 # ; 5 1 : 5.yXtXtXeX>X.     o 6 : 6 5 6 t t f <.,XtXtXtXeX4X$   o B s y t 6 ; 5 5 5 : [ eXeXeXtX:X%     X ; 6 5 ; ; ; 5 5 ; o 5 & 6 ; & 5 5 5 6 6 w 6 [ rXeXsXsXrXeXdXtXyX+X. . 1 6 6 & y 6 t y : % & 1 # 1 1 5 & 5.sXsXdX,Xr     + , # , 1 & : *.aXyXsXyXgX,.    @ O q G S ! ) u g h h ~ ' / g.A.^ s 0 5 # B > 2X( o     3 8 8 8 < , & 5.yXsXsXsXaX>     O , , , , 3 5 3 , , 3 , 4 4 4 ; r aXsXsXsXaX5.      3 3 3 3 3 3 4 4 4 4 3 3 3 3 3 3 5 , , 4 4 , 5 ; 3.aXdXsXsXyX@X%   # , 8 o 6 & o - - 5 9 9 y r oXyXdX5XD       & ; 6 6 7 6 6 : r 3.sXsXsXyXpX.     # q ; ; ; 5 5 5 5 ; : 6 ; ; ; 3 ; 6 ; & : f | / :XsXsXsXdXoX      N w 7 7 s Z F S Q [ yXsXsXsXdXz.  o % ! ! ) ) u u * A.dXyXsX%X>   X q 6 ; o # , # 3 ; ; ; 3 = # X & & 6 & & ; 5 = ; 6.eXtXtXyX1X.     o # # O , 5 & o r >XeX,XtXyXz.  #   < B B y t t y y t & & 1 1 & # # # X o . g :XsXsXtXyXJ..     o   # ; 0 ; f ' yXeXtXtX<XdXeXeXsX|.r r w.[ ).( 6 o # # , , , # o @ @ @ o ] yXtXeXyXf       @ @               O   O q X   X o o # O   # , #   X.-.U # N w X     O       O O O O O @ @ O O O O O O O @ @ < < < < < < < 4 4 4 4 4 k 4 < < 4 x 4 k < k 4 < 4 4 4 k 4 @ 1 , @ O 1 < & > ) R E i 3.VX} $ e h.K./ r e ~ ,.h e i  .L./ R g.} t w l q 0 q l 0 q q q l l q q b p q q q q q q q p q q q q l b b N N N N N N N N N b l l b b b N N N N p s N b b q s 6 H  XbXbX[.OXSX7X5X:X|.1X3X5X5X5X7X7X7X9X9XpXpXpXpXpXpXpXpXpXpXpXpXpXpXpXpXpX9X9X3X3X3X3X3X3X3X3X3X3X3X7X9X9X3X3X3X9X9X9X7X3X7X9X9X9X9X9X3X3X3X3X3X2X2X2X2X2X2X3X8X3X2X2X8X2X2X8X9X9XpXvXvXvXvXvXvXvXvXvXvXvXvXpXpXpXuXvXvXvXpXvXvXuX9X9X9XuXcX(.F q N b N N l b b b N N N N N b b b N b N N N N q 8 8 q N N N b l l l N N C C N N b N N b C N b b N N N N b l l b b l l l l b N N l q l b b b Y K U I A n A q 3 X       X ",
"# # o o # # # # # o # # # # D >XtXtXtXeX'       # # # # # # - - # ; # . & # X 5 ; # ; ; & % 6.yXtXtXyX>X.     o 6 6 7 5 6 6 r g / ,XtXtXtXsX5X>     V V B d t ; ; 5 6 > } eXeXtXtX>X%     X ; 6 5 ; ; ; ; # ; ; w ; ; & & 5 # & 5 ; 5 & [ eXeXyXyXK.yXeXsXsXdXoXt $ & 5 ; & ; 6 ; ; 5 w 8 w 5 5 # & 5.sXsXdX>Xr     X , 5 5 5 & > +XyXdXdXyX>X%     @ 1 & * ] ,.Q Q ~ R R / ^ E f.<.u 6 w 0 y u f e.=.; X o 5 # 1 8 , , % 5.aXsXdXsXaX>     o , , , , 3 3 3 < < 3 , 4 < 4 ; t pXdXsXsXdX5.      3 3 3 3 3 3 3 4 3 3 3 3 3 3 3 3 w , , w 3 , 5 7 j :XdXsXsXyXpX~   X O 5 6 % & # - ; 5 9 9 t ~ aXsXdXD..       6 7 6 6 6 9 7 : r <.yXdXdXdXpX.     = q 5 ; ; 5 5 # # 5 ; ; & 5 5 w 1 5 & ; : h } / :XdXsXsXdXoX    O F y y 7 y Z G J g Q yXsXsXsXaX).      1.w.3.b.2.f u x.sXsXsXyX6.    & 7 w < # , @ @ o # # # , # # 6 6 6 & & ; 5 3 & 6.yXtXtXyX4X.     o # , 8 , + & r D.yXsXtXeX>XS     O 6 G u u y t 7 7 6 & 1 1 1 1 # # # # o & . 5.yXeXsXeXyX,.      # = w w 5 t } sXeXtXyXd.<XeXdXeXyX}.f * u y Z # # # o # # @ o o @ O X . ] yXtXeXyXf       @         O             8 0     5   X 5 5 # , O # o # w X 5 A         O     O O O O O @ @ O O O O O O O O < < < < < < < < 4 < < 4 k 8 4 4 4 4 4 4 x 4 z z < 4 8 < 8 8 , , , # O < 1 % h <. .j.3. .fXA.* u g.e e h ~ [ u r * e / j.^ u y 9 w 0 w q 8 9 q 9 q q l l l q q q q p q p p p q q q q l b l l b N N N N N b N N N N N b l b b N N N N N N s p p l b N w B c.cXvXOX_.BXuX5X9X1X5X3X7X7X7X9X9X9X9X9XpXpXpXpXpXpXpXpXpXpXpXpXpXpXpXpXpXpX9X5X7X9X3X3X3X3X3X3X3X3X3X7X3X3X1X1X3X3X7X3X9X9X9X9X9X9X7X3X1X1X2X2X2X&X2X&X2X2X3X3X3X2X2X8X8X8X9X9XpXvXvXvXvXvXvXvXvXvXvXvXvXvX9X9XvXcXvXvXuXpXpXvXvXuX9X9XvX2X1.y q b b l N l l N N N N N N b b l b N N N N N N l 0 8 q N N N N l l l b N C C C C b b b C C C C b N N N N N b p p p q q p l l l q q q l l l l b C K K A C b q 3 X     X X ",
"# # o o # # # # # o # o o # D >XyXtXtXyX]       ; & - # # # - - ; . ; o # ; w & w ; ; & # % 5.sXtXeXsX4X.     o ; 5 w w 6 t r h / ,XtXtXtXeXyX:     s B y t t ; ; 5 7 > | yXtXtXtX:X%     X ; 6 5 ; ; ; ; 5 5 ; 5 5 ; ; 1 9 5 w 5 ; ; & [ yXsXsXyXQ [ aXsXdXyXyX4Xu . % & & ; & 5 5 3 # # , 3 3 5 ; e.dXdXgXyXt     X , 5 5 & % ,.pXgXdXsXyXD.. X O X & r h +Xj f g Q Q ~ ^ j i j r f t 6 6 : t d ] q.; o   # 5 , 5 < # % e.gXdXfXdXaX:     o , , 3 , 3 3 3 < < 3 , 4 < < 1 t gXdXdXdXgXw.      5 5 5 3 3 3 3 3 3 3 3 3 3 3 3 3 3 3 , 3 3 3 # y r ,.dXyXsXgXaX|.    + 5 9 & # 1 # w ; c 6 % z.yXdXaXh     # & 6 6 6 6 6 6 7 t f x.dXsXdXdXpX.     # q ; ; ; 5 5 8 5 5 1 & 5 5 1 5 5 5 ; ; : D [ ^ >XdXsXsXdX@X      y 6 y y y V B J u j dXgXsXdXdXS.      D ) } [ / ^ ^ z.hXyXdXyXyX5.. . ; 1 , X # # # 5 o # 5 # 5 6 q 6 & # 5 ; 5 = ; 6.yXtXtXsX4X.     o 5 5 < , 5 % [ aXyXtX,XdXD.. #   o g D f u y 7 7 0 5 1 1 1 1 1 & # # o 5 + & r yXeXtXrXdX{.: X   w w 0 ; 5 > ,.yXeXeXsXr [ aXyXeXdXyX>X^ . . o , # @ @ # # o o o @ O X . ~ yXeXeXyXf       O         X             , K N     o @ O O 3 O # O O O   5 o 8 5         O     O O O @ @ @ O O O O O O O O O O < < O < < < 4 < < 4 8 4 < < 4 4 < k m z 4 4 < 4 4 < < k , @ , , O   # . ~ | } h...j f.}.r r h h G * ! h * > Q ! R D t w w 0 q 0 y q c q q 0 l l l l l q q b q q q q p p b b l N N N N b N N N N N b b N N N N N N N N N N N N N N N p p p l b A q 6 *.6XCX2X).7XvXuXpX9X9X7X5X7X9XaXpXpX9X9XpXpXpXpXpXpXpXpXpXpXpXpXpXpX9X9XpXpXpX9X7X3X3X3X3X3X3X3X3X3X3X3X7X3X3X3X1X1X3X3X7X7X7X7X7X3X2X2X1X1X2X2X2X2X1X&X2X2X2X2X2X2X8X9X8X7X9X9XpXvXvXvXMXvXvXvXvXvXvXvXvX9X9X9XvXuXuXuX9XuXpXvXvXpXpXvXvX XH 9 q N N q N l l N N N b N l b b b b N N N N N N N q 8 0 N N N N N l l l l N C C C N b b b b n C C N N N N A N b l l l l l l l q q l l l l q q q l N C C C A b 5       X   ",
"# # # o # o # o # # o o o & D >XyXsXsXyX]       ; # & # # # # # o & o 6 o & # s 0 5 ; # # % 6.sXsXsXsX4X.     o ; ; w w w t u h f.,XtXtXsXyX4X.     7 s t : : ; w w 7 > | yXsXsXtX>X%     X 5 6 w ; # & 5 w 5 - 5 5 ; ; # 5 1 ; 5 ; 5 & =.yXsXdX5X^ . =.aXyXgXdXaX5X! . o 5 & 5 # # 3 3 3 3 5 5 ; ; e.dXdXgXyX7       3 5 , & & {.gXyXdXdXgX4.  X   o : * 5.) r : u g r u ! D r r > > & y & y d t S ] # 5   , 1 , 5 < , % e.gXdXgXdXaX6     o 1 , 3 3 3 3 4 4 4 4 4 4 < < 1 t gXgXdXdXgXw.      8 5 5 5 3 3 3 3 3 3 , 3 3 3 3 3 , , # 5 3 5 5 y u h >XdXgXdXaXgXS     # + & + , 5 ; 6 y t r >XdXaXD..   @   6 & & ; 7 6 5 6 r g H.gXsXdXdXbX.     ; y 6 ; ; ; 5 # # ; 5 5 5 5 , 5 5 ; 5 5 : ! ) Q 5XdXdXdXdX+X      6 6 t 7 s V B d S [ gXgXsXdXgXw.+   . Q 5.x.f.,.h i ,.yXgXeXsXsXaXz.r * & @ & # # @ # o # 5 , 6 6 7 5 & # 5 & 5 , ; 6.yXsXsXsX4X.     o 5 3 3 5 ; % F.yXsXtXdXyX,..     t h D f u t 7 y q 1 ; 5 , # , # # # & + , & % A.yXeXsXeXaXS     w C q 5 5 d g.yXtXsXaX* $ [ >XsXeXsXeX>XD . # O 8 3 = 3 , # o o o @ X . ~ dXtXsXaXf       @               O     O O N >.U o #   @   # O @ , O 5 8 5 O X N o   O     O O O O O @ @ @ O O O O O O O O O O @ O O O < < < < < < 4 < < 4 4 k < k m z < < < < 4 < < 4 < < # , <   o * ,./ i / R R R H./ r r t u g u u u G H 9 y 6 l l w q l q q 5 q q q c q l q q q q p p l l l b N N N N b N N N b l N C N N b b b N N N N N N N N N N N N N N N s b b b q N A 5 F  XCX7X).%XBXpXpX9X9X9X7X7X5XaX9X9X9X9XpXpXpXpXpXpXpXpX9X9XpXpXpXpX9X9X9X9XpX9X3X3X3X3X3X3X3X3X3X1X3X3X3X3X3X3X1X1X3X3X3X3X3X3X3X3X2X2X1X1X2X2X2X2X2X2X2X2X2X3X2X2X8X9X8X7X9XpXpXvXvXvXvXvXvXvXvXvXvXvX9X9X9X9XvX9X9X9XuXuXvXvXvXvXvXBXcXq.y q N b N q b l l N N N N N N N b b b b N N N b N N l 8 w l b N N N N l l q b N C C N N b b b b b C N N N b N N b b b l l l l l b N N b l q q q q q l l l b A N w o   X X   ",
"# # # # # # o o # # o o o # D >XdXsXsXyX{     X & # # # & # # # & & ; ; ; ; 6 ; 8 & ; 5 # ; 6.yXsXsXdX4X.     o 6 ; 5 w 7 6 r h g.sXsXsXsXdX{.      7 V u t 6 6 w w 6 : ,.aXsXsXsX>X%     X 6 9 w 5 5 5 5 5 5 ; , # 5 ; # 5 1 ; 1 ; 5 2 =.aXdXgXaX! .   ] aXsXgXdXgX7X] . & # 5 5 5 , 3 5 5 5 5 5 ; e.dXdXBXaX7       3 8 , 6 s >XgXgXdXgXgXg     O # : Q z.r r 6 t y 6 : 7 t 6 & : ; 5 9 5 s y d 6 # w , # # 1 , 8 < , & z.gXdXgXgXgX6     o 1 5 3 3 3 4 4 4 4 4 4 4 < < 1 u BXgXdXgXgXe.      5 5 5 5 3 3 3 3 , , , 3 3 3 3 3 3 3 # 5 5 , 7 d : u F.gXdXgXgXgX)..   + # & 1 , & 6 7 y > 1.gXgXaX!     O & & 5 5 & 6 6 6 6 : r x.dXdXdXgXbX.     ; y 6 6 ; ; 5 ; ; # # ; 5 5 5 w 5 ; 7 w t ^ ^ h 5XgXgXgXdX+X      B d t & s V F G h {.gXdXgXgXgX,.      Q 5.<.g.g.R j h +XdXsXtXsXdXfX+X^ . & # X = # o ; 5 # 5 q 6 : & 5 # # 1 5 , > 6.yXsXsXdX4X.     o 5 3 3 5 : r oXaXeXsXyXyXr   O   d h h u u d t t 7 2 ; ; , , , 1 # # o X # # . { yXsXtXsXaXe.    @ k w w ; H A.dXeXsXdXr $ . ~ >XsXsXeXsX5X*.  # w 3 @ , , # X X @ @   . ( gXsXsXaXg     X @ O   O O       O     @   O K &.>.7.U K     O #   ,   O # o # N N     @   O O O O O O O O O O O O O O O @ @ @ @ O O O O < < < < < 1 < 4 k 4 x < 4 x z k k 4 < k k < < < < # < < O   D z./ T R e j e [ ~ r r g % r r r t y w k w w 0 q q l 0 N 6 c l k q q q q q q q q p p l b b N N N N N N N b l l l N N N b l l b N N N N N N N N N N N N N A N s b N N N 0 N q 7 w.cXvX X%XBXvXpXpXpX9X9X9XpX9X9X9X9X9X9X9X9X9X9X9X9XpX9X9X9X9XpXpX9X9XpX9X9X9X7X3X3X1X3X3X3X3X1X3X3X3X3X3X3X1X1X1X1X1X1X3X3X3X1X1X1X2X1X1X%X%X%X&X1X1X2X2X3X3X8X8X8X8X7X9XuXpXpXpXpXpXvXpXpXvXvXvXlX9X9X9X9XvXvX9X9X9XuXvXvXvXvXvXvXAX&X&.y l b q b p N l b N N N N N N N N N N N N N N b N N b 8 8 l l N N N N b q q c N C C N N N N C b b b N N N N N l l b N b l l q l l l b b b b l l q q 0 8 0 l q N c 5 @ X X   ",
"# # o o # # # # # # o o # o D yXdXdXdXaX{     o ; & ; o o 5 . > ( U 6 ; 6 t 6 7 ; 7 5 = & > 6.dXdXdXdXiX.     # & q 8 # 7 : r j J.dXsXsXdXaX(     o 7 y t > 6 6 # w : > ,.gXsXdXsX5X$ +   X w 1 9 8 8 @ 6 % e.s 7 ; 5 ; & ; 5 5 5 = ; & ,.gXgXdXaX(     o [ yXgXgXgXgXBX=.  o , 8 5 5 w w 5 6 6 6 : c.gXgXBXaX6     X ; , 1 ; ] aXgXgXgXgXpX.     . 6 % w.1.* r t : y : > : 6 6 : : 6 5 5 6 t y S y # 3 , 3 # # , , , # o z.gXgXgXgXBX>     X ; 3 3 3 3 3 3 3 3 = # 3 8 3 ; r gXgXgXgXBXz.      1 3 5 5 5 3 3 3 , 3 3 , 3 3 3 3 5 , 8 , , w y y t f ] gXgXBXdXgX7Xg     # & & + = 5 y t r pXgXgXOX%     X w 5 5 5 6 6 6 5 & : t x.gXdXdXgXBX      - y y t 7 ; # ; > e.J w , 5 ; ; t 5 , 5 u } } E >XgXgXgXdX+X      U H 6 ; 8 l V S ~ aXdXdXgXgXpXS       h r h Q Q i g r ) pXgXdXdXsXdXdXpX=.% o & # 1 & o ; 1 y 6 & # # # = , 1 , 5 % 5.aXdXsXaXiX      o , , , o & f yXsXdXyXsX@X.     & u g Q g u y y y 6 5 & & 1 1 , # , # o o X & o f yXyXsXdXdX4X.   o w o % r 1.g.yXsXsXyXu       ! 5XdXsXsXdXyX^ o & 8 # # w 3     o o @ . { aXsXdXaXh     O     O                     O # , P :.u.q.U N X O # O , @ , b = w 0     o   O O O O O O O O + O O O O O O O O @ O @ @ O < @ < < , , < < < < < 4 x < z z 4 z < < k 8 < < 4 < @ , 1 . . ,.f./ ^ E D.~ * i E r r r r 6 w 0 0 0 8 l q q 0 0 0 q 0 l 0 l l 9 q l q q q b b b b b y s s N q N N N N l b b b b q A s s N N b b C C N A N N N l N N N A N N N A p q q q N q & U %XbX+X XbXBXvXbXpXpX9X9XpX9X9X9X9X9XpX9X9X9X9X9X9X9X9X9XpXpX9X9X9XvX9X9X9X9X7X3X3X3X3X3X3X3X3X3X1X1X1X1X3X3X1X1X1X1X1X1X3X1X1X1X1X2X1X1X1X1X1X1X1X1X3X3X7X3X3X2X2X3X8X7XpXvXvXuXuXvXpXpXpXvXvXvX9X9X9XlXlXvXvXvXvXvXvXvXvXvXvX7XCXvX).B q l N N N l l N N l l N N N b b N b N b b N b N l b N l # 0 N N N A C N l q q l N N N b b b b N N N N N N N N N N l l l b b N N N q q b b b 0 b q q l q l q q l l q 0 5 # X ",
"# # o o # # # # # o X o o % J yXsXgXdXgX{       # ; . ; ; # & > 1.=.6 7 : f f u u y 5 5 # % 5.gXdXdXdXyX  #   # 7 q 9 5 ; > r Q yXdXdXdXgX{..     X 7 7 7 : 6 ; w 5 & > ,.gXdXdXdX4X:     . 6 1 5 ; ; q & > %XV ; o & ; ; ; ; 5 5 # = 1 ,.gXgXgXaX(       > ] 4XgXBXgXaXpX5.. 5 5 5 O 5 3 5 6 y B t z.gXgXBXaX7     O 5 5 8 6 { gXgXgXgXgXpX      5 & V S.) u r f *.g > : 6 6 6 & : 6 9 6 5 7 y S q 1 1 , , , 1 , , , # % z.gXgXgXgXBX> o   , , 3 = = = = = = 3 8 8 , 8 < # d BXgXgXgXBXz.      , , , , , , , , 3 3 3 3 3 3 3 , , , 5 , , 5 s y : S u H.BXdXgXgXBX=.#   o & % o o 6 7 t ,.BXgXBX=.      o 5 w 5 5 6 6 ; 5 5 6 t z.gXgXgXgXBX. X   ; y 7 t y 6 o # :  XH = 8 # ; ; 6 1 5 6 r  . .' 5XgXgXgXgX%X    X B 6 7 6 5 A s : z.gXgXgXgXgXc.    o o u g g u g D g u * ,.aXgXgXgXdXgXgXpX{.f & # & # #   q w 5 1 1 # # # # , , 5 o 5.dXdXsXgXpX      o # , , # & ^ dXdXdXdXyXF..     & d G Q g y d y y 7 6 & & 1 & , # # , o # o # o t >XsXdXsXdXpX>     7 H 1.z.=.5.gXsXdXaXr     . o D +XdXdXsXdXaX,.% & 5 w 5 w 0 = 3 @ O o { gXdXdXaXh     O o   5 , X o O         O   w &.X.w o w 5 Z ] A   , O < @ , 8 q X o #       O O O O O O O O @ O O O O O O O @ @ O @ < O < @ @ < < , < < < < 4 4 x < z z < k 4 < < 8 < < < < @ @ 1 . % 6. .R E <.} j e R s.i r u u t 7 0 0 q 0 q q 0 l l l 8 q 6 y 6 0 A q 0 q q l b b N N b n b b C z N b b N N N N N A N N n b b b b N N N b C A C C l l N N A N N N N q A N N p N 5 s c.cX2X XbXCXbXbXpXpXpXpXpXpXpXpXpXpXpXpXpXpX9X9X9XpX9X9XpXpXpXpXpXpXpXpXpXpXiX5X4X4X3X0X0X4X1X1X:X1X1X1X+X%X1X1X1X1X1X1X1X1X1X3X1X1X%X%X%X%X1X2X2X2X2X3X3X8X2X2X6X8XpXvXvXvXvXpXpXvXvXvXvXvXcX9X9X9X7X9XuXuXuXuXuXuXcXvXuXcXvXbXbX8X1.y c C N b q N b b b N N N N q c N c N N N N N N A l N l l 5 0 l l N N N N N l q q l N N b b b b b b N N N N N l l A N l q N l N N l l q q b b b l q 0 l l 9 l q q k q q q q 0 ",
"# # # o # # # # # # X o # # H yXgXgXdXdX=..   . # . 6 & . t : u 4X] : B . u f u d t ; 5 & % z.gXdXdXgXpX        : 6 6 6 : r j aXgXaXgXgX4XH       # 6 6 7 6 6 ; 5 6 t f 2.gXgXgXdXaX%     . ; 7 7 % : % > 5.4XS 6 o # ; ; ; ; 1 5 = = 1 ,.gXgXgXgX!   o   : % D 7XBXBXBXBXDXz.    w 5 5 w w t d &.S S.gXgXgXaXt     X 5 w 2 : ,.BXBXgXgXBX&X    O   6 S ,.h r j } 3./ ] r t 7 w ; 6 7 q 5 1 6 s s 5 1 , 3 , , 5 , , 1 ; & c.BXgXgXgXBX:     O 8 3 3 3 3 , , , , 1 5 1 , 8 5 : BXgXgXgXBXe.      3 , , , , , , , 3 3 3 3 3 , , , , , , 3 5 5 s 6 t G f j aXgXgXgXBX6X      & o # 8 q y r {.gXBX4X%     + 1 1 6 5 5 1 ; ; 5 5 : r 5.BXgXVXBXBX      & 7 t t 6 : t ; ] uXU w # - 6 5 & & ; : h <. .} yXgXgXjXgX%X      y y 6 6 q ; 6 g pXBXgXgXDX4X.       y B d f G D ~ D g t u *.gXgXgXgXsXgXgXaXiX! & & # 5 N 0 # # # , , # < , # # 3 o e.gXdXdXgXpX      o # , # ; & ,.gXdXdXdXgX1.      ; g D D d u y y y 7 5 & 1 1 # # # # # # # o , # > @XdXdXdXgXgXS .   U  XiXx.r ,.dXsXgXgXr   @   5 o t 4XgXgXyXgXgX4.$   # 8 # 5 5 # , < o *.gXdXdXgXh     5 7 o 3 3 # # +         O   A P U u.&.#   X q :.Y   @ @ < O X A w #         O O O O O O O O O O O O O O O O @ @ @ O O O @ @ @ @ < < < < < < 4 < 4 < z k < < < O < < < < < < , , + % u <. .T R j r [ r e 2.~ y 9 q 9 8 q 0 k q 6 q s q w 0 q z 9 l b q 0 q b q q q q N N N q z A n l b N l N C C l l l b C n N b N N N B N V N N N b N N l N N N b N N A N q b q q N 0 5 *.&XcX XvXDXbXBXvXMXfXfXfXpXpXpXpXpXpXpXpXpXpXpXpXpXpXpXpXpXpXpXpXpXpXpXpX9X9X7X3X3X4X1X1X1X1X1X:X1X1X1X4X4X1X1X1X1X1X3X1X:X1X%X+X+X%X%X%X1X1X2X3X7X3X3X3X3X2X2X8X7X9XuXvXvXvXvXpX9XvX9X9X9X9X8X8X9X9X9X9X9X9X9XpXvXvXvXvXvXbXbXvX XU N N q N 0 b b N b q b N N N N N A l N N N N N N A N N l q w , w l N N N N N l q l b N N N N b b b N N N N N b A b l l A q b A A N q q b b b b C k b C q q l l l c c l l q q 0 ",
"# # # o # # # # # # X o # # H pXgXgXgXdX6.S y g J H D S J ( 2.+XBX{ t & . g h [ D : & ; 5 & z.gXgXgXaXBX  X X   : r u r > { {.BXgXBXgXpX1..   # X ; 6 ; 6 7 6 5 ; 7 d S 5.gXgXgXdXaXD d d D J ! H ^ ! [ e.aXiXg 6 o # 5 ; ; & 1 5 3 3 1 =.gXgXgXaX]       # w & H &XVXgXBXBXBXS.o X 5 # 5 5 & s s : c.jXBXBXgXy     X ; w 1 & 4.BXBXBXgXBX_.      5 7 t ^ j i / j.h.A.J.! f q q 6 6 6 5 1 5 7 B 9 & 5 , 5 , , , , 1 1 5 & z.BXgXVXgXgXr .   X & 5 5 5 5 5 1 1 1 & ; 6 & # o d BXgXgXBXBXc.      , , , , , , , , 3 , , 3 3 , , 3 1 , , , 5 w s 6 B B f f H.gXgXjXBXBX]     # X o 1 q t H aXgXBX[       # 6 & 5 5 5 1 ; 5 5 5 : > 5.BXBXgXBXBXD h g J H ( ( H ! [ e.pXuXH w   # o 5 5 5 ; > R s. ./ yXgXBXjXgX%X    . ; : : > : : 4.iXBXBXgXBX6XD       , N V d d d ! ] ~ r D ) u ^ oXBXgXgXgXgXgXgXBXz.& % 7 5 # = # # # , , , , # < 3 o e.gXgXdXgXpX      X # , # - > S.gXdXdXgXgX]       6 S S D f t u y y 6 5 & & # # # # # # # # # # # % {.gXdXgXgXpX*.    ( %X[ * $ 2.gXgXgXgXd     @ O # - u {.gXgXsXgXBXx.6     +   # @ @ # o *.gXgXdXgXh     9 V X O # o # + O           q 0 o N :.y.U w X w K C @ O O   X N 0 w X   X O O O O O O O O O O O O O O O O O @ @ @ @ O O @ @ @ @ < < < < < < < < 4 < k k < < < O O < < < < 4 < 1 + $ ) g./ T j 3.+XS.t * S d 8 8 0 q 0 l q w 0 0 q q 8 b k 0 9 q q l l l q w N N N N N N N N N 0 q N c B A N b b N V B N C n N N N C n n n n C N C N N N q l N N C l b p A N N b b N l 5 N c.6X X&XJXCXBXvXbXMXMXMXvXvXpXvXvXpXpXpX9X9X9X9X9XvXlX9X9X9XvXvXvXvXvXpX9X9X9X9X7X3X3X1X3X3X3X1X1X1X1X2X2X2X1X1X1X1X1X1X1X1X1X1X1X%X1X1X1X1X1X2X2X2X2X3X3X3X3X8X7XuXcXvXvXvXvXvXvXvX9X9X9X8X9X9X9X9X9X9X9X9XlXlXlX9XvXbXvXvXvX8X1.Z N 5 N C N b b b b N N N s s q b N b b C q C b N N N A N l l 5 q l N N N N N N q q l N N N N b b N N b N b b b b N A b A l b N N 0 q q q N w q l C q q N l l q q l l l l l l l ",
"# # # # # # # # # # o o # # H pXgXgXgXjXaXvXbXpXpXgXgXpXpXBXgXBXaX=.> . $ r ) F.! > : ; 5 6 z.BXgXgXgXbX.     % r ! ,.z.4XaXDXgXBXBXpXS     X   ; w 6 6 6 6 6 6 6 : t f 6.BXgXgXjXgXpXvXvXbXbXbXbXpXpXBXBXgXaXH #   # 5 ; ; ; 5 5 3 5 1 =.BXgXBXgX(     = 5 1 1 ; u @XVXBXgXBXBX X. o 5 8 9 6 7 6 > c.BXBXBXgX6     X ; w 1 : 5.BXBXBXBXBXS.      + : u ,./ E  .k.L.G.g.^ d 6 y q 7 5 & & 6 q y 5 1 5 , 1 , 5 , , , 1 5 ; S.BXBXgXgXBXpXbXvXvXpXvXvXpXpXpXbXvXvXbXbXaXbXvXaXaXBXgXgXBXBXz.      , , , , , , , , , , , , , , , 5 5 , 5 # ; y y t S d g h ,.BXgXgXgXBX&X. X X   o 9 y f D.BXBX%X&       # w ; & 6 5 5 6 5 5 5 : r 6.BXBXgXVXBXgXbXbXBXbXbXbXBXBXBXgXBXaX! &   X 7 5 1 5 7 : Q s. .R 5XBXBXBXBX&X.     & d ( 4._.aXBXBXDXBXBX&X: . #     l y y s y d ! j R f g [ r % r z.BXgXdXgXgXgXgXBXpXg % ; # # = # # , 3 , # # , 3 # z.BXgXgXgXpX      X 1 , 3 ; > {.gXgXgXgXgX!   O   7 S D D f u u y y 7 5 & & # # # # # # # # , # # % J.gXgXdXgXBXw.    & _.J % % ,.BXgXaXgXr X     8 8 = 8 & +XgXgXgXgXgX X  o               [ gXdXgXBXD     , s X O @   X O O O           o       A &.&.A q O :.W.U 5 , X N q & #   O   O O O O O O O O O O O O O O O O @ @ @ @ @ @ @ @ @ @ < < < < < < < < 4 < 4 k k < k < < < < < < < O 1 2 . x. .}  .5X4Xj r u : 7 w w 0 w 0 6 5 y 6 q w 7 w 5 0 q q q q q 0 y B y B b l b N N l l N s B V A A C A N s s s s s s N s N N s s B N N A l l C N l N l b N N N l A p q A b b b l l q 5 ]  X$X XDXCXpXvXMXbXbXvXvXpXpXvXvXpXvXvXvXpXpXpXvXpXpXpXpXpXvXvXvXpXvXpXpXpX9X7X2X4X4X4X4X2X4X4X4X%X%X%X&X2X2X2X1X%X1X%X1X1X1X%X%X%X%X%X%X&X1X&X&X2X2X2X2X6X6X6XiXuXvXvXvXpXpXvXlX7X7X8X6X6X6X8XuX8X9X9X8XpXvXvX9XvXcX8XuXvXuX_.Y 9 9 C N N l l p N N N N N A A N p N N N C N N b A N N N b l N w w q l b N N N N N l q l N N N N N N N N N N b b N q b N b b C N N b N N b l b N N N q q q q q l l l l q q l l l ",
"# # # # # # # # # # # # , & ! pXBXBXgXgXaXpXbXpXpXgXpXbXaXaXgXgXBX~   .   t u r u > : 5 5 6 z.BXgXgXgXbX  + (.&XCXBXBXBXgXBXgXBX2Xc.6 .   X   5 w 7 ; 6 6 6 5 6 6 ; > r 4.BXBXgXdXgXpXbXbXpXbXvXvXbXpXBXBXBXaXt     # w 5 ; ; 5 5 ; 5 5 1.gXBXBXBX] O     , 8 5 & : g OXBXDXBXBXDX_.t . # 6 5 5 7 : c.gXgXVXgXy       ; 6 1 6 6.BXBXBXBXBXS.      & t u l.x. .k.L.L. .j f u 7 y y y 7 6 7 y q 5 5 , 1 # # , 3 , # , , , ; S.BXBXBXgXBXBXvXbXpXBXvXbXpXpXpXbXbXbXpXbXbXbXbXpXgXBXgXgXBXBXc.      3 , , , 3 , , , , , , , , , , 5 5 , 5 # 5 B 6 y d S d d g 4XBXgXgXgXBX!     # o 6 d h BXBXBX4.o     o & 5 6 ; ; 5 5 : ; & ; 6 t 6.DXgXVXBXBXbXbXbXbXbXbXbXbXgXpXDXBXaXd       5 5 6 6 ; r ' d. .j yXBXBXBXBX4X  & (.iXBXCXBXBXgXBXDXbX&X4.%       , l 0 N q q l u ~ r h f > u : : % % =.5XBXgXgXgXgXBXBXaX,.o .   o # , , , , # # , 3 X z.BXgXgXgXvX      X 5 , 3 ; 6 {.gXgXgXgXgX{       y S D D f u u y y 7 5 & & # # # # # # # # # # # : oXgXgXgXgXBXw.    # U ; . # w.BXgXBXgXf X     5 , 4 3 w : D.gXgXgXgXBX%Xu .   X X #     *.BXgXgXBXJ     O ;   # ,     O @ @ O       X   o 5     5 0 A q , C y.q.-.q.A o q   o # O     O O O O O O O O O O O O O O O @ @ @ @ @ @ @ @ @ @ < < < < < < < < 4 < < < k < 8 4 < < < < < < < # & $ x.} x.J.z.! S & 6 q 8 8 0 k 8 0 l q 0 8 w w 6 w s 6 q q 0 n 0 k n z C z b q l N N l l N b 0 l C A C n n N N b k b A N N b C N s s y t d A N C A N A N q N N A A q N A q l l b l l N w q :. X XvXDXvXBXCXBXMXMXfXpXpXfXMXpXpXpXpXpXpXpXpXpX9X9X9X9X9X9XpXpXpXpXpXpXpX9X7X5X5X5X3X1X1X1X4X4X1X:X:X:X:X:X:X+X1X1X1X1X3X4X1X1X1X1X1X1X1X1X1X3X3X9X9X9X9X9X9X9XvXvXvXvXvXlXlX9X9X9X9X7X7X9X9X9X9X9X9X9X9XpXpX9XvXvX9XbX&Xw.y q N N l b l Z N N N l l N N N q A C c N c Z N N N b A C A N N 0 w q N C C C A A N l q q q l N N N N N N N b b b l A A b b b b b b N q b N q N b A 0 q 0 q p w 0 q q q q q q q q ",
"# # # # o o # # , # # # , ; ! pXgXBXBXgXz.S d d B u d d V s J @XBX(   .   : > g r f 6 6 6 : z.BXgXgXBXvXo +   : z.CXVXgXBXBXD.h u .     X # & y 7 6 : 6 : 6 : 6 5 ; : r 6.BXBXgXjXaXD B d d g B G f h g ,.pXiXd     , w 5 ; 5 1 5 5 5 5 1.gXgXBXaX&.      5 8 5 5 o ; f ).BXBXBXBXBX&Xf . & w 5 : : c.gXVXBXaX6       ; w 1 6 4.BXBXBXBXBX X    # ; : r D H.;XR.L.k.} h g t y y y y y y d B 0 # 3 , # 5 1 # , 3 # 1 , # ; S.BXBXgXgXDX^ d d V f B B B B B B B B S f d B V f ^ gXgXgXBXBXc.      3 3 , , 3 3 3 , , , , , , , , , < , , & 7 B : y f t S S t ] BXBXgXgXBX5..     ; t r F.DXgXBXt       1 ; & 6 6 & 5 6 : ; ; ; 6 t e.BXgXgXgXDXf f d d d S f d S g =.bXiXg   X X ; 5 q q 5 : ~ | E h aXBXBXBXBX&X      B _.CXgXDXDXgX5.g t .   o   q q b b c y C z y G r r u u 6 : 6 1 6 : ! +XMXBXVXgXBXBXBXBXD.r . X o , , , # # # # # X z.BXgXgXBXbX      X 5 , = ; > S.BXhXBXgXgXe.      y S D D f t t t y 7 ; & & # # # # # # X # # # # t +XgXgXVXhXMX=.    Z OX;     1.BXgXgXgXd       l 8 , l w w ;  XBXBXgXgXBX&X% .   X   O . =.BXgXBXBXJ   O O o   O , X   O O O O         X 5 5 o X   X   5 w   @ U 7.$Xq.X q o o +       O O   O O O O O O O O O O O O @ @ @ @ @ @ @ @ @ @ < < < < < < < < 4 < < < 4 < 4 < < < , < < < @ , & * g.R 3.h h r ; 7 7 9 5 9 5 8 q 5 8 q , q 8 b w w q q l c N q N N l n n k q q q q c N N N C b A N N s B d N N C n M C 0 A q A N b C n b C A N N A N q N N q 0 A N A q N N N l b q q q 0 5 F y.'.*XbXvXCXCXAXBXMXvXvXvXvXMXMXMXpX9X9X9XvXMXpXpXpXpXpX9X9XpXpXpXpXpXpXvXpX9X9X9X9X3X3X3X3X1X3X1X%X%X1X1X1X%X1X%X1X1X1X1X1X1X1X1X1X1X1X1X2X2X8X8X9X9X9X9X8X9XvXvXlXcXvXlXlX8X8X8X8X8X8X8X9XlX9X9XvXvXpXvXvXvXbXcXbXbX6X'.&.q l n b b l N w p b b b A A b b C b b A l C C z b b b C N A N N l 5 w q N N l N Z A N q q l b N N A A A N N N N N A N q N b b b b b b b b b b b b 0 N b p b p b p b b q q q q q q ",
"# # # # o o o o , # # # , # ! pXgXVXgXVX,.. + . + # O + O + . $ 4X[ .   . : t t H ] d w 6 > z.BXBXBXBXBX      o : 4.aXgXgXgXBXe.6 . # o 0 w B 6 7 6 : t : 6 6 : 5 6 6 > 4.BXBXgXBXpX: .   . % + $ : : * > 5.iXB .   # 5 ; ; 5 5 5 ; 5 5 1.gXgXBXgX]       5 8 5 ; 7 & 6 r D.BXBXBXBXBX+Xf o & w 6 : S.gXBXBXaXy       5 q 9 y 4.BXBXgXBXBX2X      w 6 6 u E ..j.d. .E Q u t y t t t t d B s w # 3 , 1 y 6 5 # 3 # , # # & S.BXBXBXBXBXr .     + . . . . .         . + X O   : CXgXgXBXBXz.      3 3 , , , , , , , , , , , , , , < 5 # ; y s : y r G d t d t +XBXBXgXBX4X.     & t h 4XVXBXc.      o 5 5 5 ; 6 ; 5 6 6 6 5 5 : r 5.BXBXVXBXBX.     . # + o 6 t % . *.uXB     o 5 w 6 y p ; r R R j yXBXVXBXBX&X.     & u _.BXgXgXBXgX5.. + o 5 N q b l C q y c z c c u u G t + # & 1 & + : r D.pXgXBXgXgXgXBXBX_.6 # X # 3 , # # # , # . z.BXgXgXBXbX      X 5 , = ; & 6.BXhXBXgXgXD.      q B J D d u t t t t 5 & & # # # # # # X o # o o d 4XgXgXgXgXBX(     Y PXDXS.V 4.gXgXgXBXu       q 8 w 4 3 , 3 o S.gXBXgXBXBXuXd . X X     *.BXgXBXCXJ   O O # #       O O O O           o o X   X   X O O P C O O 0 A q # N 6 &   #     O O     O O O O O O O O O O O @ @ @ @ @ @ @ @ O @ < < < < < < < < 4 k 8 < k 4 k 4 < , 4 < < < 3 # % r <.i i r r | | 5./ ) e r / / ) i e j h 2.} | R } j i / H.x.E 3.<.^ ~ ] OX; 6 6 & 6 y 7 5 # '.(.* * j i R j r r % % * * ^ k.a.E i e r * % X     X   + P >.w     ; :.s   o o o # , , @ w 5 q # # w # o 6 s N b q q N N A A b Y K A n Y U &.N A Y U U K Y Y U U X.U X.U P A Y Y Z Y #.-.&.U P A N U >.9.:.-.I 8 w b w 3 , # X                               t & .                       X @ l A U U P A b q 0 b 4 b M xX0.k p -.=XI K b 4 p A A n Y Y I -.9.#.#.0.;.9.$.$.#.I A b 3 , o o # O O O X     5 N X     X O O                       O O @ Y iXFXy.-.-.t.7.>.7.-.9.=XxXmX*X&.I N.;.>.#.Y q 3 # o o ",
"# # # # o o o o # # O o o # ( aXgXgXgXBX4.      # # & ; 5 ; > r 5.w.d :   6 6 6 : : 6 6 6 : z.gXgXgXBXbX      ; t f z.VXBXgXVXBX).> . q q y y > > r : t t y s d w 5 6 g 5.BXgXgXgXaX&     o 7 6 u ] V g Q ' 5X[ g   ; 5 > % 6 5 5 w & : ,.gXBXgXbX]       5 1 ; 5 ; ; ; 5 : z.BXBXBXgXgX4X( . 9 d V ).gXVXgXaXq     o 5 q 6 6 =.gXgXVXBXBXvX      w ; : r ) | ' j h f d B 6 t t g g D ! J y # # 3 3 , u.( # # 4 , 3 , 1 & c.BXgXBXgXBX6     X , 3 3 3 3 3 3 3 3 , # , , 3 # f BXBXBXgXBXe.      3 , , , , , , , , , , , , , , , < , 5 ; V y t t d d u S d : ,.gXBXgXBXBX*.    # > { BXBXiX> .     # 5 ; ; ; : & & 6 5 6 9 q : r 5.gXgXBXgXBX      # s t f ,.4.u > & OXH o + X 5 6 y y y f r r g > yXBXgXgXBX&X      w ; : ).BXgXgXgXBXc.  8 U N p s q N C C N b y d g ! ! & ; # & # X ; : : u *.7XBXBXgXjXgXBXBXF.. O O 5 ; # # # # # o z.BXgXgXgXbX      O @ = = ; : ] BXBXgXjXgX+X      ; u D H G t t t y 7 1 & & & # , 1 # o   # # X . h aXgXgXgXgXBXt .   ; 5.DXJXbX%XgXgXgXgXd     o 8 k q 0 4 - -   o z.bXjXgXgXBX4XJ     + . =.BXBXBXBXD         @   O O O O O @ O           O O O # # O ,   8 P U b O     o c c +   O           O O O O O O O O O O O O O O O O @ @ O O @ < < < < < < < < < < 4 < 4 z z 4 4 4 < < < < < < < ; u ^ R j { >XgXjX,XE ' r e / E i i r h 2.R r i R / R i  .k. .} v.v.[ ] J H + 6 ; : : : & q 3 q F $ e i i j j u * % & % e  .a.a.T e > > : . . .       o *._.6 o . V :.    X     X o o o o o # # = o X 5 3 = 3 w 8 0 b q 0 0 b b b b p 0 b b b 8 b 0 3 0 4 w b b C C b l l 0 q 0 q b Z Z N q 8 w w w A Z N K #.K b q b A Y N N b 8 , q q , O X X           ; 6 .       X     X   5 5 5 # @ = 8 0 Y Y Y I U I #.:.'.].9.xX;.@ b 9.#XI M 4   5 I A n I #.#.;.9.$.9.^.%.#.$.$.$.#.#.I A q w 6 6 , # @ # O , K 8       X   O                     X     X   Z '.mXxXr.9.q.;.9.:.#.>.;.].mX*X>.` u.:.&.Y N o o o # ",
"< # # # o o o o # < # o o # ! aXgXgXgXBX4.      ; & o & 5 6 t g z._.*.y . 6 ; 5 ; ; > 6 : > z.gXgXgXBXpX      ; d f r @XBXgXgXBXCXS.o . 0 5 6 t % r r r h ! 1.1.d 7 : r 2.gXgXgXgXaX%     o s d r r t D E <.yXf.,.u & q 6 s y 9 ; 5 & : ,.gXgXgXgX]       5 5 5 ; 5 6 # ; : o S.BXgXgXgXBXiXS   : 6 S.gXgXgXgX7     o 5 0 6 : ] gXBXgXgXBXBX.     ; y 6 : u 3.f.f.f.5.,.S y ( ) [ [ ( ( B 6 # 3 = = 6 ).U 5 5 @ 5 8 3 5 & c.BXgXgXgXBX6     @ , 3 3 3 3 3 3 3 3 3 # , , 3 = f BXgXgXgXBXe.      , , , , , , , , , , , , , , , , , , = 5 B 7 t y d t d t B t f 4XgXgXgXBXpX  X o t @XgXgXe.. o   X # 5 5 ; 6 6 ; 5 6 5 5 5 6 : r 6.gXBXBXgXBX.     X d S g *.f t : : e.J # X   q y 6 B B g ! * r > 5XBXgXgXgX+X      - # % J 4XBXgXDXgXCXw.# X N P N y N c l q A y y D ] H : . & + o ; # : t t d f +XBXBXgXgXBXgXpX(     # X o , # # , o z.BXgXgXgXbX      # , # 3 7 6 g gXgXVXgXgXiX  +   o t D D g t t t y 7 2 & & # # # # # #   #   5 o f gXgXBXgXgXpX      s h 6.DXDXDXBXgXgXgXd         , l A A 0 3 # -   4.aXBXgXgXgXBXH   + o =.BXgXgXDXD               O O   O O       O     O @ # , , o   # O C q.`.&., # + q 9   @ @           O O O O O O O O O O O O O O O O @ @ @ @ @ @ < @ < < < < < < < k < < k 4 < < 4 < < < < < < # % h h j [ DXBXH.K.K.E | i e ' i i e r [ x.H.r e i h j e E a. .E ) l.,.] d t 6 & 6 : $ r % q Z 6 $ * e i ^ R H u % 6 5 > j d.k.a.i $ % % % . % . #     d cXbX7     &.>.        X o + + + X   X o # # # 5 #   , 3 4 3 4 8 3 w 3 8 w b 8 b A A N Y A A b b b b b l 0 w 8 0 b N 0 w w l b q q N 8 w w w w w 0 8 # @ @ # # , 3 # q l w 8 0 8 5 # # # X X       s o                   O   o 8 0 8 b A b b b , 3 3 @ 0 ` I ^.UXI 0 I #X7.M M 3 @ w I M A I #.#.;.9.;.=X^.;.#.;.I $.;.#.#.I Z N 0 N 5 N , , , P X.@   = X 0 o     O                   o +   O   @ q.xXGX'.:.9.9.:.:.q.9.r.q.xXcXq.&.#.:.I w # X & o ",
"# # < # # # # # o < # # o # ( aXgXgXgXgX1.      5 & & & 5 6 t u Q ] S 6   5 6 q ; ; & 6 : > z.gXgXgXgXpX.     ; S f r [ yXgXgXgXgXBX5..   y y : h i j / | 2.[ H u : & > ,.gXgXdXgXaX%     X 7 t t t t u E s.x.' D : 6 5 y y 7 6 ; ; 6 ; ,.gXgXgXaX(       5 5 5 & 6 5 5 5 6 ; : 6.yXgXgXdXgXpX[ $ : c.gXgXgXyXt     o 5 9 9 6 S 1XVXgXgXdXBXH     ; 5 6 6 r / | <.g.x.z.h f ~ ) ) ~ D u 6 # # 3 3 # ; %XH ; , O 5 5 3 5 & z.gXgXhXgXgX:     o , 5 3 3 , , , 3 3 , , , , 3 # t BXgXgXgXBXe.      , , , , , , , , , , , , , , , , , , # q s 6 y u B u d y y t > 6.gXgXgXgXBX]     ( gXgXaXH       # 5 5 ; ; 5 6 ; & 6 5 5 5 6 : u f.dXgXgXgXBX.     o t u g u : t & % s ; ; #   5 1 y y D D [ ^ > > 4XgXgXgXgX+X        ; ; > 1.BXgXgXgXgXiXH   0 U N y y q q q l B y D H u : % & & # ; o & t u 6 r % 6.pXgXgXdXgXBXe.    o o # # # # # o z.gXgXgXgXvX      @ , # w = : t 4XgXgXgXgXBXS     w : B g u y t t 7 7 5 & & # # # # # # + # # o % 6.gXhXdXgXgXc.    . 4.J.| j 5.4XgXgXgXgXd           O   3 w b q w 5 5 1.bXgXgXgXgXpX*.. . ,.gXgXBXBXJ                 O             O     O , 8 @   # # X @ O P ;.].(.Z o 1 9 @ O O O           O O O   O O O O O O O O O O O @ @ @ @ < @ @ @ # < < < @ < < k 4 < < 4 < < 8 < < < < O <   f 4.e <.aXA.' j j.G.' E e * h R e r R ^ x.v.1.r i r $ h R a. ./ ) ) ^ @XS.t + o ; : u g % t t : > r r i R r t % t 6 # : r / d. .i > o   & 2 . o #   o =.JX_.o .   u.F       X X X o o o X   X X o o # 5 # X 3 # 3 3 3 0 @ 3 3 3 w 3 4 8 0 w 8 0 0 8 8 3 4 3 0 8 8 8 8 8 w 0 l b 8 4 8 8 0 8 , 0 w 3 3 , @ - @ # , # # # # # O O O @ X           X   X   q 5                   # @ , 3 q A n b b A A Y U A n Y I n 4 ^.^.b 0 ;.xXI b n I Y A ` M I U U #.#.;.t.t.7.8.$.$.#.;.0.;.#.I &.U A Z l 8 l l -.#.b 3 X   Z K O   X X                       X         p (.PXPX$Xq.;.7.q.u.0.t.y.].cXN.&.` #.V 5 o o 5 ",
", , , , # , , , X < # # # 1 ( aXgXgXdXgX1.      # & ; ; 6 6 : > r r t u & 5 6 5 6 5 ; 7 6 : g.gXgXgXgXpX.     % r u h ^ J.dXdXdXhXgXpXS   # 6 *.^ i / }.oX' r r : > : : ,.gXgXdXgXyX&       & & ; : t u R E R j u % & y y 6 6 ; : : 6 ; ,.gXdXgXaX(       5 5 5 ; 5 ; & 6 & B ; t 4.gXgXgXgXgXaX^ . z.gXgXhXaX6     X w 8 6 t u {.gXdXdXgXgXe.    ; s 6 6 : * R } <.f.f.u g ) ' ^ D u 6 5 5 5 w w ; d 6XH ; X @ 3 3 3 = ; z.gXgXgXdXgX:     o , 3 3 , , , , , 3 # , 3 , 3 # t BXgXgXdXgXe.      3 3 , , , , , , , , , , , , , , , , 5 s y 6 y y d y t d 7 ; > > aXgXdXgXgXz.  o D.BXaXH.% #   X ; 5 5 ; ; ; ; ; & ; 5 5 1 6 : f A.gXgXgXdXpX      & r u D : t % 6 6 & ; w w ; 7 6 t r f ) ,.) f > >XgXgXgXgX+X      A A & : r OXgXVXdXgXgXpX%   8 q N c q w q z c y G g u D S 6 & # # & % 6 : ; . : % ! gXgXdXgXgX&X.     X ; o & # o o e.gXdXgXgXpX      O , # X p 7 . D.gXdXdXhXgXc.    o y d d u y t 7 t 7 ; & & # # # # # # + + ,   % 4XgXgXdXgXbXd o   : ).gXoX,.$ <.gXgXgXgXf       # O       O , 8 , N 8 ; J aXBXgXgXgXBX=.% [ gXdXgXBXh     X # O O   O O O             X   O <   O , # O O   ,     w y.&.o o q # O   @ O       O O O O     O O O O O O O O O O @ @ @ # < < @ @ < < < < < < < 4 8 < < z < < k 4 < 8 8 < 5 & r ~ Q / } r j T  .V./ j r $ j h i / j j x./ h R r h r $ R a. .aX,.Q r iX6X6 1 5   t ~ u > * : t * r * u ,.r o . & o X o u i ' ' r f &.Y + + % &     . S.DX(.. .   &.6                 X X X X X o o , w 3 # w 3 3 3 4 q # = w w l # 8 w 8 3 8 4 0 , 8 0 , , 0 4 3 3 3 3 4 w 8 b 8 3 3 8 0 3 , 0 3 3 4 , @ , o # O   O     X #   O # X X o X       X   q q               X     @ @ 4 8 0 0 0 4 b 0 b b 0 4 n n k 0 M ].I k b ^.mX3 b b , n U I I I U U #.#.#.;.9.;.;.;.9.9.9.0.t.0.9.` I A #.(.$XnXcXt.I b @ b #.cX0   O   X                   +     #   o       -.mXPXLX'.9.u.9.;.9.#.;.#X`.9.` Y U w # X # ",
", , , # # , , , # , # # # & ! yXdXgXdXgX,.      # & ; & ; 5 : : r r : : 7 7 & 5 w ; ; 6 6 > 5.gXdXgXgXpX.     : f f h E } 5XdXdXdXdXgX+Xr   y F u f ) f.| Q r y : 6 6 : ,.gXgXdXdX5X%     X 5 6 7 ; t u u i j r t u 6 y t & 6 7 6 : 6 > =.gXdXdXaX(       w 5 ; & 6 w N c 5 5 y q y =.4XgXyXgXdXaX,.z.yXgXfX5Xt       w 5 6 t u | sXdXdXdXyX{.. . X U 8 5 & : r j ^ [ | f u S u u > % & # # 3 , 1 6 e.4XD % o X = # 3 = ; e.gXdXgXdXgX:     o 1 = , , , , , , , 3 3 , < , # t gXdXdXdXgXw.      3 3 , 3 , 3 3 , , , , , , , , , , , w s y 6 y y s y u t 7 # . % 4.aXgXsXgX4X> u 5XgXaXJ o   O # 5 5 5 ; 5 5 5 & 5 5 ; 5 & 2 : f f.yXgXdXdXgX.     : f h g d t y 5 5 w w 5 5 5 % ; 6 > r ' } R g r >XgXdXgXgX+X      0 5 1 y t ! >XgXdXgXdXgXD.%   8 C C N 3 k C A F t r ^ ( H y 9 q ; ; % % o 5 # # % % 1.aXgXdXgXgX.       # & 1 # o o 5.gXdXdXgXpX. X   O , # 7 & ; : [ gXdXgXdXgX+X>     y G d u t t 7 y 7 6 & & & # # & # # + O O o J gXdXdXsXgX+Xw     % ( f.6.[ h 3.gXdXgXgXd o     # # 5 # O       O   , w # *.4XgXgXdXgXgX3.' gXgXgXgXD     O , @ @ @ # O O                   O < O   X # # # o X   # w A X # w   @ O O O       O O O O O O O O O O O O O O O O @ @ < < < # @ < # < < < < < < < 4 < < z k < 8 < < < < < < & t [ ) e r j E E h.a. .E r r j j i E | ' E j g r e S : * R  ./ j u r $ J *.& 9 2 %Xc.D ) u r : % > f r r 4.z.7 . ; ; o % * * j / i % s 5   1 ; . X o o _.JXV   o s U ;                 X o o X X # , 5 5 , # 4 4 3 3 @ 3 4 8 8 8 8 3 8 C q w 3 3 8 , 8 0 , , 8 3 , 3 3 3 w 8 , k 4 0 4 3 4 8 8 , 3 8 3 @ 3 @   @ O X O O     #     O     X   o X     # V             X   o o @ , 3 3 4 b 4 4 b b b b 4 A I 0 n I 4 t.`.< 4 M xXt.4 n n M M b Y #.I I #.I -.#.0 n -.#.$.9.;.;.9.;.r.;.;.:.'.PXLXkX^.#.Y b 8 Y -.;.^.O     O # O O                               X   w :.$XPXnX(.q.t.t.;.t.9.Y ;.*X9.Y w = X X ",
"# # # # # # # # # 5 1 ; # & H yXdXdXdXdX=.      , 5 6 ; 5 5 6 6 r : : 6 6 7 6 5 w : : 7 ; > 5.aXsXdXdXiX      t ^ h ^ h E L.sXsXsXsXdXgXD..   6 t u f j j r d 6 6 7 y t ,.gXdXdXdX5X%     o 6 t 5 ; 6 6 t h ( u u 6 & % q.t 7 ; : 6 6 : ,.dXsXdXyX!       w 6 ; y B & 7 5 6 B 7 k 5 u [ dXyXdXdXdXaX5XsXsXgXyXt     X w 5 6 u f E <XsXsXdXgX4X>   . q 8 w 5 6 & * t g h r t y 6 6 % # ; # # 5 5 & u %X&Xh %   o ; 3 3 = % 5.dXdXdXsXgX:     o 1 # # , , , , , , , 3 , < 3 # r gXdXdXsXgXw.      3 3 , , , , , , , , , , 3 3 , , , 5 q s t 7 y y d d d y y # o : h 4XdXdXdXyX~ ,.aXgXS.>     # ; 5 5 5 5 5 6 5 & 5 6 ; 5 & : : g A.dXdXdXdXaX    + * i R Q H & 6 ; # w w w q 6 & 1.6 % r ) / Q h f >XdXdXdXsX+X    X # 5 9 c S t z.aXgXdXsXdXaX~   , z z n q C n N V t * F.^ t % q s 5 o ; % 5 9 3 O 1 & & @XyXsXsXaX    O X ; 7 5 1 # % 5.dXsXdXdXpX      # 1 : : u y ; t @XaXdXsXgXyXh .   6 B d u t 7 t y y 6 & & & & & & # # # X   o F.dXdXdXdXpX5.        . . f S t ,.aXgXgXgXt     X , O     o O @   O O     @ . H 4XgXdXdXyXyXoXdXdXdXaXh     O , O O < , O O     O O       O   @ C C ,       w X o #   @ X   8 N O O @             O O O O O O O O O O   O O O O @ @ @ @ < # @ < # # < < < < < < 4 4 < 4 z < , , < < < , , 1 D r 5.R i G.sX .a.a.} j r > r Q i / <.} e e h r r t % * e / E j : * % - o y F & 1.+X1.f . r t > u t > & d _.H t   o o & t % r j u % . o o . . ; & . : DXiX    # ( &.X X   X     o o o o X X o X # # , , # 3 3 # @ 3 3 # w w 3 3 3 3 0 b 0 8 , 4 8 3 4 3 3 , 3 , 3 8 w 4 3 3 3 0 3 8 3 3 3 , 8 , @ w 3 @ @ @   X O                 O         o   X # q X             X X # , @ 3 0 0 b A 0 b b 0 n n b n b b I I 4 ^.t.< 4 I GX;.I L n b L I I #.I #.k #.&.-.U #.^.#.;.9.#.#.#.I t.nX*XxXPXxX;.@ 8 3 b b 4 ;.;.9.3   +   1 @ + + O O                   #         X     3 Z *XPXnX=X(.9.:.9.9.;.UX'.N ; 5 # # ",
"o o o o o # # # # 1 , # # & H 5XdXdXsXaX=.      1 6 6 6 5 5 ; ; ; ; 6 y : ; 7 w w 7 6 7 ; > 5.aXsXsXsX7X.     t ~ ^ R h R ' K.dXsXdXsXdXyX[ $ % 6 6 : r > r : 6 6 6 t r ,.dXdXsXsX4X%     X & 6 5 w 6 6 : > 7 t 6 : : ] ).> ; w 6 7 t t ,.yXsXdXyX!       0 q 6 6 q 7 ; 7 6 ; 7 5 B u j ' >XsXsXsXdXyXdXsXdXyX:     o w 5 6 u g  .K.tXdXsXdXgXz.%   O 8 4 5 # 5 2 2 t u 6 t 5 5 1 # , 3 @ o # & > ,.yX+XS %   X 5 , 4 3 ; 5.aXsXsXyXaX:     X 1 # # # , , , , , , , , , , # r gXsXsXsXaXw.      , , , , , 3 3 , , , , , 3 5 5 , 5 5 V q 7 t y t y y u y q # 5 o % z.dXsXsXdX>XoXgX4X(       # 1 5 5 5 5 5 6 1 & & ; & ; & 6 r g }.gXyXsXsXaX. O   h d.f.[ y 1 5 ; ; w 5 5 & o H &X% & t ^ ) h D u >XsXsXsXsX+X      X , 5 9 t u f oXaXgXsXdXsX>Xf   8 z z q N C C s t > 4X[ f >   5 ; o ; 1 9 , 3 # 1   o 6.aXsXdX5X.     # y u & 1 o o 5.dXyXdXsXiX.     # t ! f u 6 7 d H yXyXsXsXdX{.$ . o d d y y 7 7 y y 6 1 & & & & & # #     % h >XyXyXsXgX+X.       # & : : % & 1.aXdXdXdXu     7 Z 8   O   X   o     @         f +XaXdXdXsXdXsXdXyXaXh     # , O O # , @ O O O O O         O @ , U &.Z # O O   X X o #   X w Z #   O O           O O O O O O O O O     O O O O @ @ @ @ @ # @ # # # < < < < < < 4 k < < z < , , , 3 , 8 , & g i ^ / e L.eXa.R.k.d.R j h j / i f.} e r ~ D > g r $ * R ' E > d y & = 5 =.*.$ $ g ! $ u r > r t 7 : t % % > : N 8 o 5 ; 7 % > > % : X . X X X o o 4.CX4.  X # &.A             o o o o X X o O o o o # # 3 3 @ 3 3 w 3 4 3 3 3 3 3 l 0 l 0 3 8 4 4 , , 3 3 3 3 w w 3 3 3 3 , 0 3 3 , 0 4 , 4 3 3 3 3 #   #   O O O               X             X N ;   X           @ O O # O , 4 8 b 0 8 b b l 0 b 0 n I 0 n M ;.xX;.3 n `.GX9.9.$.Y -.-.I b K U 8 P K k :.:.W.r.&.I #.0.r.=XPXUX=X`.;.Y = 3 0 Y ;.-.9.;.#.;.A @   O   9   + @ @ + O O O O   , O @       O   X   X   X     5 (.mXGX=X9.;.7.;.#.(.:.w   X   ",
"# o o o # # # # o # # # # & ! 5XdXsXyXaX=.    O 5 6 6 ; 5 5 5 ; > d s 6 6 ; 5 q w 5 : : > > 5.aXsXsXyXiX.     : ^ h D g i R E :XsXtXtXsXsX4X*   & : : t t > : t 7 6 6 > | yXsXtXsX>X%     o ; 7 ; 5 6 & ; q 1 c 1 6 & e.] 6 7 - 5 y y f ,.yXsXsXyX!       q y 7 6 7 q 6 ; 7 7 : u r h ^ ..L.yXsXsXtXdXtXtXdX>X6     o 5 5 6 r j / G.tXtXdXtXyXyX*.. O 4 3 3 , 5 1 1 & t 6 t & & , # , 3 # 5 5 & > oXgX+Xf +   # ; # 4 3 ; 5.aXsXsXyXaX>     X , # # , , , , , , # , , < , # r aXsXsXsXdX5.      , , 3 , , 3 3 , , , , , 5 5 3 5 5 w Z 6 7 y t t y t u d 9 , # & % f aXdXeXsXsXsXsXF.7       & 1 & 1 1 1 & & : & 5 : & ; & ; : u g.eXsXdXsXaX.   . h x.f.h % 5 , ; 5 # 5 5 5 ; e.1.% 6 6 D Q D g r :XsXdXsXsX+X      # 5 9 9 y t f h 4XyXdXtXeXsX{.:   8 l w w C A s > f pX6.f . . 5 & & . & 9 , @ 5 @ # o ] yXsXsXoX  O   # t : & # X % 6.dXsXdXsX4X      . u ,.h f 6 7 t > z.dXeXsXsXfX5.  . t d y y 7 6 y y 6 5 & # # & & # # o . % J.dXsXsXsXyXf .         X 6 6 . & ,.dXyXsXaXg +   X Z l @   O         X       O   o r J.aXeXdXdXsXdXyXaXf     , 4 @   O O # O O O O         O O   O @ Z :.7.Z X o o # o O # o # N #   O   O         O O   O O O O O O     O O O @ @ @ @ @ @ @ # # # # < < < < < < 4 z 4 < 4 1 1 # # o   O O & g j r E / <XC.W L.a.' e r ! r / E x./ r * : > $ g r $ % ^ } j f q 1 X p - &.: r ) x.*.r g u : t y : 6 d g * > > Z , w 5 X   . % r > : & # X # X ; . bXuX:     w &.q             . . . o X o X   # # 3 # # 3 3 @ 0 3 w # 3 4 , 8 @ 4 3 3 3 8 0 4 8 3 @ 8 3 3 3 3 w w 3 3 w 3 8 0 8 8 , 4 @ 3 8 @ w 5 X O @ @     O O                     X       s 5   X   X X     X 3 , O # 3 0 0 3 p b b 0 8 3 b k b k b M b M ^.=XI 3 ` FXxXt.9.9.I #.#.#.#.U -.&.X.C K :.U `.`.*X*XFXLXPXFX#X#.I -.;.&.;.t.#X].t.9.;.#.#.Y , O   O + 9 + + + @ @ @ , , # + 8 5   O O         X       X   X # p N.nX$Xt.9.9.:.#.>.p # X # ",
"o # , # # # # # + 6 o o w ; D >XsXsXsXgX[   +   6 y 6 6 ; % 6 7 y y 7 6 6 6 ; & 1 t & ; : > 5.yXsXeXsX4X.   + o u u u u u r i / >XdXyXdXyXyXoX> . 6 ] t : : : 6 S ! ! h <.sXtXsXeX>X%     o ; 9 7 ; 5 5 5 6 w 5 6 > D +XS & 5 o t u j j <.yXeXeX4X!       7 y 5 ; y V 6 w q 5 0 r i R  .<XdXsXrXtXsXyXsXsXsXyX:     o 6 6 t t u /  .h.<XsXsXsXsX}.> . + < z 8 , 8 , & 6 7 5 , , # , , 1 , o % > A.sXyXD.7 O   o ; # # o ; 5.yXtXsXsXaX% o   # < # # , , , , , , , , , # 5 % r aXsXeXsXyXw.. O   , 3 , @ 3 3 , 3 3 3 < < , 3 5 5 5 s y 7 t t t 6 t t t 7 6 5 , # # % z.yXsXtXsXyXpXh       # & # & & & 1 1 & & & 1 9 & & & % : 6 | yXsXsXeXaX  .   G 3.) t 5 3 , & 5 9 1 & r h @X7 & 2 $ g R g B r @XyXyXsXyX+X.     @ 5 9 q c y u f 5.yXsXsXsXeXaX5.  X l w B c d y u | aXoXf o   ; ; o > % ; 5 < O # ; o 4.sXeXyXz.    X o ; + # 1 , & 5.sXsXtXyX4X.     ; % *.[ r t y q y ^ oXeXdXeXsXyXh . & c y y 6 t 6 B 6 & & # # 5 o 1 # o % ,.sXsXsXyXaX1..       5 q ; Z 5 1 % ,.aXyXtXsXr       w , , , # X           o     O     : ).yXsXeXsXsXsXaXf     O @ X + # < # @ O O               @ , b 3 0 &.:.q     o O X @ # w N # @   O       O     O O O O O           O O O O @ @ @ @ < < @ @ @ < < < O < < < < 4 k 4 z 8 #     X     o B D h i T ..dXj.E R.E E r r f r R / / * > f r % e i d   e ^ ' j r 5 @ @ @ # $ e } / ^ ^ r r r e r & 5 9 B y t ; ; U >.X w 0 8 # & % > * % ; o # ;   % JX&X;     q :.#         o o o o o o o o o X # X # , 3 , 3 # 0 3 4 3 @ 8 w w , 3 @ 8 @ 4 3 3 3 3 @ , , 0 , 8 5 , 3 4 3 # 8 8 3 8 3 4 3 @ 3 , # , # o O O X X   X                           ; w o   X X       @ 3 w 3 3 , 4 b b b b 0 A k 8 8 b b 4 n n b n b ].`.0 b ;.FX^.9.9.t.$.#.#.#.U K P P P &.mX>.q.iXLXCXxXkX$X9.n U ;.y.#X=XnXPXcX=XW.&.X.U U C O @ @ O @ 1 1 < @ 1 , + @ 1 1 < + 9 1 @ 1 # O O   O               # X   F $X:.r.9.;.;.A w 5 + # ",
"# # # # # # # # w o 5 5 # ; h yXsXeXtXyX[ .   X d 7 7 7 5 6 B s 7 t y 7 6 ; ; : 6 6 : 6 ; > 5.yXtXtXyX5X.     ; t t r : t t r r g.>XyXsXsXdXyXg.  . s w 6 6 t > f ] ! f | sXtXtXsX:X:     X 6 9 7 6 o ; ; : 6 & % f 4X).: B X . f j ' f.H.eXsXsX4XJ   O # 6 : 7 6 6 7 w ; 5 6 6 t i E a.tXjXdX<XP.sXsXeXsXeX>Xt     X 5 : 6 t u i R E } :XsXeXsXaXz.% + # , # X 1 # & : 6 ; # # 3 # # X & % : e.aXyX@Xf .     X 3 @ w 5 . 6.yXsXsXeXyX>     o # # # # # , , , , , @ < < , X r aXsXtXtXyX6..   o 8 @ @ 4 3 < , < 3 , , , , 3 3 5 5 q y q 7 t t 7 t t y 7 6 1 # # X o h >XyXsXsXdXz.&     O & 5 & & & & & & & & & & ; ; 6 ; % : : { eXtXtXsXyX.   . r R r * & ; o - o 5 > * r OXD.% o & : ~ ^ h r r oXeXeXeXsXoX      , 5 5 7 B B d g D {.yXsXdXeXyXyX,.  o y d S H S g 5.yXaX' .   , # w 5 & c 1 5   o % % H.aXyX5X~   O   o % 1 # X o % 5.yXeXtXdX4X.     o t D *.*.t Z P B Q ' K.yXeXtXyX}.r $ : d y 6 7 7 : 6 : ; # o ; ; o o % ~ >XeXsXeXaX,.%       0 U U 6 w 0 o . =.aXyXsXyXf   O   X # 5 5 8 q q w #           O       : f.yXsXtXeXsXaXf o       X O # < # @ O O O O       O , @ 0 &.U #   , A 0 + #   # X X = p @ O   O       O     O O O O O O O O     O O O O @ @ @ @ < @ @ @ @ < < < < , < < < 4 4 < z 5 O              XD.i j x.}.f.i  .j._ R i f f r j R e u r H > u e j u . $ E ' h % o . # # . $ / } i $ u u r e r % : ; 7 6 6 6 t . q (.# o Z A 5 & % * % $ o ; X o % ] JXc.  X & N &.#   X   X o o o X X o X X O X # # = 5 # , @ @ 3 3 w 3 3 w 0 w 3 w 8 b 4 0 3 , , 3 @ , , 3 , 4 , # , 3 4 3 3 3 4 8 3 4 4 3 3 , @ @ O X X O X X X X                         # w #         X @ @ @ # 3 8 3 @ 4 b b b b 0 C 0 w w b 0 k k n b n $.=X$.4 4 t.nXb #.;.#.I n b I U P n z C '.nXPXKXmXy.#.A -.:.#.].*XnXLXLXPXnXmX=Xu.U b z z N 8 O @ O O 1 c 9 O + 1 1 + @ 1 1 + + 1 @ O # + O #   O O           X   o X   5 4 r.9.r.-.#.5 o # + ",
"o o o # # = # # , , o 5 & & H >XeXtXtXyX]   o   u : t d y 6 5 w 7 t t t 6 & : 6 w o 6 6 6 t 5.sXtXeXsX:X      o 6 y 6 6 7 6 t * r {.dXyXeXeXsXyX,.%   5 5 ; : t f D h r | eXtXeXtX>X$       s 6 ; 6 ; 6 : & 6 t j D.yX6.: . o & j / g.,XdXtXtXtX5X! .     6 6 6 6 y ; 6 ; 6 y 6 u u E  .<XtX,XL.} H.eXsXtXeXyX>     X 5 5 6 6 t u f r g [ 5XyXeXsXsXH.r . & 6 w # # & 6 6 ; # # @ = = > > r ,.aXyX@Xh   o   # w 3 3 < O : 6.yXtXsXsXaX*     o @ # # # # , , , , # 3 3 < , 5 > aXeXeXsXyX1..     3 8 3 @ 3 , < 8 3 , , < < , 3 5 w y y y t t y y t t t 7 5 1 # # # # % A.sXsX,X>XD       # 1 & & & & & ; ; & & ; 5 ; & & o & 6 & [ eXsXsXrXaX      % > $ & # 5 . w ;   > j J.aX2.& &   * [ / h D u oXeXeXtXtX}..     X N 6 y B B F F g ^ oXyXeXrXtXrXaX[ . : S S H D D x.yXyX{.*   ; 5 X & ; w q o w ; . ~ yXyXyXD.%       & # @ # X 5 . 5.yXsXsX5X5X. +   & : u ! =.y c Z S D ~ ' oXyXeXeXyX:XR . t 6 : ; 7 y 6 6 ; & o & ; % > ' >XdXeXsXyX6.  .     5 B 6 # X       : [ yXeXeXyXr       O , X # # # 5 8 w # O O     O O   o   $ z.yXeXtXeXyXh       @ o O O O # # @ O O O         O @ q l Y U U 8 O +.N   O O # @ 3 b # O O O       O   O O O O O O O O O O   O O O O @ @ < < O O O O @ @ < < , < < < < 4 4 < , , # X   O X     _.DX{ R r R [ } } j./ i j Q u * g i r r * > f r e R f . $ h R f % % . $ . * / x.i $ $ r u i j ^ Q > & : B H ; y 5 , q w.&.1.y X   o $ . : ;   & o . S.vX=.o   # A P           . . .   o o X X o     = # , @ 4 8 q 4 4 w # @ @ 3 # # 3 8 0 4 4 8 , 3 0 3 3 3 3 8 8 5 , # # 3 @ 3 3 4 8 3 4 4 3 3 , @         X                               X q #         X X 3 = # , w 0 8 3 4 b b b b k n 8 # # w w b 4 n M k t.#XM < b ].`.4 0 M M I I U #.K ;.t.`.mXPXq.U (.&.U P 9.9.=XPXKXPXmX(.:.q.9.:.A b 8 , < O O < < < < , c C 9 O + 1 1 + + + + + + 1 + + 1 # + @ @ @ # # O                 @   w #.9.;.U 0 o   # ",
"o o # 5 5 5 # # , # ; # ; % ^ >XtXeXeXyX,..   @ r u d u y t 6 q t 6 : : : : : 6 7 y y & : u g.eXtXtXyXyX*   O 5 y 7 : 6 : 6 y y r u A.yXeXtXeXtXyX[ . o w 5 : : : y t r 3.yXeXtXeX:X%       ; ; ; # ; ; t t r *.K.yXaX! 6 %   y R ..V.dXdXtX,XtX5X~   O   q 7 : B U t 6 : : r g ~ h R / d.j.j.a.E R x.eXsXyXyXt     X w 5 w 5 6 y t u u t ] {.eXeXsXyXJ.' $ % & # # 5 8 5 # # # @ # ; o ] H.yXyXD.S .       5 @ # , @ 8 o g.sXeX,XsXyXu +   o , @ # # , , , , , 5 , , < 5 % h yXsXeXeXyXz.. +   3 @ @ 3 3 < 3 , , , 3 3 , , 3 5 q y y y y t y y t y y 6 5 # # # ,   % ~ yXyXyXH.%     O 1 & & & & & ; ; ; 5 5 5 & & & 5 & % : : ,.,XsXeXtXaX.     @ 1 # 3 # # & o ; : [ }.yX>X^ X   . u ~ ' ~ r f :XeXtXtXeX@X%     5 5 q 6 y V B B J g ~ oXsXeXtXeXyXoXh $ 6 B D D h 3.yXsX,Xz.% . . 5 7 % 6 ; 6 & % r oXeXyXoXJ       X o 1 , , , o % z.sXeXtXyX5X:   O 1 y : > u c B 9 B H ^ Q ^ g.,XeXsXyX>X1.* * t y y 6 9 5 6 + & & % j 5.yXyXeXyXoX^ .       X ; # o 1     o o . ,.yXrXtXeXh . X   O O X O O o @ @ @ @ ,   , o       @ O   o 1.eXeXeXaXH     O O     @ @   O # # O O O O O O   @ P 3   3 &.>.A 8 P 8 , O @ @ 5 q @   O         O O O O O O O O O O O O O O O O O @ O O < O O @ O @ @ < < < < < < < 4 4 < 1 8 5     + X   . f +XgX .j j ' e ' / R / Q h * > u r r u r * : r j R g + $ R } h > > % $ $ R G.a.i j t * $ r ^ [ *.% > 6 =.Z q w 5 o + ( w.( :   X ; : % % ; o . . : e.vXJ     # &.A   X   X         o o X X X   o o o # w 3 @ # w = 4 8 8 # w 3 = 4 3 8 3 4 8 3 @ 4 0 , , , , 3 3 8 3 , 3 3 3 3 4 8 4 3 3 3 , @ @ O O                                       0 w     X     X   5 = # 4 8 8 8 0 b b b p b 0 k 4 3 @ , 0 b 4 n M k ^.t.4 4 I FX`.&.9.^.9.^.`.^.9.-.9.r.;.&.#.U 7.&.:.>.r.-XnXKXLXCX'.&.P 5 0   # O , @ O , < < < 4 < < 8 c l 1 + + 1 + + + + + + + 1 @ + 1 , @ @ 1 , 1 1 @ O O O       #       , 3 &.:.U 0 #   # ",
"# # 5 5 5 5 5 5 5 & ; % % > <.yXtXtXtXeX@X% . & g ~ ( D u t S S 7 ; % & : 6 6 6 ; B y t r j K.sXtXtX,XyX] .   1 t : t u t t 6 6 6 u r 6.yXyXtXeXyX>X[   7 6 7 6 6 6 : * oXyXeXeXyXoX* . . o : > > > > f Q 5.5XyXyXyX>X*     o 6 E d.C.wXtXtXtXtXyX|       7 7 6 6 y ; 6 : r g 1.=.~ j j R E E E j h r g.yXyXaX:     + 8 8 8 w 6 5 9 6 5 5 t r z.yXyXeXyXyX+X^ $ % % % : : % % * : * ] oXaXaXaX<.> .       = # 8 = # & o r oXsXeXtX,XsX5..     1 # # # , , , , , # 5 @ 9 . % g.eXtXtXtXyX{.*     3 = 4 3 @ , 8 , , 3 3 3 , , 5 w q q 6 t y t y t t y t 6 & # # # X ; . $ oXyXaX|       O 5 & & 1 & ; ; ; ; 5 ; ; 5 5 # o 6 6 % % H.sXtXeXtXyX. .   . % . % % % r ! ,.+XyX,XyX:X> o     D ~ ' ^ u ^ ,XtXtXtXtX>Xf     ; ; X ; 5 & t y y S f r A.yXsXsXeXeXaXh . Z F S h ' yX,XsX,X@Xf $ : : t u r r $ [ 5XyX,X>Xj         # # , @ + # & > oX,XtXrXeXyX,.. , 1 y g D ! D B B B D ^ ! h r ' eXeXyXyXaX4X,.* r r r > * * * > u z.aXyX,XyX5X@X% . X   X   # w X   @ @ o . . $ A.eXtXrXeXz..   . @     @ @ @ @ @ O O @ , , @         O O X . } yXyXyX]           o , @     @ # # O O O     O   w @ o     A &.5   0 P 0 @   # w X   O           O O O O O O O O O O O O O O @ @ @ @ @ @ O O @ @ @ @ @ O < < < < < 4 4 8 , , o     O X   . u R sXyX .i | $ r j R <.z.[ u t u u g ! u ! u [ R } D o $ } ' i % o 7 r e L.j. .' E u * * r * g r % % U N @ 0 5 8 q N ] ] U y 5 ; ; & ; ; % w o % % e.e.% .   0 :.s       X X     X o o X X   5     = w   @ w 3 3 w 4 4 8 @ w 3 4 8 4 8 3 4 8 , O 3 8 , @ , @ 5 , 0 4 3 3 4 w 3 3 0 8 , , , # @ @ @ O X                                     0 o X     X     X w 5 3 w 0 0 8 k I I M n b 0 b k 8 , 4 0 8 4 n k k =X9.@ 3 9.GXn A Y I M k 4 4 4 @ 3 n 3 L ;.r.#X#.0 -.PXKXKXLXKXKX>.@   # 1 O 1 8 3 1 k 8 4 < < k < < 9 9 1 < 1 + + 1 + + + + + 1 1 + + , # @ , 1 < , 1 < @ @ @     O   #       O 3 9.Y 8 o o o ",
"1 1 # ; ; ; ; 5 ; 6 & % f | >XyXeXrXeXyXyXz.r $ ~ w.*.f g f u t ; ; ; 6 6 6 6 t u t t r ^ h.sXeX,XtXeX5X>X] % & t u J J S d 6 > u 6 % > ^ x.>XeXeXyXaXe.B % 1 2 % * h A.aXrXrXeXeXeXyXyXyXyXrXyXyXeXyXyXyXyX,XeXyXaX[ .     : t j R  .R.tXtXeXeXyX>X=.6   y y 9 w ; ; 7 : r g ) D D f f i g g g u u r r 5.5XyXS       5 w 8 w w 8 8 1 q 5 q > * ^ z.4XyXyXaXyX>X}.A.5.<.| ,.3.f.H.5XaXyX4Xc.g .     < @ # - o # & X ; d S.yX5XsXtXeXeX+X*.% . & 3 , , # , , , , 8 , 5   t ,.>XyXtXeXeXyXyXz.d   X @ @ @ 3 3 , , , 3 , 3 , , 5 6 q 6 6 t y y y y y y 9 5 & # # # # o & % D 7X5Xr       , 6 & & & & 5 5 1 1 5 1 & & 5 5 & & % S w.eX,XtXsXrXeXaXyXyXyXyXyXyXyXyXdXyXyXeXyXeXaX5.    X o D ^ / i ^ J.eXeX,X,XeXyXH.S   . # w # 5 5 6 5 B B S h j | K.>XeXeXyX>X4.t c B f j 3.:XrXyXyXrXoXg.3.| | 6.A.K.yXyX5XD.G $   X   @ , , # , ; % ! H.eXrXeXeXrXyX>X=.; % =.@X{.5.=.[ ! J ! D D g f j E 3.K.yXyX,XaXoX3.3.| { } <.,.A.>XyXyXyX>XD.( .   O     X X # # o O + + & . : 1.5XeXeXeXeXaX4.:   + @   X       O @ O O @   O # 5 , @         o | 4XaX=.    O O O # , , w , O X O @ O O <   O O 3   X # X   q >.c , K U 3 @ # 3 @ @ o           O O O O O O O O O O O O @ @ @ @ @ @ @ @ O @ @ @ @ O O O @ @ < < , 4 3 4 < O   O O O   X & u e e G.<Xd.i * * f f ^ ~ ^ f r f u $ h h r J i R  .h % $ }  .i > % % j V.a.M.j. ./ j $ h r % e $ t V A   , w w w q w s U s ( N   - 7 ; > . % % . : *.6     # N :.=               o X X X     # o o X # @ 3 3 # @ 8 4 3 w @ w 3 3 3 3 8 3 4 3 3 O 3 3 3 3 , @ w , w 3 3 # , 4 , , 3 3 , @ , @ @ # @ O                                       X             X # # 3 3 3 0 0 4 4 b b n n b 3 3 4 4 3 l 3 4 0 Y 4 ;.].#.4 0 9.$Xb 4 , b b n n I M I M b 0 L #.A y.=XnXLXKXLXKXKXcX9.  8 # @ < 1 1 C 8 < < 4 4 < 8 c k 9 2 1 < < <   + + + + + + + + , + + , + < < < < < 2 , , 1 1 , @     O     X   # l Z , @ # X ",
"5 & # & & & & ; q & &._.&XiXaXaXyXyXaXiXiXpX2X X,.! u f t > : % & 5 6 6 6 6 6 t f u q. X4XyXyXaXyX5XyXyXyXiX&Xc.t d S g t t y y 6 t 6 & * > j | A.{.+XuX6X$X(.; ,.OX4X4XaXyXyXyXyXyXyXyXyXyXyXyXaXaXaXyXyXaXyXfXuXiX.       & u 5.H.,XsX,X,XyXaX5XpX8X&X).*.q 8 w 5 w 6 : t t r r u t t t u u u u t : r r ,.7X[ .     5 5 w w w 3 9 6 6 5 6 7 & & t f | H.>XgXyXaXaXyX5XyXyXyXyXyXaX+X5.:   o   X   X 8 5 & 5 & # :.'.6XiXpXpXaXyXyXyXpX7X&X_.o , , , , # # , , @ , X (.%X7XiXpXaXyXaXaXaXpX&X'.*.w @ 8 3 @ 3 3 , < , , , , 5 0 q 6 7 y t y y y t t 6 & & # # # X X 5 & . _.z.*     # 9 6 & & # & & 1 1 1 5 5 1 1 5 1 6 =.'.&XuXaXyX5XyXyXyX4XaXaXaXyXyXaXyXyXyXyXyXaXyXyXpXd       ; g ^ z.+XiXyXyXyXaXaXyXyXiX*X$Xy.o 0 5 l q 9 C c B B B y d h ~ ,.D.oX+XuX2X$Xc.S u g j <.J.eXrXyXrXeXeXrXeXrXyXyX+X=.& .       # , < @ , p c.$X&XiXaXyX5XyXaXyXiXiX%X X_.pXaXJ.<.) ) ~ Q Q D D r g r r R / g.>XyXyXyXyXyXyXyX>XyXaXyXyX@X1.t . .     X o o - ; o # # # X X &.'.&XiXiXyXyXaXyX4XiX&X_.&.5     X X       O @ O   O     , 8 , o       . ( %X4..   O O O O 3 0 q 3 O     X O O   O O O 8 = ; U 7     N >.N   C , # w w @ X O         O O O O O O O O O O O O O @ @ @ @ @ @ @ @ O @ @ @ @ @ @ @ @ @ < , < , < 3 8 , o O       X t g h j i L.,X/ e * * r * i i i j h g r r r ) u j E ' i % * } s.R r % * C.a.a.E.Z.' i e R } e r R r S y   o 5 @ w q 3 # y B X 8 7.A @   o ; % % . & t S X X X # U &.X #   #         X X X X X X   X o 5 w o @ @ 3 # 8 4 3 3 3 3 3 3 # 3 8 4 4 3 , @ 3 , , , # @ # X 3 @ 4 3 # w , @ , @ # # , O O @ @ X             X                                     X = # 3 w w 0 b b 0 0 4 0 b b 0 4 3 4 3 4 b 4 4 b I b t.t.k @ 4 $X^.M M $.;.0.^.^.0.0.t.9.r.^.n ^.mXPXPXKXKXLXLXnXA 5   w   5 9 1 1 2 c C k 4 z k < l c 9 8 1 + @ <     + + O + + .   + + + + 1 < < < 2 < 2 9 1 1 9 1 + 1   @   O           o , # O O ",
"5 & & 5 5 ; & & # 6 % : & r r r % . . . . . . . . $ * % % ; : 7 ; ; ; & & ; : : : u t > > > r D r $ * $ $ .   . o % % : : & 6 6 : t 6 5 5 & % > % * . . .       % . t u > * % . . . . . . . . .   .     .   . . .     X   # : t > f i j j j * . $ . . . . . # # # 5 5 5 7 6 : r r t : 6 t : 6 t u 5 6 % : * [ ,.+ o X 5 5 5 5 w 8 5 : : 5 9 8 5 ; > > * r u ^ { 1.e.F.J.J.F.F.S.,.D %   .         w # o 1 # # # # 5 o % o o . $ . . .   .     @ O @ # , , # # @ 3 @ 5 - & & $ $ $ $ . . . .           , 3 3 3 , , , , 3 , # 5 0 7 7 7 y 7 t y y t t 6 & # , , # & o   X > [ D > X   3 q & & ; & & & 1 1 1 5 5 5 5 1 5 5 6 > % % % $ $ % . . $ . . .   . . . o X . . . . $ $     O   6 Q Q j i r r * $ . . . $ . .     X O l k C C l v C v A A c s y B u : % % . . . % : t t f r i ' g.D.{.H.J.D.x.6.j .         o X # O , , o - o # & . $ . $ . $ . . . .   . ] A.J.g.,.) ) ~ D h t d t d u f r r r R ,.z.A.D.H.{.F.S.6.| u . . +     o o 7 o o o ; X 1 O o X   ;   o o . % . . $ %             X     X O O O O   O O O     o 5 % o       . ] 5..     < @ O # 3 @ @ @ O X       O @     N N 5 Y s X     c >.X.,   @ l b = X o O       O O O O O O O O O O O O O @ @ @ @ @ @ @ @ O O @ @ @ @ @ @ @ @ < < < < , 5 < , , # @ @ O   f =.^ Q R j x.}.E r % > u h e <.[ u > r ^ [ [ u i ' s.e . *  .d.R j e j.T.I.M.T.C.i $ Q ,./ j D ' ,.u 7 # 5 o # 5 q 0 5   5 3 O p y.:.w # % > % % o V y 5 o o 0 >.Z       X     X X X X X X o o # # X 5 # o # w , # 4 4 3 = 8 3 @ 3 @ 4 8 3 3 # , , 8 , , @ @ @ ,   3 @ w 3 O # 3 , 3 , , # <     O O O                                           O     @ @   X 3 w w q b w , 8 p p 0 4 4 0 0 0 3 3 4 4 3 b b M t.;.4 0 9.FXr.I X.9.r.].=X^.0.t.^.^.`.].#XFXKXLXLXLXPX*Xq.w   o 3 O 8 , c 2 2 c L z 4 z z k < k l 2 2 2 + + 1   + + + O + + + . + +   + @ + < < 2 < 9 9 + 1 2 1 2 1 + # O   X     X   #   @ , @ ",
"5 5 5 # ; # 5 o & & ; ; : : ; & & ; 1 # 1 1 w # & ; o & w q q b ; 5 5 5 5 5 ; : & : : : : r r i Q <.H.|.H.,.S y t : & : : : 6 d V V s 5 # 5 5 , 5 5 # & 5 s 7 o . ; ; 7 & & & y 7 6 5 1 1 1 1 & & & , , , # # # # # , # 5 5 6 q t r r r r 6 y y 7 6 6 & & & # = , # , 5 w 7 7 6 ; 6 t y 7 : 6 y t 7 6 : ; : 6 7 5 O X ; ; 6 5 5 5 5 9 2 6 q 9 8 & & 7 s s 6 ; & . o o # # o .   O   O O O o # # , , , , , , # o , , # # # # # o # o X # # X X X # # # o # # # @ @ , @ 3 , 5 , & + o o o # # # # # # # # , 3 3 < , 3 , , # 5 w 0 6 7 t 7 t t 7 t 7 t 6 & # # # # # # # # % & ; : 5 o ; 7 : % 1 1 , 1 1 1 5 5 5 5 5 5 5 ; ; ; ; & # # o + & 6 6 5 # # # # + + @ # o o % # # # o # O # 6 D Q i g r u & & # o # + o X X X o # 3 0 b z l l l l l z l q q q q q q 7 7 6 q w & : 6 y 7 : & % % : 6 & .           o o o # # , , , # # # = # # o o # # # & # # # o % r 5.}.;XK. .Q ) ^ ^ D u y y t y y u t t t : & & % % o .             + , O # 3 N - o   @ # # @ @ o o     o .   o . O O @ O         O X O X     O O O   X X O O         X O O     + 1       O @ O           O O O O           5 C 5 s s X X @ @ Z >.>.@   q 0 o X O         O O O O O O O O O O O O O @ @ @ @ @ @ @ @ @ @ O O @ @ # # # # # @ @ # < , O 8 8 1 < 8 @ & % h <.[ h i i +X,XQ * r ' 5.} | h r e r } ^ ! r j  .d.r . e k.k.j i / T.I.I.T.tXh $ r ) R R r R j.g.r q , ; 5 < , 4 5 = # # , , O K ^.:.. & o . o B ( ; . X # A U     X         X o o X   X   X # # # o # 5 5 3 3 3 3 3 4 3 = 8 @ @ 3 3 8 3 3 3 8 , 8 3 , 5 O O @ # # # # # @ # , @ , @ @ , O O @ @ o @ X                                             o w # X , = 3 8 A q 3 b 0 n b 4 0 3 4 4 4 = # 3 3 8 8 b I t.#.3 b ^.FX;.I Y #.9.t.^.I 3 9.^.=X*XxXmXLXPXmXcX'.P 1 # + 1 # , , @ 9 9 4 c v v v z v c k k 8 2 1 1 + < + O < + @ + + + .   + < + @ @ @ + + < 1 < 9 2 + 2 2 2 2 2 2 2 < O         O O O O @ @ ",
"; ; # X ; w o 5 & & & & & & ; ; % 1 & + 8 # # w & 5 6 & % # w w ; ; 5 5 5 ; & & ; ; 6 6 t t u g R } g.n.x.} Q f y 7 6 6 6 t y B d s y 5 5 1 5 , 5 5 # & & w 5 # ; ; ; 6 5 6 6 q 5 5 ; & 1 5 5 5 ; 5 5 1 3 3 , , 1 5 5 5 5 5 6 6 7 6 6 t 6 6 q q 7 7 6 5 5 5 5 5 5 5 5 5 5 6 5 & ; 6 7 7 6 ; 6 t y 7 : & 1 5 5 5 5 8 5 5 ; w 5 8 5 5 8 5 5 9 5 # 5 q V V q & # o & & & & & & & # 5 # # # , , , , , , , # , , # # , < # # # # # # , , # # # # o o < , # # # # # # , , < , , 3 , , , , , , , # < < 1 , , , , 3 3 , , , , , , 5 w 0 6 7 t 7 6 6 7 t 7 7 6 & # # # # # # # # # & ; ; w & 6 7 : % 1 1 , 1 1 1 1 5 5 5 1 1 & & & & & # # # # # & 5 5 1 o o o o o # # , # # , # # # # , , 1 : u D f r r 6 o # # # , o # # # # 5 5 8 0 l q q 0 0 0 q q q 9 N c 9 5 q N B s w s y % t y % . o o % % & & : y # o 6 y 5 o # # # < , # # # # # # # < # , # # 5 6 & & 6 t j <.5XeX,X..R ~ ) R g t t y y d y y y t 6 : : : : & & & % % & & 1 & # O # 5 p p - X @ @ @ # # < # @ X o o o o # # + O O O   X     O   X O O O O O       X O O O X O             X X X   O O O O     @                       # 5 N # Z ; # O O O , &.3 @ q 0 # # # O         O O O O O O O O O O @ O @ @ @ @ @ @ @ @ @ < @ < @ # < # # < < @ O @ @ # < 5 k < O O O . u f h D.} R e / :XD.i * i / f./ h e j ' ^ h * u j d.| $ & h G.k.T E C.tXI.E.I._ i h ^ h i g e R d.x.[   O ; ; , , 3 = = # # , 5 8 O b :.Y o o & . =.J     X   P A     X     X X o o o X X # o # o # # # # , 3 , 3 3 3 4 3 # = 3 @ @ , , w , 3 8 3 , w , , , X O @ @ @ @ @ @ X o , w @ 3 , @ , O     X X                                         @ @ 3 w w 3 5 0 w w w 8 8 0 l 4 3 4 4 3 4 3 4 8 4 # w 3 @ 0 b $.^.n @ I =X#Xn n b 3 @   0 3 @ @ I I 0 , O # O O   , O , , + + + @ 1 1 9 k k L L L v L v z 4 4 k 2 1 1 + + + + O @ # +   + + + . + @ O @ , < < 1 2 < 2 2 + 9 < < 2 2 2 2 1 O O     O O O O O @ @ ",
"w X ; 5 o o ; ; 5 5 & & # & 5 5 9 , 1 1 # , 9 , 5 # # ; ; & # # ; ; 1 1 1 & & & ; & ; 6 : > r u R R E E E j j f 6 6 6 ; ; 6 7 6 6 : 5 5 5 , , 5 # & # & & 5 5 & 5 1 # 1 5 9 5 9 5 5 ; = ; 5 ; ; ; ; ; 3 3 5 5 5 5 5 3 3 5 5 5 5 5 5 6 6 w w 8 8 7 6 6 6 5 5 5 5 3 3 5 5 5 5 5 1 ; 5 5 6 5 & : 7 y 6 ; & 5 5 5 5 9 5 # 5 # 5 , 0 8 5 5 5 w q q q Z N y 5 # # 1 5 1 1 , , , , , , ; - - # # # , , , , , # # 1 # # , # # o # # # # , , , , , , # < < # # # # # # # # , , < < , , , , , , , , < < < 5 , , , , , , , , , , , , 3 w q 6 y y 7 6 6 6 7 7 6 & # o o # # # # # o o # # ; 7 & 6 7 & % & & # & 1 1 & & 5 5 1 1 & & & & & # 3 , , # , 5 # # # # # # o # # # , , , , , # , , , # 7 % r u : % # o # # @ # o # # # # # 5 8 8 8 0 6 w w q q q 7 0 5 5 9 8 8 8 l q w w 7 6 d 6 o # X X # & & : 7 y 6 7 y 6 o X = < # # # # # , # , , < , < , , < o # w 6 g [ ) / h.tXtXK./ Q ~ Q g t u u y s y d y t 6 6 6 6 6 ; & % & & & 1 1 1 & o o ; Y V X o @ @ @ @ , , # @ + # # @ # # o X   X O O O X   X X O O O O O X         X O O O +     X X O   X X               O             O   X     O     b = Z 5 o , #   @ 3 @ @ 0 5 X X O           O O O O O O O O O @ @ @ @ @ @ < @ @ < < < < < < < # < < # < < < # # # # < O 1 < < 4 1 . t u > r ~ ^ e e h g.} e e h Q / [ e Q R r r > r i h.E . % j k.a.E ' rXtXtXI.j.i E ~ j i r *.: e E  .i   # ; ; 3 3 , # = 5 3 5 8 k , @ q U U o . y 1.;         U w           X X o   o o o # # # # 1 5 5 = 5 5 5 3 @ 4 8 # @ = # @ @ # o , 3 3 3 3 # 3 # # # X O X @ X X X X X # # w @ @ , @ # O       X                                 X         @ 3 w # # 5 w 8 3 0 , , 8 , @ 3 b k 3 0 3 @ 3 3 # 3 @ 8 0 4 `.^.b 4 M ^.#.@   X                 O     O O @ # < 5 , 8 8 1 # 9 1 2 2 c c z L P L C L z k < 4 1 1 , , +     < O # , +   . + + . + @ + # 1 + < 1 1 + 2 9 2 9 2 2 8 k 2 1 1 @     X O + O O O @ @ ",
"# & 5 ; o 6 o # # & & # # & 1 1 , # 5 ; # X o 5 o & % & & & ; % & & 1 1 5 ; & & 5 ; ; 5 ; > : t r i j j j u u r 5 6 6 ; & ; 5 & & & # 1 1 5 # - # # ; 5 & & & & 1 1 # , 1 5 5 6 w w 5 5 5 3 = # - - = = = 5 1 5 3 = # = ; 5 ; ; ; ; 5 6 w 5 5 5 ; 5 ; 5 5 1 1 1 3 3 3 5 5 5 5 5 ; ; 5 5 5 5 6 t y 6 ; ; 5 5 5 5 & # 5 5 = w 8 5 8 8 w w 5 6 y F V 9 & 1 5 5 5 5 , , , , , , , , - - # # # , , , , # # # # # # # # # # # # # # , , , , , , , < < @ @ # # # # # # # , , , , , , , < , , , , , , , , , , , , , , , , , , , 3 3 w 0 7 y t 6 6 6 6 7 7 5 & # o o o # # # # # # # , 5 6 & 6 6 ; & & & & & 1 1 & & & & 1 1 & & 1 & 1 , 3 , # # # # # # # # # # # < @ @ @ < , , # @ # # # # V t & 6 6 o # # # # + o # % # # # # 5 8 8 5 8 w w w 7 q q q 5 5 5 w q N b l q q w 5 B t & & # @ X X X & & : u u 6 ; o X o o # # # # # # # # , , , , , , , # 5 ; 5 U f [ H./ E L.<Xh.R R D D g u u u t y s y y t 6 ; 6 6 6 1 & & & & & ; & & & o o 7 s V o X @ @ O @ # 3 # o o # # # @ @ X     X O O O O     O o o O O o o X X X X X O O O O O O O O O   @ # # o O         O                     O @     # A X     # , O O     @ b 5 X   X             O O O   O O O O @ @ @ @ @ @ @ @ @ < < < < < @ @ # < < # # < < < < < , 8 < , 8 < < 1 6 G u : $ j ,.^ r e h / E e g ) R E e / e r > ! r i 3.g & & j G.j.i h.DXjXjX..i <.K.E r r . # . e  .E i $ # X . @ 3 , # # # # , , < C ,   5 >.&.  F q.o X #   N &.#         X X X X   o   X # o o o # # o o # # # , # 3 3 # # # # @ @ @ O , w 3 @ 3 # 3 # # # X X X X X X X o @ o # # 3   , #   O X   X X X X X   X                       X X     @ 3 w 3 # 5 8 5 8 @ @ @ 8 l 3 , 4 b 4 4 0 0 3 4 4 4 w 3 4 0 b #X9.< b Y (.O             o X       +     < 1 8 1 k k < l l 8 8 C c l l K L v L o.L L C 4 < < 8 , @ @ + + 1 + +   , 1 + . + # + + + + # 1 1 + < < 1 1 9 c 9 9 2 2 l c 8 < , O O O O O + O @ @ @ # ",
"w 5 & # 5 # # & # # # , 1 , # # , 5 ; X o ; # 5 # w # % & & o ; & & & 5 5 5 5 5 & 5 5 ; ; 5 7 6 t t t t r t 7 6 6 6 6 5 5 5 ; ; ; ; & & & & # o & & ; 5 1 & & & 1 & 1 , 5 # ; 5 5 5 5 1 1 5 5 , , , # , & ; ; & 5 5 = 3 5 5 5 ; ; ; 6 6 5 5 ; 5 ; ; 5 5 5 5 5 1 5 5 5 5 5 1 1 5 ; 5 5 5 5 5 6 y t 6 6 5 5 5 5 5 5 5 9 5 w 5 5 w 9 w w 5 s Z B 7 6 & & 5 5 1 , , 1 1 , , 3 3 , , , , , , , # # # # , # # # o # # # # , , , , , # # , # # , , , # # # # # # # # # # # , # , , , , , , , , , # # # , , , , , , , , , , , , , , 5 w 7 y t 6 6 6 6 6 6 5 & & # o o o o # # # # # 5 5 : : : 6 ; & & & & & & & & & & & & & & & & 1 1 , # # # # # # & % & # , # , < < < # , # # # # # # # & F F t % & - # & & # + o % & & # o # , w w 5 1 5 5 w w 6 w w 5 w w 5 8 N Z K b N 7 7 t % & # X # 3 # X X & : u : % o o # o # + # # # # # # # # # # , , , # # o # ; H r R x.<.T R E j h h G ! f u u t y y s s y y 6 ; 5 6 5 1 1 1 & & ; ; ; & & . 7 J d y #   O @ @ o # # # # # # # , # o X o o X O O @ O   X O O O O o o o o X O O O o o O O O O O O O O o # = # @ @ @ O O O                     O O O @ X A q # # X # ,       # b = X X X             O O O   O O O O @ @ @ @ @ < < < < < < < < < < @ @ # < < < @ @ # # # # @ < @ 4 < O 1 y J y t : * g ,.j e * R / i e h R E e } i r r t r r R : # o R R.L.i VXDXJX>Xi E hX;XR r * ;   # * E n.h.r . . o 5 , , # @ @ o @ O @ 3 3 , O 0 &.o q.F . X   X #.P o X   o . # X X X   X X o o X # # 1 5 # # 3 , # 3 3 , , 3 3 @ # # # # # 3 5 , , 3 , , # # o X X @ X   X o o o o # o #   @ #   o X X X X   X X   X                       X X @ @ , w w # 3 8 8 8 0 0 w 5 , 5 5 8 8 8 3 4 4 0 8 4 3 8 3 8 b 4 $.$XI 3 n #.y.        #           + + + + < 1 < 4 8 x L m L L z C C K C v L L L L L L K L z 4 8 < O @ @   O 1 + @ + , 1 # # + + + + @ < , 1 8 4 < 4 2 2 z v v z z x L C 8 < < O O   O O O @ @ o # # ",
"; X 5 0 5 # # 5 1 , # , 5 5 # # 5 o ; ; . # X o o 5 5 6 % ; 6 & & & & 1 5 5 5 5 # 5 5 ; ; 5 6 & t t u u t t 6 2 ; ; & ; & # & 5 ; ; ; # # ; ; o & # & & ; 5 6 6 5 & ; # 5 ; ; & 1 1 1 1 1 1 1 1 1 1 1 1 & & & & 5 5 5 3 5 ; ; ; ; 6 : & 5 ; 1 6 5 5 ; 5 5 5 , , 5 5 5 5 5 , 1 1 5 5 1 5 8 1 ; 7 q 7 6 5 5 1 5 5 # w 5 o q y 6 y U =.4.*.H F d 6 ; ; 5 # # 3 5 3 5 5 # # # # # # , < , , # o o o , # # o o o o # # # # , 3 , , , 5 5 , , # , # # # # # < # , # # # # , # , , , < , , # # # # # , , , , , , , , , , , , , , # & 5 7 7 7 6 7 7 6 6 6 5 1 # # # o X o o o o o # 1 5 : 6 6 6 5 & & & & & & & & & & # & & & & & & , , # # # # # # & & 2 1 & # + # , , # # # # # # & & % t S D B & . # & 6 & & % o % & # # # , 1 5 5 5 8 8 8 w w 5 w 6 w 6 w w 0 q A Z Y ] s t u t 6 6 # 5 w ; o o % & % % % # o X O # + + + # # # # # # o # # # # # # + # S D u R / x.R i e r u u D H f d y u y y d y y y 6 : 1 5 1 1 , , # & & & & o & & s ( *.s o   O o o o X o # # # # # # # o o o # # O O @ @ O @ O @ # # # o o X X X X O o < # O @ O O @ @ @ @ @ @ O @ @ , @ @ O @ @       X   O     O   O   O o P 5     @ @ O ,   # w X X @               O O O   O O O O @ @ @ @ @ @ @ < < < < < < < < @ # @ # < @ @ @ @ # # < < , < < 8 + . S ! r 6 t % t r [ u r * R } i e i R R / j r * r j j i * & & ^ sXL.i DXJXgXj E jXjX .r . % ; @   : e d.j.R >   % . @ # # # # , , , 8 , , 8 # o   y '.w #   ; 0 &.p X     X . # X X     X X X X X # X o o o # # @   3 w # @ 3 3 @ # , # o 5 3 @ O 8 , , # # o @ X X X X X + # # o o O ,   @   #   X X X X X   X X   X X       X               @ @ 3 4 N b w l l q b 0 q 5 , , 5 8 # 8 4 0 4 4 4 8 3 8 @ 0 , 4 4 #.].L 3 k 7.>.,     +       O O     @ @ O , 4 k m L O.-.o.X.O.o.X.X.X.L L P o.L L o.P z z 4 < ,   < O @ O   @   + + , # + + + + O + 1 < < k x x x x z x v o.o.o.o.m o.L z k < @ O O O O O @ @ o o o ",
"5 5 # 5 A q.o o # o # # # # # # # X o & 1 + y u.:.&.&.1 y.6 5 w ; & & & 1 5 5 5 5 6 6 ; ; 5 5 2 : t 6 : 6 2 : 6 ; ; ; ; ; ; ; 5 # # # # # & ; 1 1 # & # ; ; w w ; # 3 # 5 # ; & & & 1 , , , , , 1 1 , # # # # 1 1 1 5 , , # & 1 ; 5 & & 5 5 1 8 5 5 5 5 # # # # ; # # 5 5 3 3 5 3 5 1 5 5 1 ; 6 q w 5 5 ; 5 1 1 w 5 5 y 6 y =.%XDXDXbX X1.( S q 5 5 5 5 5 8 w , 5 5 5 5 5 3 3 3 , , , # , # # # # # # # # o # # # # , , 3 3 , , , 3 , , , , # o o # # < , , , # # # # o 1 , , , , , , , , , , , , , , , , , , , , , , , , # & & 6 7 7 6 7 7 6 7 ; 5 1 # # # # # o o o o o # & 5 : 6 6 5 5 & # & & & & & & 1 , , # # & & & 1 # , & # # # # # # 1 6 6 & & # o # # # # # # , , , & & u ! D D u & # & 6 : 6 6 # # # 1 1 5 5 5 5 w 9 9 0 0 0 6 6 9 9 w N Z q q s B q V U y u g t : 7 6 6 ; # o o o o # 1 # o o # # + o o o # # # # # # # # # # # # # 1 # G ( r i ^ f.f.i r : D t g D f d y t y y y y t t 6 : ; 6 6 1 & 1 1 & & & & # # ; t ] =.t X   O o # o . X X # o o o o o O @ < < # @ O # # # # # < # # # o o X X X   X o , # O # @ O @ @ @ @ @ @ , @ @ @ O     , 3 O           O       X   @   q -.U #   # ,   @ = w X o # O               O     O O O O @ @ @ @ @ @ @ @ @ @ @ < @ < @ @ # @ # @ @ @ @ @ @ # , O < , O , o % S.z.g % : : u r r ! u $ e [ 3.R e T R / R j r r r j R t & % ~ jXC.j SX4XD R T.tXP.j > # . % 5 O   $ E d.j u . . # X o # 5 3 3 5 5 8 3 4 0 8 5 X *.y.s w o   = &.        X   X # o     X X   X X o + # # o o , # O 3 3 # @ # # @ @ # @ O 5 , @ O 3 # # # o @ X X X X X X + # o o o O # o o   # X X X   X X X X X X X X X X X X               @ 3 4 4 0 b 8 8 5 3 5   @ , 5 , 5 l 8 , 3 8 , 4 8 8 8 3 # w 0 3 4 '.^.b @ O C L O   @ O   @ O O < @ O < 1 4 z z L o.o.8.8.o.-.-.X.8.9.X.X.X.X.o.o.L o.L z z < < @ , 8 P , O @ # O     # 1 + @ + < < < k k x x m m x m L x o.o.O.%.8.O.8.O.o.L k < @   O O O @ o o o o ",
"# 5 # o 5 o # , # # # # # o # - # # , , O 1 Z i.# &.&.1 # 1 5 ; ; & # # & & 5 5 ; & & & & & 1 2 & : ; ; ; ; & 6 ; 6 6 6 5 5 ; # 1 , 5 ; # # 1 1 1 & 1 # # o ; ; & # 5 , 5 , 1 & - ; ; # # = = = # # # # , , , 1 1 1 1 , , 1 1 5 , 1 & ; 0 0 , 1 5 5 5 3 3 1 5 1 5 ; ; 5 5 3 , , 3 5 1 5 5 1 6 t q w ; ; 5 5 5 5 5 6 9 q F '.BXSXDXpX{.5.[ H G V k 8 8 8 8 3 5 8 ; , 5 5 5 1 , , # # # # # o o o # # # # # # # , 5 1 , , 3 3 , , , , , < , , , # # # , , , < , , , # # o 1 , , , < < < < 3 < 3 , , , , , , , , , , , , , , , & # ; 7 7 6 6 6 6 w ; 5 1 # + # # # # # o o o # ; 6 > : 5 & = # # & & & & & & 1 , , # # # # # # # # , # < , , @ # , & ; ; ; ; # # # , , , < < 3 , 1 : r ~ ^ Q g 6 & % 6 ; 7 q 5 , 3 1 1 5 5 1 # 5 9 0 0 w 6 w w 0 0 w V U V s 7 a s V V H ! D r u B t : % & & & & & 8 5 , # o O + # o o + @ @ # # # 1 , # # # # # # # & c ( r r j } D.=.t y y f h D f d t t y y B B t 6 : : : 6 6 5 & & & & 1 1 , , # & y ] H o #   o # # X . . X X @ @ o o O O O < < # O O o # # < # # # # # # # # o o X O # , #   @ @ # @ O O < < 4 3 3 - @ @ @ #   @     O             O X # O O   A :.U @   O @   # w @ # #                       O O O O O @ @ @ @ @ @ @ @ @ @ @ @ @ @ < # # # @ @ @ @ O O O # < < O @ , # o 6XBXr t : 6 t t $ D ! * $ r f.x.i i R } R r r u ) j h F + $ [ dXG.E >Xz.r ,XT.Z. .r .   . . ; q # . e / R * % .     X # 5 # X O # @ @ 3 b - q q '.*.; V     N Z o X     o   # #   X   X X X X X o + # o X   # # # 3 @ # , @ @ 3 @ @ # O , 5 5 @ @ @ # @ o o X O X     X o o X X o #   w X # # X X       X X X X X X X X X X X X       X X O @ 3 4 4 8 0 0 3 , , O z 8 8 8 , 5 8 , @ 8 , @ 3 8 , 4 @ @ 8 3 3 3 =X^.4 , n X.z O @ O @ O < O < < O < 4 k k L L X.O.O.8.7.%.8.8.$.-.-.X.8.8.O.o.O.X.m z C z O 8 k u.`.(.A     @ + + + 1 1 1 @ < 8 k k x z m L o.L L o.O.o.O.8.8.!.W.!.!.8.O.o.x < #   O @ @ @ o o @ @ ",
"& 5 # 1 Z :.# q.&.>.u.U >.q.U , A u.q.&.u.0 q.y.>.&.U w y.5 &.:.:.q.>., , 5 8 8 :.q.q.F ; Y q.q.q.q 1 q.&.:.u.U :.q.&.w w w 7 7 w 5 5 ; # ; ; # 1 , , , , , 1 1 # # 1 1 , , , , # # # # # # # 3 , 5 5 , 3 5 5 , 3 1 , 5 5 5 5 3 5 1 1 5 5 6 5 & 5 5 5 5 5 & & 5 # # # , , , 5 5 , 5 # 5 5 5 & 7 t 6 6 ; ; 6 : 6 w 5 B q.pXVXhXdXsXoX<.) G H S d y 5 w , 3 3 3 5 5 5 5 , , 3 3 3 , , , # < # # # # , , , # # # # 1 1 , , , , , , 3 5 , , , , , , # # , , # # # # , , # # , , , , , , , , , , , , , , , , , , , , , , , , , , , , ; 5 7 7 6 6 6 7 5 5 ; # # # # # , # o o o & 5 6 5 & & & & % # # # # # 1 & # # # , # , # , 1 , # o # # # # # # # # w 6 6 & & # 3 3 , # # 5 5 3 = 7 r Q ) h g g t % : t y 7 5 & & 1 & & o o # X ; 5 5 w 5 5 5 5 w ; ; 7 6 y 7 N A B ! ~ Q / R / h g f : & ; % # 6 q 9 # o X o o + # # # o # # # # o # # # & 5 1 o o % t &.y 6 u ^ ,.f.) u u y G g y d y 7 7 y B B : : 6 6 ; 5 5 1 & 1 1 + 1 # 1 1 5 & t ] ; .   # o X X X o X X o # O O # # O O # o + + # # o o # , # X o # , 8 w 5 # O # # @ @ @         O @ @ , 3 3 3 3 @ @ @ @ O O               X   @   # Z #     @ C P #   X O , w O O 8 O   O O O O O @ # # O @ @ O   O @ O < < < < O O < < @ < < < < < < @ < @ @ O O @ # # < @ , < 1 @ % ] DXD.r r t 6 d f u F u * * i x.| e R E j R u | / Q g . & $ E T.P.' ' h 4XDXg.^ h +       X   # q + . f r r * % .   . o o # 3 3 = @ 3 4 5 . . H OXo # N V 5 V q #     X X       X o o o o X X X   @ o o X X , , O # # # # # # o # # # 5 , # O , o @ @ O @ # # # O < #   @ + # o o o # # X X     X X X X O X X O X # O X X O O O X     X   # @ # 4 3 8 q w 3 4 @ b k 3 , 0 8 3 3 3 8 8 8 @ 3 3 3 3 4 3 4 0 4 b t.&.3 0 X.0.o.x < < k 4 < < < 4 < k o.o.o.o.O.-.O.%.8.0.O.8.0.O.$.-.-.8.8.o.o.-.X.m m m k < K 7.:.q 1 < 5   O ,   @ , ,   + 1 c z m x O.O.O.O.%.%.!.!.%.!.W.#X#X#X!.!.!.%.O.L < O # X X X O O O O o ",
"6 5 # # Z :.o q.U 5 ` q., 0 u.O u.A 5 &.y.X P :.# &.&.# y.5 >.q.# # u.N 0 # # >.&.5 N :.6 y.q # ( :.# q.U 5 &.q., y u.; ; w 5 s w 5 ; ; w s s w & # # # # # # # 1 1 , , , , , , & & 1 5 5 = # = 5 5 5 , 3 5 5 # , 1 , , 3 3 3 3 1 # & & & ; 5 1 5 5 5 5 ; & 5 5 5 5 5 5 5 5 5 5 , , , 5 & 6 ; 6 c 1 , , 1 6 y S 7 *.$XBXBX>XsX,Xg.} Q ! ! H d d 7 & 5 , 8 5 3 5 # 5 5 5 5 3 , , , , , # # # # # # , , , # # # # 1 1 , 1 3 , , , , , , , , , , , # # , , # # , , , # # # , , , , , , , , , , , , , , , , , , , , , , , , , , , , # 5 6 6 6 6 6 7 6 ; & # o # # o # # # # # & 5 6 6 5 & ; & % # & 1 # # # & # # # # & # # # & # # # # # # # # # # o 5 5 5 & # # 3 5 , # # 5 3 3 = 6 u ~ ) ^ D S u : : 6 7 q 6 5 & & # o # # # & & # 1 5 5 1 5 5 5 5 6 B ; 7 ; V Z y f R ,.} / / ^ ! D u ; ; # # 6 8 w 5 # # # o # O # # # o o o o # # # w 6 5 # # , o % ] F 6 r R R R i u u t u g t y 7 7 y s d y 6 6 6 6 ; & & & # 1 1 & 1 # # # o : s H % . X o # # # X X X # # # # # # # , , , 1 # + O # , 1 # # # O o @ O , , 1 , , < @ @ O   @ @ @     @ @ @   @ @ @ @ @ @ @ @ @ @ @ O X     X X       # l w 3 w   # N q X X @ 5 5 o O 5 O   O O O O O O @ # O @ @ @ O O   O O O O O O < < < < < < < < < < < < < @ @ O @ @ @ , < < O < , t D @XJX,.> : : y s F t S t $ $ / 3./ e / / } h j R E g % % $ j K.T.' j F.JXBX~ f % . + o   X X O # #   * j j r % . o o X + o o o X 3 @ # ; > ( c.1.5   5 &.Z U   o     X     X     o o o o X X X X o o @ X @ # # # # @ # # # # # O # @ 5 3 # O # O # # # # # # # # , , @ +       o X # o o X X   X   X @ O X X + X o O X X O @ @ O X X # @ @ X @ w 4 8 8 0 8 8 3 0 l 3 , 8 8 8 8 @ @ 8 3 @ l 8 @ 3 3 , b 0 p #.^.I @ n o.8.o.m x x L x 4 z z z 4 o.%.8.O.-.8.8.%.%.0.!.8.8.8.-.%.$.-.8.8.X.o.X.L m m k < ;.r.k @ O @   5     O + O , , + 1 < v z m o.%.%.O.!.!.8.!.!.!.!.#XkXkXkX!.!.!.8.%.o.k @ # X X X O O O O o ",
"s 6 & # K 7.# q.C # X.>.o # y.; (.# o N y.o K 7., &.&.5 y.0 >.&.q 5 1.=.S 6 # q.Z 5 3 5 A q.# 1 N u.1 q.P # U :.# w y.w ; # 5 & 5 6 6 ; & 5 w & & & & & 1 1 # # 1 5 , , 5 5 , 1 , # , 5 5 , # # , 5 5 , , , , , , , , , , , , , 1 1 5 6 5 1 6 5 5 5 5 & # # # # # # # # , , # # 5 # 5 5 # 6 ; 6 8 5 5 5 6 : r g 1.BXSXBXJ.} f./ / R h D G S u d y 6 5 # 5 5 = ; # # , 5 5 , , , , , , # # # # # # # , # , , , , , , , 1 3 , , , # # # # , , , , # # # # # # # , # # # # , , , , , , , , , , , , , , , , , , , , , , , , , , , , , 5 5 6 6 6 6 7 6 5 # o o # # # # # # # # & 1 5 6 5 5 ; & & & & 5 & # # # # # & # & # # # & # # # # # # , , # # o # # & & & # = 5 5 ; 1 5 1 3 = 6 g ) ) ) g u u t t 7 7 5 & % # # & X # o + # . # 1 5 5 5 5 w w 5 0 B 6 6 # q N d f h } / R h j r : & X # # + & 5 w 5 # o o O # o o # # o o o # & & 6 y 9 & # # < 1 : ! ! : r g ) h j g t t u u t t 6 7 y y y 6 6 6 6 6 & & & & # # 1 & 1 # & % & y H S o . o # X o X . . . o o # , # o # , 5 # # # # X   O o o O # # # @ O # # # # , # @ , # @ # # @ @ @ @ O O       O @ @ @ @ @ @ @ @ @ O               # , 0 w U #   X o ; # # w , O O #     O O O O       O O O @ @ @ O   O O O O O O O O O < < < < < < < < < < < @ @ O O O < < < < k , B J ^ DXoXj r r y % t % : D r $ $ ) } i i h.[ r j j R g % % : j ,XjX3.' SXJX%Xr % & 1 o   o X O o O & : r j h r r %   . X o # # o o % 5 o o u ! 4.d X #     Y &.o       X     X     X o o o X X X X # @ X o o o # , , O # , O @ , O # O , , # @ # O O @ @ @ @ @ o # # o # o o X + # X o #   #     X   X o O   O o X O O O O O @ o o @ o # # @ # # w 0 0 8 b 0 3 3 , 8 l 3 3 0 8 , 3 , 3 4 @ , , , 4 3 O b 3 3 &.q.0 @ n $.8.O.O.m m O.o.L L L o.o.8.!.0.8.8.8.8.8.8.!.!.8.0.8.-.o.O.O.O.O.o.X.o.o.m m L W.=X5 # O 1     o w     O O , , + , 8 L o.o.O.8.%.%.!.Q./.!.!.kX#XkXkXkX#X!.!.!.%.%.o.z O O X X O o o O O @ ",
"y 6 # # Z 7.# q.C # U >.o # S.X y.# # 0 y.o Z :., &.&.5 y.w >.&.5 B w.z.] y q q.U # w , A q.1 1 A u.5 :.A 5 U >.w # y.; o & # ; 5 w 9 5 # # 1 # # # & & 1 1 & & # 1 , , 8 w , 5 1 1 1 5 5 5 5 5 5 5 5 , , , , 1 # , , , , , , , # # 1 5 1 6 7 7 9 q 9 5 5 w w 5 5 , 5 5 5 5 5 , 5 , w 5 5 5 & 6 q # ; : % r } D.fXDXjXJ./ ^ / ^ Q D D S y u u g G d y 5 5 = - - # # # # # # , , # # # # # # # # # # , , , , , , , , , 3 3 3 , , # # # # # # # , , , , # # # # # # # # # , , , , , , , , , # , , , , , , , , , , , , , , , , , , , 1 5 1 6 6 6 5 6 5 # # o # # # o # # # # & & 5 5 5 5 ; & & & # 5 # # # # # # & & & & # # & 1 # # # # # # # # # # # # # # & # # 5 5 5 5 5 1 5 5 6 g ) ) ) g u u 6 y y c y 6 1 & o & & ; # & 5 # , 1 1 1 1 1 5 5 q s q ;   o 5 N 6 u u g i i h u % & # # w 5 # # & & # o o o # # # o o o # # o # & q c 9 & # # # < , % t *.D : g ) g f g y y B t t t 7 7 6 6 t t 6 : 6 ; & & & & & # & & # & % & 6 y H % . o & & & & & o # # # # # # # O o # # O X o , # O O O O X o # # # # # # 3 , , @ O @ @ @ 3 3 # @ @ @ @ @ O O O @ @ @ @ @ O O   O O O         X   O @ O 3 q b &.w     # # # w o X O       O O O       O O O @ @ @ @ @ < , O O O < < O O < < < < < < < < < < < < # @ O O O < < 4 < 4 , F H r ,.yX3.r r 6 c : . . t F : $ * [ ,.i 3.^ r i / R u . & . ^ jXjX3.rXJXJX{ % & # o #         X X . 6 $ r h ' r % X X     o . . $ t : . . t *.4.: # #     &.Z   #     X X       X o o o o o o o X # X X # # @ # 3 # @ # # @ @ # O # @ # @ # O # @ X O O O O O @ o , O o o 1 + + X   # X o X o   @   X o O   O o X o o o @ O @ O o # # # # # 3 # 3 3 = w b l 0 0 0 0 8 3 w 8 3 4 8 3 w 0 8 , , , 3 4   b 0 p ;.#.  0 z 8.8.O.O.o.O.%.O.o.O.O.%.%.8.!.0.8.8.0.!.8.!.Q.Q.8.8.8.8.O.X.O.O.-.o.o.L L k 7.cX`.c O 8 5 O O     q X     + @ @ @ + < L o.o.O.8.8.%.!.!.Q.!.Q.kXkXkXkX#X!.!.!.%.%.8.O.z < # o o O o o O @ o ",
"6 ; & 5 A 7.# q.A o U >.# # y.# u.N 5 &.u.5 Z :.# >.#.# y.o &.q.w y e.,.S F 5 >.>.8 N :.q y.9 # U :.5 q.A o &.>.# w y.5 # w & ; 5 # # & # & & # # & 1 & # # # # # 5 # , 9 w , 5 1 , # , 5 5 5 5 5 5 3 , , , 1 1 # # , , , , 1 1 5 # # # 1 y F U 7 q 9 5 5 w 8 5 5 5 5 5 5 5 5 1 # , 5 5 6 5 & 7 7 & : * r <.:XyXsXtX<XG.| / Q ! Q h G d d 6 * t u d B 6 5 5 ; - = # # # # , , , # # , , , # # # # # , , , , , , , , , 3 3 , # # # # # # # # # # , # # # # # # # # # # # , , , , , , , , , # , , , , , , , , , , , , , , , , , , , , , , 1 6 5 ; 5 5 1 # # # # # # # # # o % ; 6 6 6 5 ; & # # # # # # # # # # # # & & # & 1 & # # # , , , , , , , # # # 1 5 & # 5 5 5 5 1 1 5 5 : u ) ) ^ r r u y y y y 7 6 6 ; & 6 s y ; 6 5 1 1 1 5 5 5 5 5 5 9 N y y # o o 5 7 y u r r r : * & & # # # # # # 5 5 # o o o # # O o # 1 1 # # & 7 y y 5 # & 1 # , # o : [ [ : u *.Q g g d y B y y y t 7 6 6 t t 6 : ; ; & & & & & + # # # % % : u ] J   . o 5 5 o o o . X X o # # o o o o o o O X   O # # @ O @ O @ # # # # # o 3 , @ @ @ @ @ @ , # 3 3 # # # # O O   X O @ @ @ O     O X X O O O X   X O O O   q 3 Z P   #   X X 5 X X o       O O O     O @ , @ , , @ @ , 3 5 O O @ < < < < < < < < < < < < < < < < < # @ O O < 4 z < 4 q B G r * / { j r r y B % % & B t % $ t ~ r * g > g ^ h * % o . ! gXrXDXDXyXgX| % ; 6 o s 0 X # X   # . . . r [ A.u r X   X # . . r ! *.t % $ > w.=..   o # V *.p w q # X X X       o X X     X o o X # @ X # # O @ , # # # # # @ X # , # # O o O # # # # # @ @ @ O O # X X X # + o   X X o   #   X X   X @ X   O O X o o @ @ @ o # # # # # # # w 3 w 8 3 b A b b 0 0 0 0 @ 3 N w , b , 8 4 , w 8 @ 3 3 @ 8 4 8 &.b @ 4 z 7.8.%.8.O.8.8.O.O.8.0.!.8.8.!.!.8.8.!./.!.0.Q.!.%.8.8.8.-.O.o.X.X.X.o.L L 7.xXt.O O 5 #   X       o 5   O O     O + < L o.L o.!.8.O.%.!.Q.!.!.#X#X/.#X/./.!.!.O.%.8.O.x O , X o o o # o # # ",
"& ; q # P q.o q.Z = U &.# o y.# Z u.:.&.y.# A q., &.&.o y.5 &.:.:.w.=.: F q.5 q :.q.q.Z # U q.q.:.N o :.Z # P >.# # y.o ; o o 6 5 # # # # # # # 1 5 w 5 & & # # 5 5 1 # 5 5 , 5 1 1 , , 5 5 5 5 5 5 , , , , , 1 , , , , # , 1 1 , , 5 5 5 1 & & 5 5 5 , , 5 1 1 , , , , , 5 # # 1 5 5 5 6 & & 7 6 & & r G / Q E E E ' / R h ! Q g h g B y t f ) D J F 6 5 5 5 # # 3 3 5 5 , , # # , 1 , , # # # # # , , 3 , , , , , , , , , # # # # # # # # # # # # # # , , , , # # # # , , , , # , , , , , , , , , , , , , , , , , , , , , , , , , , , 5 5 w 5 5 1 1 # # o # # # & # o o & 6 6 ; 6 ; & # # # # # # # # # # # # # # # # & 1 1 # # # # # # # # # , , # , , 5 5 5 5 5 ; 1 1 1 5 ; : u ) / h > : u B y : % & : : & > u S y 6 6 1 1 5 5 5 5 5 5 5 9 N A Z q & X # w 1 6 & t u : . 2 ; ; & # # # 5 w 6 6 & # # o O @ @ # 1 # # # & 6 y 9 & # # # # # , , 1 6 f ,.Q r ( ~ D g t 7 B y y y 6 6 t y y 7 7 6 ; 5 & & & # # + # # & % $ u 1.D.H % o & 7 6 . % & ; & # # # # o o # # o o o # O O # O     # # # , # , 5 , , 3 , , < , # @ # @ # 3 3 # @ o # O O       O O   O O O       X O O O   X     #   3 , X w A # X   X o o o #   O   O O O O O O @ # @ , , O O < , # , 5 8 , , < < O < < < < < < < < < < < < < # @ @ < 4 x 4 < q u u g > r ' E j u d d 6 & & # y 6 % . r r e * u ~ h i u o X X =.@XDXJXDX@XgXF.e.] B 5 & w # o o # ; .   o * } | i > . X X . o t ! [ *.> . . t 5.S % 5 # X &.>.=   X #       o X   . X X     X o X X # X X o o @ @ # @ , # O , #   # , # # @ # O O o # # @ O @ @ X X X   X X o X + o X o   o X o   @ X   @ O   X O O O O O @ @ # # # , , , # @ , 3 w 8 3 b A b b k b b 3 @ 0 q , 3 l 3 8 3 3 w 8 , 3 4 3 3 8 N #.8 # O z -.-.8.8.%.8.8.8.%.8.!.8.%.!.!.8.8.8.!.!.!.!.!.!.%.!.0.O.O.X.o.X.$.o.L L ].GX;.< < 8 X   #     X     # X O         O , z C z o.8.%.O.%.8.!.!.!.#XkXkX!.!.!.O.8.O.O.%.O.x < @ X o o o # o # o ",
"6 5 o 6 o o 5 X o # o o X # o # Z N = A :.o o # # # o 5 @ # >.&.% & o o % & & , 6 & 5 5 5 # 5 5 1 # 5 9 5 6 # 5 5 # & # . 7 & & 5 1 5 5 1 5 9 9 5 9 0 w 5 5 5 5 w 5 5 1 1 5 5 5 5 5 5 5 9 q 0 w 5 5 3 , , , , 1 1 , , , # 5 5 1 5 5 5 5 & # 5 ; ; ; 5 5 3 5 1 1 5 5 5 5 5 # # # 5 5 5 5 5 & y 6 & 6 & + u g i h i h R j j i g i h ) D B y t h [ ,.*.H 7 5 , , , , , 5 5 5 , # # & & 1 1 , , # # , # # , , # # # , , , , , , # # , # # # # # , , # , # # # , , , # # # # , , , , # , , , , < , , # # # , , , , , , , , , , , , , , , , , , 5 5 w 5 1 & # # o # # # # # o # ; 6 6 ; 6 5 & # # # # # # # # # # # # # # # # & 1 & # 1 1 5 5 5 5 5 5 , , # , , , 5 5 3 # # , , , 1 = > h [ ) h r t u 6 6 : : 6 t : > r g h t 6 6 8 8 , , , 5 5 5 1 5 0 y Z y q 1 5 5 8 9 6 7 t ; + & & & 5 5 # o # # & & & # # # # , o # # o o # 6 y q & o o # # # # # , , & r 2.5.D u g g u 6 q q ; 6 7 6 6 9 y y 6 7 5 ; ; & & & # # o # # # % * Q D.w.:   o 6 q & . o & & o X X o # o o # # # # # , , , , @ X # w , , w , # 5 , 3 8 8 0 4 # @ @ @ @ @ # 3 @ X X O # O X           X O X         X             @ @ @ # o w U B   o     o o O   O   O O O O O O O O @ @ # # # # # @ # 3 w 4 4 8 4 < < < < < < < < < @ < < , , < < < O O < 8 , a S g t r r / f.R j ! s t & o # ; d : & t 1.u u t u r g u o   (.LXJXbXS.f [ z.S.S.1.*.*.V J p w ; ; % % %   % i i j % & o     : S D f ! > % % s =.7 . X # 3 &.&.X               X o   X X X X o X X o o o @ o o # # # # , # # # o O # # o # # # X X O O X X X X X X X o o o o       X O   o + o X o X X X X @ X O o # O O O @ # # , 3 8 8 8 , # @ @ , b 0 b A k b 4 4 8 0 3 8 q # @ 0 3 3 w q 3 8 3 @ , O @ l U U , O < C o.O.%.%.%.8.!.8.%.8.!.!.!.!.!.!.!.8.%.0.!.8.W.!.8.8.8.8.O.o.L o.X.L 4 #XFX7.< 8 K , X     X   X       +     O       < 4 k z m O.8.O.O.8.!.8.!././.#X!.8.o.x 8.O.O.%.O.m < + X O X o o o o o ",
"& # 5 o # ; o # - - X # # # o o Z q.q.q.q 5 o # # # # o # # &.] & . 5 # , + 1 1 & & 6 & & & 5 # # & 5 5 1 & 1 # 5 o # 5 # & 6 y q w 5 1 5 9 9 5 & w 0 w ; ; 5 5 5 5 5 5 5 5 5 5 # & 1 5 9 q 9 5 5 5 5 3 , , , 1 , 5 , , # , 5 5 # 5 9 q w 5 5 ; # # = 3 3 , , 1 5 5 , , # # # # # # 1 5 & ; F y 5 # 5 6 : t t r u u u u r ^ ,.Q j ~ g B B u u Q ,.( d ; 1 5 5 5 , , , , # # # # 5 1 1 & , , , , , # , # # # # # , , , , , , # , # # # # # # , , # , # # # # # , # # # # , , , , , , , , < # # # # # # , , , , , # , , , , # # # o , , , # # 1 5 6 5 # # # o # # # # # X # ; 6 6 ; 6 6 ; # # # # # # # o # # # # # # # # & ; & # # # # , , , , # , , # , # # # 5 = = # , , , , - r ~ ,.} Q f t u u u t : : > : r h ~ D t : & 9 5 8 5 w w w 5 5 5 5 8 9 y y y q q c 0 w 6 6 % & # & ; 7 7 ; # # # & 6 5 ; # o o # X o o # & 6 q 7 & # # # # # # , & 8 8 5 : Q x.*.D f g u 6 7 & ; 2 t 7 7 7 t y t 6 & & ; & & & # o # # # + & : [ ,.* . & & q y o y 6 & o & & # # o # # o o # # # # # # # # # , 3 , 3 8 , O @ O # 8 q 0 3 O @ # # O @ # # @     X o O X         O     X         X O O O O O     # 3 X # 9 5 w ; X     X X     @     O O @ # @ @ @ @ @ # , , , , 3 , # , 0 0 3 < < # < < < < < < < @ @ < , < < < < O < < 4 3 J =.h u r r e d.} j f s 6 # 5 ; o ; > o ! D.~ g d r Q ~ ! w.iXKXPXy.Y J t r > u U G d H ] *.s F J V S G #   . r / ,.u . . & 7 t : > > > : & # F U . # O # 3 >.Y X   o   # ;     X X   X X X X X X o # o o o @ o # # O , # # # # o # # # # # o #     O O @ @ @ X X X X   X X o   +     O   X # X X @   X   X o O O o # # O O @ # , 3 , 3 3 w # 3 # # # 4 8 4 b k k 0 4 4 4 , , 5 , , 3 3 3 @ @ @ 3 @ @ , 8 q l Z , O 3 < k o.-.%.%.O.8.8.%.%.!.!.!.8.!.!.Q.8.8.8.8.8.8.!.8.%.!.8.O.o.X.o.o.C C ].mX7.z K P 8   X       X       o               + O O < x L O.o.O.8.!.!.!.kXkX!.8.O.x x O.O.O.%.O.m < O X X X o o o o o ",
"% o ; ; ; ; 1 # # # # o # # # # # o o o # # # , , # # # 1 1 1 & # # # # # # # , & & & & # # # # # & & & 5 5 1 w 3 = # ; & 6 y y y 5 1 w w 5 5 5 5 5 w s w # 5 ; 5 6 w 5 # # 5 # # & & & & 5 5 & 5 5 # 5 # , 5 5 3 , # , # # , 5 5 1 5 1 5 w = = 3 - - , @ 3 3 , , , , # # # # & 5 1 5 5 ; ; V y > % & d H g t t f g g r j <.x./ j D G J u r u D ) J y 5 5 5 5 , # , , , , # # 5 & 6 6 5 & 5 5 , , , , , # , # # , 3 , , , < # # # # # # # # # # , , # # # # # # # # # # , , # , , , , # # # # # # # # # # # , , , , , < # # # # # # # # # , # 1 6 5 & # # # # # # o o # o ; 6 6 6 ; & & & # o o # # # o # # # # # # # & & & & # # 1 , # , , , 1 # # < < , , , 1 = & & ; , , # ; u } s.} / D g u u u 6 t f > r g | } ' f : 5 5 w w 8 w w w 6 5 5 5 # & # & 6 ; 6 5 # w 5 o o o o & 6 : & : & & % : 6 7 # + + + o O o o % ; y 6 o # # , # # , # # , 8 0 0 6 u } s. .Q u 6 & 6 5 , 5 & 6 t 9 t y 7 6 & & & & # # # o # o # 5 & g <.) r % 6 X q ; : ] S 7 . & # o # # # # X # - X X o X   O @ , 3 @ # @ 3 8 , o O   O O   O # , # , @ @ @ @ @ @ O X       X       X   X X       O O O O     O     # X   ; N ; 7     X X X         O   O     O O @ @ O @ O O O < 3 8 8 , w A 8 @ O @ # < # < < @ @ , , < < < < < 4 4 4 4 4 < 2 Q | E u r r f E g./ f % & 5 1 # X Z q.'. X&X_.=.:.] { { S.&XnXcXS ] ] h u u t 5 w w q q U &.&.` U ,.D.{.uX%XS.=.H ! [ s ; 7 s ; J ( ] *.&.&.U Y N   o o   0 &.=           # & # o X X o   X X X X X X X X X o o # # # # # # # , # O # # # @ @ o O O @ @   # o   X                 X   X X o o o X X X o o X @ o @ O @ # o O # # , 3 3 3 # 3 5 , , , @ , 3 3 4 b b b 0 8 8 # 5 5 8 , @ @ @ # O #   # l b C b #   , # 5 k k o.$.O.O.O.8.8.8.8.!.!.!.!.!.!.!.!.Q.0.8.-.!.!.%.8.0.8.$.O.o.I m $.#XkX-.z $.K 8 @ O                         O         O O O < k z z z X.8.8.!.#XkXQ.!.O.x o.o.O.O.%.o.m < O X o o o @ # # o ",
"> d =.s ; # # # # # # # # # # o # o o o # # # # , # # # # # # # # # - # # # # , # # # # # # # # # 5 1 1 5 5 1 w w w # ; & 6 7 6 6 & & 5 5 1 1 5 & # & w 5 # ; ; 5 5 5 # # # # # 5 6 5 & 5 5 ; 5 q w ; w # , , 1 , , # , , , 5 5 5 5 5 1 1 5 3 w b Y #.n , 4 , 3 , , , # # # # & 5 5 # ; o # y 6 6 % d ] ! u r u u g g i i ..h.R j D F B u > f G G y ; & , 1 5 # # , , , # # # 5 5 q q 6 ; 1 , # , # # # # # # # , 3 , , , < # # # # # # # # # # # # # # # # # # # # # # , , # , , , , # # # # # # # # # # # # , , , , , < < # # # # # # # # # 1 6 1 & # # # # # # o o # o ; 6 6 ; & # # & # o + # # # o # # # # # # # & & & & # # & # # , , , , , # , , , , , 1 # # % & , , & ; j } <./ R g g t r t : r g u D D / / Q u 6 5 , , w w w w w 6 w 5 ; & 5 & o o o ; & ; 5 N s s s ; V d : y t ; & 6 t y y & # + o o + o o 7 y 6 & o # o # # @ # # # # , w w 5 * h  .d.) u : % : & # & % 2 7 6 t y 7 6 & & & & # # # o # & # + & [ x.) * % 6 # w 6 S ( B y & ; # + o # # # # ; 5 # = = o @ @ @ # @ @ 3 @ , 5 # X O X @ # O O # @   o @ O O @ @ O O         X       X   X           O   O     O     o X q o 0 w J V 5 X X X           O @ O   O O O O O @ @ O O # , 3 8 8 0 0 @ @ O O @ < # < < @ @ , , < < < < < < < O < 4 < 9 ) 3.' g f u e 3.} h D u U &.:.u.mXPXvX$Xe.! H 7 s S ( H ] J 7 % d g h ^ u u y ; w w q q C Z A Y ] 6._.pXDXHXbXiX6X%X Xe.4.4.:.] =.=.*.] U P A q w   # o o A ] o   X X     X # # o X X o   X X X X X X X X o # o # # # # , # # , # O # # # o o # O O # O   o o X X     X     X   X o X X X o o o X X X o o X @ # @ O @ # # @ # , , 3 3 3 , 4 w , , , @ @ , 3 4 b n b 4 8 8 , 3 , , , # , @ @   @ 5 0 N w , o @ , q 5 0 z L o.O.O.O.O.8.8.8.0.!.!.8.!.!.!.!.!.!.Q.0.8.7.0.%.8.0.8.O.X.X.X.^.xX=XX.z X.I k < O                                     O O     O O < < x o.O.!.`.kX#X!.!.O.O.O.O.%.%.o.m < O X O + o o # # o ",
"- ` S.V o # & # # , # # # # # o o o o o o # o # , # # # # # # # # # - # # # # # # # # # # # # # 1 w 5 1 5 5 1 5 p w # ; & 6 6 & & & 1 5 1 # # & & # o & 5 # ; ; ; ; # # # # # # w q 5 & 6 6 & 6 s q 5 0 5 , , # , , , , , , 5 w 8 5 5 5 5 5 w N ` :.^.#.3 4 @ , , , , # # # # # 5 5 o & o # 6 6 % : ! ) r g g r u g i i i s.h.R r G H y t > f u u 6 & & # , # # # # , , # # # 5 1 6 6 5 & & , # , # # # # # # # , 3 , , , < # # # # # # # # # # # # # # # # # # # # # # , < < , , , , # # # # # # # # # # , , # , , , , , , # , # # # # # # # # 1 1 & # # , 1 # # o X # o ; 6 6 ; & # # # # # o o # # o # # # # # # # # & & & # # & # # , , # , , , , , , , , 5 # # % & , , 1 : j }  .E i u u r > t r : f D ~ ! / / R f y w 5 3 5 w w w w 6 6 6 & & 6 & o . . ; w s s ] *.] ] s ( g r S y : % 7 c B B & o X O O + X # B s & . o # o # # @ # o # # # 5 , # $ * } s./ t ; & 6 ; # % # & 6 6 7 y 7 6 & & & & # # # o X ; & # t 5.D.) $ . & w 5 t ( t % : ; & # # # # # # # ; w ; ; # o @ # # # @ @ w # , , O   O O @ # O O @ O   O @ O   @ O O X         X                       O   O           X = 5 w X w :.U Y   X X           O @ O O O @ O @ @ O @ # # @ @ , 8 l w @   O O   @ # @ @ < @ @ # , , < < < < < 4 z 4 x z y u / / h r : r R i ^ 1.&XCXPXLXPX*X>.y # : $ r o o ; % > % 6 o 6 : f D ~ u y y ; w w w 8 z N N N V H ~ A.+XSXHXCXHXCXuX%XS.:.` s d t : 7 ; 5 #   X   +   5 U &.    o o X X X X X X   X o X X X X X X X O X o # # # # # # , # # # # @ o # # o o # @ @ < O   o o X o X   o   X o     X X X X o o o X X X @ @ X @ # @ O @ # # @ # , # 3 , # 3 w w , , 3 @ , , , @ 4 0 b p 4 0 3 , O # , , O O # @ w N b 5 #   X , 0 l 8 l K -.X.$.-.O.o.O.%.%.0.!.!.!.!.!.!.!.0.!.!.8.8.0.!.8.8.8.8.o.$.8.=XFX^.L z $.I k 1 8 @ O   o                     O                 O   O O < x m O.!.kXkX#X#X!.8.%.O.8.%.o.m < O X o o o o # o o "
};
