/* XPM */
static char *_e4a3ec01ff645b4f44678a07e91e1e3Umui4nwY0Au9ETIy[] = {
/* columns rows colors chars-per-pixel */
"600 600 126 2 ",
"   c #26323D",
".  c #28353E",
"X  c #2A3642",
"o  c #2E3A46",
"O  c #313D46",
"+  c #323E49",
"@  c #35414D",
"#  c #38434F",
"$  c #3A4551",
"%  c #3D4955",
"&  c #404B57",
"*  c #424E5A",
"=  c #46515D",
"-  c #49555E",
";  c #495561",
":  c #4E5A66",
">  c #515D67",
",  c #525E6A",
"<  c #56626E",
"1  c #58656E",
"2  c #5A6672",
"3  c #5E6A76",
"4  c #616D79",
"5  c #65717D",
"6  c #69757E",
"7  c #6A7581",
"8  c #6D7985",
"9  c #707B87",
"0  c #727E8A",
"q  c #75818D",
"w  c #78838F",
"e  c #7A8692",
"r  c #7E8995",
"t  c #808C95",
"y  c #828E9A",
"u  c #87939E",
"i  c #88949E",
"p  c #8B989F",
"a  c #8792A1",
"s  c #8995A1",
"d  c #8E99A5",
"f  c #919DA6",
"g  c #939EAA",
"h  c #95A0AC",
"j  c #99A5AD",
"k  c #9CA8AF",
"l  c #97A2B1",
"z  c #99A5B1",
"x  c #9EAAB6",
"c  c #A2AEB7",
"v  c #A2ADB9",
"b  c #A5B1BD",
"n  c #A6B2BC",
"m  c #A6B2BE",
"M  c #A7B3BF",
"N  c #A5B1BD",
"B  c #A9B5BE",
"V  c #A9B4C0",
"C  c #AAB5C1",
"Z  c #ABB7C3",
"A  c #AAB6C2",
"S  c #ADBAC1",
"D  c #ACB8C4",
"F  c #ADB9C5",
"G  c #AEBAC6",
"H  c #ADB9C5",
"J  c #B0BBC7",
"K  c #B2BEC6",
"L  c #B0BBC7",
"P  c #B1BCC8",
"I  c #B3BFC9",
"U  c #B2BECA",
"Y  c #B3BFCB",
"T  c #B2BECA",
"R  c #B4C0CC",
"E  c #B5C1CD",
"W  c #B7C2CE",
"Q  c #B5C1CD",
"!  c #B8C3CF",
"~  c #B8C4CD",
"^  c #B8C3CF",
"/  c #B9C5D1",
"(  c #BAC6D2",
")  c #BBC7D3",
"_  c #BAC6D2",
"`  c #BCC8D2",
"'  c #BCC8D4",
"]  c #BEC9D5",
"[  c #BFCAD6",
"{  c #BEC9D5",
"}  c #C0CCD8",
"|  c #C1CDD9",
" . c #C2CEDA",
".. c #C3CFDB",
"X. c #C1CDD9",
"o. c #C5D0DC",
"O. c #C6D1DD",
"+. c #C7D3DF",
"@. c #C6D1DD",
"#. c #C8D4E0",
"$. c #C9D5E1",
"%. c #CAD6E2",
"&. c #CCD7E3",
"*. c #CBD6E2",
"=. c #CDD8E4",
"-. c #CEDAE6",
";. c #CFDBE7",
":. c #CED9E5",
">. c #D0DCE8",
",. c #D1DDE9",
"<. c #D2DEEA",
"1. c #D4DFEB",
"2. c #D1DDE9",
"3. c #D5E1ED",
"4. c #D6E2EE",
"5. c #D7E3EF",
"6. c #D6E2EE",
"7. c #D8E4F0",
"8. c #D9E5F1",
"9. c #DBE6F2",
"0. c #D9E4F0",
"q. c #DCE8F3",
"w. c #DDE9F5",
"e. c #DEEAF6",
"r. c #DFEBF7",
"t. c #DDE9F4",
/* pixels */
"& * # % $ + o + @ @ @ @ @ @ @ @ @ + + + O + + + + + + + + + + + o o + + + + + o o o o o @ @ @ @ @ @ + + @ # # # @ @ # # $ $ $ $ $ $ % % % % & % % % % % % % % % % % % $ $ $ $ # @ @ @ @ X o @ $ + + X # = & & + $ $ $ $ $ $ $ % % % % $ $ $ $ $ % % % % % % % % % % % & $ $ $ $ $ % % % % % % % % % $ $ % % % % % % & & % % % % % % % % % % % % & & & % % % $ $ $ $ $ $ $ $ $ $ $ $ $ $ # # # $ $ $ $ $ $ $ $ $ $ $ $ $ $ $ $ $ $ $ # # # # # # # # # # # # @ @ @ @ @ @ @ @ # # # # # # # # # # # # # # # # # # # # # # # # @ @ @ @ @ @ @ @ @ @ # # $ $ $ $ $ $ $ $ % % % % % $ $ # $ $ $ $ $ % % % $ # * & % % % # $ $ $ $ $ $ $ $ $ $ % * % # # $ $ $ $ $ $ $ $ $ % $ $ $ $ $ % % % % $ $ $ $ $ $ $ $ $ $ $ $ $ $ $ $ $ % % % $ $ $ $ $ $ $ $ $ $ $ $ $ $ $ $ $ $ $ $ $ $ $ $ $ $ $ $ $ $ $ $ $ $ $ $ $ $ $ $ # @ @ @ @ @ # # $ $ $ $ $ $ $ $ $ $ $ $ % $ % $ $ $ $ $ $ % $ $ $ # # # # # $ $ # # $ $ $ $ $ $ $ # $ $ $ $ $ $ $ $ $ # # @ @ @ @ @ @ # $ $ $ $ $ $ $ $ $ $ $ $ $ $ $ $ $ $ % % % % % % $ $ $ $ $ % % % % % % % % % % % % % % % % % % % % $ $ $ % % % $ $ $ $ $ $ $ $ # @ @ @ @ @ @ # # $ $ $ # @ @ @ @ @ @ # # @ @ @ @ @ @ # # @ @ @ @ # @ @ @ @ @ @ + + + + + + + + + + @ @ @ @ @ @ # # # # # @ @ @ $ = % @ % % % $ # # # # # ",
"% $ $ @ $ * = * ; ; : : : , , < < < < 2 4 4 4 4 8 8 7 7 q q q w w e e e u u u u d d d d d g z v m C C G G G J J P P R R R R ) ) ) ) ) ) ) ! ! ! ) ) ) ) ) ) ! R R R R P P P P P m m m m z h d s y 0 3 & @ & $ @ $ $ $ $ $ $ * $ + + + + + + + @ @ @ @ @ + + + + o o o o + + + + o o o o o o o o o o o o o o o o o o o o o o o o + + + + @ @ @ @ + + + + @ + @ + + + + + @ @ @ @ @ @ @ @ # # $ $ # # # # # # $ $ $ % % % % % % % & & * * * * * * * * * * * * * * * * = = = = ; ; ; ; ; ; = = - ; ; ; ; ; ; ; ; ; ; ; ; ; ; ; = = = = = = = = = * * * * * * * * * & & % % $ $ $ $ $ $ $ $ O O O + @ @ + + + o o X + @ = $ $ $ $ $ $ $ $ $ + % % o + + + + + + + @ @ @ @ @ @ @ @ @ @ @ @ @ # # # # @ @ # # # # $ $ $ $ $ $ $ $ $ $ $ $ $ $ % % % % % % % % % % % % % % & & % % % % % % % % $ $ % % % % % % $ $ $ $ $ $ % % % % $ $ $ $ $ $ & & & % % $ % % % % % % % % % % $ $ $ $ $ $ % $ $ $ $ $ $ $ $ $ $ # $ $ $ % % % % $ $ $ % % $ $ $ # @ @ $ # # # # # @ @ @ @ @ @ @ @ @ @ @ + + + + + + + + + @ + + + + + + + + o o o o o o o o o o o o o o o o o o o + + O O + + @ @ @ @ @ @ # # @ @ # # # # $ $ * * * * & & & & ; = = = * * * * ; ; ; ; , , , , , , , , , , < < < < < < < < < < < < , , , , , : ; ; ; ; * % # @ $ % $ % % $ # @ # $ $ $ ",
"% @ @ ; m P R J R R R R ) ) ) ) ) ) ) ) ) ) ] ] ] | | | | | | | | | | } ] ] ] ] ] ] ] ] ] o.>.8.4.1.>.>.o.o.o.o.o.| | | ;.>.>.>.>.1.1.1.1.>.>.>.;.;.;.;.;.;.;.;.>.>.>.>.>.>.>.>.8.8.8.8.8.8.8.q.e.4.1.] ; $ $ $ $ $ $ $ * @ @ , : : : : 2 2 2 2 2 2 3 3 4 4 5 5 5 5 7 7 8 8 8 8 q q q q q q q q y y y y y u u u s s s s g g g g g g h h h h z z z z x x x x v v v m m m C C C C C C G G G G P P P P R R R R R ! ) ) ) ) ) ) ] ] ] ] ] ] ] ] ] ] ] ] ] ] ] ] | | | | | | o.o.o.o.o.o.o.o.o.o.o.o.o.o.o.o.o.o.o.o.o.o.o.o.o.o.o.o.o.o.| | | | | | | | | | | | ] ] ] ] ) ) ) ! R R J J J J m m m m z z h g s y q 8 3 * o % % % % % % % % % % + @ = , , , , , , , , : : : : ; ; ; ; ; ; ; ; * * * & & % % % % % % % % % % % $ $ $ $ o o o o O O O o o o o + + + @ @ + + + O o o o o o o + o o o o o o o o o o o + + + + + + + + + + + + o o o o o o o o o o o o + + + + + + + o o o o o o o o o o + + + + + + o o o o o o o + + + + + @ @ @ $ $ % % % % & & & & & & ; ; ; ; ; ; ; ; , , , , 2 2 3 3 3 3 3 3 7 7 7 7 9 9 9 9 e e e r r r r y s s s s s s s s h h h h x x v v v v m m G G J J J J P P ) ) ] ] ] ] | | | | | | ] ) R P P P P P R R R R %.%.%.%.%.&.;.;.&.&.&.&.&.&.&.&.&.&.&.&.&.&.&.&.;.;.&.%.%.%.o.o.) ] J h * @ % $ $ $ $ $ $ $ $ $ ",
"& $ o q o.) R ) ! ! ! R R R R R R R R R R R R R P P P P P P R R R R R R R P P P P P P P ! ] o.&.;.o.) P P P P P R Y R R R R R R ] ] ] ] | | | | ;.;.;.;.;.;.;.&.&.%.%.%.;.;.;.;.;.&.&.%.%.%.%.&.%.;.%.e.0 o $ % $ $ $ $ @ & m %.%.%.&.&.&.&.;.;.;.;.>.>.>.>.>.>.1.1.1.1.4.4.4.4.4.4.4.4.4.4.4.4.4.4.8.8.4.4.8.8.8.8.8.8.4.4.4.4.1.1.1.1.4.4.4.4.4.4.4.1.>.>.>.>.>.>.1.1.1.1.1.1.1.1.1.>.>.>.>.>.>.>.>.>.>.>.>.>.>.>.>.>.>.>.>.>.;.;.;.;.;.;.;.;.;.;.;.;.;.;.;.;.&.&.&.&.;.;.;.;.;.;.;.;.;.;.;.;.;.;.;.;.;.;.;.;.;.;.;.;.;.;.;.;.;.;.&.&.&.&.;.;.;.;.;.;.;.;.>.>.>.>.>.>.>.>.>.>.>.>.>.>.1.1.4.4.4.4.>.>.>.4.4.8.4.P < $ $ $ $ $ $ $ $ $ + 2 z &.;.;.;.;.;.;.&.&.&.&.%.%.%.%.%.o.o.o.o.o.| | | | | ] ] ] P P P P P P P P J G G G m m m m x x x x x x x x g g g g s s s s y y y y q q q q 9 9 8 8 8 8 8 8 5 5 5 4 4 4 4 4 4 4 4 4 4 4 5 5 5 5 6 7 9 9 0 0 0 0 q q q q q e e e r r r y y y s d d d d g g g h h h h x x x x C C G G G G J P P P P P ) ) ) ] ] | | | | ....o.o.o.o.%.%.%.;.;.;.>.>.>.1.1.4.4.4.4.4.4.4.4.4.8.8.8.8.8.8.8.8.4.4.4.4.4.4.4.4.4.4.4.4.4.4.4.4.>.>.>.>.>.>.;.>.>.>.>.>.>.>.>.>.;.;.;.;.;.;.>.>.>.o.| ) R ) ) ) R R R R R ;.;.;.;.&.&.&.&.%.%.%.%.%.%.%.%.%.%.%.%.%.%.%.%.&.&.&.&.&.&.&.&.&.o.%.8.o.y $ @ $ $ $ $ $ $ $ $ ",
"* # $ C R R R R R R R R ! ! R R R R ! ! ! ! R R ! ! ! R R R R R R R ! ! R R ! ! R R ! ! ] %.>.&.R R R R ! ! ! ! R R R R ! ! R R R R R R R R ! ! ! ! ! ! | | | o.o.o.o.%.;.;.;.;.;.;.;.;.;.;.;.;.;.;.o.4.d + $ % $ $ % # @ x e.%.;.;.&.&.&.&.;.;.;.&.&.&.;.;.;.;.&.&.&.&.&.;.;.;.&.&.&.&.&.&.&.&.&.&.&.&.%.%.%.%.&.&.&.&.&.&.&.&.&.&.&.&.&.&.&.&.&.&.&.&.&.&.&.&.&.&.&.&.&.&.&.&.&.&.&.&.&.&.&.&.&.&.&.&.&.;.&.&.&.&.&.&.&.&.&.&.;.;.&.&.&.&.;.;.;.;.;.;.;.;.;.;.&.&.&.&.&.&.&.;.;.;.&.&.&.&.;.;.;.;.&.&.;.;.;.;.&.&.&.&.&.&.&.&.;.;.&.&.&.&.;.;.;.;.&.&.;.;.;.;.;.;.;.&.&.&.&.&.;.;.&.&.&.&.;.;.;.&.&.&.;.;.;.;.%.q.z @ $ $ $ $ % + % @ e ;.1.&.;.;.;.;.;.;.;.;.&.&.&.&.;.;.;.;.;.;.&.&.%.%.&.&.&.&.;.;.;.;.>.>.>.>.1.1.4.4.4.4.4.4.4.4.4.4.4.4.4.4.4.4.4.4.4.4.5.4.4.5.4.4.4.4.4.4.4.4.4.4.4.4.4.4.7.8.8.4.>.1.1.1.1.>.>.;.;.>.>.>.;.&.>.1.8.8.4.4.4.4.4.4.4.4.4.4.4.4.4.1.4.4.4.4.4.4.4.4.4.4.5.4.4.4.4.4.4.4.4.4.4.4.4.1.>.1.4.4.4.>.>.>.>.>.;.;.;.;.;.;.;.;.;.;.;.&.&.%.&.&.&.&.;.;.&.&.&.&.%.%.%.%.%.%.%.%.%.%.%.%.%.%.%.%.%.%.%.%.&.&.%.%.%.%.%.%.%.o.o.o.%.%.%.%.%.&.;.;.;.&.&.&.&.%.%.%.&.&.&.&.;.;.;.;.;.;.;.%.| R P R ) ) ) ) ) R ) | ;.;.;.;.;.;.;.;.&.&.&.&.&.&.&.&.&.&.&.&.&.&.&.&.&.&.&.&.&.&.&.&.;.&.&.&.>.>.m , X & $ @ $ $ $ $ ",
"% @ ; P R R R R R R R R ! ! R R R R ! R ! ! R R ! ! ! R R R R R R R ! ! R R ! ! R R ! ! } >.;.] R R R R ! ! ) ! R R R R ! R R R R R R R R R ! ! ! ! ! R R P R R R R R R ] ] ] ] %.%.%.%.%.&.;.;.&.;.o.4.h @ + @ % $ * X 8 4.&.o.;.;.&.;.&.&.;.;.;.&.&.&.;.;.;.;.&.&.&.&.&.;.;.;.&.&.&.&.&.&.&.&.&.&.&.&.%.%.%.%.&.&.&.&.&.&.&.&.&.&.&.&.&.&.&.&.&.&.&.&.&.&.&.&.&.&.&.&.&.&.&.&.&.&.&.&.&.&.&.&.&.&.&.&.&.&.&.&.&.&.&.&.&.&.&.%.;.;.&.;.&.&.;.;.;.;.;.&.;.;.=.;.&.&.&.&.&.&.&.;.;.;.&.&.&.&.;.;.;.;.;.&.;.;.;.;.&.&.&.&.;.&.&.&.;.;.&.&.&.&.;.;.;.;.&.&.;.;.;.;.;.;.;.&.&.&.&.&.;.;.&.;.&.&.;.;.;.&.&.&.;.;.;.;.%.%.%.; $ $ $ $ + & X 8 ;.>.&.&.&.&.;.&.;.;.;.;.&.&.&.&.;.;.;.;.;.;.&.;.%.%.&.&.&.&.;.;.;.;.;.;.;.&.&.&.;.&.&.%.%.%.%.%.%.%.%.%.%.+.+.%.%.%.%.%.%.%.%.%.%.%.%.%.%.%.%.%.o.o.%.%.%.%.%.%.%.&.;.&.&.&.&.&.%.%.%.&.;.;.;.;.;.;.;.;.&.%.%.%.%.%.%.&.&.;.;.;.;.&.&.%.%.%.%.%.%.%.%.%.%.%.%.%.%.&.;.%.%.%.%.%.%.&.;.;.;.;.;.;.;.;.;.;.&.&.&.&.&.&.;.;.;.;.;.=.&.%.&.=.;.;.>.>.%.%.%.&.&.;.;.;.;.&.;.;.;.;.;.;.;.%.%.%.%.o.o.o.%.;.;.;.;.;.;.;.;.;.;.;.;.;.&.&.&.&.&.&.&.&.&.%.%.%.%.%.&.&.&.&.;.;.;.;.>.>.;.o.) R R ! ) ) ) ) ) ) o.%.;.;.;.;.;.;.&.&.&.&.&.&.&.&.&.&.&.&.&.&.&.&.&.&.&.&.&.&.&.&.&.&.;.;.&.&.;.o.) P ; @ $ $ $ $ $ $ ",
"% + 5 ) R R R R R R ! ! ! ! R R R R R R ! ! ! R ! ! ! R ! R R R R R R R R R / ! R R R R %.&.o.R R ! R R ! ! ) ) R R ! ! ! ! R R R R R R R ! ! ! ! ! ! ! ) ) ) ) ) ) ) R R R R R R R R R ! ) ) ) | | ] ;.h @ + @ $ $ % @ P 8.;.%.;.;.;.;.&.&.&.;.;.;.&.&.&.&.;.;.&.&.%.%.&.&.;.;.&.&.&.&.&.&.&.&.&.&.&.&.%.%.%.%.&.&.&.&.&.&.&.&.&.&.&.&.&.&.&.&.&.&.&.&.&.&.&.&.&.&.&.&.&.&.&.&.&.&.&.&.&.&.&.&.&.&.&.&.&.&.&.&.&.&.&.&.&.&.%.%.;.;.;.;.&.&.&.;.&.;.&.&.&.;.&.&.&.&.&.&.&.&.;.;.;.;.;.&.&.;.;.;.;.;.&.&.&.&.;.;.;.;.;.;.;.;.&.&.;.;.;.&.&.;.;.;.;.;.&.&.&.&.;.;.;.;.;.;.&.&.;.;.;.;.;.;.&.&.&.;.;.;.&.&.&.&.;.;.o.1.1.3 $ $ $ $ * @ ; o.1.&.1.;.;.;.&.&.&.&.&.&.&.&.%.%.&.&.;.;.;.;.;.;.%.&.&.&.%.%.;.;.;.;.;.;.;.&.&.%.%.%.%.%.&.&.;.;.;.;.;.;.;.&.;.;.;.;.;.;.;.;.;.;.;.;.;.;.;.;.;.;.&.&.;.;.;.&.;.;.%.%.%.%.%.%.%.%.%.%.%.&.;.;.;.&.;.;.%.%.%.%.&.&.&.;.;.;.;.>.>.>.>.;.;.;.;.&.&.&.>.>.>.>.>.>.>.>.>.;.;.;.;.;.;.;.&.%.%.%.&.&.&.&.;.;.;.;.&.&.&.&.&.&.;.;.;.;.;.;.&.%.&.&.&.&.;.;.;.;.;.&.%.%.%.%.o.o.o.o.] ] ] ] ' ) ! R R R R R | o.%.%.&.&.;.;.;.;.;.;.;.;.;.;.&.&.&.&.&.%.%.%.%.%.%.%.&.&.%.&.&.&.;.&.;.;.%.] R ) ) ) ) ) ) ) ] o.%.%.;.;.;.;.&.&.&.;.&.&.&.&.&.&.&.&.&.&.&.&.&.&.&.&.&.&.&.&.&.&.&.&.;.;.;.;.%.) P ) m * + @ $ $ $ $ ",
"% o q | R R R R R ! ! ! ! ! R R R R R R ! ! ! ! ! ! ! ! ! R R R R R R R R R ) ) R R R R 4.o.! R ! ! R R ! ! ) ) ! ! ! ! ! ! R ! R R R R R R ! ! ! R R R R R R R R R R R R R ) ) ! ! ! R R R R ! P P G ] d @ @ % @ $ o , &.%.&.&.&.&.;.;.&.&.&.;.;.;.&.&.&.;.;.;.&.&.&.%.&.&.;.;.&.&.&.&.&.&.&.&.&.&.&.&.%.%.%.%.&.&.&.&.&.&.&.&.&.&.&.&.&.&.&.&.&.&.&.&.&.&.&.&.&.&.&.&.&.;.&.&.&.&.&.&.&.&.&.&.&.&.&.&.&.&.&.&.&.&.&.&.&.&.%.%.;.;.;.;.&.&.&.&.;.;.&.&.&.;.&.&.&.&.&.&.&.&.;.;.;.;.;.=.&.&.;.;.;.;.&.&.&.&.&.&.;.;.;.;.;.;.&.&.;.;.;.=.&.&.;.;.;.;.&.&.&.&.&.;.;.;.;.&.&.&.;.;.;.;.;.;.&.&.&.;.;.;.&.&.&.;.;.;.>.;.>.8 $ $ $ $ $ o x 4.&.%.;.&.&.;.&.&.&.&.&.&.&.%.%.%.&.&.;.;.;.;.;.;.%.&.&.&.%.%.;.;.;.;.>.>.>.>.>.>.;.;.;.;.;.;.&.&.&.&.&.&.&.&.&.&.&.&.&.&.;.;.;.;.&.&.&.&.&.&.&.&.%.%.&.&.&.&.;.;.&.&.&.&.&.&.;.;.;.;.>.>.>.;.%.%.] ) R P C C C C P P P P P P P P P J P P P P P P ] ] ] ] o.o.o.o.o.o.o.o.;.;.;.;.;.;.;.;.;.;.>.>.>.>.>.>.>.>.>.>.>.>.>.>.;.;.;.;.&.%.%.%.o.o.o.| | ] ] ] ] ) ) ) R R R R R P P P P P P P R R R R R ) ) ] ] ] ] ] ] | | | %.%.%.%.%.%.%.%.%.%.%.%.%.%.%.%.&.&.%.%.&.&.&.&.o.| ) G G ) ] ) ) ) ) ) %.;.%.%.;.;.;.;.&.;.;.;.&.&.&.&.&.&.&.&.&.&.&.&.&.&.&.&.&.&.&.&.&.&.&.&.;.;.;.;.] ) ) ) G , $ $ $ $ $ $ ",
"% + u ] R R R ! ! ! ! ! R R R R R R R R R ! ) ! R R R R R R R R R R R R R R ! ! ! R ! R o.] R P ) ! ! ! ! ! ! ! ! ! ! ! ! ! R R ! ! R R R R R R R R ! ! ! R R R R R R R R R ! ! ! ! ! ! R R R R R R P | z @ $ & $ $ X s 8.;.%.;.&.&.&.&.;.;.;.;.;.;.&.&.&.&.;.;.;.;.;.&.&.&.;.;.;.;.;.;.;.;.;.&.%.%.%.%.%.%.&.&.;.;.;.%.%.%.;.;.%.%.%.&.;.;.;.;.;.;.;.;.;.>.>.>.>.;.&.%.&.;.;.;.;.;.&.&.;.;.;.;.;.;.;.;.&.;.&.&.&.&.&.&.;.;.;.&.;.;.&.&.&.;.;.;.;.;.&.;.;.;.;.;.;.&.;.&.&.&.;.;.&.&.&.&.;.;.;.;.;.;.&.&.;.;.&.&.&.&.&.&.;.;.;.&.;.&.&.&.;.;.;.;.;.;.&.&.&.;.;.;.&.&.&.&.&.&.;.;.;.&.&.&.;.;.;.;.;.;.;.;.&.&.&.&.;.%.>.7 $ $ $ $ + : %.1.;.o.1.o.%.;.>.;.&.%.&.&.&.&.;.;.;.;.&.&.&.&.&.&.;.&.&.%.%.%.&.&.;.;.;.;.&.%.%.%.%.%.%.%.%.%.&.&.=.=.;.=.;.&.&.&.&.&.&.&.&.&.&.&.%.%.%.%.>.;.%.o.;.;.;.;.;.;.>.>.;.;.%.o.o.| ] ] P P G C v h d d s s s u u u y y y s s d g g g g g g g g h h h g g g g g g g h h h h h h x x x x C C C G G G G G R R R R P P P P P P P P R R R P P P P P P P P P P P P P P P Y R Y Y R R R R R R R R R R ! ! ) ) ) ) ) ) ! ! ! R R R ! ) ) ) ) ] %.;.>.1.1.>.>.>.1.1.1.>.>.1.1.>.;.>.%.] ) ) ] ) ) ] ] ) ) ) ) ) o.%.;.;.&.&.;.;.;.;.;.;.;.;.>.>.>.>.>.>.>.>.>.>.;.;.;.;.;.;.;.;.&.%.&.;.;.&.&.&.| G | ) 9 , * $ $ $ $ $ ",
"% @ g ) R R R R R R R R P P P P P P R R R R R R R R R R P P P P P R R R R R ! ! ! R R R ] ) R P ) / ! ! ! ! ! ! ! ! ! ! ! ! R R ! ! R R R R R R R R R R ! R R R R R R R R R ! ! ! ! ! ) R R R R R R P | g # $ % % $ $ z o.;.;.o.;.&.&.&.;.;.;.;.;.;.&.&.&.&.;.;.;.;.;.;.&.&.;.;.;.;.>.>.;.;.&.&.;.;.;.;.;.;.;.;.;.;.;.;.;.;.;.;.;.;.;.%.&.;.;.&.&.%.%.%.&.&.&.&.&.%.%.%.;.;.;.;.;.;.&.&.&.;.;.;.;.;.;.;.&.;.&.&.&.&.;.&.;.;.&.&.;.;.&.&.;.;.;.;.&.&.&.&.;.;.;.;.;.;.&.&.&.&.;.;.;.&.&.&.;.;.;.;.;.;.&.&.;.;.&.&.&.&.&.&.;.;.;.&.;.&.&.&.;.;.;.;.;.;.&.&.&.;.;.;.;.;.&.&.&.&.;.;.;.&.&.&.;.;.;.;.;.;.&.;.;.;.&.&.;.%.&.5 $ $ $ $ + 9 >.%.>.;.%.;.&.&.;.&.;.>.>.>.;.;.;.;.;.&.&.&.;.;.;.&.%.%.%.%.>.;.;.;.>.>.>.>.>.>.;.;.;.&.&.&.&.&.;.&.%.%.%.%.%.%.&.&.&.&.%.%.%.%.%.%.;.;.;.;.;.&.;.;.;.%.o.| ..' P C v v x z h g d d s s u u u u u u u s s u u u u u y s s d g g g g g g g g h h h h h h g g h h h h g g g g d d d d u u u u u u u y y y y y y y y y y y y u u u u s s s s s s s s s s s d d d d d d f f g g g g g g g g g g h h h h h h h h z j z z z z x x x x v v x v G P R R R R ) ) ) ] ] ] ] | ] ] ! G C C G G C G G G G G G G | o.%.%.+.+.%.%.%.o.o.o.o.o.o.| | | | ] ] ] ] ] | | | | | | | | o.| o.&.;.;.;.;.;.| G 8 ; 3 = # $ $ $ $ ",
"% % v R R R ! ! ) ) ] ' ] ] ] ] ] ] ] ] ) ) ' ' ] ] ] ] ! ! ! ! R R P R R R R ! ! ! R R R R R R R ! ! ! ! ! ! ! ! ! ! ! ! ! R R R R R R R ! R R R R R R R R R R R R R R R R R ! ! ! ) ) ! ! R R ! ! P | u @ % $ $ @ ; P R | %.%.;.;.&.&.;.;.;.;.;.&.&.&.;.;.;.;.;.;.;.;.&.&.&.&.;.;.;.&.&.%.%.%.&.;.;.;.&.&.&.&.&.&.&.;.&.%.o.o.%.%.%.&.;.&.;.;.;.;.;.;.;.;.;.;.;.;.>.>.;.;.;.;.;.;.&.&.&.&.;.;.&.&.;.;.;.;.;.;.;.;.;.;.;.;.;.;.;.;.&.&.&.&.;.;.&.&.&.&.&.&.;.;.;.;.;.;.&.&.&.;.;.;.&.&.;.&.;.;.&.&.&.&.;.;.;.;.;.;.&.;.;.;.;.;.;.;.&.&.;.&.;.;.;.&.&.&.;.;.;.;.;.;.;.;.&.;.;.;.;.;.&.&.;.&.;.;.&.&.&.&.;.;.;.;.;.;.| 4 $ $ $ $ + 9 >.%.%.;.;.%.;.) J ) | | | | ;.;.;.;.;.;.;.;.>.>.>.>.>.>.>.>.1.>.%.o.%.%.&.&.&.&.;.;.;.;.>.>.>.1.1.1.>.>.>.>.>.>.>.>.>.;.;.;.;.&.&.%.| | | | R J m v x z h g h g g g g g d d z z h g d s s u u u u u u u s u u u u u u s s d g g g g g g g g h h h h h g d s s s s s s u u u s s s s u u u u u u u u u u s s u u u u i u u u u u u u u u u u u u u u s s s s s s s s y y y y y y u u y y y y u u u u s s u u u u u u y y y y y y y y r y u s g g g g g g g g h d d h g h d u u y u u u u s u u u u u d g h h h h h h h h h g g g g g d d d d d s s s s u u u u u u u u e u v ] ] ] ] P g 5 , , < 3 $ $ $ $ $ ",
"$ * G J R R R R C C C C x x x x g g g g g d f g g g h h v v v v G P R R R R ! ! ! ! R R P P P R R ! ! ! ! ! ! ! ! ! ! ! ! ! R R ! R R R ! ! R R R R R R ! R R R R R R R R R ! ! ! ! ) ) ! ! R R ! ! P | r @ % $ $ @ 2 | P R | >.;.;.&.&.&.&.;.;.;.;.&.&.;.;.;.;.;.;.;.;.&.&.&.&.o.o.o.| | o.o.o.o.o.o.o.o.o.o.o.%.%.%.o.o.| ) ) R ] o.;.&.&.;.;.| | | | ] ] ] ] ] | o.o.;.;.;.;.;.;.&.&.&.&.;.;.&.;.;.;.;.;.;.;.;.;.;.;.;.;.;.;.;.;.&.&.&.&.;.;.&.&.&.&.&.&.;.;.;.;.;.;.&.&.;.;.;.;.&.&.&.&.;.;.&.&.&.&.;.;.;.;.;.;.;.;.;.;.;.;.;.;.&.&.&.&.;.;.&.&.&.&.&.;.;.;.;.;.;.;.&.&.;.;.;.;.&.&.&.&.;.;.&.&.&.&.;.;.;.;.;.>.) 3 $ $ $ $ @ : %.1.4.;.%.h y d g d g h h h h z z z v v v v C C C C P P P P R G m v m m m m m C C C m m m m G G J J P P P P m m m m m m m m x x x x g g g g g g g g g g g g h h h h h h g d d s s u s u y y s s s s s s s u u u u u u u s d g g g g g g g g h h g h g d u r u u u u u u u u u u u u u u u u u s s s u u u u y y y y y u u u u u u u u u u u u u u u u u u u u u s u u y u u u u u u u u u u u u s s s s s s u u u u s s s s u u u u d s u y g g g g g h h h h u u h g g d y u u s u u s s u u u u u d g g g g g h h g g h h h h h h z z z z z h z z z z z z z z h h l z l h g g g g y 2 < 4 2 < < = $ $ $ $ ",
"$ = P | J m x h s u u u u u u u u u u u u u u u u y y u u u s s s s s d h x m C ) ) ! ! ) ) ) ) ) ! ! ! ! ) ! ! ! ! ) ) ) ) ) ) ) ) ! R ! ! ! ! ) ) ) ! ! ! ) ) ! ! ) ) ! ! ! ! ! ! ! ) ) ) R P R R R R 8 @ % % $ + q ) R ) >.1.>.>.>.;.%.o.| ] P P P P m m m m v z h h h h h h h h g f g h g h z z z h h h h h g g s s s s s s h g z m C C C C x m G P P P P P R ] ;.4.>.>.>.>.%.1.>.| ] ] ] ] ..o.&.;.;.;.;.;.&.%.%.%.%.%.%.%.%.%.&.&.;.;.;.;.&.%.&.&.&.;.;.;.;.;.%.%.&.;.;.;.;.;.;.;.;.;.;.;...%.;.>.&.&.&.%.%.o.o.o.o.%.%.%.%.%.%.&.&.&.&.&.%.&.&.%.%.%.%.%.%.%.%.%.%.%.%.%.%.%.%.%.%.&.&.;.&.;.;.&.&.&.;.>.>.>.g , $ $ $ $ @ @ 0 m x y 5 7 g g g g g g g g h h h h g g g g h h h h h h h h h g s y u u u u u u u u u u u u u u u u u u u u u u u u u u u u d d d d d d g g g g g d g g g g d d d d d s s u u u u u u u u u u u s s s s s s u u u u u u s u g h h h h h h h h g g s u u u u u u u u u u u u u u u u u u u u u u s s u u u u u u u u u u u u u u u u u u u u u u u u u u u u s s s u u u u u u u u u u u u u u u u u s s s s s s s s s u u u u u u y u u u u u u d g g g g g s s s s h h g u u u u u u u u u u u u u u s d d d s a s s s s s s d g g h h h h h h h h h h h h h h h h h h h h h g g g h y 2 2 2 2 2 : $ $ $ $ ",
"$ : R R g s y y y u s s u u u u u u u u u u u u u s s u u u u u u u u u r y s s d g h z v v m m P P P P R R P P J G G G G G G G G G G G G G G C C C C C C G G G G G G G G G G C C M m m J P R ! ) ) ) G 4 # $ % $ @ u ] P ;.>.| P C v x z h h g g g g g g g g g h h h h h h h h d s s u g g h h h h h h h g d s u i s s s s s s y y s g g g g g s s u u s s s s z v C G R R R R ] o.| R R R R R ) ) | | %.%.&.&.;.;.;.;.;.;.;.;.;.;.;.;.>.>.>.>.>.>.>.>.>.>.>.1.4.1.>.>.>.>.>.>.>.>.>.>.>.>.>.>.4.4.1.1.1.1.1.1.>.>.>.>.>.>.>.>.>.>.>.>.>.>.>.>.>.>.>.>.>.>.>.>.>.>.>.;.;.;.;.;.;.;.>.>.>.>.>.>.;.;.;.>.;.;.;.&.o.o.0 < $ $ $ $ @ @ = 2 , < 3 d g g g g g g g g h h h h g g g g h h h h h h h h h g s y u u u u u u u u u u u u u u u u u u u u u u u u u u u u u u u u u u s s s s s u s s s s s s s s s u u u u u u u u u u u u u s s s s s s u u u u u u u u g h h h h h h h g g d s u u u u u u u u u u u u u u u u u u u u u u s s u u u u u u u u u u u u u u u u u u u u u u u u u u u u s s s u u u u u u u u u u u u u u u u u s s s s s s s s s s s s u u u u y y y y y y u u s s s s s s s s h h g u u u u u u u u u u u u u u u u s s u u u u u u u u s s d h h h h h h h h h h h h h h h h h h h h h g g g h d 5 < 2 2 2 : $ $ $ $ ",
"# < ) C s u u s s s s s s u u u u u u u u u u u u d d u u u u u u u u u u u s s s u y r y y u u s s s s s d s s s u u u r r r r r r r r r r r r r r y y y y u u u u u u u u u u u u s s s s d g J G R u , $ $ $ $ % z | G >.R h g g g g g g h h h h h g g g g g h h h h h h h h h g d d g g h g g g g g d s u u u s s s s s u u y s g g h h h h g d s u s s s d g g g g g g g g g g d s g g g g g j z x G G G G R R R R R R R R R R R R R R R R G G G G G G G D m v v x h h h h h g h h h h h h d g z v C C C C C C C C C G G G G J J P P P P P P P P J G G D C C C C m m m m m m m m m P P P P } | %.;.1.4.4.4.4.s 2 : $ $ $ $ $ # ; 5 3 3 8 j g g g g g g h h h h h h g g g g h h h h h h h h h g u u u u u u u u u u u u u u u u u u u u u u u u u u u u u u u u u u u u u u u u u u u u u u u u u u u u u u u u u u u u u u u u s s s s s s u u u u u u u u s g h h h h h h g d s u u u u u u u u u u u u u u u u u u u u u u u s s u u u u u u u u u u u u u u u u u u u u u u u u u u u u s s s u u u u u u u u u u u u u u u u u s s s s s s s s s s s s s s s s s s s s u u u u u u u u s s s s h h g u u u u u u u u u u u u u u u u u u u u u s s s s s s f g h h h h h h h h h h h h g h h h h h h h h g g g z h 8 , 2 2 2 : $ $ $ $ ",
"@ 3 ] v r y u s s s s s s u u u u u u u u u u u u g g u u u u u u u u u u u u u u u s s u u u s u u u u u u u u u u u u s s s s s s s s s s s s s s s s u u s s s s s s s s s u u u u u s s u y y 7 8 2 ; $ # $ $ * C o.;.%.z h z h g d d g h h g g g g g g g g h h h h h h h h z h g g g g g g g d d d y u s s s u u u u u u u s h z z g g g g g g d d d d d d g g d u u u u u d s u u u u u u u s d d d d g g g g g g g g g g g g g g g d d d d d d d s s s s u y y r r y y y y t t t y y y r r r r r s s s s d d d d d d d f g f f f g g g g g g g g g g g g g g g g g g g g g g g d g d d d g z v m x m P ) x < 3 < $ $ $ $ @ % ; 3 3 2 u f g g g g g g g g h h h h g g g g h h h h h h h h h g u u u u u u u u u u u u u u u u u u u u u u u u u u u u u u u u u u u u u u u u u u u u u u u u u u u u u u u u u u u u u u u u s s s s s s u u u u u u u u s g h h h h h h s s u y u u u u u u u u u u u u u u u u u u u u u u s s u u u u u u u u u u u u u u u u u u u u u u u u u u u u s s s u u u u u u u u u u u u u u u u u s s s s s s s s s s s s s s s d h h h h d s u u u u s s s s s s h h g s u u u u u u u u u u u u u u u u u u u u g g g g g h z z h h h h h h h h h h h h h h h h h h h h h g g g h z w 2 2 2 2 : $ $ $ $ ",
"@ 8 | x u u u u s d g g s s s s s y y u s y u s u u u u u u u u u u u u u u u u u u u u u u u u u u u u u u u u u u u u u u u u u u u u u u u u u u u u u u u u u u u u s s s s s s s s u u u u d w , 3 , $ # $ $ ; R %.;.] h z h h h h h h h h h h h h h h h h g g g g h h h h h h h h z h d u u u u u u u u u u u u u u u u u d g g h h h h h g g g g h h g g u u u u u u u u u u u y y u s s g g g g g g g g z h g g h h h h h h h h h h h h g g g g h h h h g u u y u u u u u u u u u u u u u u u u d h h g h h h h h h h h h h h h h h h h h h h h h h h h h h h h h h h h h h h h h h h h g g g g e 2 , 4 < 2 5 : $ $ $ $ @ # = 3 < 7 g h g g g g g g g g h h h h h h h h h h h h h h h h g d u u u u u u u u u u u u u u u u u u u u u u u u u u y u u y u u u u u u u u u u u u s s s s u u u u u u u u u u u u u u u u u u u u s s s s s s s s u u u u s g h h h g d s u u u u u u u u u u u u u u u u u u u u u u u u u u u u u u u u u u u u u u u u u u u u u u u u u u u u u u u u u u u u u u u u u u u u u u u u u u u u u u u u s s s s u u u u u d g h g g g g g s u y u u u s u u s s d h g s u u u u u u u u u u u u u u u u u u u u u s g g h h h h h h h h h h h h h h h h h h h h h h h h h h h h h z u < 2 2 2 : $ $ $ $ ",
"@ 9 | z u u u u d g h h s s s s s y u s s u u u u u u u u u u u u u u u u u u u u u u u u u u u u u u u u u u u u u u u u u u u u u u u u u u u u u u u u u u u u u u u u u u u u u u u u u u u s r < 2 , $ $ $ $ , %.%.%.G h h h h h h h h h h h h h h h h h h h h h h d d d d g g g g h d s y u u u u u u u u u u u u u u u u s d g g h h h h g g g d h g g g s u u u u u u u u u u s s d g g g g g g g g g g z h h h h h h h h h h h h h h h g g g g h h h h g u u y u u u u u u u u u u u u u u u u u d h h h h h h h h h h h h h h h h h h h h h h h h h h h h h h h h h h h h h h h h h h h h h h x y 4 3 2 2 3 ; $ $ $ $ @ # = 3 2 0 g h g g g g g g g g h h h h h h h h h h h h h h h h g s u u u u u u u u u u u u u u u u u u u u u u u u u u u y u s d d d d g g g g d d d d g g s s s u u u u u u u u u u u u u u u u u u u s s s s s s s s u u u u u s d d s s u y u u u u u u u u u u u u u u u u u u u u u u u u u u u u u u u u u u u u u u u u u u u u u u u u u u u u u u u u u u u u u u u u u u u u u u u u u u u u u u u u s s s s u u u u u s g g g g g g z s y u u u u s u u s s d h g s u u u u u u u u u u u u u u u u u u u u u s s d g g h h h h h h h h h h h h h h h h h h h h h h h h h h g z u 2 2 2 2 : $ $ $ $ ",
"@ q | g u u u u s d g g s s s s u u s f h g g s u u u u u u u u u u u u u u u u u u u u u u u u u u u u u u u u u u u u u u u u u u u u u u u u u u u u u u u u u u u u u u u u u u u u u u u u u u 2 2 , $ $ $ @ 5 4.o.o.z g g h h h h h h h h h h h h h h h h h h g d u u u u d d d d s s u u u u u u u u u u u u u u u u u u s s d g h h h h h g s s g g h h d s u u u u u u u u s d g g h h g g g g g h g g d g g g h h h h h h h h h h h h g g g g h h h h g u u y u u u u u u u u u u u u u u u u y u d h h h h h h h h h h h h h h h h h h h h h h h h h h h h h h h h h h h h h h h h h h h h h h d 5 2 2 2 2 = $ $ $ $ # # = 2 2 r g g g g g g g g g g h h h h h h h h h h h h h h h g d u u u u u u u u u u u u u u u u u u u u u u u u u u u s u s g h h h h g g g g h h h h z h g d s s u u u u u u u u u u u u u u u u u u s s s s s s s s u u u u u y u s s s s s u u u u u u u u u u u u u u u u u u u u u u u u u u u u u u u u u u u u u u u u u u u u u u u u u u u u u u u u u u u u u u u u u u u u u u u u u u u u u u u u s s s s u u u u u u s g g g g g z d u s u u u s u u u u d h g s u u u u u u u u u u u u u u u u u u u u y u u u d g g g h h h h h h h g h h h h g g g g h h h h h h h h g h s 3 3 2 2 : $ $ $ $ ",
"@ e o.s u u u u y u s s s s s s u u s g g h g u u u u u u u u u u u u u u u u u u u u u u u u u u u u u u u u u u u u u u u u u u u u u u u u u u u u u u u u u u u u u u u u u u u u u u u u u y u 4 < , # $ $ o y 4.%.| g g d h h h h h h h h h h h h h h h h g g s u u u u u u u u u u u u u u u u u u u u u u u u u u u u u u s s d h h h h h g s y d g h h g s u y u u u u y s d g h h h h h h g g g g g g y u s s h h h h h h h h h h h h g g g g h h h h g u u y u u u u u u u u u u u u u u u u s y u d h h h h h h h h h h h h h h h h h h h h h h h h h h h h h h h h h h h h h h h h h h h h h z 5 , 3 3 2 = $ $ $ $ # # = 2 3 s g g g g g g g g g g h h h h h h h h h h h h h h h s s u u u u u u u u u u u u u u u u u u u u u u u u u u u u d g g h h h h h h h h h h h h h h h h d s s u u u u u u u u u u u u u u u u u s s s s s s s s u u u u s y y s u s s s u u u u u u u u u u u u u u u u u u u u u u u u u u u u u u u u u u u u u u u u u u u u u u u u u u u u u u u u u u u u u u u u u u u u u u u u u u u u u u u u s s s s u u u u u y u d g g g g h g s u u u u s u u u u d h g s u u u u u u u u u u u u u u u u u u u u y y y y u s d g h h h h h h h g h h h h g g g g h h h h h h h h d h s 3 3 2 2 : $ $ $ $ ",
"@ e | d u u u u u u u u s s s s s s s s g z h s u u u u u u u u u u u u u u u u u u u u u u u u u u u u u u u u u u u u u u u u u u u u u u u u u u u u u u u u u u u u u u u u u u u u u u u u y u 5 < , @ $ $ o u 4.;.| h h d h h h h h h h h h h h h h h g s s s s s u u u u u u y y y u u u u u u u u u u u u u u u s s s s s s s u d g h h h h h g g g g g g s y u u u u u y s d g h h h h h h h h g g g g s s s s g g g g g d s u s g h h g g h h g g g g u u u u u u u u u u u u u u u u u u u u u u u u g h h h h h h h h h h h h h h h h h h h h h h h h h h h h h h h h h h h h h h h h h h h g h 8 2 3 3 2 * $ $ $ $ # # * 2 5 g g g h h h h h h h h h h h h h h h h g h d u s s s s s u u u u u u u u u u u u u u u y u s s u u u u u u u u g g g g h h h h h h h h h h h h h h h h g g d s s s s s s s s s u u u u u u u u s s s s s s s s s s s s u u u u u u u u u u u u u u u u u u u u u u u u u u u u u u u u u u u u u u u u u u u u u u u u u u u u u u u u u u u u u u u u u u u u u u u u u u u u u u u u u u u u u u u u s s s s u u u u u u u u s g h h h g g s u u u s s s u u s g h u s s s s s s s s u u u u u u u u u u u u u u u u u u u u s d g g h h h h h h h h g g g g h h h h h h h h g h d 4 2 3 2 , $ $ $ $ ",
"@ y ] s u u u s u u u u s s s s s s s s g h d y u u u u u u u u u u u u u u u u u u u u u u u u u u u u u u u u u u u u u u u u u u u u u u u u u u u u u u u u u u u u u u u u u u u u u u u u y u 5 , : @ $ $ o d 4.;.) g h g h h h h h h h h h h h h h h g s s s s s u u u u u u u u s s s u u u u u u u u u u u u u s s s s s s s u s d g h h h h h g g g g g s y y u u u u u d g g h h h h h h h h h h h h g g g g g g g g d d s u s g h h z h h h h h h h u u u u u u u u u u u u u u u u u u u u u u u u g h h h h h h h h h h h h h h h h h h h h h h h h h h h h h h h h h h h h h h h h h h h h h q 2 3 3 2 & $ $ $ $ # # * 2 5 g g h h h h h h h h h h h h h h h h h g h g s s s s s u u u u u u u u u u s s s s s s d g g g d d d d d d d d g g g g h h h h h h h h h h h h h h h h g g g g s s u u y y y y u u u u u u u u s s s s s s s s s s s s u u u u u u u u u u u u u u u u u u u u u u u u u u u u u u u u u u u u u u u u u u u u u u u u u u u u u u u u u u u u u u u u u u u u u u u u u u u u u u u u u u u u u u u u s s s s u u u u u u u u s s d h h h g g d s u y u u s s s d h s s s s s s s s s u u u u u u u u u u u u u u u u u u u u u u s d s s s s g g g g g g g g g g g g g h h h g h d 4 2 3 2 , $ $ $ $ ",
"# u ~ i s s s s u u u u s s s s s s s s d s s u u u u u u u u u u u u u u u u u u u u u u u u u u u u u u u u u u u u u u u u u u u u u u u u u u u u u u u u u u u u u u u u u u u u u u u u u y u 5 < : @ $ $ + x 4.%.R d h h h h h h h h h h h h h h h h g s s s s s u u u u y u s d g d s s u u u u u u u u u u u u u u s d d s s u u s d g h h h h g g g g g d s s u u u u s f h h h h h h h h h h g g h h h h h h h g g g h h h g g h h g z h g g d d d d u u u u u u u u u u u u u u u u u u u u u u u u g g h h h h h h h h h h h h h h h h h h h h h h h h h h h h h h h h h h h h h h h h h h h z r 2 3 2 2 % $ $ $ $ $ # * 2 5 g g h h h h h h h h h h h h h h h h h g h h g s s s u u u u u u u u u u u u u d d d d h h h h g g g g g g g g g g g g h h h h h h h h h h h h h h h h g g g g g d s s u u y y y u u u u u u u s s s s s s s s s s s s u u u u u u u u u u u u u u u u u u u u u u u u u u u u u u u u u u u u u u u u u u u u u u u u u u u u u u u u u u u u u u u u u u u u u u u u u u u u u u u u u u u u u u u u s s s s u u u u u u u u s u s d g h h g z h g d u u u u u s h s s s s s s s s s u u u u u u u u u u u u u u u u u u u u u u u u u u u u u u u u u u u u u u u u d g g h g h d 4 2 3 3 , $ $ $ $ ",
"# s P i s s s s u u u u s s s s s s s s y y u s u u u u u u u u u u u u u u u u u u u u u u u u u u u u u u u u u u u u u u u u u u u u u u u u u u u u u u u u u u u u u u u u u u u u u u u u y u 5 < : @ $ $ @ m 4.%.G s h h h h h h h h h h h h h h h h g s s s s s u u u u y u d f h g d s u u u u u u u u u u u u y u s d d s s u u u s d g g h h g g g g z h g g u u u u d g h h h h h h h h h h d d d d g g g g g g g g g g h h h z z g h g d s u u u u u u u u u u u u u u u u u u u u u u u u u u u u g g h h h h h h h h h h h h h h h h h h h h h h h h h h h h h h h h h h h h h h h h h h h z u < 2 2 < % $ $ $ $ $ # * 2 5 g h g h h h h h h h h h h h h h h h h g h z h s s s u u u u u u u u u u u u u g g g g h h h g h h h h h h h h g g g g h h h h h h h h h h h h h h h h g g g g h h h g g d s s u u u u u u u u s s s s s s s s s s s s u u u u u u u u u u u u u u u u u u u u u u u u u u u u u u u u u u u u u u u u u u u u u u u u u u u u u u u u u u u u u u u u u u u u u u u u u u u u u u u u u u u u u u u u s s s s u u u u u u u u u s s y d g h h g g h h g s u u s s g s s s s s s s s s u u u u u u u u u u u u u u u u u u u u u u u u u u u u u u u u u u u u u u u u u s d g g h d 4 2 3 3 , $ $ $ $ ",
"@ d ` i i i i i i i i i s s s s u u u u u u u u u u u u u u u u u u u u u u u u u u u u u u u u u u u u u u u u u u u u u u u u u u u u u u u u u u u u u u u u u u u u u u u u u u u u u y u d g h r 2 * @ $ $ $ G 4.4.P d h h h h h h h h h h h h h h z h g u y u s s u u u u u u u u s s s s u u u u u u u u u u u u u u u u y y y y u u u u s d g g h h h h h h h g h s y s g g g g h h h h h h h h u u u u g g g g g g g g g g h h g h h h d s u u u u u u u u u u u u u u u u u u u u u u u u u u u u u u s h g g h h h h h h h h h h h h h h h h h h h h h h h h g g g g h h h h h h h g g g h z h h g 4 2 2 < @ $ $ $ $ $ # * 2 7 g h g h h h h h h h h h h h h h h h h h h h h g d s u u u u u u u u u u g h g g g g g h h h h h h h h h h h h h h h h h h h h h h h h h h h h h h h h h h h h h h h h g z g s u u u u u u u u s s s s u u u u u u u u u u u u u u u u u u u u u u u u u u u u u u u u u u u u u u u u u u u u u u u u u u u u u u u u u u u u u u u u u u u u u u u u u u u u u u u u u u u u u u u u u u u u u u u u s s s s u u u u u u u u s s s s y s g g g g g g h g g s u u s s s s s s s s s s u u u u u u u u u u u u u u u u u u u u u u u u u u u u u u u u u u u u u u u u u u u u g z d < 2 3 3 , $ $ $ $ ",
"@ f ~ i i i i i i i i i s s s s u u u u u u u u u u u u u u u u u u u u u u u u u u u u u u u u u u u u u u u u u u u u u u u u u u u u u u u u u u u u u u u u u u u u u u u u u u u u y u d h g h r 2 * @ $ $ % J 4.;.m g h h h h h h h h h h h h h h h h g s y y u u u u u u u u u u u u u u u u u u u u u u u u u u u u u u u u u u u u u u u s s d g g h h h h h h h d d g g g g g h h h h h h g g u u s s g g g g g g g g g g h h h g h g s u u u u u u u u u u u u u u u u u u u u u u u u u u u u u u u s h g g h h h h h h h h h h h h h h h h h h h h h h h h g g g g g g g g h h h g g g h z g h g 4 2 2 , $ $ $ $ $ $ # * 2 4 d h g h h h h h h h h h h h h h h h h h h h h h g g d s s u u u u u u u s g g g g g g h h h h h h h h h h h h h h h h h h h h h h h h h h h h h h h h h h h h h h h h g h h g u u u u u u u u s s s s u u u u u u u u u u u u u u u u u u u u u u u u u u u u u u u u u u u u u u u u u u u u u u u u u u u u u u u u u u u u u u u u u u u u u u u u u u u u u u u u u u u u u u u u u u u u u u u u s s s s u u u u u u u u u u u u s d g g g g g g g g h g s u u s s s s s s s s s u u u u u u u u u u u u u u u u u u u u u u u u u u u u u u u u u u u u u u u u u u u u s g s 2 2 3 3 , # # # # ",
"# j K u i i i i i i i i s s s s u u u u u u u u u u u u u u u u u u u u u u u u u u u u u u u u u u u u u u u u u u u u u u u u u u u u u u u u u u u u u u u u u u u u u u u u u u u u u d h h g h y 2 * @ % $ % R 4.o.z h g g h h h h h h h h h h h h g h g s s u u u u u u u u u u u u u u u u u u u u u u u u u u u u u u u u u u u u u u u u u u s d d d d g h h h h g g g g g g g h h h h h g d s u s d g g g g g g g g g g g h h h h g s u u u u u u u u u u u u u u u u u u u u u u u u u u u u u u u u s h g g h h h h h h h h h h h h h h h h h h h h h h h h g g g g s s s s s s s u u u s d g h g 4 2 3 : $ $ $ $ $ % # * 2 2 s h h h h h h h h h h h h h h h h h h h h h h h h g g g d s s s u u u u u s g g g g g h h h h h h h h h h h h h h h h h h h h h h h h h h h h h h h h h h h h h h h h h g s u u u u u u u u u s s s s u u u u u u u u u u u u u u u u u u u u u u u u u u u u u u u u u u u u u u u u u u u u u u u u u u u u u u u u u u u u u u u u u u u u u u u u u u u u u u u u u u u u u u u u u u u u u u u u s s s s u u u u u u u u y u s d d g g g g g g g g g g g d s u u s s s s s s s s u u u u u u u u u u u u u u u u u u u u u u u u u u u u u u u u u u u u u u u u u u u u u u y 2 2 3 3 , # # # # ",
"# k S u i i i i i i i i s s s s u u u u u u u u u u u u u u u u u u u u u u u u u u u u u u u u u u u u u u u u u u u u u u u u u u u u u u u u u u u u u u u u u u u u u u u u u u u u d h h g g z y 2 * # $ $ % ) 1.| g h g g h h h h h h h h h h h h g g g d g d s s u u u u u u u u u u u u u u u u u u u u u u u u u u u u s s s s s u u u u u u u u y y y d g h h g h h g g g g g h h h h h g s u u s g h g g g g g g g g g g h h h g s u u u u u u u u u u u u u u u u u u u u u u u u u u u u u u u u u s h g g h h h h h h h h h h h h h h h h h h h h h h h h g g g g u u u u u u u u y u s s g h g 4 < 4 ; $ $ $ $ $ $ # * 2 < u h h h h h h h h h h h h h h h h h h h h h h g g g g g g g d s s s u u y s g g g g g h h h h h h h h h h h h h h h h h h h h h h h h h h h h h h h h h h h h h h h h s u y u u u u u u u u u s s s s d d d d u u u u u u u u u u u u u u u u u u u u u u u u u u u u u u u u u u u u u u u u u u u u u u u u u u u u u u u u u u u u u u u u u u u u u u u u u u u u u u u u u u u u u u u u u u u u s s s s u u u u u u u u s s g h g h h g g g g g g g g g g d s u s s s s s s s s u u u u u u u u u u u u u u u u u u u u u u u u u u u u u u u u u u u u u u u u u u u u s y w , 2 3 3 , # # # # ",
"# j c r u u u u i i i i s s s s u u u u u u u u u u u u u u u u u u u u u u u u u u u u u u u u u u u u u u u u u u u u u u u u u u u u u u u u u u u u u u u u u u u u u u u u u u u a g g h h g z y 2 * $ $ # % | >.R s z g h h h h h h h h h h h h h h h h h h h h h s s s s u u u u s u u u u u u u u u u u u u u u u s d g g g h h s u u u u u u u u u u u u d g h h h h h h h h h h g g s s s s s u s d g g g g g g g g g h h g s s s s s u u u u u u u u u u u u u u u u u u u u u u u u u u u u s u y y g h g h h h h h h h h h h h h h h h h h h h h h h h h h h h g g u u u u u u u u u u u u h g g 7 , 4 * @ $ $ $ $ $ # * 3 2 q x g h h h h h h h h h h h h h h h h h h h h g g g g h h h h g g g g g g g g g g g g h h h h h h h h h h h h h h h h h h h h h h h h h h h h h h h h h h h h h h h g s u u s u u u u u u u u u u s s h h h h g g s y u u u u u u u u u u u u u u u u u u u u u u u u u u u u u u u u u u u u u u u u u u u u u u u u u u u u u u u u u u u u u u u u u u u u u u u u u u u u u u u u u u u u u u u u s u y y u u u u s d g g g g h z h g g h h h h h h h h h d s s u s s s s s s s s u u u u u u u u u u u u u u u u u u u u u u u u u u u u u u u u u u u u u u u u u u u u u s q , < < 2 : # # # $ ",
"@ x x r u u u u i i i i s s s s u u u u u u u u u u u u u u u u u u u u u u u u u u u u u u u u u u u u u u u u u u u u u u u u u u u u u u u u u u u u u u u u u u u u u u u u u u u s g g h h g z y 2 & $ $ @ * | >.C s h g h h h h h h h h h h h h h h h h h h h h h g g s u u u u u y y u u s s s s u u u u u u u u d g g h h h h h s s u u u u u u u u u u u i d g h h h h h h h h h g d u s s s s u u s g g g g g g g g g h z h s s s s s u u u u u u u u u u u u u u u u u u u u u u u u u u u u s u u u g g g h h h h h h h h h h h h h h h h h h h h h h h h h h h g g u u u u u u u u u u u u g d g 7 < 3 % @ $ $ $ $ $ # * 3 2 9 z g h h h h h h h h h h h h h h h h h h h h g g g g h h h h h h h h h h h h g g g g h h h h h h h h h h h h h h h h h h h h h h h h h h h h h h h h h h h h h h h g s u u s u u u u u u u u u u s s h h h h g g d u u u u u u u u u u u u u u u u u u u u u u u u u u u u u u u u u u u u u u u u u u u u u u u u u u u u u u u u u u u u u u u u u u u u u u u u u u u u u u u u u u u u u u u u u u u y y s s g g h h g g h h h z h g g h h h h h h h h h s s s u s s s s s s s s u u u u u u u u u u u u u u u u u u u u u u u u u u u u u u u u u u u u u u u u u u u u u s q , < < 2 : # # # $ ",
"@ c k t u u u u i i i i s s s s u u u u u u u u u u u u u u u u u u u u u u u u u u u u u u u u u u u u u u u u u u u u u u u u u u u u u u u u u u u u u u u u u u u u u u u u u u s g h h h h g z u 2 & % $ @ ; o.4.z s h g h h h h h h h h h h h h h h h h h h h h h z g s y u u u u y u s s g g g g g g g g g g g g g h h h h h h h g s u u u u u u u u u u u u u d g h h h h h h h h g s u s s s s a u u d g g g g g g g g g h g u s s s s u u u u u u u u u u u u u u u u u u u u u u u u u u u u s u u d h g h h h h h h h h h h h h h h h h h h h h h h h h h h g g d d u u u u u u u u u u u u s s g 8 2 2 $ $ $ $ $ $ $ # = 3 2 7 g h h h h h h h h h h h h h h h h h h h h h g g g g h h h h h h h h h h h h g g g g h h h h h h h h h h h h h h h h h h h h h h h h h h h h h h h h h h h h h h h g s u u s u u u u u u u u u u s s h h h h g h g s u u u u u u u u u u u u u u u u u u u u u u u u u u u u u u u u u u u u u u u u u u u u u u u u u u u u u u u u u u u u u u u u u u u u u u u u u u u u u u u u u u u u u u u u u s s s d g h z h h g g h h g g d d d g d d d d d d d d s s s s s s s s s s s s u u u u u u u u u u u u u u u u u u u u u u u u u u u u u u u u u u u u u u u u u u u u u s q , < < 2 : # # $ $ ",
"@ n j t u u u u i i i i s s s s u u u u u u u u u u u u u u u u u u u u u u u u u u u u u u u u u u u u u u u u u u u u u u u u u u u u u u u u u u u u u u u u u u u u u u u u u u s g h h h h g z u 2 & % $ @ , %.8.g s h g h h h h h h h h h h h h h h h h h h h h h g d u y u u u u u s g g h h h h h h h h h h h h h h h h h h h h h s s u u u u u u u u u u u u u d g h h h h h h h g s s s s s s s u u s d g g g g g g g g g d y s s s s u u u u u u u u u u u u u u u u u u u u u u u u u u u u s u s d g g h h h h h h h h h h h h h h h h h h h h h h h h h h s s u u u u u u u u u u u u u u y u g 8 2 2 $ $ $ $ $ $ $ # = 3 2 5 d h h h h h h h h h h h h h h h h h h h h h g g g g h h h h h h h h h h h h g g g g h h h h h h h h h h h h h h h h h h h h h h h h h h h h h h h h h h h h h h h g s u u s u u u u u u u u u u s s h h h h g h g d u u u u u u u u u u u u u u u u u u u u u u u u u u u u u u u u u u u u u u u u u u u u u u u u u u u u u u u u u u u u u u u u u u u u u u u u u u u u u u u u u u u u u u u u d d g g g g g g h h h h g g d s u u u s u u u u u u u u s s s s s s s s s s s s u u u u u u u u u u u u u u u u u u u u u u u u u u u u u u u u u u u u u u u u u u u u u s q , < < 2 : # # $ $ ",
"# B f t u u u u u u u u i i i i u u u u u u u u u u u u u u u u u u u u u u u u u u u u u u u u u u u u u u u u u u u u u u u u u u u u u u u u u u u u s s s s u u u u s s s s y u d h h h h h g z u , @ $ $ @ , ;.8.u s h g h h h h h h h h h h h h h h h h h h h h g u i u u s d d g g g g g h h h h h h h h h h h h h h h h h h h h g s u u u s s d g g s y u u u u s d g g h h h h g s u u s s u u s s s s u s g h h h h h g d s s u u u u u u u u u u u u u u u u u u u u u u u u u u u u u u u u s s s s g h h z g g g g g g g g g g g g h h h h h h h h h h g d y y u u u u u u u u u u u u u u s s g 8 3 ; $ $ $ $ $ $ $ # = 3 2 3 g h h h h h h h h h h h h h h h h h h h h h h h h h h h h h h h h h h h h h h h h h h h h h h h h h h h h h h h h h h h h h h h h h h h h h h h h h h h h h h h h h d s u u u u u u u u u u s s s s h h h h h g d s u u u u u u u u u u u u u u u u u u u u u u u u u u u u u u u u s u y y u u u u u u u u u u u u u u u u u u u u u u u u u u u u u u u u u u u u u u u u u s s s u u u u u u u s h h h g g g g h h g d d u u u u u u u u u u u u u u u u u u u u u u u u u u u u u u u u u u u u u u u u u u u u u u u u u u u u u u u u u u u u u u u u u u u u u u u u u d 7 , < 2 2 = # # $ $ ",
"# n d y u u u u u u u u i i i i u u u u u u u u u u u u u u u u u u u u u u u u u u u u u u u u u u u u u u u u u u u u u u u u u u u u u u u u u u u u u u u u u u u u u u u u u s g h h h h h g h u , @ $ $ @ < ;.4.y d g g h h h h h h h h h h h h h h h h h h h g d i i u u s s g g g g g g h h h h h h h h h h h h h h h h h h h h g s u u s u u g l l g s u u u u u s d g g g g g d s u u u u u s s s s s u s h z h h g g s u u u u u u u u u u u u u u u u u u u u u u u u u u u u u u u u u u u s s s s s g g h h h h h h h h h h h h h h h h h h h h h h g d s s u u y u u u u u u u u u u u u d d h 9 3 ; $ $ $ $ $ $ $ # = 3 2 3 g h h h h h h h h h h h h h h h h h h h h h h h h h h h h h h h h h h h h h h h h h h h h h h h h h h h h h h h h h h h h h h h h h h h h h h h h h h h h h h h h h g d s u u u u u u u u u s s s s d g h z g d s u u u u u u u u u u u u u u u u u u u u u u u u u u u u u u u u u u u y y u u u u u u u u u u u u u u u u u u u u u u u u u u u u u u u u u u u u d d d d s u u u u u u u u s d g h h h g h g d s s u u u u u u u u u u u u u u u u u u u u u u u u u u u u u u u u u u u u u u u u u u u u u u u u u u u u u u u u u u u u u u u u u u u u u u u u u u u u s 5 , < 2 2 = # # $ $ ",
"% c d u u u u u u u u u i i i i u u u u u u u u u u u u u u u u u u u u u u u u u u u u u u u u u u u u u u u u u u u u u u u u u u u u u u u u u u u u y u s d s s s s d d d d g g h h h h h h g h u , @ $ $ @ < ;.>.e d g h h h h h h h h h h h h h h h h h h h g d s u i i u u s g h g g g g h h h h h h h h h h h h h h h h h h h h g s u u s u u g g g g s u u u u u u s d u u u u s u u u u s d g h h h h h h g g h g d s s s s s s u u u u u u u u u u u u u u u u u u u u u u u u u u u u u u u s s s s u s d g g g g g g g g g g g g g g h h h h h h h g d s u s s u u s s s s g g g g g g g g d d h 0 3 = $ $ $ $ $ # $ $ = 3 2 3 g h h h h h h h h h h h h h h h h h h h h h h h h h h h h h h h h h h h h h h h h h h h h h h h h h h h h h h h h h h h h h h h h h h h h h h h h h h h h h h h h h g g d s u u u u u u u u s s s s u s d g d s u u u u u u u u u u u u u u u u u u u u u u u u u u u u u u u u u u s s s s g g g g d s u u u u u u u u u u u u u u u u u u u u u u u u u u u u u u g g g g d u y u u u u u u s d g g g d s d s s u y y y y u u u u u u u u u u u u u u u u u u u u u u u u u u u u u u u u u u u u u u u u u u u u u u u u u u u u u u u u u u u u u u u u u u u u u u u u u u 3 , < 2 2 = # # $ $ ",
"& c i i u u u u u u u u i i i i u u u u u u u u u u u u u u u u u u u u u u u u u u u u u u u u u u u u u u u u u u u u u u u u u u u u u u u u u u u u s s g h g g g g h h h h h h h g h h h h g h u , @ $ $ @ 2 &.&.0 d g h h h h h h h h h h h h h h h h h h g d s u u i i u y s g z g g g g h h h h h h h h h h h h h h h h h h h h g s u u u s s d u s s y u u u u u u u s u u u u s u u u d g z x g g g g h h h h h g s u g g g g s u u u u u u u u u u u u u u u u u u u u u u u u u u u u u u u s s s s u u u s u u u u u u u u u u u u g g h h h h h h d s u u u s s d g g g g h h h h h h h h h g z q 3 = $ $ $ $ $ $ $ $ = 3 3 3 g h h g h h h h h h h h h h h h h h h h h h h h h h h h h h h h h h h h h h h h h h h h h h h h h h h h h h h h h h h h h h h h h h h h h h h h h h h h h h h h h h g g g d u u u u u u u u s s s s u u u u s u u u u u u u u u u u u u u u u u u u u u u u u u u u u u u u u u u u d d g h g g g g g g d s u u u u u u u u u u u u u u u u u u u u u u u u u u u u g g g g g u y u u u u u u u u s u u u y y u u u u u u u u u u u u u u u u u u u u u u u u u u u u u u u u u u u u u u u u u u u u u u u u u u u u u u u u u u u u u u u u u u u u u u u u u u u u u u u u y 2 , < 2 2 = # # $ $ ",
"& n y y u u u u u u u u s s s s u u u u u u u u u u u u u u u u u u u u u u u u u u u u u u u u u u u u u u u u u u u u u u u u u u u u u u u u u u u u u u s g h h g g g g h z g z h u s s g h h z u ; @ $ $ @ 2 ;.o.3 d h h g h h h h h h h h z h h h g g g g d s s u u u u u u u s g h h h h h h h h h h h h h h h h h h h h h h h h g s s s u u u u u u u u u u u u u u u u u u u u u u u u g g g g h h h h h h g g s u u s h h h h s u u u u u u u u u u u u u u u u u u u u u u u u u u u u u u u s s s s s s s s s s s s u u u u u u u u u s g h h h h h d d d d g g h h h h h g h h h h h h h h g g z q , = $ # $ $ $ $ $ $ : 3 3 , y h h g s u d g h h h h h h h h h h h h h h h h h h h h h h h h h h h h h h h h h h h h h h h h h h h h h h h h h h h h h h h h h h h h h h h h h h h h h h h h h h g g g g s u u s u u u u s s s s s s u u u u u u s s s s s s s s u u u u s s s s s s s s s u u u s s u u s s d g h h h h h h h h z g d s u u u u u u u u u u u u u u u u u u u u u u u u u u u u g g g g u u u u u u u u u u u u u u u u u u u u u u u u u u u u u u u u u u u u u u u u u u u u u u u u u u u u u u u u u u u u u u u u u u u u u u u u u u u u u u u u u u u u u u u u u u u u u u u u u y 2 , < 2 2 = # # $ $ ",
"& n y y u u u u u u u u s s s s u u u u u u u u u u u u u u u u u u u u u u u u u u u u u u u u u u u u u u u u u u u u u u u u u u u u u u u u u u u u u s s d h h g g g g g d d g d y s d g h h z u ; @ $ $ @ 3 >.| 4 d h h g h h h h h h h h h h g d s s s s s s u u u u u u u u u s g g g g g g g g g g g g h h h h h h h h h h h h h d s u u u u u u u u u u u u u u u u u u u u u u u u u g h h h h h h h h h g g s u u s h h h h s u u u u u u u u u u u u u u u u u u u u u u u u u u u u u u u s s s s s s s s s s s s u u u u u u u u u u d h h h h h g g g g h h h h h g g g h h h h h h h h g g z q , * $ # $ $ $ $ # $ : 3 3 < y h h g s u u s d g h h h h h h h h h h h h h h h h h h h h h h h h h h h h h h h h h h h h h h h h h h h h h h h h h h h h h h h h h h h h h h h h h h h h h h h h g g g g d s s u u u u u s s s s y u u u u u u u u u u u u u u u y y y y u u u u s s s s s s s u u u u s s d g h h h h h h h h h h g d s u u u u u u u u u u u u u u u u u u u u u u u u u u u u s s s s u u u u u u u u u u u u u u u u u u u u u u u u u u u u u u u u u u u u u u u u u u u u u u u u u u u u u u u u u u u u u u u u u u u u u u u u u u u u u u u u u u u u u u u u u u u u u u u u s r 2 < < 2 2 = # # $ $ ",
"& n y y u u u u u u u u s s s s u u u u u u u u u u u u u u u u u u u u u u u u u u u u u u u u u u u u u u u u u u u u u u u u u u u u u u u u u u u u u s d g h h h h g g g d g h g g g g g g h z u ; @ $ $ + 2 4.] 4 d h h g h h h h h h h h h g s u u u u u u u u u u u u u u u u u d d d d s s s s s s s s g g g g g h h h h h h h g s s s u u u u u u u u u u u u u u u u u u u u u u u u d g h z h h h h h h g d d u u s g g g g s u u u u u u u u u u u u u u u u u u u u u u u u u u u u u u u s s s s s s s s s s s s u u u u u u u u s u s h h h h h h h h h h h g g g g g g h h h h h h h h g g z q , * $ $ $ $ $ $ $ % : 3 2 2 r z h g s u u u u s h h h h h h h h h h h h h h h h h h h h h h h h h h h h h h h h h h h h h h h h h h h h h h h h h h h h h h h h h h h h h h h h h h h h h h h h g g g g g g s u u u u u s s s s y u s s g g g g d d d d d d d d s s s s d d d d g g g g d s s s s s d g g g h h h h h h h h h h g g s u u u u u u u u u u u u u u u u u u u u u u u u u u u u u s s s s u u u u u u u u u u u u u u u u u u u u u u u u u u u u u u u u u u u u u u u u u u u u u u u u u u u u u u u u u u u u u u u u u u u u s s s s s s s s u u u u u u u u u u u u u u u u u u u u s e < 2 < 2 2 = # # $ $ ",
"& c y y u u u u u u u u s s s s u u u u u u u u u u u u u u u u u u u u u u u u u u u u u u u u u u u u u u u u u u u u u u u u u u u u u u u u u u u u u s g h h h h h g g h z h h h h h h g g h z u ; @ $ $ + < 8.) 4 d h h g h h h h h h h h h d u y u u u u u u u u u u u u u u u u u s s s u u u u u u u u u u u u s d g h h h h h y y y s u u u u u u u u u u u u u u u u d d d d u u u u y s d g h h h h h h g u s u u s u u u s s u u u u u u u u u u u u u u u u u u u u u u u u u u u u u u u s s s s s s s s s s s s u u u u u u u u s u s g h h h h g g g g g g g g g g g g h h h h h h h h h g z q , * $ $ $ $ $ $ $ $ : 3 2 3 e z h g s u u u u u h h h h h h h h h h h h h h h h h h h h h h h h h h h h h h h h h h h h h h h h h h h h h h h h h h h h h h h h h h h h h h h h h h h h h h h h g g g g h g d s u u u u s s s s u s g g g g g g h h h h h h h h g g g g h h h h h h h h g g d s g g h z h h h h h h h h h h h h g d s y u u u u u u u u u u u u u u u u u u u u u u u u u u u u u u u u u u u u u u u u u u u u u u u u u u u u u u u u u u u u u u u u u u u u u u u u u u u u u u u u u u u u u u u u u u u u u u u u g g g g g g g g g g g g s u u u u u u u u u u u u u u u u u u u d e < 2 < 2 2 = # # $ $ ",
"& v q t u u u u u u u u s s s s u u u u u u u u u u u u u u u u u u u u u u u u u u u u u u u u u u u u u u u u u u u u u u u u u u u u u u u u u u u u g g g g h h h h h h h h h h h h h h h h h z s ; @ $ $ + < 8.J 2 d h h g g g g g h h h h d s u u u u u u u u u u u u u u y y u s s s u u s u u u s s s s s s s s u s g g h h h h s u u s u u u u u u u u u u u u u u u u g g g g g d s s s s s s u s g g h h g g s u u s s s s s s s u u u u u u u u i u u u u u u s s u s s s s s s u u u u u u s s s s s s s s s s s s u u u u u u u u s s d g h h h h h h h h h h h h h h h h h h h h h h h h h g z 0 ; # $ $ $ $ $ $ $ $ , 3 4 3 q z g g g g s s s s h h h h h h h h h h h h h h h h h h h h h h h h h h h h h h h h h h h h h h h h h h h h h h h h h h h h h h h h h h h h h h h h h h h h h h h h h h h h h h g s u u u u u u u u d g g g g g g g h h h h h h h h h h h h h h h h h h h h h h h h g g g g h h h h h h h h h h h h g d u u u u u u u u u u u u u u u u u u u u u u u u u u u u u u u u u u u u u u u u u u u u u u u u u u u u u u u u u u u u u u u u u u u u u u u u u u u u u u u u u u u u u u u u u u y u u u g g g g g g g g g g g g g g g g g g d s s u u u u u u u u u s s g g h h h q < 2 < 2 2 = # # $ $ ",
"& c q t u u u u u u u u s s s s u u u u u u u u u u u u u u u u u u u u u u u u u u u u u u u u u u u u u u u u u u u u u u u u u u u u u u u u u s d g g g g g h h h h h h h h h h h h h h h h h h s ; @ $ $ + , 8.J 2 d h g g g g g g h h h h s u u u u u u u u u u u u u u u s d g g s s u u u u s s u u u u u u u u y u s d h h h h d u u s u u u u u u u u u u u u u u u u s s s s s s s s s s s s u s g g h h h g s u u s s s s s s s u u u u u u u u u u u u u u u d g g h h h h g d s s u u u u s s s s s s s s s s s s u u u u u u u u s s g g h h h h h h h h h h h h h h h h h h h h h h h h h g z 0 ; # % $ $ $ $ $ $ $ , 3 3 2 0 z g g g g g g g g h h h h h h h h h h h h h h h h h h h h h h h h h h h h h h h h h h h h h h h h h h h h h h h h h h h h h h h h h h h h h h h h h h h h h h h h h h h h h h g d u u u u u u u u g g g g g g g g h h h h h h h h h h h h h h h h h h h h h h h h h h h h h h h h h h h h h h h h d s u u u u u u u u u u u u u u u u u u u u u u u u u u u u u u u u u u u u u u u u u u u u u u u u u u u u u u u u u u u u u u u u u u u u u u u u u u u u u u u u u u u u u u u u u u u u s d h h h h g g g g g g g g g g g g g g g g d s s u u u u u s d d g g h h h z w < 2 < 2 2 = # # $ $ ",
"& c q t u u u u u u u u s s s s u u u u u u u u u u u u u u u u u u u u u u u u u u u u u u u u u u u u u u u u u u u u u u u u u u u u u u u u s d g h g g g g h h h h h h h h h h h h h h h h h h s ; @ $ $ + , 8.J 2 d h h g g g g g h h h h u u u u u u u u u u u u u u u u g g h z d s u u u s d d u u u u u u u u g g g g h h h h g u u u u u u u u u u u u u u u u u u u u u u u s s s s s s s s u s g g h h h g s s s s s s s s s s u u u u u u u u u u u u u u s g h h g g g g h g g d s u u u s s s s s s s s s s s s u u u u u u u u s d g h h h h h h h h h h h h h h h h h h h h h h h h h g g z w : $ % $ $ $ $ $ $ $ , 3 2 < 9 h g g g g g g h h h h h h h h h h h h h h h h h h h h h h h h h h h h h h h h h h h h h h h h h h h h h h h h h h h h h h h h h h h h h h h h h h h h h h h h h h h h h h h h h g u u u u u u u s g g g g g g g g h h h h h h h h h h h h h h h h h h h h h h h h h h h h h h h h h h h h h h h h d u u u u u u u u u u u u u u u u u u u u u u u u u u u u u u u u u u u u u u u u u u u u u u u u u u u u u u u u u u u u u u u u u u u u u u u u u u u u u u u u u u u u u u u u u u u u s g h g g g g g g g g g g g g g g g g g g g g g g d s s s s s g g h h h h h h z e < 2 < 2 2 = # # $ $ ",
"& c q t u u u u u u u u s s s s u u u u u u u u u u u u u u u u u u u u g g g g u u u u u u u u u u u u u u u u u u u u u u u u u u u u u u u u g g g g g g g g h h h h h h h h h h h h h h h h h h s ; + # # + , 8.J 2 d h h g g g g g h h h h u u u u u u u u u u u u u u u u d g h h h s u u y s d g h h h h h h h h h h h h h h h h g s u y u u u u u u u u u u u u u u u u s s s s s s s s s s s s u s g h h h h g s s s s s s s s s s u u u u u u u u u u u u u u g h h g g g g g g g h g d s u u s s s s s s s s s s s s u u u u u u u u s g g h h h h h h h h h h h h h h h h h h h h h h h h h d g z e : $ $ $ $ $ $ $ $ $ , 3 2 < 8 g g g g g g g g g h h h h h h h h h h h h h h h h h h h h h h h h h h h h h h h h h h h h h h h h h h h h h h h h h h h h h h h h h h h h h h h h h h h h h h h h h h h h h h h g u u u u u u u d g g g g g g g g h h h h h h h h h h h h h h h h h h h h h h h h h h h h h h h h h h h h h h h h s u u u u u u u u u u u u u u u u u u u u u u u u u u u u u u u u u u u u u u u u u u u u u u u u u u u u u u u u u u u u u u u u u u u u u u u u u u u u u u u u u u u u u u u u u u u u d h z h h h h g g g g g g g g g g g g g g g g g g g g g g g g h h h h g g g g z e < 2 < 2 2 = # # $ $ ",
"& x 0 t u u u u u u u u s s s s u u u u u u u u u u u u u u u u u u u u u s g g d s s s u u u u u u u u u u u u u u u u u u u u u u u u u u s g h h h h h h h h z z h g g g g g h h h h h h h h h h s ; @ # # + , 8.J 2 u h h g h h h h h h h h s u u s u u u u u u u u u u u u d z z d u u u u s g h h h h h h h h h h h h g g g g g g d u u u u u u u s u u s u u u u u u u u u u s s h h g d s s s s s g z h h h h g u u u u s s s s s s s s s d h z g g g g g g g g h h h h h h h h h h h h h g s u u u u u s s s s s s s s u u u u u u u s g g h h h h h h h h h h h h h h h h h h h h h h h h h h g g z y : $ $ $ $ $ $ $ $ $ , 3 2 3 5 h g g h h h h h h h h h h h h h h h h h h h h h h h h h h h h h h h h h h h h h h h h h h h h h h h h h h h h h h h h h h h h h h h h h h h h h h h h h h h h h h h h h h h h h h g d u y u s d g g g g g g g g g h h h h h h h h h h h h h h h h h h h h h h h h h h h h h h h h h h h h g d s s s u u u u u u u u u u u u u u u u u u u u u u u u u u u u u u u u u u u u u u u u u u u u u u u u u u u u u u u u u u u u u u u u u u u u u u u u u u u u u u u u u u u y u s d d d d d h h h h g d d s d d d d d d d d g g g g h h h h h h g g g g g g h h h h g g g g z e 2 3 2 2 2 * # # # # ",
"& x 0 t u u u u u u u u s s s s u u u u u u u u u u u u u u u u u u u u u u u s s s u u u u u u u u u u u u u u u u u u u u u u u u u u u u s g h h h h h h h h g g d s s s s s g g h h h h h h h h s ; @ $ $ @ , >.C 2 u h h h h h h h h h h h h d u u u u u u u u u u u u u u u d d u u u u u s g h g h h h h h h h h h h g g g g g g s u u u u u u u u u u u u u u u u u u u u u s s z h g h s s s s s g h h h h h g u u u u s s s s s s s s d d h z g g g g g g g g h h h h h h h h h h h h h g s u u u u u s s s s s s s s u u u u u u s d g h h h h h h h h h h h h h h h h h h h h h h h h h h h g g z y : $ $ $ $ $ $ $ $ $ , 3 3 3 4 g g g h h h h h h h h h h h h h h h h h h h h h h h h h h h h h h h h h h h h h h h h h h h h h h h h h h h h h h h h h h h h h h h h h h h h h h h h h h h h h h h h h h h h h h g g g d d g g g g g g g g g g g h h h h h h h h h h h h h h h h h h h h h h h h h h h h h h h h g g g g s s u s u u u u u u u u u u u u u u u u u u u u u u u u u u u u u u u u u u u u u u u u u u u u u u u u u u u u u u u u u u u u u u u u u u u u u u u u u u u u u u u u u u u u s d h z h h h h h h h h s s u u s s s s a u a a s s s s d g h h h h h h h h h h h h h h g g g g z w 2 3 2 2 2 * # # # # ",
"% x 0 r u u u u u u u u s s s s u u u u u u u u u u u u u u u u u u u u u u u u u u u u u u u u u u u u u u u u u u u u u u u u u u u u u u s g h h h h h h h h h s y u u u u u s s d g g g g g g h s = @ $ $ @ : %.v < u h h h h h h h h h h h h d u u u u u u u u u u u u u u u u u u u u u u d h h g h h h h h h h h h h g g g g g g s y u s u u u u u s s u u u u u u u u u u u s s g g g h s s s s u d g g h h h g u u u u s s s s s s s s g g g g g g g g g g g g h h h h h h h h h h h h h g s u u u u u s s s s s s s s u u u u u s d g h h h h h h h h h h h h h h h h h h h h h h h h h h h h g g z y , % $ $ $ $ $ $ $ $ < 3 3 2 2 s h h h h h h h h h h h h h h h h h h h h h h h h h h h h h h h h h h h h h h h h h h h h h h h h h h h h h h h h h h h h h h h h h h h h h h h h h h h h h h h h h h h h h h h h g g g g g g g g g g g g g g g g h h h h h h h h h h h h h h h h h h h h h h h h g g g g s s s s u u u u u s s s u u u u u u u u u u u u u u u u u u u u u u u u u u u u u u u u u u u u u u u u u u u u u u u u u u u u u u u u u u u u u u u u u u u u u u u u u u u u u u u u u u u u z h h g h h h h h h h h s u u y u u u u u u u u u u u u s d d g g h h h h h h h h h h h g g g g z q 2 3 2 2 2 * $ # # # ",
"% x 0 r u u u u u u u u s s s s u u u u u u u u u u u u u u u u u u u u u u u u u u u u u u u u u u u u u u u u u u u u u u u u u u u u u u s g h h h h h h h h z s y u u u u u u u u s d d d d d g y * @ $ $ @ ; | h , u h h h h h h h h h h h s s u u u u u u u u u u u u u u u u u u u u u u d h h g h h h h h h h h h h g g g g g g u y u s u u u u s g g s u u u u u u u u u u s s s d g d s s s s y d g g h h h g u u u u s s s s s s s s g g g g g g g g g g g g h h h h h h h h h h h h g g d s u u u u s s s s s s s s u u u u s d g g h h h h h h h h h h h h h h h h h h h h h h h h h h h h g g z y , % $ $ $ $ $ $ $ $ < 3 3 2 < y h h h h h h h h h h h h h h h h h h h h h h h h h h h h h h h h h h h h h h h h h h h h h h h h h h h h h h h h h h h h h h h h h h h h h h h h h h h h h h h h h h h h h h h h h h h h g g g g g g g g g g g g h h h h h h h h h h h h h h h h h h h h h h h h s s s s s s s s s s s s s s s s u u u u u u u u u u u u u u u u u u u u u u u u u u u u u u u u u u u u u u u u u u u u u u u u u u u u u u u u u u u u u u u u u u u u u u u u u u u u u u u u u u u u g h h h h h h h h h h h s s u u u u u u u u u u u u u u u s s d d g g h h h h h h g h h g g g g z q 2 3 2 2 2 * $ # $ $ ",
"% h 7 r u u u u u u u u s s s s u u u u u u u u u u u u u u u u u u u u u u u u u u u u u u u u u u u u u u u u u u u u u u u u u u u u u u u u s d g g h h h h g u s u u u u u u u u u u u u u s s y ; @ $ $ @ ; | z , y v z h h h h h g g d y u u u u u u u u u u u u u u u u u y y u u s d g g g g g h h h h h h h h h h h h z h g s u u u u s s d g g g h h g d s u u u u u u s s s u u u u u u s d y s g g g h g g g g g g s s s s s s s s g z z h g g g g h h h h h h h h h h h h h h h h g h s u u u u u s s s s s s s s u u u u d g g g h h h h h h h h h h h h h h h h h h h h h h h h h h h h h g d s 2 % * $ $ $ $ $ $ $ < 3 2 2 2 r h h h h h h h h h h h h h h h h h h h h h h h h h h h h h h h h h h h h h h h h h h h h h h h h h h h h h h h h h h h h h h h h h h h h h h h h h h h h h h h h h h h h h h h h h h h h h h h h h h h h h h h h h h h h h h h h h h h h h h h h h h h h h h d u u u u u u u u u u u u u u u u u u u u u u u u u u u u u u u u u u u u u u u u u u u u u u u u u u u u u u u u u u u u u u u u u u u u u u u u u u u u u u u u u u u u u u u u u u u u u u u u u u u s g h h h h h h h h h h h h d s s s s s s s g d s y u u u u u u s s u d g g g g g g g g g d s d g z h q 2 3 3 4 2 & $ # $ $ ",
"% h 7 r u u u u u u u u s s s s u u u u u u u u u u u u u u u u u u u u u u u u u u u u u u u u u u u u u u u u u u u u u u u u u u u u u u u u u s s d s d d f g u s u u u u u u u u u u u u u u s y : @ $ $ @ ; ] h : e z h h h h h h g s y u u u u u u u u u u u u u u u u u u u s g g g h h g g g g h h h h h h h h h h h h z g s u u u s s d g h h h h h h h g g d s u u u u s s s u u u u y y u s u s g h g h g g g g g g s s s s s s s s d g h h g g g g h h h h h h h h h h h h h h h h g h s u u u u u s s s s s s s s u u u u s g g g h h h h h h h h h h h h h h h h h h h h h h h h h h h h h h h g 3 * & $ $ $ $ $ $ $ < 2 2 2 2 r h h h h h h h h h h h h h h h h h h h h h h h h h h h h h h h h h h h h h h h h h h h h h h h h h h h h h h h h h h h h h h h h h h h h h h h h h h h h h h h h h h h h h h h h h h h h h h h h h h h h h h h h h h h h h h h h h h h h h h h h h h h h h h d u u u u u u u u u u u u u u u u u u u u u u u u u u u u u u u u u u u u u u u u u u u u u u u u u u u u u u u u u u u u u u u u u u u u u u u u u u u u u u u u u u u u u u u u u u u u u u u u u u u s h h h h h h h h h h h h h h h g g g g g g g d s u u u u u u u s s u u s g g g g g g d s s u s d g h q 2 3 3 4 2 % $ # $ $ ",
"% h 7 r u u u u u u u u s s s s u u u u u u u u u u u u u u u u u u u u u u u u u u u u u u u u u u u u u u u u u u u u u u u u u u u u u u u u u u u s u u s s g u s u u u u u u u u u u u u u y u u , # % % @ = ] g : q h h h h h h h h d u s u u u u u u u u u u u u u u u u u u s g g g g g g g g g h h h h h h h h h h h h h d u u u s g g h h h h h h h h h h h g d s u u s s s s u u u u u u s s d g g g g g g g g g g g g s s s s s s s s d g g g g g g h h h h h h h h h h h h h h h h g h s u u u u u s s s s s s s s u u u u u s g g h h h h h h h h h h h h h h h h h h h h h h h h h h h h g h h z 5 : % $ $ $ $ $ $ $ 2 2 2 2 2 r h h h h h h h h h h h h h h h h h h h h h h h h h h h h h h h h h h h h h h h h h h h h h h h h h h h h h h h h h h h h h h h h h h h h h h h h h h h h h h h h h h h h h h h h h h h h h h h h h h h h h h h h h h h h h h h h h h h h h h h h h h h h h h d u u u u u u u u u u u u u u u u u u u u u u u u u u u u u u u u u u u u u u u u u u u u u u u u u u u u u u u u u u u u u u u u u u u u u u u u u u u u u u u u u u u u u u u u u u u u u u u u u u u d z h h h h h h h h h h h h h z z g h h h h h g d s u u u u u u s s u y u g g g g g s s u u u u s s g 0 2 3 2 3 2 % $ # $ $ ",
"% g 6 r u u u u u u u u s s s s u u u u u u u u u u u u u u u u u u u u u u u u u u u u u u u u u u u u u u u u u u u u u u u u u u u u u u u u u u u u y u u s g u s u u u u u u u u u u u u u r u u < $ % % # = ) g ; 8 g h h h h h h z z g s u u u u u u u u u u u u u u u u u y y u d g h z g g g g h h h h h h h h h h h h d s s s u s g h h h h h h h h h h h h h g d s u s s s u u u u u d d g g g g h g g g g g g g g g g s u u s s s s u s d g g g g g h h h h h h h h h h h h h h h h g h s u u u u u s s s s s s s s u u u u y s g g h h h h h h h h h h h h h h h h h h h h h h h h h h g h s d g h 7 < $ $ $ $ $ $ $ $ 2 2 2 2 < e h h h h h h h h h h h h h h h h h h h h h h h h h h h h h h h h h h h h h h h h h h h h h h h h h h h h h h h h h h h h h h h h h h h h h h h h h h h h h h h h h h h h h h h h h h h h h h h h h h h h h h h h h h h h h h h h h h h h h h h h h h h h h h d u u u u u u u u u u u u u u u u u u u u u u u u u u u u u u u u u u u u u u u u u u u u u u u u u u u u u u u u u u u u u u u u u u u u u u u u u u u u u u u u u u u u u u u u u u u u u u u u u u s g z h h h h h h h h h h h h g g h h g g g g z h d s u u u u u u s s y s d s s s s s s u u u u u u u g 9 2 2 2 3 2 $ $ # $ $ ",
"% g 7 r u u u u u u u u s s s s u u u u u u u u u u u u u u u u u u u u u u u u u u u u u u u u u u u u u u u u u u u u u u u u u u u u u u u u u s s s d g g d s u u u u u u u u u u u u u u u s u s 5 $ $ $ $ * ! d ; 7 s s g h h h h h h h h d s y y u u u u u u u u u u u u u u u u u s d g h h h g g g g g h h h h h h h h d u u u u y h h h h h h h h h h z h g d s s s s s s s s y s g g g g g g g g g g g g g g g g g g g s u u s u u u u s s d g g g g h h h h h h h h h h h h h h h h h h g s y u u s u u u u s s s s u u u u u u g g h h h h h h h h h h h h h h h h h h h h h h h h h g g s u s g h 0 3 * # $ $ $ $ # $ 3 2 3 2 < e h h h h h h h h h h h h h h h h h h h h h h h h h h h h h h h h h h h h h h h h h h h h h h h h h h h h h h h h h h h h h h h h h h h h h h g g g g h z h h h h h h h h h h h h h h h h h g g d u u u u d d d d g g h h h h h h h h h h h h h h h h h h h h g s u u u u u u u u u u u u u u u u u u u u u u u u u u u u u u u u u u u u u u u u u u u u u u u u u u u u u u u u u u u u u u u u u u u u u u u u u u u u u u u u u u u u u u u u u u u u u u u u u d g g h h h h h h h h h h h h h h h h g g g g g g g g s s u u u u u u s s s s s s s s s u s s u u u u g 7 < < < 2 , @ $ $ $ $ ",
"$ g 5 e u u u u u u u u s s s s u u u u u u u u u u u u u u u u u u u u u u u u u u u u u u u u u u u u u u u u u u u u u u u u u u u u u u u u u s d g z h g d u u u u u u u u u u u u u u u u s u s 5 * # $ $ * ! d ; 7 s s g h h h h h h h h g d u y u u u u u u u u u u u u u u u u u u u s d g h h g g g g h h h h h h h h d u u u u u g h h h h h h h h h h g s u s s s s s s s s u g h h g g g g g g g g g g g g g g g g g s u u u s s s s u s s g g g g h h h h h h h h h h h h h h h h h h g d y u u u d d d d s s s s u u u u u u g g h h h h h h h h h h h h h h h h h h h h h h h h h g d u u s g h 0 < : @ $ $ $ $ # % 3 2 3 2 < e h h h h h h h h h h h h h h h h h h h h h h h h h h h h h h h h h h h h h h h h h h h h h h h h h h h h h h h h h h h h h h h h h h h h g g h z g g h h h h h h h h h h h h h h z h g d d d s s u u u u s s s s s s g g h h h h h h h h h h h h h h h h h h g s u u u u u u u u u u u u u u u u u u u u u u u u u u u u u u u u u u u u u u u u u u u u u u u u u u u u u u u u u u u u u u u u u u u u u u u u u u u u u u u u u u u u u u u u u u u u u u u u u d g g h h h h h h h h h h h h h h h h g g g g g g g g s s u u u u u u s s s s s s s s s s s s u u u u d 7 < < < 2 , @ $ $ $ $ ",
"$ g 5 e u u u u u u u u s s s s u u u u u u u u u u u u u u u u u u u u u u u u u u u u u u u u u u u u u u u u u u u u u u u u u u u u u u u u u u s g s s u u u u u u u u u u u u u u u u u u s u s 5 , @ % $ * ! g ; 5 u u d h h h h h h h h g g s u u u u u u u u u u u u u u u u u u u u u u s d g g g g g h h h h h h h h d u u u y s s g h h h h h h h h h g s u s s s s s s s s u g h h g g g g g g g g g g g g g g g g g s u u u s d g s s u s d g g g h h h h h h h h h h h h h h h h h h h g d s s d h h h h s s s s u u u u u u g g h h h h h h h h h h h h h h h h h h h h h h h h h g s u u s g h e < 8 $ $ $ $ $ # % 3 2 3 2 < e h h h h h h h h h h h h h h h h h h h h h h h h h h h h h h h h h h h h h h h h h h h h h h h h h h h h h h h h h h h h h h h h h h h h z g d s s s d d h h h h h h h h h h h h g g s s s u u u u u u u u u u u y s d g h h h h h h h h h h h h h h h h h h g s u u u u u u u u u u u u u u u u u u u u u u u u u u u u u u u u u u u u u u u u u u u u u u u u u u u u u u u u u u u u u u u u u u u u u u u u u u u u u u u u u u u u u u u u u u u u u u u u u d g g h h h h h h h h h h h h h h h h g g g g g g g g s s u u u u u u s s s s s s s s s s s s u u u u d 7 < < < 2 , @ $ $ $ $ ",
"$ f 5 e u u u u u u u u s s s s u u u u u u u u u u u u u u u u u u u u u u u u u u u u u u u u u u u u u u u u u u u u u u u u u u u u u u u u u u u u u u u u u u u u u u u u u u u u u u u u s u u 5 2 + % $ * ! g ; 5 y u s h h h h h h h h h g d s u u u u u u u u u u u u u u u u u u u u u u u s g g g g h h h h h h h h d u u u y s u g h h h h h h h h z h g d u u u u s s s s y s g g g g g g g g g g g g g g g g g g g s u u u s g h g s s u s g g g h h h h h h h h h h h h h h h h h h h g h h h h h h h h d s s s u u u u u u g g h h h h h h h h h h h h h h h h h h h h h h h h h g s s u s g h u 2 s = $ $ $ $ @ % 3 2 3 2 < e h h h h h h h h h h h h h h h h h h h h h h h h h h h h h h h h h h h h h h h h h h h h h h h h h h h h h h h h h h h h h h h h h h h h d s u y y y u s h h h h h h h h h h h h u u u u y y y y u u u u u u y y u s g h h h h h h h h h h h h h h h h h h h g s u u u u u u u u u u u u u u u u u u u u u u u u u u u u u u u u u u u u u u u u u u u u u u u u u u u u u u u u u u u u u u u u u u u u u u u u u u u u u u u u u u u u u u u u u u u u u u u u u d g g h h h h h h h h h h h h h h h h g g g g g g g g s s u u u u u u s s s s s s s s s s s s u u u u d 7 , < < 2 , @ $ $ $ $ ",
"$ f 5 e u u u u u u u u s s s s u u u u u u u u u u u u u u u u u u u u u u u u u u u u u u u u u u u u u u u u u u u u u u u u u u u u u u u u u u u u u u u u u u u u u u u u u u u u u u u u s u u 0 8 + # $ $ G g ; 3 y u u s g h z g g g g h g s u u u u u u u u u u s s u u u u u s d g d g g h h h h h h h h h h h h h h d s u y u u s d h h h h h h h h h h g g u u u u u u u u s s d z h h h h h h h h h h h h h h h h g g s u s s s d d g g d g g g g h h h h h h h h h h h h h h h h h h h h h z h g h h h h s s s u u u u u s g g h h h h h h h h h h h h h h h h h h h h h h h h h h g d s g g g h h 3 h 5 + $ $ @ @ & 3 2 3 2 , q h h h h h h h h h h h h h h h h h h h h h h h h h h h h h h h h h h h h h h h h h h g g g g g g h h h h h h h h h h h h g g h h h g g d u u u u u u u u s g h h g g g g h h g s u u u u u u u u u u u u u u u u s s x g h h h h h h h h h h h h h h h h g f s u u u u u u u u u u u u u u u u u u u u u u u u u u u u u u u u u u u u u u u u u u u u u u u u u u u u u u u u u u u u u u u u u u u u u u u u u u u u u u u u u u u u u s u y s s s s s s s s s d g g h h h h h h h h h h h h h h h h h h h h h h g s u u u u u u u u u s s s s s s s s s s s u u u y y s 8 , 2 < 2 : @ $ $ $ $ ",
"# f 5 w u u u u u u u u s s s s u u u u u u u u u u u u u u u u u u u u u u u u u u u u u u u u u u u u u u u u u u u u u u u u u u u u u u u u u u u u u u u u u u u u u u u u u u u u u u u u s u u e 0 $ @ $ $ G g ; 3 u u u u s g h g g g g h g d s d d d d g g g g d u u s u u u u d g h g h h h h h h h h h h h h h h h h h g s y y y u s h h g g h h h h d d s s u u u u u u u u s s g h h h h h h h h h h h h h h h h h h g g s s u u s s d h z g g g g h h h h h h h h h h h h h h h h h h g g d s d g h h g g s s u u u u u s g g h h h h h h h h h h h h h h h h h h h h h h h h h h h h g s g g g g h 7 h e X % @ % @ * 3 2 3 2 < e h h h h h h h h h h h h h h h h h h h h h h h h h h h h h h h h h h h h h h h h g h h h g g g g h h h h h h h h h h h h h h h h g d s u u u u u u u u u u s g h g g g g h h g s u u u u u u u u u u u u u u u u s s h h h h h h h h h h h h h h h h h h f s u u u u u u u u u u u u u u u u u u u u u u u u u u u u u u u u u u u u u u u u u u u u u u u u u u u u u u u u u u u u u u u u u u u u u u u u u u u u u u u u u u u u u u s u u s g g g g g g g g g g h h h h h h h h h h h h h h h h h h h h h h g d s y u u u u u u u u s s s s s s s s s s s u u u u s g 0 , 2 < 2 : @ $ $ $ $ ",
"# f 5 w u u u u u u u u s s s s u u u u u u u u u u u u u u u u u u u u u u u u u u u u u u u u u u u u u u u u u u u u u u u u u u u u u u u u u u u u u u u u u u u u u u u u u u u u u u u u s u y y e * + % $ G h : 3 u s u s s s g g g g g h g g g h h h h h h h h d u y y u u u u s g h h h h h h h h h h h h h h h h h h h h g d u u s d h h h g h h h h s u y y u u u u u u u u u d g g h h h h h h h h h h h h h h h h h h g g d s u y u s g h g g g g h h h h h h h h h h h h h h h h h g g s u y u s g h g s s u u u u u s g g h h h h h h h h h h h h h h h h h h h h h h h h h h h h h g d g g g g h e g h o $ $ % @ * 3 2 2 3 3 y h h h h h h h h h h h h h h h h h h h h h h h h h h h h h h h h h h h h g g g g s d g h g g g g h h h h h h h h h h h h h g d d s u y y u u u u u u u u u u s g g g g g h h g s u u u u u u u u u u u u u u u u u u d h h h h h h h h h h h h h h h h h s u u u u u u u u u u u u u u u u u u u u u u u u u u u u u u u u u u u u u u u u u u u u u u u u u u u u u u u u u u u u u u u u u u u u u u u u u u u u u u u u u u u u u u u s u s g h h h h h g h h g h h h h h h h h h h h h h h h h h h h h h h h h g s u u u u u u u u u s s s s s s s s s s s s y u d g z e < 2 < 2 : # $ $ $ # ",
"# f 5 w u u u u u u u u s s s s u u u u u u u u u u u u u u u u u u u u u u u u u u u u u u u u u u u u u u u u u u u u u u u u u u u u u u u u u u u u u u u u u u u u u u u u u u u u u u u u u u y y r ; + % # G h : 3 u s u s s u s g g g g g h h h h g g g h h h h h h d u u u u u y d h h h h h h h h h h h h h h h h h h g h z z d d g h h h h g h h h h s s u u u u u u u u u u u d h g h h h h h h h h h h h h h h h h h h h g g d u y u s d g g g g g h h h h h h h h h h h h h h h h h g d u u s u y s g g y u u u u u s g g h h h h h h h h h h h h h h h h h h h h h h h h h h h h h h h g g g g g h u d C & + & % + * 3 2 2 3 4 s h h h h h h h h h h h h h h h h h h h h h h h h h h h h h h h h h h h h s s s s y u s d g g g g h h h h h h h h h h h h d s u y u u y y u u u u u u u u u u u s g g g g h h g s u u u u u u u u u u u u u u u u u u s h h h h h h h h h h h h h h h h h u u u u u u u u u u u u u u u u u u u u u u u u u u u u u u u u u u u u u u u u u u u u u u u u u u u u u u u u u u u u u u u u u u u u u u u u u u u u u u u u u u u u u u u u s u d h g g g g g g g g h h h h h h h h h h h h h h h h h h h h h h h h z l g d u u u u u u u u s s s s s s s s s s s s y s g h v r 2 2 < 2 : # $ $ $ # ",
"# i 5 q u u u u u u u u i i s s u u u u u u u u u u u u u u u u u u u u u u u u u u u u u u u u u u u u u u u u u u u u u u u u u u u u u u u u u u u u u u u u u u u u u u u u u u u u u u u u u u u y g , + % @ v z : 2 e s s s s s s s s g g h h h z h h h g h h h h h h h h g s u y y u s d h h h h h h h h h h h h z l h h h h h h h h h h h g g g h g d s u u u u u u u u u u u u u g h h h h h h h h h h h h h h h h h h h h h h g u u u y d h z g g g g h h h h h h h h h h h h h h h h h h h h d u u u u u u u s s s s s g g h h h h h h h h h h h h h h h h h h h h h h h h h h h h h h h h h g h h h h g s P < + $ $ + * 3 2 2 < 4 g h h h h h h h h h h h h h h h h h h h h h h z z h h h h h h h h z g d u u u u u u u u u d g g h h h h h h h h h h g g d u u u u u u u u u u u u u u u u u u u u s g g g h h h h h d s u s s s s u u u u u u u u u u s g h h h h g g g g h h h h g z h g u u u u u u u u u u u u u u u u u u u u u u u u u u u u u u u u u u u u u u u u u u u u u u u u u u u u u u u u u u u u u u u u u u u u u u u u u u u u u u u u u u u u u u u u u s g g g g g g g g g g h h h h h h h h h h h h h h h h h h h h g g g g g g g g u u u u s s s s s s s s s s s s s s s s u s s s d q , < < 2 : @ $ $ $ $ ",
"@ p 6 q u u u u u u u u i i s s u u u u u u u u u u u u u u u u u u u u g d s u u u u u u u u u u u u u u u u u u u u u u u u u u u u u u u u u u u u u u u u u u u u u u u u u u u u u u u u u u u u y d < + % @ v z ; 2 e s s s s s s s s s s g g h h h h h h h h h h h h h h h g d s s s u u s d g h h h h h h h h h z h h h h h h h h g g g g g g g h d u u u u u u u u u u u u u u u g h h h h h h h h h h h h h h h h h h h h h h g u u u u g h h g g g g h h h h h h h h h h h h h h h h h h h h d u u u u u u u u u u u g g h h h h h h h h h h h h h h h h h h h h h h h h h h h h h h h h h h h h h h z d y G 8 @ $ $ @ * 3 3 3 2 8 g h h h h h h h h h h h h h h h h h h h h h h h h g g g g h h h h g d s u u u u u u u u u s s g h h h h h g g g g d s s s u u u u u u u u u u u u u u u u u u u u s s g g h h h h h g g g d s s s u u u u u u u u u u u d g h g g g g g g h h h h h g h d u u u u u u u u u u u u u u u u u u u u u u u u u u u u u u u u u u u u u u u u u u u u u u u u u u u u u u u u u u u u u u u u u u u u u u u u u u u u u u u u u u u u u u u u u s g g g g g g g g g g h h h h h h h h h h h h h h h h h h h h h h h h h h h h u u u u s s s s s s s s s s s s s s s s s s s s d q , < < 2 : @ $ $ $ $ ",
"@ d 6 9 u u u u u u u u i i i s u u u u u u u u u u u u u u u u u u u u g d s u u u u u u u u u u u u u u u u u u u u u u u u u u u u u u u u u u u u u u u u u u u u u u u u u u u u u u u u u u s u u s 3 + % @ v z ; 2 e s u s s s s s s s s s s d g g h h h h h h h h h h h g g h g g d s s s d g h h h h h h h h h g f d d d g g g g g g g g g g g g u y u u u u u u u u u u u u u u g h h h h h h h h h h h h h h h h h h h h h h g u u u s g h g g g g g h h h h h h h h h h h h h h h h h h h h d u u u u u u u y u s d g h h h h h h h h h h h h h h h h h h h h h h h h h h h h h h h h h h h h h h h z g y m s @ $ @ @ = 4 3 3 2 e h h h h h h h h h h h h h h h h h h h h h z h g d s s s s g g g g s s u u u u u u u u u u u s d d d d d d u u u u u u u u u u u u u u u u u u u u u u u u u u u u u s s g h h h h g g h h h g d s u u u u u u u u u u u s d g g g g g g g h h h h h g g s u u u u u u u u u u u u u u u u u u u u u u u u u u u u u u u u u u u u u u u u u u u u u u u u u u u u u u u u u u u u u u u u u u u u u u u u u u u u u u u u u u u u u u u u i s g g g g g g g g g g h h h h h h h h h h h h h h h h h h h h g g g g g g g d s s s s s s s s s s s s s s s s s s s s u u s s g e < 2 < 2 : # $ $ $ $ ",
"@ f 6 9 u u u u u u u u i i i i u u u u u u u u u u u u u u u u u u u u u u u u u u u u u u u u u u u u u u u u u u u u u u u u u u u u u u u u u u u u u u u u u u u u u u u u u u u u u u u u u u u u u 5 + % @ v z ; 2 e s u s s s s s s s s u u u s d g g h h h h h h h h h g g h z h h h g h h h h h h h h h h h h s u u u u u u u d d d d g g g g s y y u u u u u u u u u u u u u u g h h h h h h h h h h h h h h h h h h h h h h g u u u d g g d g g g g h h h h h h h h h h h h h h h h h h h h d u u u u u u u s s g h h h h h h h h h h h h h h h h h h h h h h h h h h h h h h h h h h h h h h h h h g h u h x @ # # # = 4 3 2 2 u z h h h h h h h h h h h h h h h h h h h h z h d s u u u u d d d s u u u u u u u u u u u u s s u y u u u u s s s s u u u u u u u u u u u u u u u u u u u u u u u u u u s s h h h h h h g g h h h g u u u u u u u u u u u u s g g g g g g g h h h h g h s s u u u u u u u u u u u u u u u u u u u u u u u u u u u u u u u u u u u u u u u u u u u u u u u u u u u u u u u u u u u u u u u u u u u u u u u u u u u u u u u u u u u u u u u u i s g g g g g g g g g g h h h h h h h h h h h h h h h h h h h h d d d d u u u u s s s s s s s s s s s s s s s s s s s s u u s s h r 2 3 2 2 : # $ $ $ $ ",
"@ f q 0 g d u t u u u u u u u u u u u u u u u u u u u u u u u u u u u u u u u u s u u s u u u u u u u u u u u u u u u u u u u u u u u u u u u u u u u u u u u u u u u u u u u u u u u u u u u u u u u u y e @ % + h x , 2 0 s u u u u u s s s s u u u u u g h h h h h h h h h h h h h h h h h h h h h h h h h h h h h h d s u u u u u u u r y s g g g g u y u u u u u u u u u u u u u u u s g g g g g g h h h h h h h h h h h h h h h h g u u u s d g h h g h h h h h h h h h h h h h h h h h h h h h h s u u u s u u s g g g g h h h h h h h h h h h h h h h h h h h h h h h h h h h h h h h h h h h h h h h h d h s e J ; @ $ # ; 3 3 2 3 d g g g g g h h h h h h h h h h h h h h h h h g s u u u u u u u u u u u u u u u u u u u u u u u u u u u u u u u u u u u u u u u u u u u u u u u u u s u u u y y y y s s d g z h h g h h h h h g d s u u u u u u u u u u u u u s d g h h h h h h h h g d s u u u u u u u u u u u u u u u u u u u u u u u u u u u u u u u u u u u u u u u u u u u u u u u u u u u u u u u u u u u u u u u u u u u u u s s s s u u u u y y u s u u u u u u u s s g g g g g g g g g g g h h h h h h h h h h h h g g d s s s s s u u u u u u u u u u u u u u u u u u u u u u u u u u u u u u s h z u < 3 2 4 ; @ $ $ $ $ ",
"@ d 0 7 j h d i u u u u u u u u u u u u u u u u u u u u u u u u u u u u u u u u y u u y u u u u u u u u u u u u u u u u u u u u u u u u u u u u u u u u u u u u u u u u u u u u u u u u u u u u u u u u y e @ % + g v , 2 0 s u u u u u s s s s u u u u u g h h h h h h h h h h h h h h h h h h h h h h h h h h h h h h h g d s u u u u u u s d g g g g y u u u u u u u u u u u u u u u u u d g g g g g h h h h h h h h h h h h h h h h g u u u s s d g h h h g h h h h h h h h h h h h h h h h h h h h s u u u s u u d g g g g h h h h h h h h h h h h h h h h h h h h h h h h h h h h h h h h h h h h h h h h g h d 0 m 3 @ % # : 3 2 2 4 g g g g g g h h h h h h h h h h h h h h h h g d s u u u u u u u u u u u u u u u u u u u u u u u u u u u u u u u u u u u u u u u u u u u u u u u u u y u s u s s s s g g g h z h g g d d d d d s s s u u u u u u u u u u u u u u s d h h h h h h h g h d u y u u u u u u u u u u u u u u u u u u u u u u u u u u u u u u u u u u u u u u u u u u u u u u u u u u u u u u u u u u u u u u u u u u u u u u u u s s s s d s s u u u u u u u s s g g g g g g g g g g g g h h h h h h h h h h h h g d s s u u u u u u u u u u u u u u u u u u u u u u u u u u u u u u u u u u s h z u < 3 2 4 ; @ # $ $ $ ",
"O i 7 7 j h d i u u u u u u u u u u u u u u u u u u u u u u u u u u u u u u u u s g g s u u u u u u u u u u u u u u u u u u u u u u u u u u u u u u u u u u u u u u u u u u u u u u u u u u u u u u u u r r $ $ + d m , < 0 s u u u u u s s s s u u u u u g h h h h h h h h h h h h h h h h h h h h h h h h h h h h h h h h g s u u u u s d g g g g g g u u u u u u u u u u u u u u u u u u s g g g g g h h h h h h h h h h h h h h h h g u u u u u u s g g h h h h h h h h h h h h h h h h h h h h h h u u u u u u s g g g g g h h h h h h h h h h h h h h h h h h h h h h h h h h h h h h h h h h h h h h h h g h g 7 z e @ $ # : 3 2 2 7 z g g g g g h h h h h h h h h h h h h h h h g d s u u u u u u u u u u u u u u u u u u u u u u u u u u u u u u u u u u u u u u u u u u u u u u u u u y d g d g g g g h h h g g d d s u u u u s s s s u u u u u u u u u u u u u u u s h h h h h h g g g s u y u u u u u u u u u u u u u u u u u u u u u u u u u u u u u u u u u u u u u u u u u u u u u u u u u u u u u u u u u u u u u u u u u u u u y u s d g g g g h g d s u u u u u s s g g g g g g g g g g g g g h h h h h h h h h h h h h s u s u u u u u u u u u u u u u u u u u u u u u u u u u u u u u u u u u u s h h s 2 2 2 4 ; @ # # $ $ ",
"O i 7 5 g d u t u u u u u u u u u u u u u u u u u u u u u u u u u u u u u u u u u g g u u u u u u u u u u u u u u u u u u u u u u u u u u u u u u u u u u u u u u u u u u u u u u u u u u u u u u u u u e y % $ + s C , < 0 s u u u u u s s s s u u u u u g h h h h h h h h h h h h h h h h h h h h h h h h h h h h h h g d d s u u u u s h z g g g g g u u u u u u u u u u u u u u u u u u u d g g g g h h h h h h h h h h h h h h h h g u u u u u u u s d g g h h h h h h h h h h h h h h h h h h h h u u u u u u s g g g g g h h h h h h h h h h h h h h h h h h h h h h h h h h h h h h h h h h h h h h h h h h z 4 g d @ $ # : 3 2 2 8 x g g g g g h h h h h h h h h h h h h h h h g d s s u u u u u u u u u u u u u u u u u u u u u u u u u u u u u u u u u u u u u u u u u u u u u u u u s h z h h h h h h g g d s u y y u u u u s s s s u u u u u u u u u u u u u u u u h h h h h h g g u u s s u u u u u u u u u u u u u u u u u u u u u u u u u u u u u u u u u u u u u u u u u u u u u u u u u u u u u u u u u u u u u u u u u u u u s s g h h h h h h g g d u u u u s s g g g g g g g g g g g g g g h h h h h h h h h h h h h u y s u u u u u u u u u u u u u u u u u u u u u u u u u u u u u u u u u u s h h s 3 2 2 4 ; # # # $ $ ",
"O r 0 5 i i i i u u u u u u u u s s d d u u u u u u u u u u u u u u u u u u u u u u u u u u u u u u u u u u u u u u u u u u u u u u u u u u u u u u u u u u u u u u u u u u u u u u u u u u u u u u u u 0 e ; $ + y C 2 < 5 s u u u u u u u u u s u u y s g z z z h h g d d d d u s d g h h g h g g g g h h h h h h h g g s u u u u u u s d g h g g g g u u u u u u u u u u u u u u u u u u u u g g g g h h h h h h h h h h h h h h h h h g s u u u u u u u u u s d g g z h h h h h h h h h h h h h h h h g s u s d g h h h h h h h h h h h h h h h h h h h h h h h h h h h h h h h h h h h h h h h h h h h h h h h z 0 0 m @ $ @ : 3 3 2 q z g h h h h h h h h h h h h h h h h h h h h g s u s u u u u u u u u u u u u u u u u u u u u u u u u u u u u u u u u u u u u u u u u u u u u u u u u d g h g h h h h h g d s u u u u s s s s s s s s u u u u u u u u u u u u u u u u u s g h g g g g u u u u u u u u u u u u u u u u u u u u u u u u u u u u u u u u u u u u u u u u u u u u u u u u u u u u u u u u u u u u u u u u u u u u u u u s d g g g h h h h h h h h g g g g h h h h h h h h h h h h j j j j h h h h h h h h h h h h g u u u u u u u u u u u u u u u s s i u u u u u s s u u u u u u u u u u u s g h h d 4 2 2 3 = $ # $ $ $ ",
"O r 0 5 i i i i u u u u u u u u u s g z s u u u u u u u u u u u u u u u u u u u u u u u u u u u u u u u u u u u u u u u u u u u u u u u u u u u u u u u u u u u u u u u u u u u u u u u u u u u u u u u q q ; $ o e G < < 5 s u u u u u u u u u s s u y u d g g d s s s u u u u y y s s g g h g g g g g h h h h h h g g s s s s s u u u u s d g h g g g u u u u u u u u u u u u u u u u u u u u d g g g h h h h h h h h h h h h g g g g h h g s u u u u u u u u y u s d d g h z h h h h h h h h h h h h h h h g d g h h h h h h h h h h h h h h h h h h h h h h h h h h h h h h h h h h h h h h h h h h h h h h g g z 0 4 m ; + @ : 3 3 2 q z g h h h h h h h h h h h h h h h h h h h h g s u s u u u u u u u u u u u u u u u u u u u u u u u u u u u u u u u u u u u u u u u u u u u u u u u u d h z h h h h h h g g d g s u u s s s s s s s s u u u u u u u u u u u u u u u u u u u s s s s s u u u u u u u u u u u u u u u u u u u u u u u u u u u u u u u u u u u u u u u u u u u u u u u u u u u u u u u u u u u u u u u u u u u u u u u s d g g h h h h h h h h h h h h h h h h h h h h h h h h h h h h h h h h h h h h h h h h g s u u u u u u u u u u u u u u u u u i i d d d d s s u u u u u u u u u u s d g h h d 3 2 2 2 = # $ # $ $ ",
"O r q 5 i i i i u u u u u u u u u s g z d u u u u u u u u u u u u u u u u u u u u u u u u u u u u u u u u u u u u u u u u u u u u u u u u u u u u u u u u u u u u u u u u u u u u u u u u u u u u u u u q 0 , $ o q J , < 5 s u u u u u s s s s d d s s y u s s s u u y y u y y y u u u s g h g g g g g h h h h h h g d y u s s u u u u u u s d g h g g u u u u u u u u u u u u u u u u u u u u s g g g h h h h h h h h h h h h g g g g g h h g u u u u u u u u u u u s s s d g h h h h h h h h h h h h h h h h g h h h h h h h h h h h h h h h h h h h h h h h h h h h h h h h h h h h h h h h h h h h h h h h g g z 0 < x 3 + @ : 3 3 1 q z h h h h h h h h h h h h h h h h h h h h h g s u s u u u u u u u u u u u u u u u u u u u u u u u u u u u u u u u u u u u u u u u u u u u u u u u u s g h h h h h h h h h g h g d s s s s s s s s s u u u u u u u u u u u u u u u u u u u u u u u u u u u u u u u u u u u u u u u u u u u u u u u u u u u u u u u u u u u u u u u u u u u u u u u u u u u u u u u u u u u u u u u u u u u u u u s d g h h h h h h h h h h h h h h h h h h h h h h h h h h h g g g g h h h h h h h h h h h s u u u u u u u u u u u u u u u u y u g h h h h h g s u u u u u u u u u u g g g g h d 3 2 2 2 * @ # # $ $ ",
"O r q 5 i i i i u u u u u u u u s s d d h s u u u u u u u u u u u u u u u u u u u u u u u u u u u u u u u u u u u u u u u u u u u u u u u u u u u u u u u u u u u u u u u u u u u u u u u u u u u u u u w 8 , $ o 0 P , < 5 s u u u u u h h h h h g g d u u u y s u u y s s s s s s s u u g h g g g g g h h h h h g g d u s s u u u u u u u u s d g h g u u u u u u u u u u u u u u u u u u u u u d g g h h h h h h h h h h h h g g g g g g h h u u u u u u u u s s s s s s s s g h h h h h h h h h h h h h h h h h h h h h h h h h h h h h h h h h h h h h h h h h h h h h h h h h h h h h h h h h g g g h h h g g z 0 < h 5 @ @ : 3 3 < q z h h h h h h h h h h h h h h h h h h h h h g s u s u u u u u u u u u u u u u u u u u u u u u u u u u u u u u u u u u u u u u u u u u u u u u u u u y s g g h h h h h h h h g g g g s s s s s s s s u u u u u u u u u u u u u u u u u u u u u u u u u u u u u u u u u u u u u u u u u u u u u u u u u u u u u u u u u u u u u u u u u u u u u u u u u u u u u u u u u u u u u u u u u u u u u u s g g h h h h h h h h h h h h h h h h h h h h h h h h h h h g g g g h h h h h h h h h h g u s s u u u u u u u u u u u u u u g g h h h h h h h g s u u u u u u u u u h g g g h d 3 2 2 2 * @ # $ $ $ ",
"O 0 q 2 i s i i u u u u u u u u u u u u u u u u u u u u u u u u u u u u u u u u u u u u u u u u u u u u u u u u u u u u u u u u u u u u u u u u u u u u u u u u s s u y u u u u u u u u u u u u u u u u q 5 < + o 7 P , , 2 y y s d g h g g g g h g g g s s s s u u u u u u u u u u u u s g h g g g g g h h h h h h h g g d s s s s s s s s u s s u s s s u u u u u u u u u u u y u d g g d s s y s g g h h h h h h h h h h h h g s y u g g g g u u u u s s s s u u y u u u u s s g g g g h h h h h h h h h h h h h h h h h h h h h h h h h h h h h h h h h h h h h h h h h h h h h h h h h h h h h g g g g g g g g z 9 , y y o @ : 3 3 1 e z g h h h h h h h h h h h h h h h h h h h h h d u y u u u u u u u u u u u u u u u u u u u u u u u u u u u u u u u u u u u u u u u u u u u u u u u u u u u u d d d d h h h h z z z z h s u s s s s s u u u u u u u u u u u u u u u u u u u u u u u u u u u u u u u u u u u u u u u u u u u u u u u u u u u u u u u u u u u u u u u u u u u u u u u u u u u u u u u u u u u u u u u u u u u u u s d g h h h h h h h h h h h h h h h h h h h h h h h h h g g g s s s u s s s s g d d d s s u u u u u u s u y y u u u u s s d g h h h h h h h h g g d u u u u u u u s g g g g g h g 5 2 2 2 % $ $ $ $ $ ",
"O 0 q 2 i i i i u u u u u u u u u u u u u u u u u u u u u u u u u u u u u u u u u u u u u u u u u u u u u u u u u u u u u u u u u u u u u u u u u u u u u u u u s s u u u u u u u u u u u u u u u u s s e 5 2 @ o 5 ) 2 < 3 s s d g h z h h h h g g d s s s s s u u u u u u u u u u u u s g h g g g g g h h h h h h h h h g g d s u u y u u s s s u u u u u u u u u u u u u u u u s d g h h g g g h z h h h h h h h h h h h h h d s u u u s d g u u u u u u u u s s s s s u u u s s d g g g h h h h h h h h h h h h h h h h h h h h h h h h h h h h h h h h h h h h h h h h h h h h h h h h h h h g d d g g g g g g z 9 < 9 s + @ : 3 3 < e h g h h h h h h h h h h h h h h h h h h h h h g s y u u u u u u u u u u u u u u u u u u u u u u u u u u u u u u u u u u u u u u u u u u u u u u u u u u u u u u u u s s s s g g g g d s s s s s s s u u u u u u u u u u u u u u u u u u u u u u u u u u u u u u u u u u u u u u u u u u u u u u u u u u u u u u u u u u u u u u u u u u u u u u u u u u u u u u u u u u u u u u u u s u y r s d g g h h h h h h h h h h h h h h h h h h h h h h h h h h g d s u u u u u u u u u y y u u u u u u u u s s u u u u u u d g h h h h h h h h h h g g g d s u u u u s g g g g g g h g 5 2 2 2 % $ $ $ $ $ ",
"O 0 q 2 s s s s u u u u u u u u u u u u u u u u u u u u u u u u u u u u u u u u u u u u u u u u u u u u u u u u u u u u u u u u u u u u u u u u u u u u u u u u u u s s s s s s u u u u u u u u u s d g y 5 5 @ + 4 | 3 < 4 d h h h z z g g g g d s s s s s s s u u u u u u u u u u u u s g h g g g g g h h h h h h h h h h h g d s s u u u u u s s s s u u u u u u u u u u u u u s s d g g g g g g h z h h h h h h h h h h h h s u u s y y u s u u u u s s s s s s s s g d s u s u u d g g g h h h h h h h h h h h h h h h h h h h h h h h h h h h h h h h h h h h h h h h h h h h h h h h h g g d s s g g g g g g z 9 2 4 s $ @ : 3 3 < e h h h h h h h h h h h h h h h h h h h h h h h g s y u u u u u u u u u u u u u u u u u u u u u u u u u u u u u u u u u u u u u u u u u u u u u u u u u u u u y y y y u u u u s s s s s u s u s s s s u u u u u u u u u u u u u u u u u u u u u u u u u u u u u u u u u u u u u u u u u u u u u u u u u u u u u u u u u u u u u u u u u u u u u u u u u u u u u u u u u u u u u u u u u u u u d g g g h h h h h h h h h h h h h h h h h h h h h h h h g h h d u u u u u u u u u u u u u u u u u u u u u u u s g g g g h h h h h h h h h h h h g g g g d s u u s g g g g g g g h g 5 2 2 3 % $ $ $ $ $ ",
"O 0 q 1 s s s s u u u u u u u u u u u u u u u u u u u u u u u u u u u u u u u u u u u u u u u u u u u u u u u u u u u u u u u u u u u u u u u u u u u u u u u u y u s s s s s s u u u u u u u u u s g h u 4 7 # o 3 o.4 < 5 g z h h h h d s s s s s s s s s s s u u u u u u u u u u u u s g h g g g g g h h h h h h h h h h h h h g g d s s u u u s d g u u u u u u u u u u u u y y u u y u s s u u d h h h h h h h h h h h h h s u u s u u u u u u u u d d d d g g g g z g d s s u u u s g g g h h h h h h h h h h h h h h h h h h h h h h h h h h h h h h h h h h h h h h h h h h h h h h h g g s s u g g g g g g z 8 2 4 y = @ ; 3 2 < e h h h h h h h h h h h h h h h h h h h h h h h g d u u u u u u u u u u u u u u u u u u u u u u u u u u u u u u u u u u u u u u u u u u u u u u u u u u u u u u u u u u u s s u u u u y u s u s s s s u u u u u u u u u u u u u u u u u u u u u u u u u u u u u u u u u u u u u u u u u u u u u u u u u u u u u u u u u u u u u u u u u u u u u u u u u u u u u u u u u u u u u u u u u s d g g g g g h h h h h h h h h h h h h h h h h h h h h h h h g z h s u u u u u u u u u u u u u u u u u u i i d g g h g g g g h h h h h h h h h h h h g g g g g d s u g h g g g g g g h g 5 2 2 3 % $ $ $ $ $ ",
"+ 6 r 1 s s s s u u u u a a a a u u u u u u u u u u u u u u u u u u u u u u u u u u u u u u u u u u u u u u u u s s s s s s s s u u u u u u u u u u u u u u u u y d h z g g g g h g s y u u u u d g h h u 4 4 $ @ < o.5 < 3 s h g d d s s s s s s s s s s s s s u u u u u u u u u u u u s g g g g g g g h h h h h h h h h h h h g g g g g g d y s s s d u u u u u u u u u u u u u u u u u u u u u u u s g h h h h h h h g h g d u u u u u u u u u u u u h z h g g g g g h h g d s u y y u s g h h h h h h h h h h h h h h h h h h h h h h h h h h h h h h h h h h h h h h h h h h h h h h h h h s s s u g g g g h g z 8 2 2 e ; @ ; 3 2 2 8 z h h h h h h h h h h h h h h h h h h h h h h h h h u y y u u u u u u u u u u u u u u u u u u u u u u u u u u u u u u u u u u u u u u u u u u u u u u u u u u u u u u u u u u u u u u u u u s s s s u u u u u u u u u u u u u u u u u u u u u u u u u u u u u u u u u u u u u u u u u u u u u u u u s s u y s s s y u u u u u u u u u u u u u u u u u u u u u u u u u u u u u u u u s s g h g g g g h h h h h h h h h h h h h h h h h h h h h h h h z z g s u u u u s u u u u u u u s s d g h h h h g g g g g g g g h h h h h h h h h h h h h h h h h g g d g g h h h h h h h g 5 2 3 3 % $ $ $ $ $ ",
"+ 6 r 1 s s s s u u u u a a a a u u u u u u u u u u u u u u u u u u u u u u u u u u u u u u u u u u u u u u u u s u y y s s s s u u u u u u u u u u u u u u u u g h h d g g g g h g g g s s s s g h z z u 4 4 % $ < o.8 2 3 s h d s u u s s s s s s s s s s s s u u u u y y u u u u u u d g g g g g g g h h h h h h h h h h h h g g g g h h g s u u u u u u u u u u u u u u u u u u u u u u u u u u u u d g h h h h h h g h g s u u u u u u u u u u u u g h h g g g g g g h h g s u u y u s g h h h h h h h h h h h h h h h h h h h h h h h h h h h h h h h h h h h h h h h h h h h h h h h h h s s s s g g g g h g z 8 3 2 8 : @ ; 2 2 2 5 h h h h h h h h h h h h h h h h h h h h h h h h h h g s u u u u u u u u u u u u u u u u u u u u u u u u u u u u u u u u u u u u u u u u u u u u u u u u u u u u u u u u u u u u u u u u u u s s s s u u u u u u u u u u u u u u u u u u u u u u u u u u u u s s s s u u u u u u u u u u u u u u u u s s u u s g g d u u u u u u u u u u u u u u u u u u u u u u u u u u u u u u u u s s d h g g g g h h h h h h h h h h h h h h h h h h h h h h h h h h g d y y y y u u s s d d d d g h z z h h h h g g g g g g g g h h h h h h h h h h h h h h h h h h h g h h h h h h h h h g 5 2 3 3 % $ $ $ $ $ ",
"@ 6 r 1 s s s s u u u u a a a a u u u u u u u u u u u u u u u u u u u u u u u u u u u u u u u u u u u u u u u u s s s u s s s s u u u u u u u u u u u u u u u u u d h h g g g g g h h h g g g g g h h h u 4 4 $ @ : | 0 2 2 y s s u u u s s s s s s s s s s s s u u u u u u s d s s s s g g g g g g g g h h h h h h h h h h h h g g g g h z h d s u u y u u u u u u u u u u u u u u u u u u u u u u u u u d g h h h h h g h d u u u u u u u u u u u u u s d g h g g g g g g h h d s u y u s d g h h h h h h h h h h h h h h h h h h h h h h h h h h h h h h h h h h h h h h h h h h h h h h h h u u s s g g g g h g z 8 3 2 4 , @ ; 2 2 2 4 d h h h h h h h h h h h h h h h h h h h h h h h h h g s u u u u u u u u u u u u u u u u u u u u u u u u u u u u u u u u u u u u u u u u u u u u u u u u u u u u u u u u u u u u u u u u u u s s s s u u u u u u u u s s s s u u u u u u u u u u u u u u u u s s s s u u u u u u u u u u u u u u u u u u s s d h h h u u u u u u u u u u u u u u u u u u u u u u u u u u u u u u u u u u s g g g g g h h h h h h h h h h h h h h h h h h h h h h h h g h h g u u u u s s d g g g g g g g g g h h h h g g g g g g g g h h h h h h h h h h h h h h h h h h h h h h h h h h h h h h 5 2 3 3 % $ # # $ $ ",
"@ 6 r 1 s s s s u u u u a a a a u u u u u u u u u u u u u u u u u u u u u u u u u u u u u u u u u u u u u u u u s s g h s s s s u u u u u u u u u u u u u u u u y s d d g g g g h g g g h h h h h h h h y 3 3 # + = ] q < < e y u u u u s s s s s s s s s s s s u u u u s d g h g g g g g g g g g g g g h h h h h h h h h h h h g g g g h z h d s s s u u u u u u u u u u u u u u u u u u u u u u u u u u u d g h h h h h g d y u u u u u u u u u u u u u s g h g g g g g g g h g s u u s s d g h h h h h h h h h h h h h h h h h h h h h h h h h h h h h h h h h h h h h h h h h h h h h h h h u u u s g g g g h g z 8 2 3 4 = @ ; 3 2 2 2 s h h h h h h h h h h h h h h h h h h h h h h h h h u y u u u u u u u u u u u u u u u u u u u u u u u u u u u u u u u u u u u u u u u u u u u u u u u u u u u u u u u u u u u u u u u u u u s s s s u u u u u u u u g g g g u u u u u u u u u u u u u u u u g g g g u u u u u u u u u u u u u u u u u u s s g h g d d u u u u u u u u u u u u u u u u u u u u u u u u u u u u u u u u u s g g g g g h h h h h h h h h h h h h h h h h h h h h h h h g h h g s s s s s d g l h h h h h h h h h h h h g g g g g g g g h h h h h h h h h h h h h h h h h h h h h h h h h h h h h h 5 2 3 3 % # # # $ $ ",
"@ 3 r < u u u u u u u u u u u u u u u u u d g g s s s s u u u u u u u u u u u u u u u u u u u u u u u u u u u u d g h z g s u s u u u u u u u u u u u u u u u u u u u u s s d g h h z h h h h h h h h h r 2 , @ @ & G 0 < < 0 s u u u u s s s s s s s s s s s s u u u u s d h z h h g g h g g g h h h h h h h h h h h h h h h h h h h h h h h h u u u u u u u u u u u u u u u u u u u u u u u u s s s s u s s d g h h h g g d s u u u u u u u u u u u u s d g h g g g g g g g g h d u y u s d h z z h g h h h h h h h h h h h h h h h h h h h h h h h h h h h h h h h h h h h h h h h h h g d s u u u s g g g g h g h 4 2 3 4 = + ; 3 3 5 3 y h h h h h h h h h h h h h h h h h h h h h g h h s u u u u u u u u u u u u u u u u u u u u u u u u u u u u u u u u u u u u u u u u u u u u u u u u u u u u u u u u u u u u u u u u u u u u s s s s s u u u s s d g g g g g g u y u s s s u u u u u s y y s h h h h h h h h g g d u u u u u u u u u u u u s h h g g u u u u u u u u u u u u u u u u u u u u u u u u u u u u y y y y y d z z h h h h h h h h h h h h h h h h h h h h h h h h h h h h h h h h h h h h h h h h h h h h h h h h h h h h h h h h h h h h h h h h h h h h h h h h h h h h h h h h h h h h h h h h g h 5 2 3 3 % # $ $ $ $ ",
"@ 3 r < u u u u u u u u u u u u u u u u s g h h s s s s u u u u u u u u u u u u u u u u u u u u u u u u u u u u g g g g g s u s u u u u u u u u u u u u u u u u u u u u u u s s d d d g h h h h h h h h r 2 , @ @ % C 0 , < 0 s u u u u s s s s s s s s s s s s u u u u s s g h h h h h h g g g h h h h h h h h h h h h h h h h h h h h h h h h g d d d u u u u u u u u u u u u u u u u u u u u u u u u u u u u s d g g d s s u u u u u u u u u u u u u s g g g g g g g g g g g h g s u u s d g h h h h h h h h h h h h h h h h h h h h h h h h h h h h h h h h h h h h h h h h h h g g g d s u u u s d g g g g h g g 4 2 2 4 = o = 2 2 < 2 0 d h h h h h h h h h h h h h h h h h h h h g h h s u u u u u u u u u u u u u u u u u u u u u u u u u u u u u u u u u u u u u u u u u u u u u u u u u u u u u u u u u u u u u u u u u u u u s s s s u s s s d g g h g g g g g s u u s s s s d d d d g d d g h h h h h h h h g g d u u u u u u u u u u u u u g g d d u u u u u u u u u u u u u u u u u u u u u u u u u u u u y u s d d g g d d d d d g g g g g h h h h h h h h h h h h h h h h h h h h h h h h h h h h h h h h h h h h h h h h h h h h h h h h h h h h h h h h h h h h h h h h h h h h h h h h h h h h h h h g h 5 2 3 3 % # $ $ $ $ ",
"# 3 r < u u u u u u u u u u u u u u u u y s d s s s s s u u u u u u u u u u u u u u u u u u u u u u u u u u u u g g g g g s u s u u u u u u u u u u u u u u u u u u u u u u y y u y s g h h h h h h h h r 2 , @ $ $ m q , < 0 s u u u u s s s s s s s s s s s s u u u u u s s s d g h h h h h h h h h h h h h h h h h h h h h h h h h h h h h h h h g g d u u u u u u u u u u u u u u u u u u u d d d d s s u u u u s d s s u u u u u u u u u u u u u s d g h g g g g g g g g g h h d u u s s d g g h h h h h h h h h h h h h h h h h h h h h h h h h h h h h h h h h h h h h h h g g d s s s s u u s g g g g g g h s 5 2 2 4 = o = 2 2 < 2 3 r h h h h h h h h h h h h h h h h h h h h g z h s u u u u u u u u u u u u u u u u u u u u u u u u u u u u u u u u u u u u u u u u u u u u u u u u u u u u u u u u u u u u u u u u u u u u s s s s u s d g g h h h h h g g g g s u s s s s h h h h g h h g h h h h g g h g h h g s u u u u u u u u u u u u d s s u u u u u u u u u u u u u u u u u u u u u u u u u u u u u s d g h h h g u s s s s s s d s d g g h h h h h h h h h h h h h h h h h h h h h h h h h h h h h h h h h h h h h h h h h h h h h h h h h h h h h h h h h h h h h h h h h h h h h h h h h h h h h g h 7 < 3 3 % # $ $ $ $ ",
"# 3 r < u u u u u u u u u u u u u u u u r u s s s s s s u u u u u u u u u u u u u u u u u u u u u u u u u u u u d g h z g s u s u u u u u u u u u u u u u u u u u u u u s s u u s y s h h h h h h h h h r 2 , @ % # m e , < 0 s u u u u s s s s s s s s s s s s u u u u u u u y u s d g h g h g h h h h h h h h h h h h h h h h h h h h h h h h g h h g g d u u u u u u u u u u u u u u u u u u g g g g h g s s u y y u s s s s u u u u u u u u u u u g g g g g g g g g g g g g h h d s u u u s d g g h h h h h h h h h h h h h h h h h h h h h h h h h h h h h h h h h h h h h h g d s y u s s u s d g g g g g g h s 5 2 2 4 = o = 2 2 2 3 , 7 h h h h h h h h h h h h h h h h h h h h g z h s u u u u u u u u u u u u u u u u u u u u u u u u u u u u u u u u u u u u u u u u u u u u u u u u u u u u u u u u u u u u u u u u u u u u s s s s u s g h h h h h h h g g g h g u s s s s g g g g g h h g h h h h g g g g h j g d u u u u u u u u u u u s s u u y u u u u u u u u u u u u u u u u u u u u u u u u u u u u g g g g g h g s s s s s u u u u s d d g g g h h h h h h h h h h h h h h h h h h h h h h h h h h h h h h h h h h h h h h h h h h h h h h h h h h h h h h h h h h h h h h h h h h h h h h h h h h g h 7 < 3 3 % # $ $ $ $ ",
"$ < u < u u u u u u u u u u u u u u u u u u u u u u u u u u u u u u u u u u u u u u u u u u u u u u u u u u u u u s d g d s s u u u u u u u u u u u u u u u u u u u u u u u u u u s h g h h g g g h h h q 2 , # $ @ x s ; , 7 d s u u u s s s s s s s s s s s s u u u u u u u u u u s s s g h h h h h h h h h h h h h h h h h h h g g d g g g g g h g s u u u u u u u u u u u u u u u u u u u u g h h g h h h h g g g g g g h h d s d s d d s s y u d g g g g g g g g g h g g g d s s u u u u u s d g h h h h h h h h h h h h h h h h h h h h h h h h h h h h h h h h h h h h h h g s u s s s s s d g g g g g g g h s 3 2 2 4 = @ $ 2 3 3 3 3 3 0 f l d f g g g g g g g g h h h l h h h h h h h s s s s s s s s s s s s s s s s s s s u u u u u u u s u u u u u u u u u u u u u u u u y y y y y u u u u u u u u u u u u u u u u u u u u u u u u g h z z h h h h h h h h g g g d s s s s s s g g g g h g g g g g g g g g g g g g d u u u u u u u u u u u u u u u u u u u u u u u u u u u u u u u u u u u u u u u u s d h g g g g z h g d u u u u u u s s s s s s s s g h h h h h h h h h h h h h h h h h h h h h h h h h h h h h h h h h h h h h h h h h h h h h h h h h h h h h h h h h h h h h h h h h h h h h h h h h g h 7 < 2 2 % $ # # $ $ ",
"$ < u , u u u u u u u u u u u u u u u u u u u u u u u u u u u u u u u u u u u u u u u u u u u u u u u u u u u u u u u s s s u u u u u u u u u u u u u u u u u u u u u u u u u u y u g d h h g g g h h h w 2 < # & @ m h , 2 0 h s s u u s s s s s s s s s s s s u u u u u u u u s s u u s g h g h h h h h h h h h h h h h h h h g g g g g h h h g g d u u u u u u u u u u u u u u u u u u u u u d h h g h h h h h h h h h h h h g g h h h g g g y s g z g g g g g g g g g h g s s u u u u u u u u s d g h h h h h h h h h h h h h h h h h h h h h h h h h h h h h h h h h h h h h d s y s s s s d g g g g g g g g h u 3 2 2 4 = # $ , 3 3 3 3 3 2 0 s f x z h h l z z l h h h h h g s u u u u u q q q q q q q q 0 0 0 0 e e r r r r r r r r y y y y y y y y u u s s s s s s s s s s s s s s s s s s s s s s s u u u u u u u u u u u u u u u u u u s d g g g g g g g g g g g g g d u u u s s s s g g h h g g g g g g g g g g g g g d u u u u u u u u u u u u u u u u u u u u u u u u u u u u u u u u u u u u u u u s g z g g g g z h d s u u u u u u u u u u u u s d g h h h h h h h h h h h h h h h h h h h h h h h h h h h h h h h h h h h h h h h h h h h h h h h h h h h h h h h h h h h h h h h h h h h h h h h h h g h 7 < 2 2 % $ # # # $ ",
"$ < u < u u u u u u u u u u u u u u u u u u u u u u u u u u u u u u u u u u u u u u u u u u u u u u u u u u u u u u u u s u u u u u u u u u u u u u u u u u u u u u u u u u u u s s h h g g d d h h h h q 2 < # % + v z < 3 q z d s u u s s s s s s s s s s s s u u u s u u u u s s u u s g h g h h h h h h h h h h h h h h h h h g s s d g h z h d u u u u u u u u u u u u u u u u u u u u u u s g h g h h h h h h h h h h h h h h h h h h g g s d h z g g g g g g g g z f s s u s s s s s u u u s d g h h h h h h h h h h h h h h h h h h h h h h h h h h h h h h h h h h h h g d u y s s s s g g g g g g g g g z y 4 2 2 4 = $ $ * 2 3 3 3 3 2 3 3 7 0 q e r u u u u r e 0 8 8 5 3 2 2 2 2 2 2 2 < < < < < < < < < < < < < < < < 2 2 2 2 2 2 2 2 3 3 3 3 3 3 5 5 5 5 5 5 5 5 7 7 7 7 q q q q e e e e e e e e y y y y y y y u u u u u s s s s u u s d h h h h h h h h h h h h d s u y u u s s g g g h g g g g g g g g g g g g g g d u u u u u u u u u u u u u u u u u u u u u u u u u u u u u u u u u u u u u s g h z g g g g h g s s u u u u u u s s s s s s g g g g h h h h h h h h h h h h h h h h h h h h h h h h h h h h h h h h h h h h h h h h h h h h h h h h h h h h h h h h h h h h h h h h h h h h h h h h g h 7 2 2 2 % $ $ $ $ $ ",
"# < u < u u u u u u u u u u u u u u u u u u u u u u u u u u u u u u u u u u u u u u u u u u u u u u u u u u u u u u u u u u u u u u u u u u u u u u u u u u u u u u u u u u u u s u d g s s u u h h h h q 2 < # #   z z , 2 0 h h s s u s s s s s s s s s s s s u u u s u u u u u u s s s g h g h h h h h h h h h h h h h h h h s u u u u s g g g s u u u u u u u u u u u u u u u u u u u u u u u d g g h h h h h h h h h h h h g g g g h h g g h h h g g g g g g g g g h g s y s d f g g d s s s d g h h h h h h h h h h h h h h h h h h h h h h h h h h h h h h h h h h h h h g s u u s s s s g g g g g g g g g x r 4 2 2 3 = $ $ $ 2 3 3 3 3 4 4 2 3 2 < < < < 2 2 1 < < 2 3 3 3 3 3 3 3 2 2 2 2 2 < < < < < < < < < 2 2 2 2 2 2 2 < < < < < < < 2 < < < < < < < < < < < < < , , , , , , , , < < < < < < , < 2 2 2 2 2 2 2 2 3 3 3 3 7 7 7 7 5 7 8 9 q q q q y y y y u s s s d d s y y u u u d g g h g g g g g g g g g g g g g g g d u u u u u u u u u u u u u u u u u u u u u u u u u u u u u u u u u u u u d h h z g g g g g d s u u u u u u u u u g g g g h h g g h h h h h h h h h h h h h h h h h h h h h h h h h h h h h h h h h h h h h h h h h h h h h h h h h h h h h h h h h h h h h h h h h h h h h h h h g h 7 2 2 2 % $ $ $ $ $ ",
"# - u < w u u u u u u u u u u u u u u u u u u u u u u u u u u u u u u u s s s s u u s s s s u u u u u u u u u u u u u u u u u u u u u u u u u u u u u u u u u u u u u u u u u u u u u u u u u u g g g g 8 3 < $ $ X d m : 2 8 z d s s s s s s s s s s s s s s s u y y s u u u u u d h g h g h g h h h h h h h h h h h h h h h h u y y s s s s s u u u u u u u u u u u u u u u u u u u u u u u u s g g h h h h h h h h h h h h h h h h h h h h h h h h h h h h h h h h h g g g g g g g g g g g g h h h h h h h h h h h h h h h h h h h h h h h h h h h h h h h h h h h h h h h h g g s u u s d g g g g g g g g g g x q 2 2 < 3 = $ $ @ ; 2 3 3 3 3 2 2 2 2 2 2 2 2 2 2 2 2 2 2 2 2 2 3 3 3 2 2 2 2 2 2 2 < < 2 2 2 2 2 3 3 2 < , , , , , 2 2 2 2 2 2 2 2 < < < < 2 2 2 2 2 2 2 2 2 2 2 2 2 2 2 2 2 2 2 2 < < < < < < < < < < < < < < < , , , , , : , , : : , , , , , , , 2 3 3 3 3 5 5 4 5 5 5 5 q q e r u s g g g g g g g g g g g g g g s u u u u u u u u u u u u u u u u u u u u u u u u u u u u u u u u u y s h h h h g h h g s y y u u s d g g g h h h h h h h h h h h h h h h h h h h h h h h h h h h h h h h h h h h h h h h h h h h h h h h h h h h h h h h h h h h h h h h h h h h h h h h h h h h h h h h h h h h z 8 2 2 2 * # $ $ $ $ ",
"# - u < w u u u u u u u u u u u u u u u u u u u u u u u u u u u u u u u u u u u s d g g d s s s u u u u u u u u u u u u u u u u u u u u u u u u u u u u u u u u u u u u u u u u u u u u u u u u g g g g 8 3 < $ % X s C , 3 8 h s s s s s s s s d d d d d d d d s u u s u u u u u d h g h g h g h h h h h h h h h h h h h h h h s u y s s s s s u u u u u u u u u u u u u u u u u u u u u u u u d g g h h h h h h h h h h h h h h h h h h h h h h h h h h h h h h h h h g g g g g g g g g g g g h h h h h h h h h h h h h h h h h h h h h h h h h h h h h h h h h h h h h h h h h g g s s d g h h g g g g g g g g z 8 2 2 < 2 = $ $ @ ; 2 3 3 3 3 2 2 2 2 2 2 2 2 2 2 2 2 2 2 2 2 2 3 3 3 3 2 2 2 2 2 2 2 2 2 2 2 < < < 3 3 3 2 2 2 2 2 2 2 2 2 2 2 2 2 2 2 2 2 < < < < < < < , , , , , , , , , < < < , , , , , < < < < 3 3 3 3 3 3 4 4 5 5 5 5 7 8 8 8 9 0 w e r r r r u s s s s d d d d g g g g g g g g g g g g g g g g g g g g g g g s u u u u u u u u u u u u u u u u u u u u u u u u u u u u u u u u u s d h h h h g g s s s u u s d g g h h h h h h h h h h h h h h h h h h h h h h h h h h h h h h h h h h h h h h h h h h h h h h h h h h h h h h h h h h h h h h h h h h h h h h h h h h h h h h h h h h h h h h h 7 2 2 2 * # $ $ $ $ ",
"# - u 1 w u u u u u u u u u u u u u u u u u u u u u u u u u u u u u u u y u s d g g h h g g d s s u u u u u u u u u u u u u u u u u u u u u u u u u u u u u u u u u u u u u u u u u u u u u u u g g g g 8 3 < $ % o y G < 3 5 d s s s s s s s s g g g g g g g g g s u s u u u u u d h g h h h h h h h h h h h h h h h h h h h h g s u u s s s s u u u u u u u u u u u u d d d d d d d d g g g g g g h h h h h h h h h h h h h h h h h h h h h h h h h h h h h h h h h h g g g g g g g g g g g g h h h h h h h h h h h h h h h h h h h h h h h h h h h h h h h h h h h h h h h h h h g g g g h h g g h g g h h h g g 7 2 2 2 2 = $ $ @ ; 2 3 3 3 3 2 2 2 2 2 2 2 2 2 2 2 2 2 2 2 2 2 3 3 3 3 3 3 3 3 3 3 3 3 3 2 2 2 2 2 2 2 3 3 < < < < , , , , < < < < < < 2 2 2 2 2 2 3 3 3 3 5 5 5 5 8 8 8 8 8 8 8 8 q q q q e e e e y y y y y y u u s s s u u s s s s g z x h h h h g g g g g h h h h h z z g g g g g g g g g g g g g g g g g g g g s u u u u u u u u u u u u u u u u u u u u u u u u u u u u u u u y s g h h h h h g s u s s u s g g h h h h h h h h h h h h h h h h h h h h h h h h h h h h h h h h h h h h h h h h h h h h h h h h h h h h h h h h h h h h h h h h h h h h h h h h h h h h h h h h h h h h h h h h g 4 2 2 2 * # $ $ $ $ ",
"# - u 1 w u u u u u u u u u u u u u u u u u u u u u u u u u u u u u u u s s g h z z z z h h g g d s u u u u u u u u u u u u u u u u u u u u u u u u u u u u u u u u u u u u u u u u u u u u u u g g h g 8 3 < $ & o r P < 3 5 s s s s s s s s s h h h h h h h h z d u u u u u u u d h g h h h h h h h h h h h h h h h h h h h h g s u u s s s s u u u u u u u u u u u u h h h h h h h h h h h h g g h h h h h h h h h h h h h h h h h h h h h h h h h h h h h h h h h h g g g g g g g g g g g g h h h h h h h h h h h h h h h h h h h h h h h h h h h h h h h h h h h h h h h h h h h g h g g g g g h h h h h h g d 4 2 2 2 2 = # $ @ ; 2 3 3 3 3 2 2 2 2 2 2 2 2 2 2 2 2 2 2 2 2 2 3 3 3 3 3 3 3 3 4 4 3 3 4 4 4 4 5 5 5 7 9 0 q q q q q q q q e e e e r r y y y y y y u u u u s s s s s s s s s s s s s s s s s s s s s s s s s s u u u u u u y u u u y s g z h h h h g g g g d g h g g h h h z h h g h h h h g g g g g g g g g g g g s u u u u u u u u u u u u u u u u u u u u u u u u u u u u u u u u d h z h h h h s u u s u u d z h h h h h h h h h h h h h h h h h h h h h h h h h h h h h h h h h h h h h h h h h h h h h h h h h h h h h h h h h h h h h h h h h h h h h h h h h h h h h h h h h h h h h h h h h s 3 2 2 2 * # $ $ $ $ ",
"# - u < w u u u u u u u u u u u u u u u u u u u u u u u u u u u u u u u s d g h h h h h h h h h g g d s u u u u u u u u u u u u u u u u y s d d d s u s u u u u u u u u u u u u u u u u u u u u s g h g 4 3 : $ % + 0 R < 2 4 u s s s s s s s g h h h h h h h h h d s u u u u u d g h h h h h h h h h h h h h h h h h h h h h h h g d s u u u u u u u u u u u u u u d z h h h h g g h h h h h h h h h h h h h h h h h h h h h h h h h h h h h h h h h h h h h h h h h h h h h h h h h h h h h h h h h h h h h h h h h h h h h h h h h h h h h h h h h h h h h h h h h h h h h h h h h h d u u s d g h h h h h h g g 2 3 3 2 2 % @ $ @ = 3 3 3 3 < 2 3 3 3 2 , : 2 3 4 4 q e r y y y r r r y s s d d d d z g s u s s s s s s d d z z h h u u u u u u u u s s u u u u u u u u u u u u s s u y y y u u u u u u u i i i u u u u u u u u i i u u u u u u u s d g g g h h h h g g g g g g g g h h h h g g g g h h h h h h h h h h h h h h h h s u s s y u s s g g g g u u u u u u u u u u u u s s u u s s d g h h g d g d s u u u u u u d g h h h h h h h h h h h h h h h h h h h h h h h h h h h h g h h h h h h h h h h h h h h h h h h h h h h h h h h h h h h h h h h h h h h h h h h h h h h h h h h h h h h h h h g g d g 9 2 , < 2 = # $ $ $ $ ",
"# = i < w u u u u u u u u u u u u u u u u u u u u u u u u u u u u u u u d g h h h h h h h h h h h g g g s s s s s s u u u u u u u u u u s g h g h d u u u u u u u u u u u u u u u u u u u u u u s g h g 4 3 : $ % o 7 ! 2 2 3 y s s s s s s s g h h h h h h h h g s u y u u u s g h h h h h h h h h h h h h h h h h h h h h h h h h g d u u u u u u u u u u u u u u d z h h h h g g h h h h h h h h h h h h h h h h h h h h h h h h h h h h h h h h h h h h h h h h h h h h h h h h h h h h h h h h h h h h h h h h h h h h h h h h h h h h h h h h h h h h h h h h h h h h h h h h h h s u u u s g h z h h h h g s 2 3 3 2 2 % @ $ @ = 3 3 3 3 3 3 3 4 < 2 4 5 e u g z h h z z g g d s u u s s s s s s g d s u u u u u u u s s d d g g u u u u u u u u s s u u u u u u u u u u u u s u u u s s u u u u u u u u u u u u u u u u u u u u u u u u u s d g g g g g h h h h g g g g g g g g h h h h g g g g h h h h h h h h h h h h h h h h s u u u s s d d g g g g s u u u u u u u u u u u u u u s g g g h g g h h d d s u u u u u d g h g h h h h h h h h h h h h h h h h h h h h h h h h h h h g h h h h h h h h h h h h h h h h h h h h h h h h h h h h h h h h h h h h h h h h h h h h h h h h h h h h h h h h g h z s 9 < < 2 < 2 = # $ $ $ $ ",
"# = i < w u u u u u u u u u u u u u u u u u u u u u u u u u u u u u u u g h h h h h h h h h h h h h h g h h h h g d s s u u u u u u u u s g h h h d u u u u u u u u u u u u u u u u u u u u u u u d g d 4 3 : $ % o 4 ) 3 3 3 r s s s s s s g l h h h h h h h h g s u y u u s g h h h h h h h h h h h h h h h h h h h h h h h h h h h g u u u u u u u u u u u u u u d z h h h h g h h h h h h h h h h h h h h h h h h h h h h h h h h h h h h h h h h h h h h h h h h h h h h h h h h h h h h h h h h h h h h h h h h h h h h h h h h h h h h h h h h h h h h h h h h h h h h h h h h h s u y u u g h h h h h h h r 2 2 3 2 2 % @ $ @ = 3 3 3 2 5 2 2 4 q e y u g g g h h h g g d d s u u u u u u u u s s s s u u u u u u u u u y u s s u u u u u u u u s s u u u u u u u u u u u u s s s s g g s s s s s s s s d s s s s s s s s s s s s s s s d g g g g g g g h h h h g g g g g g g g h h h h g g g g h h h h h h h h h h h h h h h h g s s s d g g g g g g g g u u u u u u u u u u u u s d g h h h h h g d s s s s u u u u u g h g g h h h h h h h h h h h h h h h h h h h h h h h h h h h g h h h h h h h h h h h h h h h h h h h h h h h h h h h h h h h h h h h h h h h h h h h h h h h h h h h h h h h h g h u 9 2 < < < < 2 = # $ $ $ $ ",
"# = i < w i u u u u u u u u u u u u u u u u u u u u u u u u u u u u u u h h h h h h h h h h h h h h h h h h h h h g g d u u u u u u u u s d h g d s u s u u u u u u u u u u u u u u u u u u u u y s d s 4 3 , $ $ o < ) 4 2 2 q s s s s s d h l h h h h h h h h h d s u u s g g h h h h h h h h h h h h h h h h h h h h h h h h h h h h s u u u u u u u u u u u u u d z h h h h g h h h h h h h h h h h h h h h h h h h h h h h h h h h h h h h h h h h h h h h h h h h h h h h h h h h h h h h h h h h h h h h h h h h h h h h h h h h h h h h h h h h h h h h h h h h h h h h h h h h s y y u y d h h h h h h h q < 2 3 3 2 % @ $ @ ; 3 3 3 2 2 2 q g h g s u g g h z z h g g u u y y y u s s s u u u u s s s s s s s u u u u u y y t u u u u u u u u s s u u u u u u u u u u u u s s s d h z h h h h h h h h h h h h h h h h h h h h h h h h h g g g g g g g h h h h g g g g g g g g h h h h g g g g h h h h h h h h h h h h h h h h h h g g g g h z g g g g g s u u u u u u u u u u d g h z h h g d s s u u u u u u u u u u h g g g h h h h h h h h h h h h h h h h h h h h h h h h h h h g h h h h h h h h h h h h h h h h h h h h h h h h h h h h h h h h h h h h h h h h h h h h h h h h h h h h h h h h h y 5 < , 2 < 2 < 2 = # $ $ $ $ ",
"# % i < 7 i u u u u u u u u u u u u u u u u u u u u u u u u u u u u u s h h h h h h h h h h h h h h h h h h h h g g g g s i u u u u u u u u u u u u u u u u u u u u u u u u u u u u u u u u u u y y d y 2 4 : % % @ < ] 4 , 2 q s s s s d g h h h h h h h h h h h h h h h h h h h h h h h h h h h h h h h h h h h h h h h h h h h h h h h d u y s s s s u u u u u s d g h h h h h h h h h h h h h h h h h h h h h h h h h h h h h h h h h h h h h h h h h h h h h h h h h h h h d u u u s g h h h h h h h h h h h h h h h h h h h h h h h h h h h h h h h h h h h h h h h h h h h h h h d u u u u d h h h h h h h 9 < 3 3 3 < % # $ @ ; 3 3 3 3 3 5 d h s s s s h h g h h h h h s d s s u s u u u u u u u u u u u u u u u u u u u u u u u u u u u u u u u u u u u u u u u s s u d g g h g g g g h h h h h h h h h h h h h h h h h h h h h h h h h h h h h h h h h h h h h h h h h h h h h h h h h h h h h h h h h h h h h h h h h h h h h h h h h h h h h h h h h s y y u u u u s d g g g g g d s s u u u u u u y y u u s s d g h h h h h h h h h h h h h h h h h h h h h h h h h h h h h h h h s s s s d d d d h h h h h h h h h h h h h h h h h h h h h h h h h h h h h h h h h h h h h h g g g g g d g u y y y 5 < 2 < < < 2 < 2 : $ # $ $ $ ",
"# % i < 7 i u u u u u u u u u u u u u u u u u u u u u u u u u u u u u s h h h h h h h h h h h h h h h h h h h h g g g g d s u u u u u u u u u u u u u u u u u u u u u u u u u u u u u u u u u u u u s r < 3 : $ % @ : ! 4 , 2 q s s s s g h h h h h h h h h h h h h h h h h h h h h h h h h h h h h h h h h h h h h h h h h h h h h h h h g s u s s s s s s s s y u s g h h h h h h h h h h h h h h h h h h h h h h h h h h h h h h h h h h h h h h h h h h h h h h h h h h h h s y y y s d g h h h h h h h h h h h h h h h h h h h h h h h h h h h h h h h h h h h h h h h h h h h h h d s u u s g h h h h h h g 7 2 3 2 3 , $ $ $ @ ; 3 3 3 3 3 r z g s s s s g g h g h h h h g g h g g d s y u u u u u u u u u u u u u u u u u u u u u u u u u u u u u u u u u u u u u s s s g g h z g g g g h h h h h h h h h h h h h h h h h h h h h h h h h h h h h h h h h h h h h h h h h h h h h h h h h h h h h h h h h h h h h h h h h h h h h h h h h h h h h h h h h g d g d d d d h h h h g d s u u u u u u u u u u u s s d g g h h h h h h h h h h h h h h h h h h h h h h h h h h h h h h h h h u u u u s s s s h h h h h h h h h h h h h h h h h h h h h h h h h h h h h h h h h h h h l h g g g d s s y s s t 5 2 2 , < < < < < 2 : $ $ $ $ $ ",
"$ % u < 8 i u u u u u u u u u u u u u u u u u u u u u u u u u u u u u s h h h h h h h h h h h h h h h h h h h h g g g g g s u u u u u u u u u u u u u u u u u u u u u u u u u u u u u u u u u u s u s e , 2 ; @ $ @ * P 4 , 2 q s s s d h h h h h h h h h h h h h h h h h h h h h h h h h h h h h h h h h h h h h h h h h h h h h h h h h h g s s s a s u u u u u s d g h h h h h h h h h h h h h h h h h h h h h h h h h h h h h h h h h h h h h h h h h h h h h h h h h h h h d s u s s u d g h h h h h h h h h h h h h h h h h h h h h h h h h h h h h h h h h h h h h h h h h h h h g d u u d h h g h h h h d 3 2 3 2 2 , @ $ $ @ ; 3 3 3 3 5 g z d s s s s s g h g h h h h g h h h h h h s u u u u u u u u u u u u u u u u u u u u u u u u u u u u u u u u u u u u s s g g h h h h g g g g h h h h h h h h h h h h h h h h h h h h h h h h h h h h h h h h h h h h h h h h h h h h h h h h h h h h h h h h h h h h h h h h h h h h h h h h h h h h h h h h h g h z h h h h z h g d s u u u u u u u u u u u s d d g g h h h h h h h h h h h h h h h h h h h h h h h h h h h h h h h h h h h y y y y u u u u d g g g h h h h h h h h h h h h h h h h h h h h h h h h h h h h h h h h g g d d s s u u d d u 4 < 2 2 < < < < < < 2 : $ # # $ $ ",
"$ # u < 7 i u u u u u u u u u u u u u u u u u u u u u u u u u u u u u s h h h h h h h h h h h h h h h h h h h h g g g g g d s u u u u u u u u u u u u u u u u u u u u u u u u u u u u u u u u u d u s q : < = @ $ # $ C 4 , 2 q s s s g h h h h h h h h h h h h h h h h h h h h h h h h h h h h h h h h h h h h h h h h h h h h h h h h h h g g s s s s d d d d s d g z h h h h h h h h h h h h h h h h h h h h h h h h h h h h h h h h h h h h h h h h h h h h h h h h h h h h s u y u u u s s d g h h h h h h h h h h h h h h h h h h h h h h h h h h h h h h h h h h h h h h h h h h g g s s g h h g h h h h s 2 3 3 < 2 : @ $ $ @ ; 3 2 3 3 w h g g s s s s y g h g h h h h h h h g h z z g u u u u u u u u u u u u u u u u u u u u u u u u u u u u u u u u u u u u u s g z h h h h g g g g h h h h h h h h h h h h h h h h h h h h h h h h h h h h h h h h h h h h h h h h h h h h h h h h h h h h h h h h h h h h h h h h h h h h h h h h h h h h h h h h h g g g h h h h h g s u y u u u u u u u u u u u d g g h h h h h h h h h h h h h h h h h h h h h h h h h h h h h h h h h h h h h u u u u s s s s u g g g h h h h h h h h h h h h h h h h h h h h h h h h h h h h h h h h s s s u u u u u s y r 2 2 , < 3 < < < < < 2 : $ # $ $ $ ",
"$ # u 2 7 i u u u u u u u u u u u u u u u u u u u u u u u u u u u u u u d g h h h h h h h h h h h h h h g g g g g g g g h g s u u u u u u u u u u u u u u u u u u u u u u u u u u u u u u u u u u u s 7 < < * @ $ @ @ m 9 , 2 q s s s h h h h h h h h h h h h h h h h h h h h h h h h h h h h h h h h h h h h h h h h h h h h h h h h h h h h h g g g g h h h h h h h h h h h h h h h h h h h h h h h h h h h h h h h h h h h h h h h h h h h h h h h h g g g g g g g g g g d s u u u u u u u u s u d h h h h h h h h h h h h h h h h h h h h h h h h h h h h h h h h h h h h h h h h h h h g g g g g g h h h h r 2 3 2 2 2 * @ $ $ @ , 3 2 4 2 u x h z d s s s y s h g h h g g g h h h h h h z g s s s s i u u s s s s u u u u u u u u u u u u u u u u u u u u s s d g h h h h h h h h h h h h h h h h h h h h h h h h h h h h h h h h h h h h h h h h h h h h h h h h h h h h h h h h h h h h h h h h h h h h h h h h h h h h h h h h h h h h h h h h h h h h h h h h h h h h g d y s s s u y s s s s s d g g g g g g h h h h h h h h h h h h h h h h h h h h h h h h h h h h h h h h h h h h g u s u u u u u d g g g h h h h h h h h h h h h h h h h h h h h h h h h h h h h g g d d u u u u u u u u u d u 5 , < < , < < < < < 2 , # $ $ $ $ ",
"$ # u 2 7 i u u u u u u u u u u u u u u u u u u u u u u u u u u u u u u s d g h g g g g g g g g g g g g g g g g g g g g h h g g u u u u u u u u u u u u u u u u u u u u u u u u u u u u u u u u u u s 7 < < * # $ @ @ m 0 , < 0 s s s h h h h h h h h h h h h h h h h h h h h h h h h h h h h h h h h h h h h h h h h h h h h h h h h h h h h h h h h h h h h h h h h h h h h h h h h h h h h h h h h h h h h h h h h h h h h h h h h h h h h h h h h h h g d s d g h z h d s u u u u u u u u u s s g h h h h h h h h h h h h h h h h h h h h h h h h h h h h h h h h h h h h h h h h h h h h h g g g g h h h h 0 2 3 2 2 2 * @ # $ # , 3 2 3 4 d z h h g s s s u d g h h h g h g g g h h h h h g d s u y u i s u u u u u u u u u u u u u u u u u u u u u u u u d d g g h h h h h h h h h h h h h h h h h h h h h h h h h h h h h h h h h h h h h h h h h h h h h h h h h h h h h h h h h h h h h h h h h h h h h h h h h h h h h h h h h h h h h h h h h h h h h h h h h h h h g g u s u s s d g g g g g g g g g g g g h h h h h h h h h h h h h h h h h h h h h h h h h h h h h h h h h h h h g u s u u u u u d g g h h h h h h h h h h h h h h h h h h h h h h h h h h g d s u u u u u u u u u u u u u s u q , < < 2 2 < < < < 2 , # $ $ $ $ ",
"$ @ u 2 7 i u u u u u u u u u u u u u u u u u u u u u u u u u u u u u u u s d g h h h h h h h h h h h h g g g g g g g g h h h g u u u u u u u u u u u u u u u u u u u u u u u u u u u u u u u u u u s 7 < < * $ $ @ @ m w < < 8 s s s h h h h h h h h h h h h h h h h h h h h h h h h h h h h h h h h h h h h h h h h h h h h h h h h h h h h h h h h h h h h h h h h h h h h h h h h h h h h h h h h h h h h h h h h h h h h h h h h h h h h h h h h h h g d s d g h z h s u u u u u u u u u u s d h h h h h h h h h h h h h h h h h h h h h h h h h h h h h h h h h h h h h h h h h h h h h h g g g g h h h h 7 2 4 < 2 2 * @ $ $ $ , 2 2 < 8 h h h g h d s s s s d h h g h g h g g g h h h h h h h d d d s i s s s s u u u u u u u u u u u u u u u u u u u u s s d g g g g g g g h h h h h h h h h h h h h h h h h h h h h h h h h h h h h h h h h h h h h h h h h h h h h h h h h h h h h h h h h h h h h h h h h h h h h h h h h h h h h h h h h h h h h h h h h h h h h h g h s s u s g h l h h h h h g g g g g g h h h h h h h h h h h h h h h h h h h h h h h h h h h h h h h h h h h h g u s u u u u u g g g h h h h h h h h h h h h h h h h h h h h h h h h h g d s u y y y y u u u u u u u u u u u y 7 2 < 2 < < < < < 2 , # $ $ $ $ ",
"# @ y 2 7 i u u u u u u u u u u u u u u u u u u u u u u u u u u u u u u u u s d s s s s s s s s s s s s g g g g g g g g h h g s u u u u u u u u u u u u u u u u u u u u u u u u u u u u u u u u u u s 7 < < * $ $ # @ m e < < 7 s s s h h h h h h h h h h h h h h h h h h h h h h h h h h h h h h h h h h h h h h h h h h h h h h h h h h h h h h h h h h h h h h h h h h h h h h h h h h h h h h h h h h h h h h h h h h h h h h h h h h h h h h h h h g g g g g g g g g u u s u u u u u u u u s g z h h h h h h h h h h h h h h h h h h h h h h h h h h h h h h h h h h h h h h h h h h h h h g g g g h g h h 4 2 4 , 2 < * @ $ $ $ < 2 < , 0 h d h g h g s s y u s s s s g g g g h g g g h h g g h g g g g g d d d d u u u u u u u u u u u u u u u u u u u u u u i s g g g g h h h h h h h h h h h h h h h h h h h h h h h h h h h h h h h h h h h h h h h h h h h h h h h h h h h h h h h h h h h h h h h h h h h h h h h h h h h h h h h h h h h h h h h h h h h h h h h h g z d s d g g h g g g g h h h h g g g g h h h h h h h h h h h h h h h h h h h h h h h h h h h h h h h h h h h h g u s u u u u u g g h h h h h h h h h h h h h h h h h h h h h h h h h h s s s s u u u u u u u u u u u u s y u s s 4 < , < < < < < 2 , # $ $ $ $ ",
"& @ t 4 5 s u u s s u u u u u u u u u u u u u u u u u u u u u u u u u u u u u u s s s s s s s s s s s s s s g g g g g g d s s s u u u u u u u u u u u u u u u u u u u u u u u u u u u u u u u u s s u 2 < < & $ # $ + z u : < 7 s u s h h h h h h h h h h h h h h h h h h h h h h h h h h h h h h h h h h h h h h h h h h h h h h h h h h h h h h h h h h h h h h h h h h h h h h h h h h h h h h h h h h h h h h h h h h h h h h h h h h h h h h h h h g g g g h h h h g s u y u u u u u u u u u g h g g g g g h h h h h h h h h h h h h h h h h h h h h h h h h h h h h h h h h h h h h h h h h h h h h g h y 2 2 2 2 2 < $ @ $ $ * < 2 < , y z h h g h g s u u u u u u u s d g g h g g g g g g g g g g g g g h h h h g g g g d d d d d s u s u u u u u u s s d s s u u u u u u u u u u u u u d d d d g g g g d s s s s s s u g h h h h h h h h h h h h h h h h h h h h h h h h h h h h h h h h h h h h h h h h h h h h h h h h h h h h h h h h h h h h h h h h h h h h h h h h h h h g g g g g g h h h h h h h h h h h h h h h h h h h h h h h h h h h h h h h h h h h h h h h h h h h h h h g s u u u u u u s h g h h h h h h h h h h h h h h h h h h g g g g d s u s s s s s s s s u u u u u u u u s u u u u u 4 : < < < < < < < $ $ $ $ $ ",
"& + t 4 5 s u u d d g g d s u u u u u u u u u u u u u u u u u u u u u u u u u u u u u u u u u u u u u u s s s s s s s s s u u s u u u u u u u u u u u u u u u u u u u u u u u u u u u u u u u u u s y 2 < , % $ $ % o z s , < 5 u u s h h h h h h h h h h h h h h h h h h h h h h h h h h h h h h h h h h h h h h h h h h h h h h h h h h h h h h h h h h h h h h h h h h h h h h h h h h h h h h h h h h h h h h h h h h h h h h h h h h h h h h h h h g g g g h h h g d s u y u u u u u u y y u g h g g g g g h h h h h h h h h h h h h h h h h h h h h h h h h h h h h h h h h h h h h h h h h h h h g g h w 2 2 2 2 2 < $ @ $ # * < 2 < 2 u z h g g h g s u u u u u u u u s g g h g g g g g g g g g g g g g h h h h g g g g g g g g g s u u u u u u u u y y s s u y u u u u u u u u u u u u u u u u u u u u s s s s s u u u s g h h h h h h h h h h h h h h h h h h h h h h h h h h h h h h h h h h h h h h h h h h h h h h h h h h h h h h h h h h h h h h h h h h h h h h h h h h g g g g g g h h h h h h h h h h h h h h h h h h h h h h h h h h h h h h h h h h h h h h h h h h h h h h g s u u u u u u s h g h h h h h h h h h h h h h g g g g g g h g s u u s s s s s s s s s u u u u u u u u u u u u s u y 2 , < < < < < < $ $ $ $ $ ",
"& O r 5 5 s s u d g h z l g d s s s s s u u u u u u u u u u u u u u u u u u u u u u u u u u u u u u u u u u s s u u u u y u u u u u u u u u u u u u u u u u u u u u u u u u u u u u u u u u u u y u y < < , % $ % % o h d , , 4 u u s g h h h h h h h h h h h h h h h h h h h h h h h h h h h h h h h h h h h h h h h h h h h h h h h h h h h h h h h h h h h h h h h h h h h h h h h h h h h h h h h h h h h h h h h h h h h h h h h h h h h h h h h h g g g g h h h s u u s u u u u u d s s u u d h g g g g g h h h h h h h h h h h h h h h h h h h h h h h h h h h h h h h h h h h h h h h h h h h h g h h 8 2 2 2 2 2 , $ @ $ # * 2 2 2 3 d z h g g h g s u u u u u u u u u g g h g g g g g g g g g g g g g h h h h g g g g h h h h g s u s u u u u u u s s s s s u u u u u u u u u u u u u s s s s u u u u s s u u u u u u u s g h h h h h h h h h h h h h h h h h h h h h h h h h h h h h h h h h h h h h h h h h h h h h h h h h h h h h h h h h h h h h h h h h h h h h h h h h g g g g g g h h h h h h h h h h h h h h h h h h h h h h h h h h h h h h h h h h h h h h h h h h h h h h g s u u u u u u s h g h h h h h h h h h h h h h h h h h h d s s y y u s s s s s s s s s u u u u u u u u u u u u u u s 0 , < < < < < < $ $ # $ $ ",
"& O r 5 5 s s u u s g z z z h g h h h h s u u u u u u u u u u u u u u u u u u u u u u u u u u u u u u u u u u u u u u u y y y y u u u u u u u u u u u u u u u u u u u u u u u u u u u u u u u u y y r , 2 , % $ % & o g g , , 3 u y u g h h h h h h h h h h h h h h h h h h h h h h h h h h h h h h h h h h h h h h h h h h h h h h h h h h h h h h h h h h h h h h h h h h h h h h h h h h h h h h h h h h h h h h h h h h h h h h h h h h h h h h h h g g g g h h g s u s s s u u u u h g d s u d h g g g g g h h h h h h h h h h h h h h h h h h h h h h h h h h h h h h h h h h h h h h h h h h h h g h g 5 2 2 2 2 2 , $ @ $ # * 2 2 2 4 h z h g g h g s u u u u u u u u u g g h g g g g g g g g g g g g g h h h h g g g g g g g g s u s d u u u u y s g h h g d d u u u u u u u u u u u u u u u u y y y y u u u u u u u u u u s g h h h h h h h h h h h h h h h h h h h h h h h h h h h h h h h h h h h h h h h h h h h h h h h h h h h h h h h h h h h h h h h h h h h h h h h h g g g g g g h h h h h h h h h h h h h h h h h h h h h h h h h h h h h h h h h h h h h h h h h h h h h h g s u u u u u u s h g h h h h h h h h h h h h h d d d d u u u u s u y y s s s s s s s s u u u u u u u u u u u u u d y y 3 , < < < < < $ # # $ $ ",
"& O r 7 3 i s u u u d g l z z z h g g g h s u s u u u u u u u u u u u u u u u u u u u u u u u u u u u u u u u u u u u u u u u u u u u u u u u u u u u u u u u u u u u u u u u u u u u u u u u u y s 8 , 2 , $ $ % % o y h : 3 3 u d d g g g g g h h h h h h h h h h h h h h h h h h h h h h h h h h h h h h h h h h h h h h h h h h h h h h h h h h h h h h h h h h h h h h h h h h h h h h h h h h h h h h h h h h h h h h h h h h h h h h h h h h h h h h h h h g s u s s s u s u y y u u u u s g g g g g g g h h h h h h h h h h h h h h g g g g g g h h h h h h h h h h h h h h h h h h h h h h h h h z u 3 2 2 2 2 4 ; $ % $ $ * 2 2 , 5 h g g g g x g s u u u u u y u d g g g g g g g g g g g g g g g g g h h h h h h h h h h g s u u u u u u u u u g z g h h h h g d s u u u u u u u u u u u u u u u u u u u u u u u u u u u s d g h h h h h h h h h h h h h h h h h h h h h h h h h h h h h h h h h h h h h h h h h h h h h h h h h h h h h h h h h h h h h h h h h h h h h h h h h h h h h h h h h h h h h h h h h h h h h h h h h h h h h h h h h h h h h h h h h h h h h h h h h h h h g g s s s s s g g h z h g s s s s u u u u u u u u u u u u u u u u u u u u u u s s s s s s s s s s s s s s s s u u u u q , 4 < 2 < 2 * $ # # $ ",
"% o e 7 3 u s u u u u d f g l z h h g g g s u s u u u u u u u u u u u u u u u u u u u u u u u u u u u u u u u u u u u u u u u u u u u u u u u u u u u u u u u u u u u u u u u u u u u u u u u u y s 8 , 2 , $ # $ % o y z : 3 2 y s d g h h h h h h h h h h h h h h h h h h h h h h h h h h h h h h h h h h h h h h h h h h h h h h h h h h h h h h h h h h h h h h h h h h h h h h h h h h h h h h h h h h h h h h h h h h h h h h h h h h h h h h h h h h h h g s u s s s u u s s u u u u u u d g g g g g g g h h h h h h h h h h h h g h h z g g g g z z z z h h g g h h h h h h h h h h h h h h h h h z u 3 2 2 2 2 3 = # $ $ $ = 2 < < q v z z z z h g s u u u u u s d g h g g g g g g g g g g g g g g g g h h h h h h h h h h g s u u u u u u u u s g h g h h h h h g g d u u u u u u u u u u u u u u u u u u u u u u u u u u s s g h h h h h h h h h h h h h h h h h h h h h h h h h h h h h h h h h h h h h h h h h h h h h h h h h h h h h h h h h h h h h h h h h h h h h h h h h h h h h h h h h h h h h h h h h h h h h h h h h h h h h h h h h h h h h h h h h h h h h h h h h h h h h h g g g g g h g d d s s u u u u u u u u u u u u u u u u u u u u u u u u u u s s s s s s s s s s s s s s s s u u u u e 2 2 , 2 < 2 * $ $ $ $ ",
"% o w 8 3 u s u u u u u s d f g h h h g s u s u u u u u u u u u u u u u u u u u u u u u u u u u u u u u u u u u u u u u u u u u u u u u u u u u u u u u u u u u u u u u u u u u u u u u u u u u y s 8 , 2 , $ # $ % + y x , 2 < y s s d g g g g h h h h h h h h h h h h h h h h h h h h h h h h h h h h h h h h h h h h h h h h h h h h h h h h h h h h h h h h h h h h h h h h h h h h h h h h h h h h h h h h h h h h h h h h h h h h h h h h h h h h h h h h s u s s s u u u y y y u s s s s g g g g g g g g h h h h h h h h h h h h g g h h d d d d s s s s d g g g g g h h g g g g s s s s d g h h h z u 3 2 2 2 2 2 = @ $ $ $ = 3 < , r z h h h g g d s u u u u u d g g g g g g g g g g g g g g g g g g g h h h h h h h h h h g s u u u u u u u u g h h h h h h h h h h g s u u u u u u u u u u u u u u u u u u u u u u u u u u s g h h h h h h h h h h h h h h h h h h h h h h h h h h h h h h h h h h h h h h h h h h h h h h h h h h h h h h h h h h h h h h h h h h h h h h h h h h h h h h h h h h h h h h h h h h h h h h h h h h h h h h h h h h h h h h h h h h h h h h h h h h h h h h h z z z z g d s u u u u u u u u u u u u u u u u u u u u u u u u u u u u u s s s s s s s s s s s s s s s s u u u u u 5 , < < < < * $ $ $ $ ",
"% o w 0 3 u s u u u u u a s s d h h g s y u s u u u u u u u u u u u u u u u u u u u u u u u u u u u u u u u u u u u u u u u u u u u u u u u u u u u u u u u u u u u u u u u u u u u u u u u u u y s 8 , 2 , $ # $ % + y v , 2 < r u u s s s s s h h h h h h h h h h h h h h h h h h h h h h h h h h h h h h h h h h h h h h h h h h h h h h h h h h h h h h h h h h h h h h h h h h h h h h h h h h h h h h h h h h g h h h g h h h h h h h h h h h h h h h h h u s s s u u u u s d g g g g g g g g g g g g g g h h h h h h h h h h h h g d d s s s s s u u u u u s d g g g g g s s s s u u u u s s d g h z u 3 2 2 2 2 2 * @ # $ $ = 3 < , w s s s s s s s u u u u u u s d g g g g g g g g g g g g g g g g g g h h h h h h h h h h g s u u u u u u u u h h h h h h h h h h h h d u u u u u u u u u u u u u u u u u u u u u u u u u u s g h h h h h h h h h h h h h h h h h h h h h h h h h h h h h h h h h h h h h h h h h h h h h h h h h h h h h h h h h h h h h h h h h h h h h h h h h h h h h h h h h h h h h h h h h h h h h h h h h h h h h h h h h h h h h h h h h h h h h h h h h h h h h h h h h h h d s u u u u u u u u u u u u u u u u u u u u u u u u u u u u u u s s s s s s s s s s s s s s s s u u u u u 8 < 2 2 < 2 * $ $ $ $ ",
"% o e 9 , u s u u u u u d u u d d d d d s u y r y y u s d s u s u u u u u u u u u u u u u u u u u u u u y y u s s s s s u u u u u u u u u u u u u u u u u u u u u u u u u u u u u u u u u u u u y s 8 , 2 , $ # $ % + q m , 2 2 w s y u s s s d h h h h h h h h g h h h g g g d h h h h h h h h h h h h h h h h h h h h h h h h h h h h h h h h h h h h h h h h h h h h h h h h h h h h h h h h h h h h h h h h h h d x d d g h h h h h h h h h h h h h h h h h s s s s d d d d h h h h h h h h h h h h h h h h h h h h h h h h z h g g u u u u u u u u u u u u u u u u u u u u y u u s y y u s s s s s u d e 2 2 2 2 2 < % @ # $ $ = 3 2 < r s u u u u u u s s s s s s u u u u s d g g g h h h h h h h g g g g h h h h h h h h h h h d u u u u y u s s g g g g h h h h h h h h z d s u u u u u u u u u u u u u u u u u u u u u u u u u d h h g h h h h h h h h h h h h h h h h h h h h h h h h h h h h h h h h h h h h h h h h h h h h h h h h h h h h h h h h h h h h h h h h h h h h h h h h h h h h h h h h h h h h h h h h h h h h h h h h h h h h h h h h h h h h h h h h h h h h h h h h h h h h h h g d u u u u u u u u u u u u u u u u u u u u u u u u u u u u u u u u u u u u u u u u u u u u u u u u u u u u s e < 2 < < 2 = $ $ $ $ ",
"% o e 0 , u s u u u u u s u u s s s s s u u u y s d g g d s u s u u u u u u u u u u u u u u u u u u u u y y u s s s s s u u u u u u u u u u u u u u u u u u u u u u u u u u u u u u u u u u u u y s 8 , 2 , $ # $ % + q C , 2 2 w s y u s s s g h h h h h h h h h h h h d d s s h h h h h h h h h h h h h h h h h h h h h h h h h h h h h h h h h h h h h h h h h h h h h h h h h h h h h h h h h h h h h h h h h h d h y g h x h h h h h h h h h h h h h h h h g g g g g g g g h h h h h h h h h h h h h h h h h h h h h h h h h h h g d s u y u u u u s s s s u s s u u u u u y u s s s d g g g d d d s d y 2 2 2 2 2 < % $ $ $ $ = 3 2 3 u s u u u u u u u u u u u u u u u u u u s d d g g g h h z h g g g g h h h h h h h h h h h g s u u u s d g g g g g g h h h h h h h h h s s u u u u u u u u u u u u u u u u u u u u u u u u u s h h g h h h h h h h h h h h h h h h h h h h h h h h h h h h h h h h h h h h h h h h h h h h h h h h h h h h h h h h h h h h h h h h h h h h h h h h h h h h h h h h h h h h h h h h h h h h h h h h h h h h h h h h h h h h h h h h h h h h h h h h h h h h h g z g u u u u u u u u u u u u u u u u u u u u u u u u u u u u u u u u u u u u u u u u u u u u u u u u u u u u u s e < 2 < < 2 = $ $ $ $ ",
"% o e 0 , u s u u u u u u s s u u s s s u s s s g g h z d s u s u u u u u u u u u u u u u u u u u u u u y y u s s s s s u u u u u u u u u u u u u u u u u u u u u u u u u u u u u u u u u u u u y s 8 , 2 , $ # $ % + q G < < , w s y u s s d h h h h h h h h h h g f d s s s s h h h h h h h h h h h h h h h h h h h h h h h h h h h h h h h h h h h h h h h h h h h h h h h h h h h h h h h h h h h h h h h h h g g s r h h z h h h h h h h h h h h h h h h h g g g g h h h h h h h h h h h h h h h h h h h h h h h h h h h h g g h h z h g d g g g g h h h h g h h g s s s s d d g g h h h h h g g g g d d 3 2 2 2 2 < $ $ $ $ $ = 3 3 5 d d s s s s s s a s s s s s s s s s u u u u u s s d g g h h g g g g h h h h h h h h h h h g h g g g g g g g g g g g h h h h h h h h g s u u u u u u u u u u u u u u u u u u u u u u u u u u s g h h h h h h h h h h h h h h h h h h h h h h h h h h h h h h h h h h h h h h h h h h h h h h h h h h h h h h h h h h h h h h h h h h h h h h h h h h h h h h h h h h h h h h h h h h h h h h h h h h h h h h h h h h h h h h h h h h h h h h h h h h h h h h d g d y u u u u u u u u u u u u u u u u u u u u u u u u u u u u u u u u u u u u u u u u u u u u u u u u u u u u s e < 2 < < 2 = $ $ # # ",
"% o e q , u s u u u u u u d d u u u u u u s d d g g h h d s u s u u u u u u u u u u u u u u u u u u u u y y u s s s s s u u u u u u u u u u u u u u u u u u u u u u u u u u u u u u u u u u u u y s 8 , 2 , $ # $ % + q P < < , w s y u s s g h h h h h h h h h f d u y u u s s h h h h h h h h h h h h h h h h h h h h h h h h h h h h h h h h h h h h h h h h h h h h h h h h h h h h h h h h h h h h h h h h h g g r y v g g h h h h h h h h h h h h h h h h h h h h g g g g h h h h h h h h h h h h h h h h h h h h h h h h g g h z h h h h h h h h g g g g h h h h g g g g h h h h g g g g g g g g x h z 5 2 2 2 2 < $ # $ $ $ = 3 3 8 h g h h h g g g g g g g g d d d d d s s u u y y u u u s s d g g g g h h h h h h h h h h h h h h h g g h h h g g g g h h h h h h h h d u u u u u u u u u u u u u u u u u u u u u u u u u u u u g z h h h h h h h h h h h h h h h h h h h h h h h h h h h h h h h h h h h h h h h h h h h h h h h h h h h h h h h h h h h h h h h h h h h h h h h h h h h h h h h h h h h h h h h h h h h h h h h h h h h h h h h h h h h h h h h h h h h h h h h h h h h h h d s u u u u u u u u u u u u u u u u u u u u u u u u u u u u u u u u u u u u u u u u u u u u u u u u u u u u u u s e < 1 < < 2 = $ $ $ # ",
"& o e q , u s u u u u u d h h d u u u u u s f h h h h h u u u u u u u u u u u u u u u u u u u u u s s e y y u u u u u u u g h g d s s s u u u u u u u u u u u u u u u u u u u u u u u u u u u u u u q : 2 ; $ $ $ $ + 0 ) 2 < , 8 s u u u u s d s s u u u u u u u u u u y s d h h h h h h h h h h h h h h h h h h h h h h h h h h h h h h h h h h h h h h h h h h h h h h h h h h h h h h h h h h h h h h h h h g h g 5 h h g h h h h h h h h h h h h h h h h h h h h h h h h h h h h h h h h h h h h h h h h h h h h h h h h h h h h h h h h h h h h h h h h h h h h h h h h h h h h h h h h h g g g g z z g e 3 2 2 2 : $ # $ $ $ = 3 3 e z d h h h h h h h h h h g g g g g g h g g d s s u u u u u u d g h h h h h h h h h h h h h h g g d s s u u u s s s s g h h h z h g d u u u u u u u u u u u u u u u u u u u u u u u u u u u u u d z h g g g g h h h h h h h h h h h g h h h h g g g g h h h h g g g g h h h h g g g g h h h h h h h h l h h g h h h h g g g g h h h h g g g g h h h h h h h h h h h h h h h h h h h h h h h h h h h h h h h h h h h h h h h h h h h h h h h h h h h h h h g s u u u u u u u u u u u u u u u u u u u u u u u u u u u u u u u u u u u u u u u u u u u u u u u u u u u u u u u u s y < 2 < 2 < : $ $ $ # ",
"& o e q , y s y u u u u h h d u u u u u u s d g h g d s u u u u u u u u u u u u u u u u u u u u s s s w y u u u u u u u u d g g g d s s u u u u u u u u u u u u u u u u u u u u u u u u u u u u u u w , < ; $ $ $ $ + 0 ) 2 2 , 8 s u u u u u u u u u u u u u u u u u u s d g h h h h h h h h h h h h h h h h h h h h h h h h h h h h h h h h h h h h h h h h h h h h h h h h h h h h h h h h h h h h h h h h h g x e 8 h g h h h h h h h h h h h h h h h h h h h h h h h h h h h h h h h h h h h h h h h h h h h h h h h h h h h h h h h h h h h h h h h h h h h h h h h h h h h h h h h h h h g g g g h h g u 3 2 2 2 : # @ $ $ $ = 3 2 y z g h h h h h h h h h h g g g g g g h h h g d s u u u u u u s s d g h h h h h h h h h h g g s s u u u u u u u u u u u s g h g d s s u u u u u u u u u u u u u u u u u u u u u u u u u u u u u d g h g g g g h h h h h h h h h h h g g g g g g g g g h h h h h h h h h h h h h h h h h h h h h h h h g g g g g g g g s s s s g g g g g g g g h h h h h h h h h h h h h h h h h h h h h h h h h h h h h h h h h h h h h h h h h h h h h h h h h h h h h g d u u u u u u u u u u u u u u u u u u u u u u u u u u u u u u u u u u u u u u u u u u u u u u u u u u u u u u u u u s y < 2 < 2 < : $ $ $ $ ",
"* o r q , y s y u u u s h d u u u u u u u u s s g d s y u u u u u u u u u u u u u u u u u u u u s s u 0 u u u u u u u u u s d g h g d s u u u u u u u u u u u u u u u u u u u u u u u u u u u u y u r 2 2 ; $ $ $ % + 0 ] 2 2 , 8 s u u u u u u u u u u u u u u u u u u d g h g h h h h h h h h h h h h h h h h h h h h h h h h h h h h h h h h h h h h h h h h h h h h h h h h h h h h h h h h h h h h h h h h h d 4 y g h h h h h h h h h h h h h h h h h h h h h h h h h h h h h h h h h h h h h h h h h h h h h h h h h h h h h h h h h h h h h h h h h h h h h h h h h h h h h h h h h h h g g g g h h h g 3 2 2 2 : # # $ $ $ = 2 3 u z h h h h h h h h h h h g g g g g g h h h g h s u u u u u u s s s s h h h h h h h h h g g d u u y y u u u u u u u u s u u u s s s s u u u u u u u u u u u u u u u u u u u u u u u u u u u u u s d g g g g g h h h h h h h h h h h h h h h h g g g g h h h h g g g g g g g g g g g g h h h h h h h h h h g g d d d d u u u u y u s s g g g g h h h h h h h h h h h h h h h h h h h h h h h h h h h h h h h h h h h h h h h h h h h h h h h h h h h h g d s s u u u u u u u u u u u u u u u u u u u u u u u u u u u u u u u u u u u u u u u u u u u u u u u u u u u u s s s s s y 2 2 < 2 < : $ $ $ $ ",
"& o r q , y s y u u u s d u u d u u u u u u u u u u u u u u u u u u u u u u u u u u u u u u u u s u y 8 u u u u u u u u u u s g h h g d u u u u u u u u u u u u u u u u u u u u u u u u u u u u y s y 4 2 = $ $ $ % + 0 ] 2 < , 8 s u u u u u u u u u u u u u u u u u u h h g g h h h h h h h h h h h h h h h h h h h h h h h h h h h h h h h h h h h h h h h h h h h h h h h h h h h h h h h h h h h h h h h h h 0 5 g h h h h h h h h h h h h h h h h h h h h h h h h h h h h h h h h h h h h h h h h h h h h h h h h h h h h h h h h h h h h h h h h h h h h h h h h h h h h h h h h h h h h g g g g h h g g 3 2 2 2 : # # # $ # = 2 3 d h z h h h h h h h h h h g g g g g g g g g g z d u y u u u u s s s s h h h h h h h h h g d s u u u u u u u u u u u u y y u u s s s s u u u u u u u u u u u u u u u u u u u u u u u u u u u u u s d d g g g g h h h h h h h h h h h h d d d d g g g g h h h h d d d d s s s s u s s d g g h h h h h h s s u u u u u u u u u u u s g g g g g g h h h h h h h h h h h h h h h h h h h h h h h h h h h h h h h h h h h h h h h h h h h h h h h h h h h h s u s u u u u u u u u u u u u u u u u u u u u u u u u u u u u u u u u u u u u u u u u u u u u u u u u u u u u u u u u u s y 2 2 < 2 < : $ $ $ $ ",
"& o r u : y s u u u s s u u u u u u u u u u u u u u u u u u u u u u u u u u u u u u u u u u u u u s 0 0 u u u u u u u u u u s d g h h d u u u u u u u u u u u u u u u u u u u u u u u u u u u u s s y 3 2 = $ $ $ % @ e ] 7 < , 5 u s u u u u u u u u u u u u u u s u d g g g h h h h h h h h h h h h h h h h h h h h g g g g g h h h h h h g g h g g d u s g h h h h h h h h h h h h h h h h h h h h h g h s g u 3 r h h h h h h h h h h h h h h h h h h h h h h h h h h h h h h h h h h h h h h h h h h h h h h h h h h h h h h h h h h h h h h h h h h h h h h h h h h h h h h h h h h h h h h h h h h h h h e 2 2 3 * $ $ # $ # * 2 5 d h g h h h h h h h h h h h h h h h h g g g g h g s u s s s s u u u s h h h h h h h h g d s u u u u u u u u u u u u u u u u u u u u u u u u u u u u u u u u u u u u u u u u u u u u u u u u u u u u u s s s s g g g g d d d d s s u u u u u u s d g h h g s s u u u u s s u u u u u u s s s s s s s s u u u u u u u u s u u d h h h h h h h h h h h h h h h h h h h h h h h h h h h h h h h h h h h h h h h h h h h h h h h h h h h h h h h h h g h d s s u u u u u u u u u u u u u u u u u u u u u u u u u u u u u u u u u u u u u u u u u u u u u u u u u u u u u u u u u u s u 5 < 2 < 2 , # # $ $ ",
"% o r u : y s u u u s s u u u u u u u u u u u u u u u u u u u u u u u u u u u u u u u u u u u u u s 8 e u u u u u u u u u u u s h h h d u u u u u u u u u u u u u u u u u u u u u u u u u u u u s u u 4 2 = $ $ $ % @ e | 7 , < 5 u s u u u u u u u u u u u u u u s u d h g g g h h g g h h h h h h h h g g g g h g g d s s s s g h h h z h g g d s s u y u s d h h h h h h h h h h h h h h h h h h h h g z h z q < z g h h h h h h h h h h h h h h h h h h h h h h h h h h h h h h h h h h h h h h h h h h h h h h h h h h h h h h h h h h h h h h h h h h h h h h h h h h h h h h h h h h h h h h h h h h h h d 2 3 2 * $ $ @ $ @ * 2 7 g h g h h h h h h h h h h h h h h h h g g g g g g d s u u u u u u u s h h h h h h h h g s s u u u u u u u u u u u u u u u u u u u u u u u u u u u u u u u u u u u u u u u u u u u u u u u u u u u u u u u u u u u u u s a s s u u u u u u u u s s s s u u u s u u u u s u u y u u u u u u u u u u u u u u u u u u u u u u d h h h h h h h h h h h h h h h h h h h h h h h h h h h h h h h h h h h h h h h h h h h h h h h h h h h h h h h h h h g h d s u u u u u u u u u u u u u u u u u u u u u u u u u u u u u u u u u u u u u u u u u u u u u u u u u u u u u u u u u u u u u 5 < < < < < # $ $ $ ",
"& o y u : y s s s s s s u u u u u u u u u u u u u u u u u u u u u u u u u u u u u u u u u u u u u u 5 y u u u u u u u u u u u s g g g s u u u u u u u u u u u u u u u u u u u u u u u u u u u u y u u 5 2 = $ % $ % @ e | 7 , < 5 u s s u u u u u u u u u u u u u s u d h h g g h g g d d d d d d d d d h h h h d s s s u u u u s g h h g g d d s u y y u u u u g h h g h h h h h h h h h h h h h h h h g h z s 2 8 z h h h h h h h h h h h h h h h h h h h h h h h h h h h h h h h h h h h h h h h h h h h h h h h h h h h h h h h h h h h h h h h h h h h h h h h h h h h h h h h h h h h h h h h h h h h h h z 4 2 2 * $ $ # $ # * < 0 h h g h h h h h h h h h h h h h h h h g g g g g g g g s s s s s s s d h h h h h h h h d s u u u u u u u u u u u u u u u u u u u u u u u u u u u u u u u u u u u u u u u u u u u u u u u u u u u u u u u u u u u u u u u u u u u u u u u u u u s s s s u s s d d d d d d s s s u u u u u u u u u u u u u u u u u u u u u d h z h h h h h h h h h h h h h h h h h h h h h h h h h h h h h h h h h h h h h h h h h h h h h h h h h h h h h h h h h g h d u u u u u u u u u u u u u u u u u u u u u u u u u u u u u u u u u u u u u u u u u u u u u u u u u u u u u u u u u u u u u u 5 < < 2 < 2 # # $ $ ",
"& o y u : y s s s s s s u u u u u u u u u u u u u u u u u u u u u u u u u u u u u u u u u u u u u u 4 s u u u u u u u u u u u u s s s u u u u u u u u u u u u u u u u u u u u u u u u u u u u u y u s 7 2 = $ $ # % @ e | 7 , 2 5 u u s u u u u u u u u u u u u u s u d g g h z h g d s u u u u u u u u s s s s s s s s s s s s u s g h s s s u s s s s s u u u d h h h h h h h h h h h h h h h h h h h g g g 0 2 e h h h h h h h h h h h h h h h h h h h h h h h h h h h h h h h h h h h h h h h h h h h h h h h h h h h h h h h h h h h h h h h h h h h h h h h h h h h h h h h h h h h h h h h h h h h h h h z q 2 3 * $ $ # $ # & < w z h g h h h h h h h h h h h h h h h h g g g g g g h h g g g g g g g h h h h h h h h h s s u u u u u u u u u u u u u u u u u u u u u u u u u u u u u u u u u u u u u u u u u u u u u u u u u u u u u u u u u u u u u u u u u u u u u u u u u u s d g h g g g h g g g g h g g g u u u u u u u u u u u u u u u u u u u u d h z g h h h h h h h h h h h h h h h h h h h h h h h h h h h h h h h h h h h h h h h h h h h h h h h h h h h h h h h h h g h d u u u u u u u u u u u u u u u u u u u u u u u u u u u u u u u u u u u u u u u u u u u u u u u u u u u u u u u u u u u u u u 5 < < < < < $ $ $ $ ",
"& o y i ; y s y u u u u u u u u u u u u u u u u u u u u u u u u u u u u u u u u u u u u u u u u d w 5 s u u u u u u u u u u u u s s s s u u u u u u u u u u u u u u u u u u u u u u u u u u u u y y u e 2 % $ $ # % + u | 0 , 2 3 y u s u u u u u u u u u u u u u u u u s s s s u u u u u u u u u u u u u u u u s s s s s s s s u u u s u u u u u u u u u u u u h h h h h h h h g g g g h h h h h h h h g h y 4 3 h z g h h h h h h h h h h h h h h h h h h h h h h h h h h h h h h h h h h h h h h h h h h h h h h h h h h h h h h h h h h h h h h h h h h h h h h h h h h h h h h h h h h h h h h h h h h h h z s 2 , $ $ $ # $ $ % 2 r x g g h h h h h h h h z h g g h h h h z z h h h h h h h h h h g g g g h h h h h h g g s u u u u u u u u u u u u u u u u u u u u u u u u u u u s s s s u u u u u u u u u u u u u u u u u u u u s s s s s s s s u u u u u u y y s d d g g g h h h h h h h h h h h h h h g g g g g g g g h g d s u u u u u u u u s u u u g g g g h h h h h h h h h h h h h h h h h h h h h h h h h h h h h h h h h h h h h h h h g g g g g h h h h h h h g g g h h g g d u u u u u u u u u u u u u u u u u u u u u u u u u u u u u u u u u u u u u u u u u u u u u u u u u u u u u u u u u u u u y d 7 , 2 2 2 2 * $ $ $ ",
"& o y i ; r s s g g g g g g g g d d s s u u u u u u u u u u u u u u u u u u u u u u u u u u u u s 8 7 s u u u u u u u u u u u u s s s s u u u u u u u u u u u u u u u u u u u u u u u u u u u u u y u y 2 % $ $ @ % + u | 0 , 2 3 y u s u u u u u u u u u u u u u u u u u u u u u u u u u u u u u u u u u u u u s s s s s s s s u u u u u u u u u u u u u u u u g g g g g g g g g g g g h h h h h h h h d g 7 2 8 h h h h h h h h h h h h h h h h h h h h h h h h h h h h h h h h h h h h h h h h h h h h h h h h h h h h h h h h h h h h h h h h h h h h h h h h h h h h h h h h h h h h h h h h h h h h h h h z s 4 < $ $ $ # # $ % 2 u z g h h h h h h h h h z z h g g g g g g h h h h h h h h h h h g g g g h h h h h g g d u u u u u u u u u u u u u u u u u u u u u u u u s s s s s s s s u u u u u u u u u u u u s s s s s s s s s s s s s s s s u u u u u u u u d g g g h h h h h h h h h h h h h h h h g g g g g g g g z h g d s s s s s s s s s d f g g g g g h h h h h h h h h h h h h h h h h h h h h h h h h h h h h h h h h h h h z z h h h g g g g g g h h h h h h h h h g d s s u u u u u u u u u u u u u u u u u u u u u u u u u u u u u u u u u u u u u u u u u u u u u u u u u u u u u u u u u u u u u s 8 > 2 2 2 2 * # $ $ ",
"& o u s ; e u g h h h h h h h h h g d s u u u u u u u u u u u u u u u u u u u u u u u u u u u u u 3 q s u u u u u u u u u u u u s s s s u u u u u u u u u u u u u u u u u u u u u u u u u u u u u u u u 2 % $ $ @ % + u | 0 , 2 3 y u s s u u u u u u u u u u u u u u u u u u u u u u u u u u u u u u u u u u u s s s s s s s s u u u u u u u u u u u u u u u u u u u u s s d g g g g g h h h h h g h h g y < 2 y z h z h h h h h h h h h h h h h h h h h h h h h h h h h h h h h h h h h h h h h h h h h h h h h h h h h h h h h h h h h h h h h h h h h h h h h h h h h h h h h h h h h h h h h h h h h h h h z h 0 , $ $ $ $ # $ % 2 d h g h h h h h h h h h h g d d y y y y s d g g h h h h h h h h g g g g h h h h g g d s u u u u u u u u u u u u u u u u u u u u u u u u u u u u s s s s u u u u u u u u u u u u u u u u u u u u s s s s s s s s u u u u y u s d g g h h h h h h h h h h h h h h h h h h g g g g g g g g h g g g h h h h g g g g z h g g g g g g h h h h h h h h h h h h h h h h h h h h h h h h h h h h h h h h h h h h h h g d g g h g g g g g h h h h z h g d s s u u u u u u u u u u u u u u u u u u u u u u u u u u u u u u u u u u u u u u u u u u u u u u u u u u u u u u u u u u s s s s u u 9 : < < 2 2 * $ $ $ ",
"& o u s ; q u h g g g g g g g g h d s y u u u u u u u u u u u u u u u u u u u u u u u u u u u u y < e s u u u u u u u u u u u u s s s s u u u u u u u u u u u u u u u u u u u u u u u u u u u u u u u u 2 % $ $ @ % + u | 0 , 2 2 y u s s u u u u u u u u u u u u u u u u u u u u u u u u u u u u u u u u u u u s s s s s s s s u u u u u u u u u u u u u u u u s s s s y u d g g g g g h h h h h g h h g 5 2 3 s h g z h h h h h h h h h h h h h h h h h h h h h h h h h h h h h h h h h h h h h h h h h h h h h h h h h h h h h h h h h h h h h h h h h h h h h h h h h h h h h h h h h h h h h h h h h h h h g z r , $ $ $ $ # $ % 2 s h g h h h h h h h h h s s u y s s s s y u u s d g h h h h h h g g g g h h h h g d s y u u u u u u u u u u u u u u u u u u u u u u u u d d d d s s s s u u u u u u u u u u u u d d d d d d d d s s s s s s s s u u u u y u d g h h h h h h h h h h h h h h h h h h h h g g g g g g g g g g g h h h h h g g g g g g g g g g g g h h h h h h h h h h h h h h h h h h h h h h h h h h h h h h h h h h h h g d s u u s g g g g g g h h h h h g s u u u u u u u u u u u u u u u u u u u u u u u u u u u u u u u u u u u u u u u u u u u u u u u u u u u u u u u u u u u u u s s s s u u 0 : < 1 2 2 * $ # $ ",
"& o u s - q f h h h h h h g g d u u u u u u u u u u u u u u u u u u u u u u u u u u u u u u u u q 2 y s u u u u u u u u u u u u u u u u u u u u u u u u u u u u u u u u u u u u u s g h u u u u u u u u 5 @ % % # $ + d o.q , 3 2 e s s s s s s s u u u s s s s u u u u u u u u u u u u u u u u u u u u u u u u u u u u u u u u u u u u u u u u u u u u s u y y u u u u u u u u g g g g g g h h h g h x e 4 3 0 g g g h h h h h h h h h h h h h h h h h h h h h h h h h h h h h h h h h h h h h h h h h h h h h h h h h h h h h h h h h h h h h h h h h h h h h h h h h h h h h h h h h h h h h h h h h h h h h h z h : $ $ $ $ # $ % 2 g h h h h h h h h h h d s s s s u u u s s s u y u u u u s s d g g g g g h z h d s u u u u u s d g d s u u u u u u u u u u u u u u d g g g g g g h h g d s u u u u u u u u s g z g g g g g g g g g g g g d s u u u s s s d g h h h h h h h h h h h h h h h h h h h h h h h h h h h h h h h h h h h h h h h h h h h h h h h h h h h h h h h h h h h h h h h h h h h h h h h h h h h h h h g g g h h h h g u u u u u u u u s s s s s s s s s s s u u u u u u u u u u u u u u u u u u u u u u u u u u u u u u u u u u u u u u u u u u u u u u u u u u u u u u u u u u u u u u u u u u s e 2 2 2 2 2 * $ $ $ ",
"& . i i ; q d f f f f f g d s s u u u u u u u u u u u u u u u u u u u u u u u u u u u u u u u u 7 4 u s u u u u u u u u u u u u u u u u u u u u u u u u u u u u u u u u u u u u u u s s u u u u u u u u 7 @ % $ @ $ + d | 0 , 2 < e s s s s s s s s s u s s s s u u u u u u u u u u u u u u u u u u u u u u u u u u u u u u u u u u u u u u u u u u u u u u u u u u u u u u u u g g g g g g g h h g h g 5 4 2 y g g g g h h h h h h h h h h h h h h h h h h h h h h h h h h h h h h h h h h h h h h h h h h h h h h h h h h h h h h h h h h h h h h h h h h h h h h h h h h h h h h h h h h h h h h h h h h h h g g h < $ $ $ $ # $ % 2 g h h h h h h h h g d y u u u u s s d g g g s y u u u u y y u u s s s s s s s u u y u s s d g g h h g d s u u u u u u u u u u u s g h h h h h h z h h h d s u u u u u u d d g h g g g g g g g g g g g g z h h g g g g g h h h h h h h h h h h h h h h h h h h h h h h h h h h h h h h h h h h h h h h h h h h h h h h h h h h h h h h h h h h h h h h h h h h h h h h h h h h h h h h h g h z z h f s s u u u u u u u u u u u u s s s s s u u u u u u u u u u u u u u u u u u u u u u u u u u u u u u u u u u u u u u u u u u u u u u u u u u u u u u u u u u u u u u u u u u u u s e 2 2 2 2 2 * $ $ $ ",
"& X i s ; q i i i i i i s s u u u u u u u u u u u u u u u u u u u u u u u u u u u u u u u u s u 3 7 s u u u u u u u u u u u u u u u u u u u u u u u u u u u u u u u u u u u u u u u u u u u u u u u u u 8 # $ @ @ $ + d | 0 , 2 < w s u s s g h g d s s s s s s u u u u u u u u u u u u u u u u u u u u u u u u u u u u u u u u u u u u u u u u u u u u u s s s s s s s d d d d h g d d g g g g h g h e 2 2 3 g h h h h h h h h h h h h h h h h h h h h h h h h h h h h h h h h h h h h h h h h h h h h h h h h h h h h h h h h h h h h h h h h h h h h h h h h h h h h h h h h h h h h h h h h h h h h h h h h g g z 7 $ $ $ $ $ $ % 2 h h h h h h h h h h d u s s s s g g h h h g d u u u u u s s u u u u u u u u u s s s d d g g h h h h h g d s u u u u u u u u u u s s g h h h h h g g h h g s u s u u u u d g h h g g g g g g g g g g g g h h h g h h h h h h g g h h h h h h h h h h h h h h h h h h h h h h h h h h h h h h h h h h h h h h h h h h h h h h h h h h h h h h h h h h h h h h h h h h h h h h h h h h h h g g h h s s y y u u u u u u u u u u u u u u u u u u u u u u u u u u u u u u u u u u u u u u u u u u u u u u u u u u u u u u u u u u u u u u u u u u u u u u u u u u u u u u u u u u u u u s e 2 1 1 1 1 = $ $ $ ",
"& X i s ; 0 u u y y u u u u u u u u u u u u u u u u u u u u u u u u u u u u u u u u u u u u s u < 0 d u u u u u u u u u u u u u u u u u u u u u u u u u u u u u u u u u u u u u u s s s u u u u u u u u 0 $ $ + @ $ + d | 0 , 2 < w s u u d h z z h g d s s s s u u u u u u u u u u u u u u u u u u u u u u u u u u u u u u u u u u u u u u u u u u u u u s s d h h h h h h h h z g s u s d g g h g s 7 3 < 9 g h h h h h h h h h h h h h h h h h h h h h h h h h h h h h h h h h h h h h h h h h h h h h h h h h h h h h h h h h h h h h h h h h h h h h h h h h h h h h h h h h h h h h h h h h h h h h h h h z h x q $ # $ # $ $ % < h h h h h h h h h h z h g h g g h h l l h g d y u u u u g d s s u u u u u y u d g h h z h h h h g h h h g d s u u u u u u u u u u u s d d d d d s d g g d s u s u u u u d g h z g g g g g g g g g g g g h h h h g g g g g g g g h h h h h h h h h h h h h h h h h h h h h h h h h h h h h h h h h h h h h h h h h h h h h h h h h h h h h h h h h h h h h h h h h h h h h h h h h h h h h g s u y y y y u u u u u u u u u u u u u u u u u u u u u u u u u u u u u u u u u u u u u u u u u u u u u u u u u u u u u u u u u u u u u u u u u u u u u u u u u u u u u u u u u u u u u s e 2 1 1 < < = $ $ $ ",
"& o d s - 0 u i u u u u u u u u u u u u u u u u u u u u u u u u u u u u u u s d y y y y y u s q , q s u u u u u u u u u u u u u u u u u u u u u u u u u u u s s u u u u y y u s s u u u u u u u u u u u q # $ $ # $ + d | 7 , 2 2 q d u g g g g g g g g s s s u u u u u u u u u s s u y u u u u u u u u u u u u u u u u u u u u u u u u u u u u y u u u g g h h g h h h h g g g s s s u u s d g z x y < 2 4 y z h h h h h h h h h h h h h h h h h h h h h h h h h h h h h h h h h h h h h h h h h h h h h h h h h h h h h h h h h h h h h h h h h h h h h h h h h h h h h h h h h h h h h h h h h h h h h h h h h h z s $ @ & @ $ $ % < g g h h h h h h g g h h h h h g h h h h h g s u s d g g g g g g s s s s g g g g h h h h h h h h h h h h h g d s u u u u u u u u u u u u u i i i u u u u u u u u u u u u s s d h h h h h h h h h h h h h h h h h h h h h h h h h h h h h h h h h h h h h h h h h h h h h h h h h h h h h h h h h h h h h h h h h h h h h h h h h h h h h h h h h h h h h h h h h h h h h z z h h z g d s u u u u u u u u u u u u u u u u u u u u u u u u u u u u u u u u u u u u u u u u u u u u u u u u u u u u u u u u u u u u u u u u u u u u u u u u u u u u u u u u u u u u u u u u u u u u u u y 2 2 2 2 2 ; # $ $ ",
"& o d s - 0 u i u u u u u u u u u u u u u u u u u u u u u u u u u u u u u s d d d d d d u s s 8 , r s u u u u u u u u u u u s s g g g g d d d d u u u u s s s d u u u u d g g g g s s s u u u u u u u u r $ $ $ $ % @ d | 8 < 2 2 w g d g g g g g g g g s s u u u u u u u u u u s s u u u u u u u u u u u u u u u u u u u u u u u u u u u u u u u u s d g g h h h h h h h g g g s s s s s s d g z d 5 2 3 3 g z h h h h h h h h h h h h h h h h h h h h h h h h h h h h h h h h h h h h h h h h h h h h h h h h h h h h h h h h h h h h h h h h h h h h h h h h h h h h h h h h h h h h h h h h h h h h h h h h g h h g * @ % @ $ $ $ , g g h h h h h h h h h h h h h h h h h h h g d d g g h h g g g g h h h h g g g g h h h h h h h h h h h h h h g d s u u u u u u u u u u u u u i i u u u u u u u u u u u u u u s g h h h h h h h h h h h h h h h h h h h h h h h h h h h h h h h h h h h h h h h h h h h h h h h h h h h h h h h h h h h h h h h h h h h h h h h h h h h h h h h h h h h h h h h h h h h h h g g g d s s s u u u u u u u u u u u u u u u u u u u u u u u u u u u u u u u u u u u u u u u u u u u u u u u u u u u u u u u u u u u u u u u u u u u u u u u u u u u u u u u u u u u u u u u u u u u u u u y 2 2 2 2 2 ; # $ $ ",
"& o d s - 0 i i u u u u u u u u u u u u u u u u u u u u u u u u u u u u s d g g h h h h d g s 3 2 u u u u u u u u u u u u s d g h h h h g g g g u u u u d d g g g g g g h h h h h d s u u u u u u u u u u * % # # $ + d o.0 2 2 2 q h g g g g g g g g g s u u u u u u u u u u u u u s s u u u u u u u u u u u u u u u u u u u u u u u u u u u u u s g h g g h h h h h h h g g g s s s s s d g h z e < 2 2 8 z z h h h h h h h h h h h h h h h h h h h h h h h h h h h h h h h h h h h h h h h h h h h h h h h h h h h h h h h h h h h h h h h h h h h h h h h h h h h h h h h h h h h h h h h h h h h h h h h g g h h z : @ % $ $ $ $ , g g g g h h h h h g d d h h h h h h h h h g g g h h h h g g g g g g g g g g g g h h h h h h h h h h h h h h h g s u u u u u u u u u u u u u u u u u u u u u u u u u u u y y u d h h h h h h h h h h h h h h h h h h h h h h h h h h h h h h h h h h h h h h h h h h h h h h h h h h h h h h h h h h h h h h h h h h h h h h h h h h h h h h h h h h h h h h h h h h h h h d s y u s s s u u u u u u u u u u u u u u u u u u u u u u u u u u u u u u u u u u u u u u u u u u u u u u u u u u u u u u u u u u u u u u u u u u u u u u u u u u u u u u u u u u u u u u u u u u u u u u y 2 2 2 2 2 ; # $ $ ",
"& o d i - 0 i i u u u u u u u u u u u u u u u u u u u u u u u u u u u s d d g g g g g g g h s < 3 d u u u u u u u u u u u s g h h h h h g g g g u u u u g g g h h h h h g g g g h g s y u u u u u u u u s = % @ # $ + d %.0 2 3 < q h h g g g g g g g g u u u u u u u u u u u u y u s s u u u u u u u u u u u u u u u u u u u u u u u u u u u u u d h z g g g g h h h h h g g g s s s s d g h h d 4 3 4 , u z h h h h h h h h h h h h h h h h h h h h h h h h h h h h h h h h h h h h h h h h h h h h h h h h h h h h h h h h h h h h h h h h h h h h h h h h h h h h h h h h h h h h h h h h h h h h h h h h g g g h h < @ % $ $ $ $ , g g g h g h h h d u y y s d h h h h h h g h h h h h h h g g g g g g g g g g g g h h h h h h h h h h h h h h h h d s u u u u u u u u u u u u u u u u u u u u u u u u u u u u s g h h h h h h h h h h h h h h h h h h h h h h h h h h h h h h h h h h h h h h h h h h h h h h h h h h h h h h h h h h h h h h h h h h h h h h h h h h h h h h h h h h h h h h h h h h h h u u u s u u u u s s s s u u u u u u u u u u u u u u u u u u u u u u u u u u u u u u u u u u u u u u u u u u u u u u u u u u u u u u u u u u u u u u u u u u u u u u u u u u u u u u u u u u u u u u u u u u y 2 2 2 2 2 ; # $ $ ",
"% o h i ; 8 u y i i s s s s s s u u u u u u u u u u u u u u u u u u u s d g g h g g g g h z y < 0 g u u u u u u u u u u u s s s h h h g h h h h s s d g h h h h h h h h h h h h h g u s u u u u u u u u s , $ % $ # @ m >.0 < 3 < q h g g g g g g g g g d u u u u u u u u u u u u u u u h d s y u u u u u u u u u u u u u u u u u u u u u u u u d g h z h h g g h h h h h h h g d d d d z g g h 8 3 4 , 2 g h z h h h h h h h h h h h h h h h h h h h h h h h h h h h h h h h h h h h h h h h h h h h h h h h h h h h h h h h h h h h h h h h h h h h h h h h h h h h h h h h h h h h h h h h h h h h h h h h g g g h z 5 @ % $ # $ $ ; e z g h h h h h s s s s d g h h h h h h h h h h h h h h h h h h h h h h h h h h h h h h h h h h h h h h h h h h g s u y u u u u u u u u u u u u u u u u u u u u u u u u u u u s g g h g h h h h h h h h h h h h h h h h h h h h h h h h h h h h h h h h h h h h h h h h h h h h z h h h h h h h z h h g h h h h h h h h h h h h h h h h h h h h h h h h h h h h g g d u u u s u u u u u s s s s u u u u u u u u u u u u u u u u u u u u u u u u u u u u u u u u u u u u u u u u u u u u u u u u u u u u u u u u u u u u u u u u u u u u u u u u u u u u u u u u u u u u u u u u s s u 3 2 2 2 2 , $ % $ ",
"% o h u ; 0 g g i i s s s s s s u u u u u u u u u u u u u u u u u u s s d g g g g g g g g z 8 2 e d u u u u u u u u u u s s s s g g g g h h h h g g g h h h h h h h h h h h h h h g u s u u u u u u u u s , # % $ # @ m 4.q 2 4 2 0 h g g g g g g g g g g s u u u u u u u u u u u u u u s s s s u u u u u u u u u u u u u u u u u u u u u u u u u s d g g g g g g g h h h h h g g g g g x g x s 5 3 3 < 8 h h z h h h h h h h h h h h h h h h h h h h h h h h h h h h h h h h h h h h h h h h h h h h h h h h h h h h h h h h h h h h h h h h h h h h h h h h h h h h h h h h h h h h h h h h h h h h h h h h g g g h z 5 + % $ # $ $ ; 0 h h h h h h g g g g g g h h h h h h h h h h h h h h h h h h h h h h h h h h h h h h h h h h h h h h h h h h h h d u y u u u u u u u u u u u u u u u u u u u u u u u u u u u u s d d g h h h h h h h h h h h h h h h h h h h h h h h h h h h h h h h h h h h h h h h h h h h h h h g d g g g g g g h h h h h h h h h h h h h h h h h h h h h h h h h h h h h h g d u y u s u u u u u u s s s s u u u u u u u u u u u u u u u u u u u u u u u u u u u u u u u u u u u u u u u u u u u u u u u u u u u u u u u u u u u u u u u u u u u u u u u u u u u u u u u u u u u u u u u u s s u 4 2 2 2 2 , $ % $ ",
"& o h u ; 0 g g i i s s s s s s u u u u u u u u u u u u u u u u u u s d g g h g h g g g d g 2 2 u d u u u u u u u u u u s s s s s s d g h h h h h h h g h h h h h h h h h h h h h g u s u u u u u u u u s , # % $ $ # m >.q 2 3 2 0 h h h h h h g g g g g d u u u u u u u u u u u u u u u u s s u u u u u u u u u u u u u u u u u u u u u u u u u u s s u u u u h h h h h h h h g g g g z z z 0 4 4 2 3 u z g g h h h h h h h h h h h h h h h h h h h h h h h h h h h h h h h h h h h h h h h h h h h h h h h h h h h h h h h h h h h h h h h h h h h h h h h h h h h h h h h h h h h h h h h h h h h h h h h g g g h h 7 o $ % $ $ $ ; 7 h h g h h h h h h h h h h h h h h h h h h h h h h h h h h h h h h h h h h h h h h h h h h h h h h h h h h h h h g s y u u u u u u u u u u u u u u u u u u u u u u u u u u u u u s s f h h h h h h h h h h h h h h h h h h h h h h h h h h h h h h h h h h h h h h h h h h h h h g s u y y y y y u s s g h h h h h h h h h h h h h h h h h h h h h h h h h h h g s u u s u u u u u u u s s s s u u u u u u u u u u u u u u u u u u u u u u u u u u u u u u u u u u u u u u u u u u u u u u u u u u u u u u u u u u u u u u u u u u u u u u u u u u u u u u u u u u u u u u u u u s s 4 2 2 2 2 , $ % $ ",
"& o h u ; 8 u y i i s s s s s s u u u u u u u u u u u u u u u u u s s g g g g g h g g g g y < 2 y d u u u u u u u u u u s s s s y u d g h h h h h g g d h h h h h h h h h h h h h g u s u u u u u u u u s , # % $ $ # v %.7 : < 2 0 h h h h h h g g g g g g s u u u u u u u u u u u u u s u u u u u u u u u u u u u u u u u u u u u u u u u u u s s s u u u u u h h h h h h h h h h h h d x s 3 2 4 2 4 d z g g h h h h h h h h h h h h h h h h h h h h h h h h h h h h h h h h h h h h h h h h h h h h h h h h h h h h h h h h h h h h h h h h h h h h h h h h h h h h h h h h h h h h h h h h h h h h h h h g g g h h 8 o $ * $ $ $ ; 4 g h g h h h g g g g g h h h h h h h h h h h h h h h h h h h h h h h h h h h h h h h h h h h h h h h h h h h h h g s u u u u u u u u u u u u u u u u u u u u u u u u u u u u u u u s d h h h h h h h h h h h h h h h h h h h h h h h h h h h h h h h h h h h h h h h h h h h h h d u y u u u u s u u y s g h h h h h h h h h h h h h h h h h h h h h h h h h h s u s s u u u u u u u u s s s s u u u u u u u u u u u u u u u u u u u u u u u u u u u u u u u u u u u u u u u u u u u u u u u u u u u u u u u u u u u u u u u u u u u u u u u u u u u u u u u u u u u u u u u u y s s 5 2 2 2 2 , $ % $ ",
"* o h u ; 5 s u s s s s s s s s u u u u u u u u u u u u u u u u s d g g g g g g h g s u s 8 2 2 s s u u u u u u u u u u s s s s s y u h h h h h g g g g h h h h h h h h h h h h g d s u u s d d g g h h x 4 @ % $ $ $ v ] 5 < 2 < 7 l h h h h h h h h h g g d s u u u u u u u u u u u u u u u u u u u u u u u u u u u u u u u u u u u u u u u u s s s s s u u d g g g g h h h h h h h h h z 8 2 2 3 2 0 h z g g g g g g g h h h z h h g h h h h g h h g h h h h g g g g h h h h h h h h h h h h h h h h h h h h h h h h h h h h h h h h h h h h h h h h h h h h h h h h h h h h h h h h h h h h h h h h h h h g g g h h q @ $ $ $ $ $ = 2 s z h h h h h g g g g h h h h h h h h h h h h h h h h h h h h h h h h h h h h h h h h h h h h h h h h h h h h h g s y u u u u u u u u u u u u u u u u u u u u u u u u u u u u s f g h h h h h h h h h h h h h h h h h h h h h h h h h h h h h h h h h h h h h h h h h h h h h z g s y u u u u u u u u u s g l h h h h h h h h h h h h h h h h h h h h g h g d s s s s u u u u u u u u s s s s u u u u u u u u u u u u u u u u u u u u u u u u u u u u u u u u u u u u u u u u u u u u u u u u u u u u u u u u u u u u u u u u u u u u u u u u u u u u u u u u u u u u u u u u u u s 8 , 2 < 2 2 $ $ $ ",
"* o h y ; 5 s u s s s s s s s s u u u u u u u u u u u u u u u s s g g g g g g g h g s u u 5 < 4 s s u u u u u u u u u u s s s s s u s h h h h h g g g g h h h h h h h h h h h h h g g d g g h g h h h h x 4 @ $ $ $ $ v ] 4 < 2 < 5 l l h h h h h h h h g g g s u u u u u u u u u u u u u u u u u u u u u u u u u u u u u u u u u u u u u u u u s s s s s u s g g g g g h h h h h h h h h s 2 2 4 4 < r h g g h s s s s s g g h h h g g g g g g d s d g g s s g z h g d s d g h h h h h h h h h h h h h h h h h h h h h h h h h h h h h h h h h h h h h h h h h h h h h h h h h h h h h h h h h h h h h h h h g g g h h q @ $ $ $ # $ = 2 y z h h h h h g g g g h h h h h h h h h h h h h h h h h h h h h h h h h h h h h h h h h h h h h h h h h h h h h g d u u u u u u u u u u u u u u u u u y y u u u u u u d d d d g h h h h h h h h h h h h h h h h h h h h h h h h h h h h h h h h h h h h h h h h h h h h h h h h h d u y u u s u u u u y i f h h h h h h h h h h h h h h h h h h h h h g h g d s s s u u u u u u u u u s s s s u u u u u u u u u u u u u u u u u u u u u u u u u u u u u u u u u u u u u u u u u u u u u u u u u u u u u u u u u u u u u u u u u u u u u u u u u u u u u u u u u u u u u u u u u u s 8 , 2 < 2 2 $ $ $ ",
"* o h y ; 5 s u s s s s s s s s u u u u u u u u u u u u u u u u g g g g g g g g h g s u r 2 , 8 s u u u u u u u u u u u s s s s u s d h h h h h g g g g h h h h h h h h h h h h h h h g h h h h h h g g z 4 @ $ # $ $ v ) 4 < < < 5 h h h h h h h h h h h g g d s u u u u u u u u u u u u u u u u u u u u u u u u u u u u u u u u u u u u u u u s s s s u u d h g g g g h h h h h h h h h 7 , 2 5 3 3 g h g g h u u u u u s d g g g d d u u u u u y u d d u u d z h g d s d g h h h h h h h h h h h h h h h h h h h h h h h h h h h h h h h h h h h h h h h h h h h h h h h h h h h h h h h h h h h h h h h h g g g h h q @ $ $ % # $ = 2 q h g h h h h g g g g h h h h h h h h h h h h h h h h h h h h h h h h h h h h h h h h h h h h h h h h h h h h h h g s u u u u u u u u u u u u u u u u u u s d h h h h h h h h h h h h h h h h h h h h h h h h h h h h h h h h h h h h h h h h h h h h h h h h h h h h h h h h g g g d s s s s s s s s y s g h h h h h h h h h h h h h h h h h h h h h g h g d s s u u u u u u u u u u s s s s u u u u u u u u u u u u u u u u u u u u u u u u u u u u u u u u u u u u u u u u u u u u u u u u u u u u u u u u u u u u u u u u u u u u u u u u u u u u u u u u u u u u u u u u u u s 8 , 2 < 2 2 $ # $ ",
"* o h y ; 5 s u s s s s s s s s u u u u u u u u u u u u u u u u g g g g g g g g h g s u q , , 0 s u u u u u u u u u u u s s s s u d g h h h h h g g g g h h h h h h h h h h h h g g g g g g g g g g g g z 4 @ $ # $ $ v ) 4 < < < 5 h h h h h h h h h h h g g g s u u u u u u u u u u u u u u u u u u u u u u u u u u u u u u u u u u u u u u u s s s s u s g z g g g g h h h h h h h h y < 5 2 4 3 w h g g h h s s s s s u u s s s s u u u u u u d g g h h h h g g g g h h h h h h h h h h h h h h h h h h h h h h h h h h h h h h h h h h h h h h h h h h h h h h h h h h h h h h h h h h h h h h h h h h h g g g h h q @ $ $ % # $ = 2 8 g g h h h h g g g g h h h h h h h h h h h h h h h h h h h h h h h h h h h h h h h h h h h h h h h h h h h h h g g d u u u u u u u u u u u u u u u u s d g h h h h h h h h h h h h h h h h h h h h h h h h h h h h h h h h h h h h h h h h h h h h h h h h h h h h h h h h h g g h g h g s u u u u u u s g z h h h h h h h h h h h h h h h h h h h h g h g d s u u u u u u u u u u u s s s s u u u u u u u u u u u u u u u u u u u u u u u u u u u u u u u u u u u u u u u u u u u u u u u u u u u u u u u u u u u u u u u u u u u u u u u u u u u u u u u u u u u u u u u u u u s 8 , 2 < 2 2 % # $ ",
"* + h y ; 4 s u u u u u u u u u u u u u u u u u u u u u u u u u s g g g g g g g z z u u 5 2 , 0 u u u u u u u u u u u u s s s s u s h z g g g g g g g g h h h h h h h h h h h h g g g g g g g g g g g g z 4 @ $ # $ $ v ) 4 < 2 2 3 s h h h h h h h h h g g g g g d s u u u u u u u u u u u u u u u u u u u u u u u u u u u u u u u u u u u u u u u u u u d g g g g g g h h h h h g g h 3 3 3 2 2 , s x g g h h s u u u s u s s u u s s s s s d h h h h g g g g g g g g h h h h h h h h h h h h h h h h h h h h h h h h h h h h h h h h h h h h h h h h h h h h h h h h h h h h h h h h h h h h h h h h h h h g g g h h q @ $ $ % # $ = 2 7 z g h h h h h h h h h h h h h h h h h h h h h h h h h h h h h h h h h h h h s u s z h h h h h h h h h h h h h h g s s u u u u u u u u u u u s y s h h h h h g g g g h g g g g h h h h h h h h h h h h h h h h h h h h h h h h h h h h h h h h h h h h h h h h h h h h h h h g g g g g h g d s s s s g h h g h h h h h h h h h h h h h h h h g g g g g h d y s s s u u s s s s s s s s s s s s u u s d g g g g d s i u u u u u u u u u u u u u u u u u u u u u u u u u u u u u u u u u u u u u u u u u u u u u u u u u u u u u u u u u u u u u u u u u u u u u u u u u u u u s y s q < 2 < 2 2 % @ $ ",
"* + h y ; 4 s u u u u u u u u u u u u u u u u u u u u u u u u u u s g g g g g g g h d s 4 2 2 r u u u u u u u u u u u u s s s s u s g h g g g g g g g g h h h h g g g g h h h h g g g g g g g g g g g g z 4 @ $ # $ $ v ! 3 < 2 2 3 s h h h h h h h h h g g g g z h d s u u u u u u u u u u u u u u u u u u u u u u u u u u u u u u u u u u u u u u u u u d g g g g g g h h h h g g g y 3 3 3 3 3 4 g x h h h z s u u u s u s s s s s s g g h h h h h h g g g g g g g g h h h h h h h h h h h h h h h h h h h h h h h h h h h h h h h h h h h h h h h h h h h h h h h h h h h h h h h h h h h h h h h h h h h g g g h h q @ $ $ % # $ = 2 5 h h h h h h h h h h h h h h h h h h h h h h h h h h h h h h h h h h h h h h s u s g h h h h h h h h h h h h h h g s s u u u u u u u u u u u u y u g h h h h g g g g g g g g h h h h h h h h h h h h h h h h h h h h h h h h h h h h h h h h h h h h h h h h h h h h h h h h g g g g g h g d s s s s g h h g g h h h h h h h h h h h h h h h h g g g g h g s u u s s s s s s s s s s s s s s s u u s g g h h h h g f s u u u u u u u u u u u u u u u u u u u u u u u u u u u u u u u u u u u u u u u u u u u u u u u u u u u u u u u u u u u u u u u u u u u u u u u u u u u s y s q < 2 < 2 2 % @ $ ",
"& + h y ; 4 s u u u u u u u u u u u u u u u u u u u u u u u u u u u s g g g g g g h h u 2 2 4 s u u u u u u u u u u u u s s s s u s d d g g g g g g g g h h h h g g d s g g g g g g g g g g g g g g g g z 4 @ $ $ $ $ v R 3 < 2 2 3 s h h h h h h h h h g g g g h h g s u u u u u u u u u u u u u u u u u u u u u u u u u u u u u u u u u u u u u u u u u d g g g g g g h h h h g h g 5 3 3 3 3 2 9 g g g d g g s u u u s u s s d g g g h h h h h h h h g g g g g g g g h h h h h h h h h h h h h h h h h h h h h h h h h h h h h h h h h h h h h h h h h h h h h h h h h h h h h h h h h h h h h h h h h h h g g g h h q @ $ $ % $ $ = 2 3 g h h h h h h h h h h h h h h h h h h h h h h h h h h h h h h h h h h h h h h h h z h h h h h h h h h h h h h h g s s u u u u u u u u u u u u y u s g g g g u u u u s d g h h h h h h h h h h h h h h h h h h h h h h h h h h h h h h h h h h h h h h h h h h h h h h h h h g g g g g h g d s s s s g g g g h h h h h h h h h h h h d d d d g g h h g h h d s s u u s s s s s s s s s s s s u u s d h h h h h h h g d s u u u u u u u u u u u u u u u u u u u u u u u u u u u u u u u u u u u u u u u u u u u u u u u u u u u u u u u u u u u u u u u u u u u u u u u u u u s y s q < 2 < 2 2 % @ % ",
"& + h y ; 4 u u u u u u u u u u u u u u u u u u u u u u u u u u u u u s g g g g h h z e 2 < 5 g u u u u u u u u u u u u s s s u u s s s g g g g g g g g h h h h g d s u s s s s g g g g g g g g g g g g z 4 @ $ $ $ # v R 3 < 2 2 3 s h h h h h h h h h g g g g g g d s s u u u u u u u u u u u u u u u u u u u u u u u u u u u u u u u u u u u u u u u u d g g g g g g h h h h d g y 3 2 2 2 2 , 0 s u u y u s s u u u s u s s g g g g g g g g h h h h g g g g g g g g h h h h h h h h h h h h h h h h h h h h h h h h h h h h h h h h h h h h h h h h h h h h h h h h h h h h h h h h h h h h h h h h h h h g g g h h q @ $ $ $ $ $ = 2 2 s h h h h h h h h h h h h h h h h h h h h h h h h h h h h h h h h h h h h h h h h h h h h h h h h h h h h h h h g s s u u u u u u u u u u u y y y y u u u u u u u u u s g h h h h h h h h h h h h h h h h h h h h h h h h h h h h h h h h h h h h h h h h h h h h h h h h h g g g g g h g d s s s s d d g h h h h h h h h h h h h h u u u u s d g g g h z g g d s s s s s s s s s s s s s s y y s g h h h h g g g g g d s u u u u u u u u u u u u u u u u u u u u u u u u u u u u u u u u u u u u u u u u u u u u u u u u u u u u u u u u u u u u u u u u u u u u u u u u u s y s q < 2 < 2 < & @ % ",
"& + h y ; 4 u u u u u u u u u u u u u u u u u u u u u u u u u u u u u u g g g h h h z 5 < < 8 h g s u u s s s s s s s s s s s s s s y y g g g g g g g g h h h h s s s s u u u u i s g z g g g g g g g g z < @ % $ $ # v P 3 < 2 4 , u g g g g g g g g d g g g d s s s s u u u u u u u u u u u u u u u u u u u u u u u u u u u u u u u u u u u u u u u u s d h g g g g g h h h h z g 7 < 2 2 2 2 < y u u u u u u u u s s d g h h g g g g h h h h h h h h h h h h h h h h g g h h h h h h g g g g h h h h h h h h h h h h h h h h h h h h h h h h h h h h h h h h h h h h h h h h h h h h h h h h h h h h h h h g g g h h 5 @ % $ $ $ $ $ 2 , r z h h h h h h h h h h h h h h h h h h h h h h h h h h h h h h h h h h h h h h h h h h h h h h h h h h h h h h h h g d s u s s s s s s s s u u u u u u u u u u u u u u u u u u u u s d g h h h h h h h h h h h h h h h h h h h h h h h h h h h h h h h h h g g g g g g g g h h h h h g d s u u u u u u u u s u d h h h h h h h h g u u u u u u s d g g h g g h h h d s s s s s s s s s s s s s s u s d g h h h h h d s s u u u u u u u u u u u u u u u u u u u u u u u u u u u u u u u u u u u u u u u u u u u u u u u u u u u u u u u u u u u u u u u u u u u u u u u u u s u u y 2 < < 2 < ; @ % ",
"& + h y ; 4 u u u u u u u u u u u u u u u u u u u u u u u u u u u u u u g g g h h h g 4 2 < q h h g s u s s s s s s s s s s s s s s u u g g g g g g g g x z g d s s s s u u u u s u i d g g g g g g g g z < @ % $ # @ v P 3 < 2 5 < u h h h h h h h g g g d s s s s u u u u u u u u u u u u u u u u u u u u u u u u u u u u u u u u u u u u u u u u u u s d h g g g g g h h h h h r , 3 2 2 2 2 5 s u u u u s d g g g g g g h g g g g g h h h h h h h h h h h h h h h h h h h h h h h h h h h g h h h h h h h h h h h h h h h h h h h h h h h h h h h h h h h h h h h h h h h h h h h h h h h h h h h h h h h g g g h h 5 + % $ $ $ $ $ 2 < e z h h h h h h h h h h h h h h h h h h h h h h h h h h h h h h h h h h h h h h h h h h h h h h h h h h h h h h h h h g g d s u u u u u u u u u u u u u u u u u u u u u u u u u u u y s d g h h h h h h h h h h h h h h h h h h h h h h h h g g g g h h h h g g g g g g h h h h h h d s u u u u u u u u u u u y s g h h h h h h h g u u u u u u u u g g h g g h h h h g d s s s s s s d g h h h d u s s d g g g g g s s u u u u u u u u u u u u u u u u u u u u u u u u u u u u u u u u u u u u u u u u u u u u u u u u u u u u u u u u u u u u u u u u u u u u u u u u u u u u u y 2 < < < < ; @ % ",
"& O h t : 4 u s u u u u u u u u u u u u u u u u u u u u u u u u u u u u g g g h h z s 2 2 2 y h h h g s s s s s s s s s s s s s s s s d g g g g g g g g j g d s s s s s u u u u s u y u g g g g g g g g z < @ % $ # @ m P 2 2 3 4 2 r h g g g g g g d d s s u u u u u u u u u u u u u u u u u u u u u u u u u u u u u u u u u u u u u u u u u u u u u u s d h g g g g g h h h h g 3 2 2 1 2 2 2 9 s y y s d g g g h h h h g g g g g g g h h h h h h h h h h h h h h h h h g d d s s s s d d d d g h h h h h h h h h h h h h h h h h h h h h h h h h h h h h h h h h h h h h h h h h h h h h h h h h h h h h h g g h h h 5 + % $ $ $ $ $ 2 2 q z h h h h h h h h h h h h h h h h h h h h h h h h h h h h h h h h h h h h h h h h h h h h h h h h h h h h h h h h h h h g d s s u y y u u u u u u u u u u u u u u u u u u u u u u u u s d h h h h h h h h h h h h h h h h h h h h h h h h h h h h g g g g g g g g h g s u u u u u u u u u u u u u u u u u u y s g h h h h h h h g u u u u u u u u g g h g g h h h h h h g g g g g g g h h g h h g s s u s s d s s s u u u u u u u d d d d u u u u u u u u u u u u u u u u u u u u u u u u u u u u u u u u u u u u u u u u u u u u u u u u u u u u u u u u u u u u u u u u u s u u 2 < < < < ; @ % ",
"& O h t : 4 u s u u u u u u u u u u u u u u u u u u u u u u u u u u u u g g g h g z y < 3 2 s g h h h g s s s s s s s s s s s s s s d g g g g g g g g g u u u u s s s s u u u u s u s d g g g g g g g g z , @ % $ # @ m P 2 2 2 < , q d s s s s s s u u u u u u u u u u u u u u u u u u u u u u u u u u u u u u u u u u u u u u u u u u u u u u u u u u s d h g g g g g h h h h q 2 2 < 1 2 2 2 y h d g g g g g g g g g g g g g g g g g h h h h h h h h h h h h h h h h d s u y u u u u u u y y d g h h h h h h h h h h h h h h h h h h h h h h h h h h h h h h h h h h h h h h h h h h h h h h h h h h h h h g h h h h 5 + % % $ $ $ $ < 2 0 x h h h h h h h h h h h h h h h h h h h h h h h h h h h h h h h h h h h h h h h h h h h h h h h h h h h h h h h h h h h h h g g d d s s s u u u u u u u u u u u u u u u u u u u u u s s d g h h h h h h h h h h h h h h h h h h h h h h h d d d d d d d d g g g g s s u y u u u u u u u u u u u u u u u u u y s g h h h h h h h g u u u u u u u u g g h g g h h h h h h h h h h h z h h g g h h s u u u y u u u u u u u u u u u u s s s s u u u u u u u u u u u u u u u u u u u u u u u u u u u u u u u u u u u u u u u u u u u u u u u u u u u u u u u u u u u u u u u u u u u u 2 < < < < ; @ % ",
"& O g e : 2 t i i i i u u u u u u u u u u u u u u u u u u u u u u u s d g g g g g z 8 2 3 3 g g h h g d s s s s s s s u u s s d h h h h g g h h d s s u u u u u u u u u u d g g g g g g g g g g g g g g z , @ % % $ # m P 2 2 2 < , 9 s u u u u s s s u u u u u u u u u u u u u u u u u u u u u u u u u u u u u u u u u u u u u u u u u u u u u u u u u h h h h h h g d h g s s 2 2 2 2 2 < , 7 h h h h g g h h h h h h h g g g g g g g h h h h h h h h h h h h h h h h s y u s u u u u u u u u s s d h h h h h h h h h h h h h h h h h h h h h h h h h h h h h h h h h h h h h h h h h h h h h h h h h h h h g g g h h 2 o @ % $ $ $ $ , 2 5 g h h h h h h h h h h h h h h h h h h h h h h h h h h h h h h h h h h h h h h h h g g g g g g g g g g g g g g g g h h h h g g g g g g g g s u u u u u u u u u u u u u u u u u u u u u u u g h h h h h h h h h h h g h z z h h h h h h g g u u u u s s s s s u u u u u u u u u u u u u u u u u s s s s s u u s g h h h h h h h h h d u u u u u s s g g g h h h h h h h h h h h h h h h h h h h h h g g g g s u u s u u u u u u u u u u u u u u u u u u u u u u u u u u u u u u u u u u u u u u u u u u u u u u u u u u u u u u u u u u u u u u u u u u u u u u u u u u u u u u u u 5 < < < 2 ; @ $ ",
"& O g e : 2 t i i u u u u u u u u u u u u u u u u u u u u u u u u s d g g g g g g g 5 2 2 5 g h h h g s s s s s s s s u u s s d h h h h g g g g s s u y u u u u u u u u s g h h g g g g g g g g g g g g h , + $ % $ # m P 2 2 2 < , 9 s u u u u s s s u u u u u u u u u u u u u u u u u u u u u u u u u u u u u u u u u u u u u u u u u u u u u u s d g h h h h z z h g g s d 0 2 2 2 2 3 2 2 q h h h h g g h h h h h h h h h g g g g g h h h h h h h h h h h h h h h h s u u s u u u u u u u u u u s h h h h h h h h h h h h h h h h h h h h h h h h h h h h h h h h h h h h h h h h h h h h h h h h h h h h g h g h h < o $ % $ $ $ $ , 2 5 g h h h h h h h h h h h h h h h h h h h h h h h h h h h h h h h h h h h h h h h h g g g g g g g g g g g g g g g g h h h h g g g g g g g g g s u u u u u u u u u u u u u u u u u u u u u u g h h h h h h h h h h h h h h z g g g g z g s u u u u u u u u u u u u u u u u u u u u u u u u u u u s s s s u s s g h h h h h h h h h h g d s u s s d g g g h h h h h h h h h h h h h h h h h h h h h h g g g g g d s u u u u u u u u u u u u u u u u u u u u u u u u u u u u u u u u u u u u u u u u u u u u u u u u u u u u u u u u u u u u u u u u u u u u u u u u u u u u u u u u u 5 < < < 2 ; @ $ ",
"& O f w : 2 t i u u u u u u u u u u u u u u u u u u u u u u u u s d g g g g g g h u 3 3 2 9 g h h g d s s s s s s s s u u s d d h h h h h g d s u u y y u u u u u u u u s g h h g g g g g g g g g g g g h , @ $ % $ # m P < 2 2 < , 9 s u u u u s s s u u u u u u u u u u u u u u u u u u u u u u u u u u u u u u u u u u u u u u u u u u u u u s d g h h h h h h h g d d s u < 2 2 2 2 3 2 3 u h h h h g g g g g g g g g h h h g g g g h h h h h h h h h h h h h h h h g s u u u u u u u u u u u u s h h h h h h h h h h h h h h h h h h h h h h h h h h h h h h h h h h h h h h h h h h h h h h h h h h h h g h h h h , + % % $ $ $ $ , 2 5 g h h h h h h h h h h h h h h h h h h h h h h h h h h h h h h h h h h h h h h h h g g g g g g g g g g g g g g g g h h h h g g g g g g g g g g s u u u u u u u u u u u u u u u u u u u u u g h h h h h h h h h h h h h g g h h h h h d u y u u u u u u u u u u u u u u u u u u u u u u u u u u u u s u s d g h h h h h h h h h h h h h g s d g g g g h h h h h h h h h h h h h h h h h h h h h h h g g g g g g d u u u u u u u u u u u u u u u u u u u u u u u u u u u u u u u u u u u u u u u u u u u u u u u u u u u u u u u u u u u u u u u u u u u u u u u u u u u u u u u u u 5 < < < 2 ; @ $ ",
"& O f w : 1 r i u u u u u u u u u u u u u u u u u u u u u u u u d g g h g g g g z r < 4 2 w h z h g s s s s s s s s s u u s d d h h h h h g s u u u u u u u u u u u u u u d g g g g g g g g g g g g g g h , @ $ % $ # m P < 2 2 < , 9 s u u u u s s s u u u u u u u u u u u u u u u u u u u u u u u u u u u u u u u u u u u u u u u u u u u u u g g g g h h h g g d s u u d 8 : 2 2 2 2 < 2 7 g h h h h g h g g u u u u s d g h g g g g h h h h h h h h h h h h h h h h h d u u u u u u u u u u u u s h h h h h h h h h h h h h h h h h h h h h h h h h h h h h h h h h h h h h h h h h h h h h h h h h h h h g h h h h , @ % $ $ $ $ $ , 2 5 g h h h h h h h h h h h h h h h h h h h h h h h h h h h h h h h h h h h h h h h h g g g g g g g g g g g g g g g g h h h h g g g g g g g g g g g s u u u u u u u u u u u u u u u u u u u u g h h h h h h h h h h h h g g d d d d d s s s s u u u u u u u u u u u u u u u u u u u u u u u u u u u u u s d g h h h h h h h h h h h h z z h g g g g g h h h h h h h h h h h h h h h h h h h h h h h h g g g g h f s u u u u u u u u u u u u u u u u u u u u u u u u u u u u u u u u u u u u u u u u u u u u u u u u u u u u u u u u u u u u u u u u u u u u u u u u u u u u u u u u u 5 < < < 2 : # $ ",
"& O h e : 1 r i u u u u u u u u u u u u u u u u u u u u u s s g h h h h h h h h z 8 4 3 2 r z g g s s s s s s s s s s u u s d d h h h h g s u u u u u u u u u u u u u u u s d g g g g g g g g g g g g g g ; @ $ $ $ % G P < 2 2 2 < 4 s u u u u s s s s u u u u u u u u u u u u u u u u u u u u u u u u u u u u u u u u u u u u u u u u u u u u h h h h g g d d s s u y s u 2 2 2 2 2 2 3 < q x h h h h z h d s u u u u u u u s g g g h h h h h h h h h h h h h h h h h h d u u u u u u u u u u u s g h h h h h h h h h h h h h h h h h h h h h h h h h h h h h h h h h h h h h h h h h h h h h h h h h h h h h h h h s * $ % $ $ $ $ $ , 4 3 u h h h h h h h h h h h h h h h h h h h h h h h h h h h h h h h h h h h h h h h h g h h g g g g g g g h h h h h h h h h g g g g g g g g g g g g g s d s y s s s s s s s s s s s s s u u s g h h h h h h h h h h h h g s y s s u u s u u u u u u u u u u u u u u u u u u u u u u u u u u u u u u s d g g g h h h h h h h h h h h h h h h h h h h h h h h h h h h h h h g g g g g g h h h g g g g g g g g g g g s s u u u u u u u u u u u u u u u u u u u u u u u u u u u u u u u u u u u u u u u u u u u u u u u u u u u u u u u u u u u u u u u u u u u u u u u u u u u u u u u u 0 < < < 2 : $ $ ",
"& O f w : 1 r i u u u u u u u u u u u u u u u u u u u u u s d h h h h h h h h h g 7 3 2 2 y h g s s s s s s s s s s s s s s d g h h h g s u u u u u u u u u u u d d d d s d g h g g g g g g h g g g g g g ; @ $ $ $ $ C J < < < 2 < 4 s u u u u s s s s u u u u u u u u u u u u u u u u u u u u u u u u u u u u u u u u u u u u u u u u u u u u d d d d s s s u u s u y u 0 2 2 2 2 2 2 2 2 y z h h h h z h d s y y y y u s g g g g h h h h h h h h h h h h h h h h h h h d u u u u u u u u u u s d g z h h h h h h h h h h h h h h h g h h h h h h h h h h h h h h h h h h h h h h h h h h h h h h h h h h h h h h h s % $ $ $ $ $ $ $ , 3 2 u h h h h h h h h h h h h h h h h h h h h h h h h h h h h h h h h h h h h g d s u d g z z g g g g h h h h g g g g h h h h g g g g g g g g g g g g g h g s s s s s s s s s s s s s u s d g h h h h h h h h h h h h h g d s y u u u u u u u u u u u u u u u u u u u u u u u u u u u u u u u u s d g g g g g h h h h h h h h h h h h h h h h h h h h h h h h h h h h d d s s s s s s g g g g g g g g g g g g g s y s u u u u u u u u u u u u u u u u u u u u u u u u u u u u u u u u u u u u u u u u u u u u u u u u u u u u u u u u u u u u u u u u u u u u u u u u u u u u u u u u 0 < < < 2 : $ $ ",
"& o f w : < r i u u u u u u u u u u u u u u u u u u u u u s g z h h h h h h h h u 4 2 2 2 y d s s s s s s s s s s s s s s d g h h h g s u u u u u u u u u u u u g g g g g g h h g g g g g g g g g g g g g ; @ $ % # @ v J < < < 2 < 4 s u u u u s s s s u u u u u u u u u u u u u u u u u u u u u u u u u u u u u u u u u u u u u u u u u u u u u u u u u u y y u s d d y 3 2 2 2 2 2 2 2 3 d g h h h h g g g g s s s s g g h h g h h h h h h h h h h h h h h h h h h h h d u u u u u u u u u u s d g g g g g g d d d d d d d d d g g g g h h h h h h h h h h h h h h h h h h h h h h h h h h h h h h h h h h h h h z s $ % $ $ $ $ $ $ : 2 2 y h h h h h h h h h h h h h h h h h h h h h h h h h h h h h h h h h h h h g d s u d g z z g g g g h g d d u u i u d d g h g g g g g g g g g g g g h z h d s s s s s s s s s s s s u d g h h h h h h h h h h h h h h h g g s s u s s u u u u u u u u u u u u u u u u u u u u u u u d d d d d g g g g g g g h h h h h h h h h h h h h h h h h h h h h h h h h h h h s u y y u u u u s s d g g g g g g g g g g s y s u u u u u u u u u u u u u u u u u u u u u u u u u u u u u u u u u u u u u u u u u u u u u u u u u u u u u u u u u u u u u u u u u u u u u u u u u u u u u u u u 0 < < 2 2 , % $ ",
"& o f w : < r i u u u u u u u u u u u u u u u u u u u u u s g z h h h h h g h h r 2 < < 3 y u u s s s s s s s s s s s s d g h h h g s u u u u u u u u u u u u u g g g g h h h g g g g g g g g g h h h h g ; @ $ % # @ z G < < < < , 3 u u u u u s s s s u u u u u u u u u u u u u u u u u u u u u u u u u u u u u u u u u u u u u u u u u u u u u u u u s u u y s g h z 0 < 3 2 2 2 2 2 2 4 z g h h h g g g g g h h h h h h h h h h h h h h h h h h h h h h h h h h h h h d u u u u u u u u u u u s s s s s s s y y y y y y y y y s d d g g h h h h h h h h h h h h h h h h h h h h h h h h h h h h h h h h h h h h h s $ $ $ $ $ $ $ $ ; 2 < r h h h h h h h h h h h h h h h h h h h h h h h h h h h h h h h h h h h h h h h h g h h g g g g g d s u y u u u u y i d g g g g g g g g g g g g g g h g s s s s s s s s s s s s s s g h h h h h h h h h h h h h h h h h h g d d d g d d d u u u u u u u u u u u u u u u u u u u u h h h h h g g g g g g g h h h h h h h h h h h h h h h h h h h h h h h h h h h h s s u u u u u u y u d g g g g g g g g g g g s s u u u u u u u u u u u u u u u u u u u u u u u u u u u u u u u u u u u u u u u u u u u u u u u u u u u u u u u u u u u u u u u u u u u u u u u u u u u u u u u u 0 < < 2 2 , % $ ",
"& o f w : < r i i u u u u u u u u u u u u u u u u u u u s u d z h h h h h g z h 7 , < , 4 y y u u u u u u u u u s s s d g h h h g s s u u u u u u u u u u u u u d g h g g g g g g g g g h h h h h h h g h % @ $ $ $ @ z R < < , < < 2 u u u u u u y u u u u u u u u u u u u u u u u u u u u u u u u u u u u u u u u u u u u u u u u u u u u u u u u u u u u u u u g g s 3 2 3 2 2 2 2 2 2 e z g h h h h h h h h h h h h h h h h h h h h h h h h h h h h h h h h h h h h g s u u u u u u u u u u u u u u u u u u u u u u u u u u u u u u f g g g h h h h h h h h h h h h h h h h h h h h h h h h h h h h h h h h h h h y @ # $ $ $ $ $ $ ; 3 2 q h h h h h h h h h h h h h h h h h h h h h h h h h h h h h h h h h h h h h h h h h h h h h h h h s s u y s s s s u u u u d g h h h h h h h h h h g g g g u u s s s s s s s u u u g g h h h h h h h h h h h h h h h h h h h h h h h h h h d u u u u u u u u u u u u u u u s u y s h h h h h h h h h h h h h h h h h h h h h h h h h h h h h h h h h h h h h h h g u u u s u u u u s s s s g g g g g g g g g g g g g g g g s u u s s s s s s s s s u u u u u u u u u u u u u u u u u u u u u u u u u u u u u u u u u u u u u u u u u u u u u u u u u u u u u u u u u u u u u u u u e < < 2 2 , % # ",
"& o f w : < r i i u u u u u u u u u u u u u u u u u u u s u s h h h h h h g z d 4 < < , 5 u y u u u u u u u u u s s d g h h h g s s u u u u u u u u u u u u u u u d g h g g z z h g g h g g g g g g g d s % @ @ $ $ @ h G < 2 3 < 2 3 s s s s d d d d d s u u u u u u u u u u u u u u u u u u u u u u u u u u u u u u u u u u u u u u u u u u u u u u u u u u u u s d 0 2 2 2 2 2 2 2 2 2 s x d h h h h h h h h h h h h h h h h h h h h h h h h h h h h h h h h h h h g d s u u u u u u u u u u u u u u u u u u u u u u u u u u u u u u u d g h h h h h h h h h h h h h h h h h h h h h h h h h h h h h h h h h g h h w @ @ $ $ $ $ $ $ = 3 2 0 h h h h h h h h h h h h h h h h h h h h h h h h h h h h h h h h h h h h h h h h h h h h h h h h d d s u s s s s u u u u u d g h h h h h h h h h g g g g g g g g d d d d d d d d g h h h h h h h h h h h h h h h h h h h h h h h h h h h g d u u u u u u u u u u u u u u s u u s h h h h h h h h h h h h h h h h h h h h h h h h h h h h h h h h h h h h h h h g u u u s u u u u s s s s g g h h h g g g g g g g g g g g g u u s s s s s s s s s u u u u u u u u u u u u u u u u u u u u u u u u u u u u u u u u u u u u u u u u u u u u u u u u u u u u u u u u u u u u u u u u e < < 2 2 , % # ",
"% o f w : < e i i u u u u u u u u u u u u u u u u u u u s u u g h h h h g g h y 2 3 < < 9 s y y u u u u u u u u s d g h h h g s s u u u u u u u u u u u u u u u y u d h z h g d s u u s h h h h g s s s y % # @ $ $ @ h P 2 3 4 2 3 4 d g g g h h h h h d s u u u u u u u u u u u u u u u u u u u u u u u u u u u u u u u u u u u u u u u u u u u u u u u u u u u s y < 2 2 2 2 2 2 2 2 4 h z g h h h h h h h h h h h h h h h h h h h h h h h h h h h h h h h h h h h d s u u u u u u u u u u u u u u u u u u u u u u u u u u u u u u u u g g g h h h h h h h h h h h h h h h h h h h h h h h h h h h h h h h h g g z 7 @ @ $ $ $ $ $ $ * 2 < 8 h h h h h h h h h h h h h h h h h h h h h h h h h h h h h h h h h h h h h h h h h h h h h h h h g g g d s s s s u u u u u s g h h h h h h h h h g g h h h h h h h h h g g g g g h h h h h h h h h h h h h h h h h h h h h h h h h h h h g g d u u u u u u u u u u u u u s u s g h h h h g g g g d d d d h h h h h h h h h h h h h h h h h h h h h h h h h h h g s s u s u u u u s s s s d d g h g g g g g g g g g g g g h d u s s s s s s s s s u u u u u u u u u u u u u u u u u u u u u u u u u u u u u u u u u u u u u u u u u u u u u u u u u u u u u u u u u u u u u u u u e < < 2 < , % @ ",
"% o f q , < e i i u u u u u u u u u u u u u u u u u u u s u u d h h h h g g h e , 4 2 < q d y y u u u u u u u u d g h h h g s s u u u u u u u u u u u u u u u u u y u d g d d s s u u s d d s s s s s u r % $ @ $ $ @ z ] 3 3 2 2 3 4 d h h h h h g g g h d s u u u u u u u u u u u u u u u u u u u u u u u u u u u u u u u u u u u u u u u u u u u u u u u u u y u 5 < 2 2 2 2 2 2 2 2 8 h g h h h h h h h h h h h h h h h h h h h h h h h h h h h h h h h h h h h g s s u u u u u u u u u u u u u u u u u u u u u u u u u u u u u u u g h g g h h h h h h h h h h h h h h h h h h h h h h h h h h h h h h h h g g z 4 @ @ $ $ $ $ $ $ & 2 , 8 g h g g h h h h h h h h h h h h h h h h h h h h h h h h h h h h h h h h h h h h h h h h h h h h g g g g s s s s u u u u u u s g h h h h h h h h g g g g h h h h h h h g g g g g g g h h h h h h h h h h h h h h h h h h h h h h h h h h g g g d u u u u u u u u u u u u s i d h h h h h u u u u u u s s h h h h h h h h h h h h h h h h h h h h h h h h h h h g d s s u u u u u s s s s y u d g g g g g g g g g g g g g h g d s s s s s s s s s u u u u u u u u u u u u u u u u u u u u u u u u u u u u u u u u u u u u u u u u u u u u u u u u u u u u u u u u u u u u u u u u e < < 2 < , % @ ",
"% O i q , < q i u u u u u u u u s s s s u u s s s u u u s u d g h g h h h g g 5 < 4 3 < y s y u u u u s s s s s d g h h g s u u u u u u u u u u u u u u u u u u u u u u u u u u u u u u u u u u u u u u e $ $ @ # # @ z o.4 3 5 2 2 3 s h h h h h z z h d s u u u u u u u u u u u u u u u u u u u u u u u u u u u u u u u u u u s s s d g s u y u u u u u u u u s e , 2 2 2 2 2 2 2 2 2 r g g h h h h h h h h h h h h h h h h h g g g g h h h h h h h h h h h h g g d s u u u u u u u u u u u u u u u u u u u u u u u u u u u u d d g g g g g g h h h h h h h h h h h h h h h h h h h h h h h h h h h h h h h h g g z < @ # $ $ $ $ $ $ % 2 2 3 g h g g h h h h h h h h h h h h h h h h h h h h h h h h h h h h h h h h h h h h h h h h h h h h z g d d u u u u u u u u u s d g d g g h h h h h h h h h h h h h h h h h g g g g h h h h h h h h h h h h h h h h h h h h h h h h h h h h h g g f s u u u u u u u u u u u s d g h z g d s y u s s u u u u h h h h h h h h h h h h h h h h h h h h h h h h h h h h h g d s u u i i s s s s u u y u d g g g g g g g g g g g h g s s u u u u u u u u s s s s s s s s u u u u u u u u u u u u u u u u u u u u u u u u u u u u u u u u u u u u u u u u u u u u u u u u u u u u u u u u y 2 < 2 < < & @ ",
"% O i 0 , , q u u u i i s s s s g g g g g s u y u u u u u u s g g g g h h g s 3 2 3 3 2 u u u u u u u u y s d h g g d s u u u u u u u u u u u u u u u u u u u u u u u u u u u u u u u u u u u u u u u u q $ $ @ @ $ + g | 3 2 4 2 2 2 u h h h h h h g d s u u u u u u u u u u u u u u u u u u u u u u u u u u u u u u u y y u u s d g g h g s u u u u u u u u u y 7 , 2 2 2 2 2 2 2 2 3 d h z z h h h h h h h h h h h h h h h h g g g g z z h h h h h h h h h h d s u u u u u u u u u u u u u u u u u u u u u u u u u u d d d d g g h g g g g g h h h h h h h h h h h h h h h h h h h h h h h h h h h h h h h h g g h , @ $ $ $ $ $ $ $ % 2 2 3 d h g g h h h h h h h h h h h h h h h h h h h h h h h h h h h h h h h h h h h h h h h h h h h h h g s s u u u u u u u u u u s d g g h h h h h h h h h h h h h h h h h h g g g g h h h h h h h h h h h h h h h h h h h h h h h h h h h h h h g g d s s s s s s s s s s d d g h h h g g d s u u y u u u u h h h h h h h h h h h h h h h h h h h h h h h h h h h h h g d d u u i i s s s s s u u u u s d g g g g g g g g g h g d s u u u u u u u u u u u u s s s s u u u u u u u u u u u u u u u u u u u u u u u u u u u u u u u u u u u u u u u u u u u u u u u u u u u u u u u u y 2 < 2 < < * @ ",
"% O i q < , q u u u u u g g g g h h h h h d u y u u u u s u u s g g g g h h r 2 3 2 2 3 s y u s u u u u u s g z g f s y u u u u u u u u u u u u u u u u u u u u u u u u u u u u u u u u u u u u u u u u 0 # % $ @ % + u ] 2 2 3 < < < y h h h g g g d s u u u u u u u u u u u u u u u u u u u u u u u u u u u u u u u u y u s s g g h h z g d s u u u u u u u u r 2 < 2 2 2 2 2 2 , 2 5 g g h h h h h h h h h h g g g g g g g g g g g g h h g d s s s s s s s s u u u u u u u u u u u u u u u u u u u u u u u u u u u u g g g g h g g g g g g g h h h h h h h h h h h h h h h h h h h h h h h h h h h h h h h h h g g ; # $ $ $ $ $ $ $ % 2 2 3 s g h h h h h h h h h h h h h h h h h h h h h h h h h h h h h h h h h h h h h h h h h h h h h h g g d s u u u u u u u u u u s s u u s s h h h h h h h h h h h h h h h h g g g g h h h h h h h h h h h h h h h h h h h h h h h h h h h h h h h g g d s s u u u u d g g g g h h h h h h g d d s s s s s s h h h h h h h h h h h h h h h h h h h h h h h h h h h h h g g g d d d d h h h h d s u u u u u s d g g g g g g g h g g s u u u u u u u u u u u u s s s s u u u u u u u u u u u u u u u u u u u u u u u u u u u u u u u u u u u u u u u u u u u u u u u u u u u u u u u u y 2 < 2 < 2 * @ ",
"& O i 0 , , q u u u u u h h g g g g g g g g d s u u u u s u y u s g g g g z q < 3 2 < 3 u y u u u u u u g g g g s u u u u u u u u u u u u u u u u u u u u u u u u u u u u u u u u u u u u u u u u u u u 9 $ % $ @ % + r ) 2 < 2 , , , r h h h g d s u u u u u u u u u u u u u u u u u u u u u u u u u u u u u u u u u u u s d g h h h h z g d s u u u u s u u u q , 2 < 2 2 2 2 < : < 8 s s s s h h h h h h h h g g g g f f g g g g g g g d s u u u u u u u u u u u u u u u u u u u u u u u u u u u u u u u u u u u u u g g g g g g g g g g g g h h h h h h h h h h h h h h h h h h h h h h h h h h h h h h h h h g d * $ $ $ $ $ $ $ $ $ 2 2 3 u g h z h h h h h h h h h h h h h h h h h h h h h h h h h h h h h h h h h h h h h h h h h h h h z h g d u u u u u u u u u u u u u u s s h h h h h h h h h h h h h h h h g g g g h h h h h h h h h h h h h h h h h h h h h h h h h h h h h h h h h g d s d d d d g g g g h h h h h h h z g g h z h h h h h h h h h h h h h h h h h h h h h h h h h h h h h h h h h h h h h h h h h h h h g g d s s u u u s d g g g g g g h g g d u u u u u u u u d d d d s s s s u u u u u u u u u u u u u u u u u u u u u u u u u u u u u u u u u u u u u u u u u u u u u u u u u u u u u u u u y 2 < 2 < 2 * @ ",
"&   s t , 1 q f g g g g g g g g g g g g g g g s s u u s s u u u u u u u d y 5 < 2 2 < 5 u u u u u s s s g g g s u u u u u u u u u u u u u u u u u u u u u u u u u u u u u u u u u u u u u u u u u u u u 8 $ % # @ $ + q R 2 , < < < 2 0 z h d s s s s s u s s s u u u u u u u u u u u u u u u u u u u u u u u u u u u u s h g g h h h h h h g s u u u u s u y r 2 2 2 < 2 < < < < 2 , e u u u u u u u u u u u u u u u u u u u u u u u u u u u u u u u u u u u u u u u u u u u u u u u u u u u u u u u u u u u u u u u u u u u u u s s d g g g h h h h h h h h h h h h h h h h h h h h h h h h h h h h h h h h h h z y # $ $ $ $ $ $ $ $ $ 2 2 < u h g z h h h h h h h h h h h h h h h h h h h h h h h h h h h h h h h h h h h h h h h h h h h h g g g g g s u s u u u u u u u u u u u u g h h h h h h h h h h h h h h h h h h h h h h h h h h h h h h h h h h h h h h h h h h h h g g g h h h h h h h h h h h h h h h h h h h h h h h h h h h h g g g g h h h h h h h h h h h h g g g g h g g g h h h h h h h h h h h h h h h h h h h h h h h g s u y y s d g h h h h h g g g g s s u u u s g g g g g g h g s u u u u u u u u u u u u u u u u u u u u u u u u u u u u u u u u u u u u u u u u u u u u u u u u u u u u u u u u u s 8 < 2 < 2 = @ ",
"& . s u , 2 w g g g g g g g g g h g g g g h g d s u u s u u u u u u u u s w 2 , < < , 7 u s s s s d g g g g s u u u u u u u u u u u u u u u u u u u u u u u u u u u u u u u u u u u u u u u u u u u u u 7 @ % @ @ $ o 8 P 2 , < 2 2 2 7 h g s s s s s s s s s s u u u u u u u u u u u u u u u u u u u u u u u u u u u u s h g g h h h h h h g d u u u u u u s 7 2 2 2 < < < < < < 2 2 r u u u u u u u u u u u u u u u u u u u u u u u u u u u u u u u u u u u u u u u u u u u u u u u u u u u u u u u u u u u u u u u u u u u u s s u u g g h h h h h h h h h h h h h h h h h h h h h h h h h h h h h h h h h h g g 5 $ $ $ $ $ $ $ $ $ $ 2 3 < r h g h h h h h g g g g h h h h h h h h h h h h h h h h h h h h h h h h h h h h h h h h h h h h g g g g g s u s u u u u u u u u u u u u d g h h h h h h h h h h h h h h h h h h h h h h h h h h h h h h g g h h h h l l h h h h g g g g h h h h h h h h h h h h h h h h h h h h h h h h h h h h g g g g h h h h h h h h h h h h g g g g g g g g h h h h h h h h h h h h h h h h h h h h h h h h d d s s d g h h h h h h g g g g g g d d g g h h g g g g h g d s u u u u u u u u u u u u u u u u u u u u u u u u u u u u u u u u u u u u u u u u u u u u u u u u u u u u u u u u s 8 , 2 , 2 = + ",
"% o u u < 2 e g g g g g g g g g g g g g g h h d s u u s u u u u u s u u d q < < 2 , , q s d d d g g h h g s u u u u u u u u u u u u u u u u u u u u u u u u u u u u u u u u u u u u u u u u u u u u u u 4 + $ @ @ % o 4 P 2 , < 2 2 2 3 h d u u s s s s s s s s u u u u u u u u u u u u u u u u u u u u u u u u u u u u s h g g h h h h h h h g u u u u y s r < 2 2 2 < < < < < < < 5 u u u u u u u u u u u u u u u u u u u u u u u u u u u u u u u u u u u u u u u u u u u u u u u u u u u u u u u u u u u u u u u u u u u u u s s u u g h h h h h h h h h h h h h h h h h h h h h h h h h h h h h h h h h h h g y < % $ $ $ $ $ $ $ $ $ 2 3 < 0 g g g h h h h h h h h h h h h h h h h h h h h h h h h h h h h h h h h h h h h h h h h h h h h g g g g g s u s u u u u u u u u u u u u s g h h h h h h h h h h h h h h h h h h h h h h h h h h h h h h h h h h g g g g g g g g g g g g h h h h h h h h h h h h h h h h h h h h h h h h g g g g g g g g h h h h h h h h h h h h h h h h g g g g h h h h h h h h h h h h h h h h h h h h h h h h h g g d g h h h h h h h g g g g g g h h h h h h g g g g g g d s u u u u u u u u u u u u u u u u u u u u u u u u u u u u u u u u u u u u u u u u u u u u u u u u u u u u u u u u s 8 , 2 < 3 ; @ ",
"% o y u < 2 e h h h h h g g g g g g g g g h h g s u u s u u u u u s u u h e 2 4 4 2 2 u g g g g g h h h s u u u u u u u u u u u u u u u u u u u u u u u u u u u u u u u u u u u u u u u u u u u s u u u 2 + $ @ + % o 2 R 2 , < 2 2 2 3 g d u y s s s s s s s s u u u u u u u u u u u u u u u u u u u u u u u u u u u u s h g g h h h h h h h g u u u u y d 5 , 2 2 2 < < < < < < , 8 s u u u u u u u u u u u u u u u u u u u u u u u u u u u u u u u u u u u u u u u u u u u u u u u u u u u u u u u u u u u u u u u u u u u u u u s s h h h h h h h h h h h h h h h h h h h h h h h h h h h h h h h h h h h h u 5 3 % $ $ $ $ $ $ $ $ # 2 3 < 7 g h g h h h h d d d d g g h h h h h h h h h h h h h h h h h h h h h h h h h h h h h h h h h h g g g g g s u s u u u u u u u u u u u u u d g h h h h h h h h h h h h h h h h h h h h h h h h h h h h h s s s s s s u u u u u u g g g g h h h h h h h h h h h h h h h h h h h h h h h h d d d d g g g g h h h h h h h h h h h h s s s s g g g g h h h h h h h h h h h h h h h h h h h h h h h h h h h h g g g g h h h h g g g g g g h h h h h h g g g g s s s u u u u u u u u u u u u u u u u u u u u u u u u u u u u u u u u u u u u u u u u u u u u u u u u u u u u u u u u u s 8 , 2 < 3 ; @ ",
"& o e u < 2 0 z h h h h h h h h h h h h g h h g g d s u s s u u s s g z h 5 2 2 4 3 4 s g g h h h h h h g d s u s s s s s s s s u u u u s u u u y s d s u u u u u u u u u u u u u u u u u u u u s y u y ; @ $ $ @ % + , ) 3 3 2 2 2 2 2 y g s u s s s s s s s s u u u u u u u u u u u u u u u u u u u u u u u u s s u u s g g h h h h h h h h h g s u u u e 2 , 2 2 2 1 < < < < < < q s u u u u u u u u u u u u s s s s s s u u u u u u u u u u u u s s u u u u u u u u u u u u u u u u u u u u u u u u u u u u u u u u s s u u s s d h h h h h h h h h h h h h h h h h h h h h h h h h h h h h h h h h g g g g 7 3 < # $ $ $ $ $ $ $ $ # : 3 2 3 d s y s s s s u u u u u u s g g g g g h h h h h h h h h h h h h h h h h h h h h h h h h h h h g g g g g u y u u u u u u u u u u u u u u s s g h h h h h h h h h h h h h h h h h g g g g g g g h h h h d s u u u u i i u u u u u s g g h h h h h h h h h h h h h h h h h h h h z h g d s s s s s d g h g g g g h h h h h g d u u u u u g g g h h h h h h h h h h h h h h d s s g g h h h h h h h h h h h h h g h h h h g g g g g g g g g h h g g d s s s u u y u u u u u u u u u u u u u u u u u u u u u u u u u y y u u u u d u u u s u u u u u u u u u u u u u u u u u u u u u e < 2 < 3 ; @ ",
"* o e y , 2 7 g h h h h h h h h h h h h g g g g g g g d s s s i s s g z u 3 3 2 3 3 4 s h h h h h h h h h g d s u u u u u u u u u u u u u u s s d g h g u u u u u u u u u u u u u u u u u u u u s y u e ; # $ $ @ $ @ ; ] 5 3 3 2 2 2 2 0 z d d s s s s s s s s u u u u u u u u u u u u u u u u u u u u u s s s s s u u s g g h h h h h h h h h g d s s g 7 , < 2 2 < < < < < < < 2 e u u u u u u u u u u u u u s s s s y u u u u u u u i u u u u u u u u u u u u u u u u u u u u u u u u u u u u u u u s s s s u u u u u u u u s d h h h h h h h h h h h h h h h h h h h h h h h h h h h h h h h h h h g g h e 2 2 < % $ $ $ $ $ $ $ $ @ : 3 2 2 y s u s s s s u u u u u u s g g g g g h h h h h h h h h h h h h h h h h h h h h h h h h h h h g g g g s u y u u u u u u u u u u u u u u s u d h h h h h h h h h h h h h g g g g h h h h h h h h h h h d s u u u u u u u u u u u u u s h h h h h h h h h h h h h h h h h h h h h g d s s s s s u s g h g g g g h h h h g d s u u u s s g g h h h h h h h h h h h h h h g s u s s d g g h h h h h h h h h h h h g g g g g g g g g g g g h g d s s s u u s s u u u u u u u u u u u u u u u u u u u u u u u u u u s u u d u s s u s s u y u u u u u u u u u u u u u u u u u s s u u e < 2 < 3 ; @ ",
"* o e y , 3 4 d h h h h h h h h h h h h g g g h g g g g g d d s s d h z w 2 3 < 2 2 5 g h h h h h h h h h h g d g g g g g g g g s s u u y u s d h h h d u u u u u u u u u u u u u s u u u u u u u u u 8 ; @ $ $ $ # @ * ) 5 < 3 2 2 2 2 4 g g d s s s s s s s s u u u u u u u u u u u u u u u u u u u u s s d g g d u u s g g h h h h h h h h h h g g g s 2 < 2 1 1 < < < < < < < 4 y u u u u u u u u u u u u u s s s s y u s s s s s s d d s s d s u y u u u u u u u u u u u u u u u u u u u u u u u u g g g g s u u u i u s d d h h h h h h h h h h h h h h h h h h h h h h h h h h h h h h h h h h h g x e < 2 2 < % $ $ $ $ $ $ $ $ # : 3 2 2 q s s s s s s u u u u u u s g g g g g h h h h h h h h h h h h h h h h h h h h h h h h h h h h g g g d u u u u u u u u u u u u u u u u u s u s h h h h h h h h h h h h g d s u u u u u d d d d g g h h d s u u u u u u u u u u u u u u h h h h h h h h h h h h h h h h h h h h g d u u s s s s y u d g g g g g h h h h d s s s u s s d g h h h h h h h h h h h h h h h g s u u u s s d h h h h h h h h g h h h h h j j g g g g g g g g g s u u y u u u d s s u u u u u u u u u u u u u u u u u u u u u u u u u u 9 4 4 5 q u s s u u u u u u u u u u u u u u u u u u u s g g s u e < 2 < 3 ; @ ",
"& o e y , 4 2 s h h h h h h h h h h h h g g h h g g g g g g g d d g h z 0 2 3 3 < 2 5 h h h h h h h h h h h h g g h g g g g g g g d s s y u s g h h g u u u u u u u u u u u u u s s u u u u u u u u y 5 : @ $ $ $ $ @ = R 5 , 2 2 2 2 2 2 q s y u u u u s s s s u u u u u u u u u u u u u u u u u u u u s d g h h g d s s g g h h h h h h h h h h h z z e , 2 2 1 1 1 < < < < < < 5 u u u u u u u u u u u u u u s s s s u s g g g g g g g g g g h g d u u u u u u u u u u u u u u u u u u u u u u u u u h h h h g s u u d d h h h h h h h h h h h h h h h h h h h h h h h h h h h h h h h h h h h h h h h 8 3 2 3 3 2 @ $ $ $ $ $ $ $ $ # : 3 2 < 8 s s s s s s u u u u s u s g g g g g h h h h h h h h h h h h h h h h h h h h h h h h h h h h g g g s y s u u u u u u u u u u u u u u u s u s h h h h h h h h h h h h g d u y s s s s u u u u s d g g s s u u u u u u u u u u u u u u h h h h h h h h h h h h h h h h h h h h d s u u s s s s u u s d g g g g h h h h u u s s u s d g h h h h h h h h h h h h h h h h d s y y u u i s g h h h h h h h g h h h d d d d g g g g g g g g s u y y u u s s d d s s u u u u u u u u u u u u u u u u u u u u u u u u s 8 < , < , < 3 9 e u s u u u u u u u s u u u u u u u u y d d y s e < 2 < 3 ; @ ",
"* o 6 y , 4 < s h h h h h h h h h h h h h h h h h h h h g g g g g g h z 2 3 3 2 2 4 8 l h h h h h h h h h h h h h h h h h h h h h h g d s d g h g d s i u u u u u u u u u u s s s s s s s s s s s d w : : @ $ $ $ $ $ + C q , < 2 2 2 2 < 3 u s u y y u u u u u u u u u s u u y u u u u u u u u u u s s g g g g h h h h h g g g h h h h h h h h h x h d 3 1 2 2 1 2 2 2 2 2 2 2 , 0 u r u u u u u u u u u u u u s y u g g g g g g g h h h h z z h h d u u u u u s g g s s s s s s s s s s s s s s s s s s g g g g g g g h h h h h h h h h h h h h h h h h h h h h h h h h h h h h h h h h l l h d z x g 8 4 2 3 3 2 , + $ $ $ $ $ $ $ $ # * 3 2 < 2 y s u u u u u u u u s s u y g g g h h h h h h h h h h h h h h h h h h h h h h h h h h h h h g g d u u u u u s s s g g g g g s u y y y u s s g g g g h h h h g g g g h d s u d s u y u s s s u u u u s s s s s s s u u u u u u u s g h h h h h h h h h h h h h h h h h h g d u u u u s s s u u u u u d g h h g g d u s s s s u s g g h h h h h h h h h h h h h h h h d s u u s s s s g h h h h h h h g s u s u u u u u u s s s s s s s u u u u u s s h h d y u u u u u u u u u u u u u u u u u u u u u u u u d y 5 : < < < 2 , < 5 0 e s g d u u s s u u u u u u u u u u u u s 0 < 2 < 3 ; @ ",
"& o 5 y , 4 2 r h h h h h h h h h h z h g g h h h h h h g g g g g g h d 2 3 3 2 3 3 0 l h h h h h h h h h h h h h h h h h h h h h h h g g g h h d s i i u u u u u u u u u u u u s s s s g d s y u s 4 < ; @ $ $ $ $ % o h 0 , < < 2 2 2 < 2 0 y u y y s u u u u u u u u s u y y u u u u s s s s s d d g g g g g g g g g g g g g h h h h h h h h z h h q 1 2 2 1 1 2 2 2 2 2 2 2 < q s y u u u u u u u u u u u u s s d g g g g g g g g g h h h g g h g u u u u u d h h d s s s s s s s s s s s s s s s s u s g g g g g g h h h h h h h h h h h h h h h h h h h h h h h h h h h h h h h h h h g f h h y 5 3 3 3 4 2 3 : o $ $ $ $ $ $ $ $ # * 3 2 2 2 e u u u u u u u u s s s u u g g h h h h h h h h h h h h h h h h h h h h h h h h h h h h h h g g s u u u u u s d g g g g g g g g d d d d g g g g g g h h h h h h h h g d s u s s u u y y u y u u u u s s s s s s s u u u u u u s g h h h h h h h g g g g g g g g h h h g g d s u u u s s s u u u u u s s d g g d u u s s s s s d g g h h h h h h h h h h h h h h h g g d s s u u u u g h h h h h h h g s u s u u u u u u u u u u u u u u u u u u u u h h g s u u u u u u u u u u u u u u u u u u u u u u u u s s r 5 < , < < < < 2 3 < 4 0 u d s s u u u u u u u u u u u u u s 0 < 2 < 3 ; @ ",
"% + 4 y , 3 2 0 h h h h h h g g g g g g s d h l h h h h g g g g g g z y 2 2 2 2 3 2 q h h h h h h h h h h h h h h h h h h h h h h h h h h h h g s i u u u u u u u u u u u u u u y u d g h g s u u e , 2 = @ $ # $ $ % o y 9 , 2 2 < < 2 < < 3 e s u u d d d d d s s s d d d s s u u s s s s s d g g g g g g g g g g g g g g g g h h h h h h h h z h d 3 2 2 1 1 1 1 2 2 2 2 2 2 1 e d u u u u u u u u u u u u u s d g g g h h h g g g g g g g s d g g s u u s u s g g s s s s s s s s s s s s s s s s s u u s g g g g g h h h h h h h h h h h h h h h h h h h h h h h h h h h h h h h h g g h l s 8 2 3 4 4 4 3 3 3 = + $ $ $ $ $ $ $ $ $ * 2 2 3 2 8 y u u u u u u u u u u s s g h h h h h h h h h h h h h h h h h h h h h h h h h h h h h h h g d u u u u u s s g g h g g g g z z h g g g g g g g g g h h g g g g d d s s s u u u s s s u u u u u u u s s s s s s s s u u u u s g h h h h h h h g d s s s s s d g h g g d s s u u u u s s s u u u u u s s s s d u u u s s s s s g g h h h h h h h h h h h h h h h h h g g d s s s s s g h h h h h h h g s u s u u u u u u u u u u u u u u u u u u u u u s s y u u u u u u u u u u u u u u u u u u u u u u u u u u u r 3 3 2 : < 2 2 3 2 , , 4 q r s u u u u u u u u u u u u u s 0 , 2 < 3 ; @ ",
"% @ 3 u , 2 3 7 h h h g h h h h u u u u u s g z h h h h g g g g g d z w 2 2 2 2 3 < e h h h h h h h h h h h h h h h h h h h h h h h h h h h g d u i i u u u u u u u u u u u u u y u d g g g g g y 3 , 3 * @ $ $ $ $ % o 0 8 : 2 2 2 2 < < 2 , 5 s u s d z z z z h h h z z z h g u u u u d g g g g g g h g g g g g g g g g g g g h h h h h h h h h h q 2 2 2 1 1 2 2 2 2 2 2 2 2 2 e d u u u u u u u u u u u u u s h z g g h h h h g h g g d s u s g g d u u s u y s s y s s s s s s u s s s s u s s s u u u u s g g g g h h h h h h h h h h h h h h h h h h h h h h h h h h h h h h h h h s r q 2 < 2 4 4 3 2 < 4 < % $ $ $ $ $ $ $ $ $ $ * 2 2 3 2 5 y u u u u u u u u y u s d h h h h h h h h h h h h h h h h h h h h h h h h h h h h h h h h g s u s u u u u g g h h g g g g z h g g h h h h g g g g h h g g y y y y u u u u y u s d g f g g u u u u u u s s s s s s u u u u g h h h h h h h h g s u u u u u u s d g d s u u u u u u s s s u u u u u s s s s u u u s s s s s d g g h h h h h h h h h h h h h h h h h h g g d g g g g g h h h h h h h g s u s u u u u s s u u u u u u u u u u u u u u u d d s u u u u u u u u u u u u u u u u u u u u u u u u y y u u y 3 : 2 3 3 2 3 3 4 2 2 < 5 q y u u u u u u u u u u u u s 0 < 2 < 2 ; @ ",
"& @ 2 y 2 2 2 2 d x h g h h h h u y u s s s s s h h h g g g g g g h h 5 2 2 2 2 3 < y h h h h h h h h h h h h h h h h h h h h h h h h h h h g d u u u u u u u u u u u u u u u u y y s g g z g s 3 , , 3 % # $ $ $ $ $ $ 2 r : 2 < < 2 2 < 2 2 2 7 g z z g g g h h h h h h h h h h h h h g g g g g g g g g g g g g g g g g g g g h h h h h h h h z g 5 2 2 2 2 2 2 2 2 2 2 2 2 2 2 y d s u u u u s s s s s s s s s g z x h h h h h z h g s s s g h g h h h g s u u u u u u u u u s u s u s s u u u u u u u u s d g g h h h h h h h h h h h h h h h h h h d g h h z z h h h h h h v h s r 7 4 2 2 2 3 3 3 4 3 2 3 3 * @ $ $ $ $ $ $ $ $ $ % & 2 2 3 < 2 q y u u y y y u s s d g h z h h h d g g h z z z h g h h h s s s s s s s s y u d g h h g g s s u u y u d g g g h h h h h h g d s g g g g h g g g g z h g g s s s s u u u u g g h h h h h h s u u u u u u u s s s s s u s s g h h h h h h h h g d s s s s u u u u u u s s s s s s s s s s u u u u u u u s s s s s s r r r r y u d g g g g g z z z z z z h g z z h h h h h h h h g d g h h h g h h h g g s s u u u u s s u u u s s s s s s s u u u u s s s s u u u u u u u u u u u u u u u u u u u u u u u u y u s s u d 7 , 3 3 2 2 2 2 2 2 2 2 2 5 0 y d s u u s s y u u u s 2 < 2 < 2 * # ",
"* @ , r 2 2 2 2 w x g h h h h h s u u s s s s s h h g g g g g g g h d 5 2 2 2 2 3 < y h h h h h h h h h h h h h h h h h h h h h h h h h h h g d u u u u u u u u u u u u u u u u u y u d h g g 9 2 < < 2 $ $ $ $ $ $ $ $ : 0 , 2 < < 2 2 2 2 2 2 2 5 s g d g h h h h h h h h h h h h h h g g g g g g g g g g g g g g g g g g g g h h h h h h h h h r 3 2 2 2 2 2 2 2 2 2 2 2 2 2 2 y d s u u u u u u u u u u u u d g h z h h h h h z h d u u d h h h h h h g s u u u u u u u u u u s s s s s u u u u u u u u s g g g h h h h h h h h h h h h h h h h h h g g g g g g h h h g g f q 7 3 3 3 3 3 2 3 3 3 3 3 2 2 3 , % @ $ $ $ $ $ $ $ $ $ $ % < 2 2 < 2 5 d g g d u s s s s d g g g h z z z z h g d s y r 0 8 7 5 3 3 3 3 3 3 3 2 2 2 3 5 8 q y s s s s s u s g z g g h h h g g g s u u d g g g g g g g h h h g g u u u u u u s s g g h h h h h h d u u u u u u u s s s s s s d g g h h h h h h h h h g s s s s s s s s s s s u u s s s s s s s u d s y r e q 9 7 3 3 3 3 , , , , < 2 3 4 5 5 5 5 q e r y s s d g g h z z x z g g h g g g h h g g g g g g g h g s u u u u s s u u s s s s s s s s s u u u s s s s u u u u u u u u u u u u u u u u u u u u u u s s d d g g z z g 3 , < 3 3 3 2 2 2 2 2 2 2 < 3 9 y g s u y s s s u 0 2 2 2 < 2 * $ ",
"& @ ; e 2 2 2 2 3 g h h h h h h d s u s s s s s h g g g g g g g g z u 3 2 2 2 2 3 < y h h h h h h h h h h h h h h h h h h h h h h h h h h h g d u u u u u u u u u u u u u u u u u y y s f d 7 , < 2 2 < $ $ $ $ $ $ $ $ % 4 , 2 2 2 2 2 2 2 2 2 3 4 3 0 d g z h g g g g g g g g h h h h g g g g g g g g g g g g g g g g g g g g h h h h h h h h g 5 2 2 2 2 2 2 1 1 1 1 2 2 2 2 3 u g d d s s s s s s a s s s s g g h h h h h h g h g s y s g h h h h h h g s u u u u u u u u u u s d g d s u u u u u u u s d g h h h h h h h h h h h h h h h h h h h h h g g g x l d u e 0 7 4 4 3 3 3 4 3 3 3 3 3 3 3 3 2 3 < = $ $ @ $ $ $ $ $ $ $ $ # $ , < < 2 2 2 e s h z s s u u u u u u u y y r 0 8 7 7 4 2 < , , < 2 3 3 2 2 2 2 2 2 2 2 2 3 3 2 2 3 4 2 3 5 7 e r u u g h z z h h h h g d d h g g g g g g g g g g h h d d d d d d d g g g g g h h h h g s u u u u u u s s s s d g g g g h h h h h h h h h h d s s s u u u u s s s y y y y y y e 0 5 3 5 4 2 < 2 < , ; , , < < < < < < 2 3 3 2 2 2 2 2 2 2 , , 2 2 3 4 7 8 9 0 r y s d g g h h z x x z g g g g g h h g s s u u u u s s d d d d d d d d s s u u s s s s u u u u u u u u u u u u u u u u u u u u u s d g g g g h z d h g 4 < 2 4 2 2 2 2 2 2 2 2 3 < , 3 8 q y y d s y y 3 2 2 3 < 2 * $ ",
"* # * q 2 2 2 2 2 r z h h h h g d d s s s s s s g g g g g g g g g z r 2 3 2 2 2 3 < u h h h h h h h h h h h h h h h h h h h h h h h h h h h g d u u u u u u u u u u u u u u u u u u y u 0 3 2 2 < 2 3 , $ $ $ $ $ $ $ $ + < < 2 2 2 2 2 2 2 2 2 2 3 3 2 3 8 r s s s s s s s s s h h h h g g g g g g g g g g g g g g g g g g g g h h h h h h h h u 2 2 3 2 2 2 < 1 < < < 2 2 2 2 4 s g g h h h g g g g f f f g g g g g g h h h h d g d u u d g g h h h h h g s u u u u u u u u u u s g z s s u u u u u u u s g g h h h h h h h h h h h h h h h h h h h l h h g d 0 8 5 4 2 3 3 3 3 2 3 3 3 3 3 3 3 3 3 3 2 2 3 = $ $ $ @ # $ $ $ $ $ $ $ @ $ , < , 2 2 < < 3 5 8 7 5 4 3 3 3 2 < 2 2 2 2 2 2 3 3 3 2 2 3 3 2 2 2 2 2 2 2 2 2 2 2 3 2 2 2 2 2 2 3 4 3 2 < 2 3 3 2 4 5 7 7 e e e e u u u d g g g g g g g g g g h z z z z h h h h h h h h h h h h h g d u u u u u u s s s s g h g g g h h h h h h h h h h g s s s s r r r r q 0 7 4 4 4 4 4 < < 2 2 2 < < < < < < < < 1 2 2 2 2 2 2 3 3 3 2 2 3 3 2 2 2 2 3 3 3 2 2 2 2 2 < < 2 2 3 4 5 7 7 8 q y u g g g g g g h h s s u u y u s d g g g g g g g g d s s u s s s s u u u u u u u u u u u u u u u u u u u u u s g h g g g g g z d g s 7 < < 2 2 2 2 2 2 2 2 2 2 2 , , 2 2 3 8 5 3 2 2 , , 2 < 2 * $ ",
"* # $ 7 2 2 2 2 < 7 s x g h h h g h h h g g g g g g g g g g g g h h 7 2 2 2 2 2 3 , u h h h h h h h h h h h h h h h h h h h h h h h h h h h g h s u u u u u u u u u u u d u y u s y q 5 2 2 2 1 < 2 4 * $ $ $ $ $ $ $ $ @ * 2 2 2 2 2 2 2 2 3 3 3 3 3 2 2 2 2 2 5 7 0 w r r y y u s s d g g g g g g g g g g g g z z z z h h h h s d g z z h g z 0 2 3 3 2 2 2 2 2 2 2 2 2 2 2 2 2 r h g d d g g g g g g g g g g g d d s g g g g g g g g g g h h h h h h h g s u s u y y y u d d g s u s s s s u u u u u r s g g h h h h h g g g h h g g h z z x h d y e 7 4 2 2 2 2 2 2 2 2 2 2 2 2 2 2 3 3 3 3 3 2 2 4 3 2 = + $ $ # # # $ $ $ $ $ $ $ # $ * 3 2 2 2 2 2 2 2 2 2 2 2 2 2 2 2 2 2 2 3 3 3 2 2 2 2 2 2 2 2 2 2 2 2 2 2 2 3 2 2 2 2 2 2 2 2 2 2 2 3 2 2 2 2 2 1 2 3 3 3 2 2 2 2 2 2 2 2 2 4 4 4 4 4 5 7 8 q e r y s s s s g g g g z z z z z z z z g g g g g d d d d d d d z z z h g g g g s s s s u y e 0 4 4 4 4 < < < < < 2 2 2 2 2 2 2 2 2 2 2 3 3 3 2 2 2 2 2 2 2 2 2 2 2 2 2 2 2 2 2 3 3 3 3 2 2 2 2 2 2 2 2 2 2 2 2 2 2 2 2 2 2 1 1 2 2 2 2 2 2 2 2 7 7 7 7 q q q q r u d h h h h h h h h h x z g d s s s s s s s s s s s s s s s s s s s s s s s s s s g g z z z z z z z z x g q 2 2 2 2 2 2 2 2 2 2 2 2 2 1 < , < < < < 2 2 , < , 5 , % % ",
"* # $ 4 2 2 2 2 3 2 5 s z g g h g h h h h h h h h g g g g g g g h g 5 2 2 2 2 2 3 < u h h h h h h h h h h h h h h h h h h h h h h h h h h h g h s u y y u u u u u u u u u s s y q 4 , < 2 2 2 2 2 2 < $ $ $ $ $ $ $ $ $ # * 2 2 2 2 2 2 2 2 3 3 3 3 3 2 2 2 2 2 2 < < < < 2 2 2 2 3 4 5 4 4 4 4 4 4 4 4 8 8 8 8 e e e e y u d g h h h h z g h v 5 3 3 3 2 2 2 2 2 2 2 2 2 2 2 2 , 3 9 s z z z z z z z z z h h h h h z z h h g g g g g g d d d d f f g g z z h h h h g d d g g h z g s u s s s u u u u u u g h h h h h g h h z z l h g g s y q 8 3 3 2 2 2 2 2 2 2 2 2 2 2 2 2 2 2 2 2 2 2 2 2 2 3 4 3 2 2 * @ $ $ @ # $ $ $ $ $ $ $ $ $ $ $ * 3 2 2 2 2 2 2 2 2 2 2 2 2 2 2 2 2 2 2 3 3 3 2 2 2 2 2 2 2 2 2 2 2 2 2 2 2 2 2 2 2 2 2 2 2 2 2 2 2 3 3 3 2 2 2 2 3 3 3 3 3 3 3 3 3 3 3 3 3 3 3 3 3 2 < , , , , < < < < < < < < < < < < < < < < < < < < 2 2 2 2 2 2 2 2 2 2 4 4 4 3 3 3 3 3 3 3 3 2 2 2 2 2 < < < < 2 2 2 2 2 2 2 2 2 2 2 2 2 2 3 3 2 2 2 2 2 3 3 3 3 3 3 3 2 2 2 2 2 2 2 2 3 3 3 3 2 2 2 2 2 2 2 2 2 2 2 2 2 2 2 2 2 2 1 1 2 2 2 2 2 2 2 2 2 2 2 2 2 2 2 < < 2 4 5 5 5 5 5 0 0 0 q q q 9 8 7 7 7 7 7 7 7 7 7 7 7 8 7 7 7 7 7 7 7 7 7 7 7 7 5 7 9 0 9 8 9 9 0 q q q 8 e 0 4 2 2 2 2 2 2 2 2 2 2 2 2 2 2 < < < 2 2 2 , < 2 3 2 = $ $ ",
"& $ @ < 2 2 2 2 3 2 2 7 y g x h g h h h g g g g g g g g g g g g h s 3 2 2 2 2 2 2 2 y z h h h h h h h h h h h h h h h h h h h h h h h h h h h h g s y y u u u u u u u u y y 0 4 , 1 < : 2 2 2 2 2 3 ; # $ $ $ $ $ $ $ $ % % < 3 3 3 3 3 3 3 3 3 3 3 3 2 2 2 2 2 4 3 < , < < < < < 2 2 3 2 2 2 2 2 2 2 2 2 2 2 < < < < < 2 3 5 7 r y s g g z d e 2 3 3 2 2 2 2 2 2 2 2 2 3 3 2 2 4 2 < 4 7 e s d d d d d d d d s s y y e 0 0 0 0 5 5 5 5 3 3 3 3 3 3 4 4 3 5 8 q r u g z z h g g z h g s s s u u u u u u g z z h x z g g h d u r q 8 4 2 3 3 2 2 2 2 2 2 2 2 2 2 2 2 2 2 2 2 2 2 2 2 2 2 2 2 2 2 2 2 < ; % % % + @ # $ $ # # $ $ $ $ $ $ $ $ * 3 2 2 2 2 2 2 2 2 2 2 2 2 2 2 2 2 2 2 3 3 3 2 2 2 2 2 2 2 2 2 2 2 2 2 2 2 2 2 3 2 2 2 3 3 3 3 3 3 3 3 3 3 3 2 2 3 3 2 2 2 < < < < , , , , ; ; ; ; ; = = * & % % % % % % $ $ @ @ @ @ @ @ @ @ @ @ @ @ @ @ + + + + + o o o + + @ @ + @ # # # % % % % * = ; : : : : : : : : , , , , , 2 2 2 2 3 3 4 4 3 3 3 2 2 2 2 2 3 3 3 3 2 2 2 2 2 2 2 2 3 3 3 3 2 2 2 2 3 3 2 2 2 2 2 2 2 2 2 2 2 2 1 1 2 2 2 2 2 2 2 2 2 2 2 2 2 2 2 < < < 2 3 3 3 2 2 2 2 < 2 2 2 < < < < < < < < < < < < < < < < < < < < < < < < < < , , 2 2 < < < < 2 2 2 2 2 < 2 3 3 2 2 2 3 2 2 2 2 2 2 2 2 2 2 2 2 2 2 2 , 2 3 2 ; % $ $ ",
"% $ @ : 3 3 2 2 2 3 3 < 2 5 q s u u u s s s s s g g g g g g g g h u 2 2 3 2 2 2 2 3 r z h h h h h h h h h h h h h h h h h h h h h h h h h h h h g s u y u u u u u u u u 8 3 < < < , < 3 < < 2 2 < 2 % $ $ $ $ $ $ $ $ $ % $ , 4 3 3 3 3 3 3 3 3 3 3 3 2 2 2 2 2 2 2 2 < < < < < < < 2 3 3 3 3 3 4 4 3 3 3 2 2 2 < < < < < < < < 2 3 3 3 5 5 4 < 3 3 3 2 2 2 2 2 2 2 2 2 3 3 2 2 3 4 3 2 2 3 2 3 4 4 4 3 3 3 3 3 < < < < < < 2 2 2 2 2 2 2 2 2 2 2 2 2 2 2 2 2 2 , 2 5 8 e u g d h g h g s s u u u u u u r u u r q 0 7 5 4 3 < , 1 2 2 3 3 2 2 2 3 3 2 2 2 2 2 2 2 2 2 2 2 2 2 2 2 2 2 2 2 2 2 2 < ; % + @ @ @ # # $ $ # # # $ $ $ $ $ $ $ $ * 3 2 2 2 2 2 2 2 2 2 2 2 2 2 2 2 2 2 2 3 3 3 2 2 2 2 2 3 3 2 2 2 2 2 2 2 2 2 2 2 2 2 2 2 2 , , , , ; ; = = = = = = * * * * $ $ $ # # @ # # # # $ @ @ @ $ % % $ @ + $ $ $ $ $ $ $ $ $ $ $ $ $ $ % % $ $ $ $ % % % % $ $ $ $ % % % $ $ $ % % % % % $ # # # @ @ @ @ @ # # $ $ $ $ % % % % % % * * = = ; ; ; ; , , , < < < < 1 2 2 2 2 2 2 2 2 3 3 3 3 2 2 2 2 2 3 3 2 2 2 2 2 2 2 2 2 2 2 1 1 1 1 2 2 2 2 2 2 2 2 2 2 2 < < < < 2 2 2 2 2 2 2 3 3 3 3 3 3 4 4 3 2 2 2 2 < < < < < 2 2 < < < < < < < < < < < < , < 2 3 3 2 3 2 3 3 3 3 3 3 2 2 2 2 2 2 2 3 2 2 2 2 2 2 2 2 2 2 2 2 2 2 4 4 3 ; # $ $ $ ",
"& # @ = 3 3 2 2 2 2 2 2 2 2 2 2 2 2 2 3 3 3 3 3 5 8 e y g h z z g w < 3 3 3 3 3 3 2 4 y g h h h h z z z z g d s s s s s d h z h g g g g g g g g g g s y y y u y e 8 4 3 2 2 2 2 2 2 1 < < < , , , * $ $ $ $ $ $ $ $ $ $ % $ * , 2 2 3 2 3 3 3 3 3 3 3 3 2 2 2 2 3 3 3 2 2 < < < < < < < 3 3 3 3 3 3 3 3 2 2 2 2 2 < 2 2 2 2 2 2 2 2 3 3 3 3 3 3 3 3 3 2 2 2 2 2 2 2 2 2 2 2 2 2 3 3 3 3 3 3 3 3 3 3 3 3 2 2 2 2 3 3 3 3 3 3 3 3 2 2 2 2 2 2 2 2 2 2 2 2 2 2 2 2 2 2 2 < < 2 3 3 7 7 7 7 7 5 5 4 3 3 2 2 2 2 3 2 2 2 2 2 2 2 2 2 2 2 2 2 2 2 2 2 2 2 2 2 3 3 3 3 3 3 3 3 3 2 2 2 2 3 3 3 4 < : ; % $ $ $ # # # $ # # # # $ $ $ $ $ $ $ $ $ $ % ; 2 2 2 2 2 2 2 2 2 2 2 2 2 2 2 2 2 2 2 3 < < , , , < , , : : : : : ; ; ; * % # $ $ $ $ # # # $ $ $ $ $ $ $ $ $ $ $ $ $ $ $ $ $ $ # # # # $ $ $ $ $ $ $ $ $ $ # # $ $ $ $ $ $ $ $ $ $ $ $ $ $ $ $ $ $ $ $ $ $ $ $ $ $ $ $ $ $ $ $ $ $ $ $ $ $ $ $ $ $ # # # # # # $ $ $ $ $ $ $ $ $ $ $ $ $ $ $ # # # $ $ $ $ $ $ $ $ # # * * * * * * * * : : : : : : , , , , < < < < < < 2 2 2 2 2 2 2 2 2 2 2 2 4 4 4 4 4 3 3 3 3 2 2 2 2 2 3 3 3 3 4 4 3 3 3 3 3 3 3 3 3 3 3 3 2 2 2 2 2 2 2 2 2 2 2 2 2 2 2 2 2 2 2 2 2 2 2 2 2 2 2 2 2 2 2 2 2 2 2 2 2 2 2 2 2 2 2 2 2 2 2 2 2 2 2 2 2 2 2 2 4 2 : * $ $ $ $ ",
"% # @ * 2 3 2 2 2 2 2 2 2 2 2 2 2 3 3 3 3 3 3 3 < 1 2 2 5 w s d s 0 2 2 3 3 3 3 2 3 3 4 y s s s s u r e 0 7 4 2 2 2 2 2 2 4 e d z z z z h h h h z z g u y q 7 5 3 2 2 2 2 2 2 2 2 2 < < < < 2 2 * $ $ $ $ $ $ $ $ $ $ $ $ $ % * 2 3 3 2 2 2 2 2 2 2 2 2 2 2 2 2 2 2 2 2 2 2 2 2 < < 2 2 2 2 2 2 2 2 3 3 2 2 2 2 2 < 2 2 2 2 2 2 2 2 3 3 3 3 3 3 3 3 3 2 2 2 2 2 2 2 2 2 2 2 2 2 3 3 3 3 3 3 3 3 3 3 3 3 2 2 2 2 3 3 3 3 3 3 3 3 2 2 2 2 2 2 2 2 2 2 2 2 2 2 2 2 2 2 2 < < 2 3 3 3 3 3 3 3 2 2 < 2 2 2 2 2 2 3 3 2 2 2 2 2 2 2 2 2 2 2 2 2 2 2 2 2 2 2 2 2 3 3 3 2 2 2 2 < 2 3 4 3 2 , : & $ @ @ # $ $ $ $ # # # # # # # $ $ $ $ $ $ $ $ $ $ $ % * * * * * * * * * * * * * * * * * * = = $ $ $ $ $ $ $ $ # # # @ @ @ @ @ $ $ $ $ $ $ $ $ # # $ $ $ $ $ $ $ $ $ $ $ $ $ $ $ $ $ $ # # # # $ $ $ $ $ $ $ $ $ $ # # $ $ $ $ $ $ $ $ $ $ $ $ $ $ $ $ $ $ $ $ $ $ $ $ $ $ $ $ $ $ $ $ $ $ $ $ $ $ $ $ $ $ # # # # # # $ $ $ $ $ $ $ $ $ $ $ $ $ $ $ $ # # $ $ $ $ $ $ $ $ # # $ $ $ $ $ $ $ # @ @ @ @ @ @ # # $ $ $ $ $ $ $ $ % % % % % & % * * * * * * = = = ; ; ; ; = = = = = ; ; ; ; ; ; ; ; ; ; ; = = = = = = = = = = = = = = = = ; ; ; ; , , , , , , , , , , < 2 2 2 2 2 2 2 2 2 2 2 3 3 3 3 3 3 3 3 3 3 3 3 3 3 3 3 3 3 3 3 3 3 , ; % # $ $ $ $ ",
"$ $ $ * < 2 3 2 2 2 2 2 2 2 2 2 2 3 3 3 3 3 3 3 3 3 3 2 2 2 2 4 4 < < 3 3 3 3 3 2 4 3 2 2 3 2 4 5 4 2 < < < 2 2 2 2 2 2 3 2 2 3 e u d s g g g g s y 0 4 3 2 , , < < 2 2 2 2 < < 2 2 2 2 < < , , $ $ $ $ $ $ $ $ $ $ $ $ $ $ $ % $ & = : < < < < 2 2 2 2 2 2 3 3 3 3 3 3 < < < < < < < < 2 2 2 2 2 2 2 3 2 2 2 2 2 < 2 2 2 2 2 2 2 2 3 3 3 3 3 3 3 3 3 3 2 2 2 2 3 3 2 2 2 2 2 2 3 3 3 3 3 3 3 3 3 3 3 3 2 2 2 2 3 3 3 3 3 3 3 3 2 2 2 2 2 2 2 2 2 2 2 2 2 2 2 2 2 2 2 < < 2 3 3 3 3 3 3 3 2 2 < 2 2 2 2 2 2 3 3 3 3 3 3 3 2 2 2 2 2 2 2 2 2 2 2 3 3 3 3 3 3 3 3 2 2 2 2 < , : ; = & $ @ $ $ % % $ $ $ $ # # # # # # # # $ $ $ $ $ $ $ $ $ $ $ $ $ # # # $ $ $ $ $ $ $ # # @ @ @ # $ $ $ % % $ $ $ $ % % $ $ % $ $ $ $ $ $ $ $ $ $ $ $ $ # # $ $ $ $ $ $ $ $ # # $ $ $ $ $ # $ $ # # # # $ $ $ $ $ $ $ $ $ $ $ # $ $ $ $ $ $ $ $ $ $ $ $ $ $ $ $ $ $ $ $ $ $ $ $ $ $ $ $ $ $ $ $ $ $ $ $ $ $ $ $ $ $ # # # # # # $ $ $ $ # # # $ $ $ $ $ $ $ $ $ # # $ $ $ $ $ $ $ $ $ $ $ $ $ $ $ $ $ $ $ $ $ $ $ $ % % $ $ % % % % % % % % $ $ $ $ $ $ $ $ $ $ $ $ $ $ $ $ $ $ # # # # $ $ $ $ $ $ $ $ # # # # # # # # # # # # @ @ @ @ @ @ # # $ $ $ $ $ $ $ $ $ $ $ $ $ % & * * * * * = = = = ; ; ; : : : , , , , , , , , , , , , , : * * * * $ $ # $ $ $ $ $ ",
"$ % $ % , 2 3 4 2 2 2 2 2 2 2 2 2 3 3 3 3 3 3 2 2 2 3 3 5 4 2 3 3 3 < 3 3 3 3 3 4 2 2 3 3 3 2 4 3 3 3 3 3 3 3 3 3 3 3 3 2 4 5 3 < 2 3 5 4 4 4 4 2 2 2 , < < 2 2 2 < < < < < < < 2 2 2 2 2 , = % $ $ $ $ $ $ $ $ $ $ $ $ $ $ $ % % $ @ # $ $ $ $ & & * * * * = = , : : : : , , , < < < < < < 2 2 2 2 2 3 2 2 2 2 2 < 2 2 2 2 2 2 2 2 3 3 3 3 3 3 3 3 3 2 2 2 2 3 3 2 2 2 2 2 2 2 3 3 3 3 3 3 3 3 3 3 3 3 2 2 2 2 3 3 3 3 3 3 3 3 2 2 2 2 2 2 2 2 2 2 2 2 2 2 2 2 2 2 2 < < 2 3 3 3 3 3 3 3 2 2 < 2 2 2 2 2 2 3 3 3 4 4 3 3 3 2 2 2 2 2 2 2 2 2 2 , , , , ; ; ; ; * * * * # $ $ $ $ $ $ $ $ $ $ $ $ $ $ $ # # # # # # # # $ $ $ $ $ $ $ $ $ $ $ $ $ # # # $ $ $ $ $ $ $ # # @ @ @ # $ $ $ $ $ # # # # # # $ $ $ $ $ $ $ $ $ $ $ $ $ $ $ $ $ # $ $ $ $ $ $ $ # # # # # $ $ $ # $ $ # # # # $ $ $ $ $ $ $ $ $ $ $ # $ $ $ $ $ $ $ $ $ $ $ $ $ $ $ $ $ $ $ $ $ $ $ $ $ $ $ $ $ $ $ $ $ $ $ $ $ $ $ $ $ $ # # # # # # $ $ $ $ # # $ $ $ $ $ $ $ $ $ $ $ # $ $ $ $ $ $ $ $ $ $ $ $ $ $ $ $ $ $ $ $ $ $ $ $ $ $ $ # $ $ $ $ $ $ # @ # # # # $ $ $ $ $ $ $ $ $ $ $ $ $ $ $ $ $ $ $ $ $ $ $ # # # @ @ # # $ $ $ $ $ $ $ $ $ $ $ $ $ $ # # @ @ @ @ # $ $ $ $ $ $ $ $ # $ $ $ $ $ # $ $ $ @ @ @ @ @ # $ $ $ $ $ $ $ $ $ $ $ $ $ $ $ @ @ @ @ + @ $ $ $ $ $ $ ",
"% $ $ $ % , 3 3 2 3 4 5 2 2 2 2 2 2 2 2 2 2 2 2 2 2 2 2 2 3 2 3 3 3 3 3 3 3 3 3 3 2 2 2 2 3 3 3 3 4 4 4 3 3 3 3 3 3 3 3 3 3 3 3 2 2 3 3 3 3 3 3 < < < < < < < < < < < , , , < 2 < < 2 2 = * $ @ @ @ # # # # $ $ $ $ $ $ # # # @ @ @ @ # $ # # # $ $ $ $ # # # $ $ $ $ $ @ # % % % $ % % % % % & & * * * * * * * = = = = ; ; ; ; , , , , , , , , < 2 < < < < < 2 2 2 2 2 2 2 2 2 2 2 2 2 3 3 3 3 3 2 2 2 2 2 2 2 2 2 2 2 3 3 3 3 3 3 3 3 2 2 2 2 2 2 2 2 2 2 2 2 2 2 2 < < < < < < < < < < < < < , , , , , , , , : : : : = = = = = * % % % % % % $ $ $ # @ @ @ @ @ @ # # $ $ $ $ $ $ $ $ $ $ $ $ $ $ $ $ $ $ # # $ $ $ $ $ $ $ $ $ $ $ $ # # # # $ $ $ $ $ $ $ $ # $ $ $ $ $ $ $ $ $ $ $ $ $ $ $ $ $ $ $ $ $ $ $ % % % $ $ $ $ $ $ $ $ $ $ $ $ $ $ $ $ $ $ # # # $ $ $ $ $ $ $ $ $ $ $ $ # # # # # # $ $ $ $ $ $ $ $ $ $ $ $ $ $ @ + @ $ % $ @ + $ $ $ $ $ $ $ $ % % % $ $ $ $ $ $ $ $ $ $ $ $ $ $ $ $ $ $ $ $ $ $ $ $ $ $ $ $ $ $ $ $ % % % % % $ $ $ $ $ $ $ $ $ $ $ $ $ $ $ $ $ $ $ $ $ $ $ $ $ $ $ $ $ # # # # # # # # # # # $ $ $ $ $ $ $ $ $ @ + # $ $ % % % % % % $ $ $ $ $ $ $ $ $ # $ $ $ $ $ $ $ $ $ $ # @ @ @ @ @ @ $ $ $ @ @ @ # # # $ $ $ $ % % $ $ # # $ $ $ % % % % $ # @ % % $ $ # $ $ $ $ $ $ $ $ $ $ $ $ $ # @ # # # # $ $ $ $ ",
"* $ $ $ # = , , < 2 3 4 4 4 4 4 4 3 3 3 3 3 3 3 2 2 3 3 3 4 3 3 3 3 3 3 3 3 3 3 3 3 4 4 4 4 4 4 3 3 3 3 3 3 3 3 3 3 3 3 3 3 3 3 3 3 3 3 3 3 3 2 2 2 2 2 2 2 1 2 2 2 2 2 4 3 2 2 3 < ; * % % $ # # # $ $ $ $ $ % % % & % % $ $ $ $ $ $ $ % $ $ $ % % % % $ $ $ $ % $ $ $ $ % & * $ $ $ $ $ $ $ $ $ $ $ $ # # $ $ $ $ $ $ % % % % % % % $ $ # # # $ % $ $ $ $ $ $ $ $ % % % % % % % % % % % % % % % % & & & & & & & & & & * * & & & & % % % % % % % % % % % & % % % % % % % % % % $ $ $ $ $ $ $ $ $ $ $ $ # @ @ @ % % % % $ $ $ $ # # # # # # # # $ $ $ $ $ $ $ $ $ $ $ $ $ $ $ $ $ $ $ $ $ # $ $ $ $ $ $ $ $ # # $ $ $ $ $ $ # # @ @ @ @ # $ $ $ $ $ $ $ % $ $ $ $ $ $ # $ $ $ $ # $ $ $ $ $ $ $ $ $ $ $ $ $ $ $ $ $ $ $ $ $ $ $ $ $ $ $ $ $ $ $ $ $ $ $ $ $ $ $ $ $ $ $ $ $ $ $ # # # # # # # # # # # $ $ $ $ $ $ $ $ $ $ $ $ $ + $ % & * & % % % % % % $ $ $ $ $ $ $ $ $ $ $ $ $ $ $ $ $ $ $ $ % % % $ $ $ $ $ $ $ $ $ $ # # # $ $ $ $ # # $ $ $ % % % % $ $ % % % $ $ # $ * = $ $ $ $ $ $ $ $ $ $ $ $ $ $ $ $ # # # # # # # # $ $ $ $ $ $ $ $ $ = * @ $ $ $ $ $ $ # $ $ % % % % % % % % % $ $ $ $ $ $ $ $ # # # $ $ $ $ $ $ $ $ @ @ @ % % % % $ $ $ % % % $ $ $ $ % $ % % % % % & * = $ $ % % @ $ % * $ $ $ $ $ # # # $ $ $ $ $ $ $ $ $ $ $ $ ",
"* $ $ $ # $ % % % & * = ; : : : , < 2 < < < < < < 2 2 2 2 2 < 2 2 2 2 2 2 2 2 < < < < < , , < < , , < < < < < < < < < < < < < < < < < < , , , , , , , , , , : : : : : : * * % $ @ + + o + + + + + + + + + + @ + + + + + + + + o o o o + + + + + + + + + + + + + o o o o o o o o o + + + + + + + + + + + o o o o o o o o + + o o o o o o o o + o o + + o o o o o o o o o o o o o o o o o o o o o o o o o o o o o o o o o o o o o + + + + + + + + + + + + + + o o o o o o @ @ @ @ @ @ @ @ @ @ @ @ @ @ @ @ @ @ # # # $ # # # $ $ $ $ $ % % % % % % % % % % % % % % % % % % $ $ $ $ $ $ $ $ # # # # $ $ $ $ $ $ # # $ $ $ $ $ # # # $ $ $ @ @ @ @ @ @ @ @ @ @ @ @ @ @ @ @ @ @ @ @ @ @ @ # # # @ @ @ @ @ @ @ # # # @ @ @ @ + @ @ @ @ @ @ @ @ # $ $ $ $ $ $ $ $ $ $ $ # # $ $ $ % % % % % % $ $ # # # $ $ $ $ $ $ $ $ $ $ $ $ $ $ $ $ * $ @ @ o o + + + o o o o o o o $ $ $ $ $ # # # $ $ $ $ $ $ $ $ $ $ $ $ % % % % % % % % % % % % $ $ $ $ # @ @ @ + + + + + + + + + o X   o o o + @ @ @ @ # $ $ $ % % % % $ @ @ @ # # # # # # # # $ $ $ $ $ $ $ $ o o + + + + @ @ @ @ @ @ @ @ @ @ @ @ @ @ # $ $ $ $ % % % = & $ $ $ $ $ $ $ $ $ $ $ $ % % $ $ $ # @ @ @ @ @ + + o o o o o o + + o o o + + @ + + + + @ @ @ $ $ $ $ $ $ % $ $ $ $ $ $ $ # $ $ $ $ $ ",
"* $ $ $ $ $ + o + @ $ % * * * * ; , 2 2 2 2 2 2 5 7 8 8 w e q e y y y y y y y y y y u u u u u u s s s s d d d d d d d d d d d d d d d s s s s s s s s s s s s s r r r r e e r y y y r r q e e r r r t t r r y y y y y y s s s s s s s s s s s s s s s s s s s s s u u u y r e w e e e e e e r r r r r y r r r r r r r r r r r r r r r e r e e e e e e w w w q q q q q q q q q q q q q 0 0 8 8 8 8 8 8 7 7 7 7 7 7 7 7 7 7 5 5 5 5 4 4 4 3 3 4 4 3 3 3 3 2 2 < < < < < , , , , , : : : : : : : : = = = * * & & % % % % $ % $ $ $ # @ @ @ @ @ @ + + + + + + + + + + + @ @ @ @ @ @ @ @ # # @ @ # $ $ $ $ $ $ $ $ # $ $ $ $ $ $ # # * * * * * * * * = = = = = = ; ; ; ; ; : : : : : : : : : : : : : : : : : : : : : ; ; ; = = = = = = = = = $ $ $ $ $ $ $ $ o o + + + + + + o o o o o o o o # # # # $ $ $ $ $ $ $ $ $ $ $ $ $ $ $ $ @ + : q h z x v v v v v C C G G G G J P m m m m m m m m m m m m m M m m R R R R ! ! ! R R R R Y P P P P C C C C v v v v h h h h d s y r e q 8 5 2 2 2 2 ; & # @ + o o o o o + + @ @ # # # @ @ $ $ $ $ $ $ $ $ $ : q h z x x x x m m m m G J J J J J P P P P R R R R R R ] ! P C m m m m m m m m C G P R R R R R G G G G G C C m x x x x d d d d r r e q 0 7 3 < , : = % $ $ $ $ o o o o @ # $ $ $ $ $ $ $ $ $ $ ",
"* $ $ $ # $ 5 h C C G G J P R R R R | ;.;.;.;.;.;.;.;.>.>.>.>.1.1.1.>.>.4.4.4.4.;.;.>.1.4.1.4.4.4.4.4.4.4.4.4.4.4.4.4.4.4.4.4.4.| | | | ] ] ] ] ] ] ] ] ] ] ] ] ] ] ] ] | ] ] ] ] ] | | | | ] ] | | | ] ] ] | | 4.4.4.4.4.4.4.4.4.4.4.8.4.4.4.4.4.4.4.4.4.4.4.4.4.4.4.1.q.;.| ] | | | | | | | | | | ;.e.4.4.4.4.4.4.4.4.4.4.4.4.4.4.4.4.4.1.1.1.4.4.4.>.8.8.8.8.8.8.4.4.4.4.4.4.4.4.4.4.4.4.4.4.4.4.4.4.1.>.>.>.>.>.>.>.>.>.>.>.>.>.>.>.>.>.>.>.>.>.1.>.>.;.;.;.&.&.&.&.;.;.;.;.&.&.&.&.%.%.&.&.| | | | | | | | ) ) ) ) P P P P m m m m z z z z z z z z z z z z x x x x x x v v m m m m J J J J J J J J ! ! ) ) ) ) ] ] ] ] ] ] ] | | | | | o.%.%.o.o.o.o.%.&.&.;.;.;.;.&.&.&.%.%.%.&.;.;.) P ) ;.;.&.%.%.%.o.o.P ! | o.| | | | | | o.! C C C C m m m m h h h h z h g d u s y q 9 5 2 , , ; = & $ @ @ + o + @ + @ $ $ @ # % %   , g o.4.4.4.4.4.4.4.4.4.4.4.4.4.4.1.>.;.>.%.| R R R R R ! ! ! ! ) P ) ;.>.;.>.>.4.4.4.4.4.4.4.4.4.4.4.4.4.4.4.4.4.4.4.4.4.4.4.4.4.4.4.4.8.4.4.4.;.4.1.&.;.o.] R G x d y 9 4 : * @   $ $ $ @ @ $ $ $ $ $ = o ; m o.;.4.1.4.4.4.4.4.4.4.4.4.>.>.>.>.>.;.;.;.;.;.;.;.;.;.;.>.>.%.] ) ) ) ) R R R ] %.&.;.>.>.>.>.>.1.1.>.>.>.>.>.>.>.>.1.1.4.4.4.4.4.4.4.4.4.1.>.>.4.;.| ) J m z g y y q 5 , = $ + + $ % @ $ $ $ $ ",
"* $ $ $ : x 4.;.| | ) ! R R R R R R ] %.&.&.;.;.;.;.;.;.;.;.;.;.&.&.;.;.;.&.;.;.;.>.;.%.%.%.&.&.&.&.;.;.;.;.;.;.;.;.;.;.1.;.o.] R R R R R R R R R R R R R Y R R R R ! ! R R R R R ! ! ) P P P P P P P P R G R | o.o.o.o.o.o.o.o.+.%.+.%.%.%.%.%.%.%.%.%.%.%.%.%.%.o.o.o.%.) P P P P R R P P R R P | %.%.%.%.%.%.%.%.%.%.%.%.%.%.%.%.%.o.o.o.o.o.%.&.&.;.&.&.%.%.%.%.%.%.%.%.%.%.%.%.%.%.%.%.%.%.%.%.%.%.%.%.%.%.%.%.%.%.%.%.%.%.%.%.%.%.o.o.%.%.%.%.%.%.&.;.;.;.;.;.;.;.;.;.;.;.;.;.&.;.&.&.;.;.&.&.;.;.;.>.>.>.>.>.;.;.>.>.>.>.>.>.1.1.1.1.4.4.4.4.4.4.4.4.4.4.8.8.8.8.8.8.8.4.4.4.1.1.4.4.4.4.4.4.4.>.>.>.>.>.>.>.>.>.>.>.>.>.;.&.&.%.%.;.>.>.&.&.&.&.%.%.o.| | o.;.1.>.>.>.>.;.;.;.;.;.| ] | ;.;.;.;.&.%.%.%.%.&.>.>.>.>.>.>.>.>.4.o.) ) ) ) ) ) ) ) ] ] ] ] | 1.8.>.4.4.;.o.| | | | 1.;.| ) P C z g u 7 , = $ X o # $ * + , | 8.>.o.%.+.+.#.%.%.%.%.%.%.%.+.%.%.;.;.4.;.| R R R R R R R ! ! ) P ) o.>.;.%.o.%.&.&.&.;.;.;.;.;.;.;.;.&.&.&.&.&.;.;.;.;.;.;.&.%.%.%.%.%.%.o.o.%.;.&.o.] ] | %.;.>.4.8.q.>.o.] J y 2 $ @ $ $ @ @ $ $ $ + < ] 8.;.%.%.%.%.o.o.o.o.o.o.o.;.;.>.>.;.;.&.;.;.;.;.;.&.;.;.;.;.>.%.| P P P P R ] | %.&.;.;.;.;.;.;.;.;.&.%.%.%.%.%.%.%.%.%.%.%.%.%.%.%.%.;.;.;.&.%.%.;.o.| ) ) ) ] ] o.| %.>.%.| m s < @ # & $ $ $ $ ",
"* $ $ $ , | ) R G P R ) R R R R R P ! | &.&.&.;.;.;.;.;.;.;.;.&.%.%.o.o.] ] ] ] o.;.>.%.%.%.%.%.%.%.%.%.%.%.%.%.%.%.%.%.>.%.] R P P R R R R R R R R R R R R R R R R R R R P P P P R R R ! ! R R ! ! ! ! ) ] o.;.;.;.;.;.;.;.;.;.;.;.;.>.;.;.;.;.;.;.;.;.;.;.;.;.;.;.;.&.o.] R ) R R R R R R ! ! | ;.>.;.;.;.;.;.;.;.;.;.;.;.;.;.;.;.;.;.;.&.&.&.o.;.>.>.;.;.;.;.;.;.&.&.&.&.&.&.&.&.&.&.&.&.&.&.&.&.;.;.;.;.;.;.;.;.;.;.;.;.;.;.;.;.;.;.;.;.;.;.;.;.;.;.;.;.;.;.;.;.;.;.;.;.;.;.;.;.;.;.&.&.;.;.;.;.;.;.;.&.;.;.;.;.;.;.;.;.&.&.%.%.%.%.%.o.o.o.%.%.%.%.%.%.%.%.%.%.%.%.%.%.%.%.%.%.%.%.%.%.%.%.%.%.%.%.%.%.&.&.%.%.%.%.%.%.%.%.%.%.%.%.%.&.;.>.;.;.;.;.%.o.] ) ) ] o.%.;.;.;.;.;.;.;.>.;.%.%.&.;.&.;.;.;.;.;.&.%.%.;.;.&.%.%.%.;.&.>.| R R R R R ! ) ! R R R R P o.;.%.o.] R R J R ] | %.%.;.>.4.8.8.8.4.8.;.) G d , % % @ * ] 4.%.;.| &.&.;.;.;.;.;.;.;.;.;.;.;.;.>.1.;.| ) ! R R R R R R R R R R ! ) &.%.%.%.%.%.%.%.%.%.%.%.%.%.%.%.%.%.%.%.%.%.%.%.%.%.%.&.;.>.;.;.;.;.;.&.;.| ] ] ! R P P G R | %.o.%.;.>.8.4.4.e @ $ $ @ @ $ $ $ ; | ;.o.;.;.>.>.;.;.;.;.;.;.;.;.;.;.;.;.&.&.&.&.;.;.;.;.&.&.;.;.%.;.;.| ) ) ) ) | %.;.;.&.&.&.&.&.&.&.&.%.%.%.%.&.;.;.;.;.;.;.;.&.&.&.&.>.&.| ) | | | | R R P R ) ) R R P P ) o.4.;.;.4.4.s o $ $ $ $ $ ",
"& $ $ $ : 7 P R ] ) ) R R R R R R P R ] %.%.&.&.;.;.;.;.&.%.%.%.>.%.] R R R R R P %.4.;.&.&.;.;.;.;.;.;.;.;.;.;.;.;.;.;.;.%.| ) ! ! ) ) ) ) ] ] ] ] ] ] ] ] ] ] ) ) ) ) ) ! ! ! ! ) ) ) ! R R R R R R R P %.1.;.&.&.&.&.&.&.&.&.;.;.;.;.;.;.;.;.;.;.;.;.;.;.;.;.;.&.&.%.| R P ! P P P P P P R R ;.%.&.1.;.;.;.;.;.;.;.;.;.;.;.;.;.;.;.&.&.%.%.%.) | %.;.&.&.%.%.%.%.%.%.%.%.%.%.%.%.%.%.%.%.%.%.%.%.%.%.&.;.;.;.;.;.;.;.;.;.;.;.;.;.;.;.;.;.;.;.;.;.;.;.;.;.;.;.;.;.;.;.;.;.;.;.;.;.;.;.&.&.&.&.&.&.&.&.;.;.;.;.;.;.;.;.;.;.;.;.&.&.%.%.%.%.%.%.&.&.&.&.;.;.;.;.;.;.;.&.%.%.%.%.%.%.&.&.;.;.;.;.;.;.;.;.;.>.>.>.;.;.;.;.;.;.;.;.) ) ) ) ) ] | | %.%.%.%.%.| ) R R R R R o.o.o.o.&.;.;.;.;.>.>.;.&.%.&.&.&.&.;.;.;.;.;.&.%.%.%.%.;.&.>.| R R R R R R R R R P P R ! ) | | >.| ] | | | %.;.;.;.&.%.o.o.%.%.o.o.&.1.4.>.4.5 @ @ C 1.| ;.&.;.%.%.%.%.%.%.%.%.&.&.&.&.%.%.o.| ) ! R R Y P R R R R R R R R R P | o.;.>.&.&.&.&.;.;.;.;.;.;.;.;.&.&.&.&.&.&.;.;.;.;.;.;.&.;.&.%.%.%.%.%.%.] R R ) ) ) ! R ) ) ] >.;.&.%.&.%.%.>.: @ @ $ $ # @ $ z e.%.;.%.%.%.%.&.&.;.;.&.&.&.&.%.%.%.%.%.%.&.&.;.;.;.;.&.&.;.;.o.;.;.o.;.;.;.;.;.;.&.&.%.%.%.%.%.%.%.&.;.;.;.;.;.;.;.;.;.;.;.;.%.%.%.%.| ] R P R R R P P R ) ) ) ! R R ) ] ) P &.;.;.%.&.;.4 o $ $ $ $ ",
"% $ # * 4 : y ) R R P R ) R R ! R R R R | %.;.;.;.>.1.4.;.;.;.;.4.;.| ) R R R R | | | | | ] ] ] ] ] ' ] ] ] ] ] ) ) R P m m m m m m m m m m m m m m m m m m m m m m m m m m m m C G G G J J J J P P P P R | %.%.%.%.%.%.%.%.%.%.%.&.%.;.&.%.&.;.;.;.>.>.| | | | | | | | ] ] ] ] | ) R ) ) ! ] &.>.>.>.;.;.;.;.;.4.4.4.4.%.%.%.%.;.1.>.&.>.>.>.;.;.>.>.>.;.;.>.>.>.>.>.>.>.>.>.>.>.>.>.>.>.;.;.;.;.;.;.;.>.>.>.>.>.>.>.>.>.>.>.>.>.>.>.>.;.;.;.;.;.;.;.;.;.;.;.;.;.;.;.;.;.;.;.;.;.;.;.;.;.;.;.;.;.;.;.;.;.;.;.;.;.;.;.;.;.;.;.;.;.;.;.;.;.;.;.;.&.%.%.%.&.&.&.&.;.;.;.;.&.&.&.&.&.&.&.&.;.;.;.;.;.;.;.;.&.&.&.&.&.&.&.&.>.;.| R ! ! ! R R R R R R ! ) ) ) ! R R R R R R G R | %.>.;.&.%.;.>.>.>.;.;.;.>.>.>.>.>.>.;.>.>.>.>.>.>.>.1.>.>.] ] ] ] ) ) ) ) ) ] ] ] ] ] | | ;.%.&.;.>.>.>.>.>.>.>.>.>.;.;.;.;.;.o.o.%.>.o.4 X ; >.;.;.o.;.>.%.;.>.>.>.>.>.>.;.;.;.;.4.o.] ) R ! ) ) R P R ] ] | ] R ) ] ) ) ) ] | o.1.>.;.&.1.>.>.>.>.>.>.>.>.4.4.>.;.;.%.%.&.;.;.%.%.&.>.>.&.;.;.>.| ! R R R R ) R R R ] | ;.;.;.&.o.>.o.4.u + * $ $ # @ = | ;.;.;.;.;.%.;.;.;.;.;.;.;.;.;.;.%.| ) ! ) o.1.;.;.;.;.&.&.&.&.&.%.&.&.;.;.;.;.;.;.>.>.>.>.;.;.>.>.>.>.>.>.>.>.>.;.&.&.;.;.=.%.%.| ) R P P P P R R R R R R R R ! ! ! ! ! ! ! ! | >.&.;.o.q.z @ $ $ $ $ ",
"% $ @ * 2 3 , y ) G R R P ) ) P P R ! ) ) o.>.1.%.o.| } R R R R C m x z h h h h h h z h h h h h h h g g g g g g g g d s u u u u u u u u u u u u u u y u u u u u y y u u u u u u u s s s u u u u u u s s d h x z z z z z z z z x v v v m v v v v v v m m h h h h h h h h z x m C m x z x x x m G P P P P J J J J ) R G C m m m m R ) ] ) ) ) ) ) ) ) ) ) ) ) ) ) ] ] ] ] ] ] ] ] ] ] ] ] ] | | | | ..o.o.| | | | | | | | | | | | | | | | | | | | %.%.%.%.%.%.%.%.%.%.%.%.%.%.%.%.%.%.%.%.%.%.%.%.%.%.%.%.%.%.&.&.%.%.%.%.&.&.&.&.&.&.&.&.&.&.&.&.;.;.;.;.;.;.;.;.;.;.;.;.;.;.;.;.;.;.;.;.;.;.;.;.;.;.;.;.;.;.;.;.;.;.;.;.;.;.o.) R R R R ! ) ) ) P P P P ! ) ) ) | ] R P P P R R o.o.o.| | ..o.| | | | } ] ] ] ] ] ) ) ) ) ) ) ) ) R G C x x x x x x x x x x x x x x x x C m m C G G G C C C C C P ! ] o.%.%.;.o.;.>.e = $ * x >.%.;.;.;.%.o.| | | | | | ] ] ] ] ] P m C C C C C C m C P ] | | ! G G G C C C G G G J P R G G G G G G G G R R R R | o.%.&.;.;.;.;.;.;.;.%.&.;.;.>.] R P R P R R ) ) ) ! R ;.;.;.;...%.%.>.s + * $ $ # @ : m 4.%.;.;.;.;.| | | | ] ] ] ] ] R P G C m m J ] ] ] ] ] ) ) ' ] | | | | ] ] ] ] ) ) ) ! J P P P P J J J J J J J R ! ) ] ;.%.%.o.R R ) ) ) ) ) ) R R P P R R R R R R R R ! ! ! ! ) %.o.%.;.4.g o $ $ $ $ ",
"% $ @ * 3 < , < y ) ) R ) P P ) ) P C v h x x z h h g d d d d d d d d d h h h h g g g g g g g g g g g g g g g g g d s s s s s s u u u u u u u u u u u u u u u u u u u u u u s s u s s s u u u u u u s s d h h g h h h h h h h g g g g g g g g g g g g g u u u u u y y y y u s g s y r y r u d d g g g g g g g g g d s y u u u u u g h g g g g g d g g g g g g g g g g g g g g g g g h h h h h h g g g g h h h h h h h h h h h h h h h h h h h h h h h h h h h h j h j j h h h h z z z z z z h h h h h h z z z z z z z z z z z z z z z z z z z z z z z z z z z z x x x x z z z z z z z z x x x x x x x x z z z z z z z z z z h d s s s s s s d d d d d d d g h z v z h d d s s s s d g g g h h h h h g g g g g d d d d g g g g g g d u y r r r y y y y y u u y y y y y u g d d g g g g g g d d s u s g h z C >.;.) s < , o , 2 ] 4.;.o.v x z h h h h h h h h h h g u y y y y y y u y u d g h h s u u u u u u u y y u s s d d d d d d g d d d d d g h z z m m m m J R ] | o.%.%.&.>.o.] R R ! ) ) R ) | %.;.;.;.;.;.;.8.z ; % @ @ $ $ % < 7 R 4.;.;.v x z g g g g g g h h d d s s s u s h h h h h h h h g g g g g g h h h h g s s u s g g g g g g g g g g g h z z z z h g h z v m J J J J | | | | ] ] ) ) ) ! R R ) ~ ~ ) ) %.o.%.8.v , * $ $ $ $ ",
"% $ @ * 2 , , < 2 u ) | R ) ) R g s u y e s g g g g h z h h h h d g h z h h h h h g h h h h h h h h h h h h h h g g d s s u u u u u u u u u u u u u u u u u u u y y u u u u u u u u u u s s s s s s s s g h h d g g g g g g g g h h h z h h h h h g g g u u u u u u u u g g g g g s u s y d h g z h h h h h h h s s s s s u u u u g z h g g g g g g g g g g g g h h h h h h h h h h h h g g g g h h h h h g g g g g g g g g g g g g g g g g g g g g g g g g g g g g g g g g g g h h h h h h g g g g g g h h h h h h h h h h h h h h h h h h h g g g g g g g g g g g g g g g g g g g g g g g g g g g g g g g g g g g g g d g d u s s s s u u u u u u u u y u d h g g g g u s s d s g h z g h h h g g h h h h h h h g g g g g g g d d s s s u u u u y y y u u u u u s s s h g h z z z z h h h g h h h h h g g m y 4 , 3 , % 2 2 5 G 4.m g s d g g g g g g g g h h g s s d y y u u s u s g h z z g s s s u s s y y d s u u g g g g g h h h h h h h h g g d d d d d d g g g g h h z m m C C C G G G %.%.;.;.;.;.;.;.;.%.x 4 : % @ @ $ $ * 2 < 4 G 4.G d z g h h h h h h g g g g h g g d g z g g g g g g g g g g h h g g g g z g s u y u d g h h h h h h h h z h g g d s u y y u u u y y y y s z m m G G G G J J P P ~ ! ! ) | >.&.;.x 3 2 ; $ $ $ $ ",
"% $ @ * < < < 2 4 ; 0 G ) ) P d s s s s d s d h g g g g h h h h h h h h h h h h h h h h h h h h h h h h h h h h h d s y u u u u u u u u u u u u u u u u u u u u u u u u u u u u u u u u u u u u u u u u d g h h h h h h h h h h h h h h h h h h h h h h s s s s u y y y g g g g s s s s h h h h h h h h h h h h s u y y u u u u u s h z g g g g g g g g g g g g h h h h h h h h h h h h h h h h h h h h h h h h h h h h h h h h h h h h h h h h h h h h h h h h g g g g g g g g h h h h h h h h g h h h h h h h h h h h h h h h h h h h h h h h h h h h z z h g g g g g g g h h h h h h h h h h g h h h g g g g g g g g g g h h h h h h g g g g g g g g d g g g g g g g h h h h g g g g g g g g g g g g h h h h h g g d h h h h d s u u u u u u s s s s s s s u u u s d g g g g h h h h g g h h h h h h h h h h 5 2 2 , * 2 2 3 2 9 z d h h h h h h h h h h h h h h h h d u y u u u s g g g g g y s s s s u u u a a s s u s g h h h h h h h h h h g g g h h h h g g g g h h h h h h h h g s u s z z x v P P P P z 9 , 2 2 % $ @ # # * 3 4 3 < e z h h h h h h h h h h h h h h h h g h h h h h h h h h g g g g g g g g g z g s s u u u u g h h h h h h h h h g d s s u u u s s u u u u u u s d g h h h h d d d f h l l h v G z e , < 5 ; $ $ $ $ ",
"% $ @ * < < < 2 < 4 : 4 s z s u s s s s s s s g g g g g h h h h h h h h h h h h h h h h h h h h h h h h h h h h g g s s s s s s s s u u u u u u u u u u u u u u u u u u u u u u u u u u u u u u u u u s s d g h h h h h h h h h h h h h h h h h h h h h d d d d s s s s g g g s s s s s h h h h h h h h h h h h g d s u u u u u u s d h g g g g g g g g g g g g h h h h h h h h h h h h h h h h h h h h h h h h h h h h h h h h h h h h h h h h h h h h h h h h g g g g g g g g h h h h h h h h h h h h h h h h h h h h h h h h h h h h h h h h h h h h h g d s s s s s h h h h h h h h h h h h g g h h g g g g g g g g g g h h h h h h h h h h h h h h g g g g g g g g h h h h g g g g g g g g g g g g h h h h h g g d u s g h g g d d s s s s u u u u u u s u u s d g g g g g h h h h g g h h h h h h h h h h q 2 4 , = 3 3 4 4 7 g h h h h h h h h h h h h h h h h h g d u y u u s g g g g g y u u u u u u u a s s s u s g h h h h h h h h h h g g g h h h h g g g g h h h h h h h h g s u s s d g g g g g g d s 5 2 2 % $ @ # @ = 2 3 3 2 5 h h h h g g z x g g g d d d g g g g g g h h h h g g g g g g g g g g g g z h d u u u u u s g h h h h h h h h g g s u u u u s s u u u u u u s d g h h h h g g g g s s d d d g d s 7 2 5 : $ $ $ $ ",
"% $ @ * < < < 2 2 2 2 , e u y u s s s s s u s g g g g g h h h h h h h h h h h h h h h h h h h h h h h h h h h h g g g d d s s s s s s u u u u u u u u u u u u u u u u u u u u u u u u u u u u u u u u u s s d g g h h h h h h h h h h h h h h h h h h g g g g g g g g g g g s u s s s s h h h h h h h h h h h h g g g s d d d d u u s h g g g g g g g g g g g g h h h h h h h h h h h h h h h h h h h h h h h h h h h h h h h h h h h h h h h h h h h h h h h h g g g g g g g g h h h h h h h h h h h h h h h h h h h h h h h h h h h h h h h h h h h g g d s s u u u u h h h h h h h h h h h h h h h h g g g g g g g g g g h h h h h h h h h h h h h h h h h h h h g g h h h h g g g g g g g g g g g g h h h h h g g d u s g h h h h g g g d d d s s s s a s s s d g g g g g g h h h h g g h h h h h h h h h h s 4 3 < = 3 3 4 2 0 z s h h h h h h h h h h h h h h h h h g d u u u s g g g g g s s s u u u u u a s s u u s g h h h h h h h h h h g g g h h h h g g g g h h h h h h h h g s u u s s d g h h h h d z y 3 2 % $ @ # @ = 2 2 3 2 8 h h h h h g d s s s s u u u u u g g g g g g g g g g g g g g g g g g g g h z g y u u u u u s g h h h h h h h g g s u y u u s s u u u u u u s d g h h h h h h h h h h h h h h z x s 5 4 , % $ $ $ ",
"% $ @ * 2 < < 2 2 < 3 4 u r s s s s s s u y u d g g g g h h h h h h h h h h h h h h h h h h h h h h h h h h h g g g g g g g d d u u u u u u u u u u u u u u u u u u u u u u u u u u u u u u u u u u u u u s d d h h h h h h h h h h h h h h h h h h h g g g g g h h h h g s u s s s s s h h h h h h h h h h h h h h h g g g g g s u s f g g g g g g g g g g g g h h h h h h h h h h h h h h h h h h h h h h h h h h h h h h h h h h h h h h h h h h h h h h h h g g g g g g g g h h h h h h h h h h h h h h h h h h h h h h h h h h h h h h h h h h h h h g d d s s s s h h h h h h h h h h h h h h h h g g g g g g g g g g h h h h h h h h h h h h h h h h h h h h g g h h h h g g g g g g g g g g g g h h h h h g g d h h h h h h h h h g g g g g g g s a a s s d g g g g g g h h h h g g h h h h h h h h h h d 0 3 3 * 3 2 4 3 8 h g h h h h h h h h h h h h h h h h h h g d u u s g g g g g h h d s u u u u s s s s u s g h h h h h h h h h h g g g h h h h g g g g h h h h h h h h g s u u u s s d g g g g h h z 4 2 % # @ # @ = 2 1 2 2 8 h h h h y y u u u u u u u u u u g g g g g g g g g g g g g g g g g g g g g z g y u u u u u u s g h h h h h h g g u u y u s s s u u u u u u s d g h h h h h h z h h g g g g h z h x 7 4 < % $ $ $ ",
"% $ @ * 2 2 < < 2 2 > 4 d y u s u u u u u u u s g g g h h h h h h h h h h h h h h h h h h h h h h h h h h h h h h h h h h h h h g g d u u u u u u u u u u u u u u u u u u u u u u u u u u u u u u u u u u u u u s d g h h h h h h h h h h h h h h h h h z g g z z h g d s s s s s s s s d g z x h h h h h h h h h h h h h h h h g g g g h h h h h h h h h h h h h h h h h h h h h h h h h h h h h h h h h h h h h h h h h h h h h h h h h h h h h h h h h h h h h h h h h h h h h h h h h h h h h h h h h h h h h h h h h h h h h h h h h h h h h h h h h h h h g g g g h h h h h h h h h h h h h h h h h h h h g g h h g g g g h h h h h h h h h h h h h h h h h h h h h h h h h h h h g g g g g g g g h h h h g g g g h h h h h h h h h h h h h h h h h h h h h h h h h h h h h h h h h h h h h h h h h h h h h y < 2 ; 3 3 3 , q z g h h h h h h h h h h h h h h h h g g g g d s u s g g g h h h h h d d d d s s s s h h h h h h h h h h h h h h h h h h h h h h h h h h h h h h h h g d s u s s d d g g g g h g z y 3 & # @ # @ = 2 < 2 2 0 x g s u s s g y u u u u u u u u u u u u u u u u s s s s g g g g g g g g g d s s u u u u s u s g g g g g z g d u u u u u y y y y u u s s h h h h h h h h h h h h h h h h h h h h x r 4 2 % $ $ $ ",
"% $ @ * 2 2 < < < 2 < 2 u u u u u u u u u u u u g g h h h h h h h h h h h h h h h h h h h h h h h h h h h h h h h h h h h h h h g h g s u u u u u u u u u u u u u u u u u u u u u u u u u u u u u u u u u u u u u s s d h h h h h h h h h h h h h h h h h g g h g d s s s s s s s s s s u s g h h h h h h h h h h h h h h h h h h h h h h h h h h h h h h h h h h h h h h h h h h h h h h h h h h h h h h h h h h h h h h h h h h h h h h h h h h h h h h h h h h h h h h h h h h h h h h h h h h h h h h h h h h h h h h h h h h h h h h h h h h h h h h h h h g g g g h h h h h h h h h h h h h h h h h h h h h h h h h g g g h h h h h h h h h h h h h h h h h h h h h h h h h h h h h g g g g g g g h h h h g g g g h h h h h h h h h h h h h h h h h h h h h h h h h h h h h h h h h h h h h h h h h h h h h d 4 < ; 3 3 3 , q z g h h h h h h h h h h h h h h h h g g g g g d s u g g g h h h h h h h h h h h h h h h h h h h h h h h h h h h h h h h h h h h h h h h h h h h h h h g d s d d g g g g g g g g z s 3 * @ @ # @ = 2 2 2 < 9 g d u s d y u y u u u u u u u u u u u u u u u u u u u u s s s s g g g g s s u u u u u u s u s g g g g g h g s y u u u u y y u u s d g g h h h h h h h h h h h h h h h h h h h h z u 3 2 % $ $ $ ",
"% $ @ * 2 2 < < < < 2 < r u u u u u u u u u u u g h h h h h h h h h h h h h h h h h h h h h h h h h h h h h h h h h h h h h h h g h h g u u u u u u u u u u u u u u u u u u u u u u u u u u u u u u u u u u u u u u u s g h h h h h h h h h h h h h h h h h g d s s s s s s s s s s s s y s d g h h h h h h h h h h h h h h h h z z z z h h h h h h h h h h h h h h h h h h h h h h h h h h h h h h h h h h h h h h h h h h h h h h h h h h h h h h h h h h h h h h h h h h h h h h h h h h h h h h h h h h h h h h h h h h h h h h h h h h h h h h h h h h h h g g g g h h h h h h h h h h h h h h h h h h h h h g d d d d d d g g h h h h h h h h h h h h h h h h h h h h h h h h h h h h g g g g g g h h h h g g g g h h h h h h h h h h h h h h h h h h h h h h h h h h h h h h h h h h h h h h h h h h h h g z 7 , ; 3 3 3 < 0 h h h h h h h h h h h h h h h h h h g g g g g g d s g g g h h h h h g g g g g g g g h h h h h h h h h h h h h h h h h h h h h h h h h h h h h h h h h h g g g g g g g g h h h g h s 3 * @ # # @ = 2 3 2 < 7 s u u u r q y u u u u u u u u u u u u u u u u u u u u u u u u u u u u u u u u u u u u u s u s g h g g g h d u u u u u u y u s d g g g g h h h h h h h h h h h h h h h h h h h h h s 3 2 & $ $ $ ",
"% $ @ = 2 2 < < < < 3 > q u s u u u u u u u u u h h h h h h h h h h h h h h h h h h h h h h h h h h h h h h h h h h h h h h h h g h z h u u u u u u u u u u u u u u u u u u u u u u u u u u u u u u u u u u u u u u u u d h h h h h h h h h h h h h h h h h g s s s s s s s s s s s s s u s g h h h h h h h h h h h h h h h h h h h h h h h h h h h h h h h h h h h h h h h h h h h h h h h h h h h h h h h h h h h h h h h h h h h h h h h h h h h h h h h h h h h h h h h h h h h h h h h h h h h h h h h h h h h h h h h h h h h h h h h h h h h h h h h h h g g g g h h h h h h h h h h h h h h h h h h h h d s u y y y y y s d g g h h h h h h h h h h h h h h h h h h h h h h h h h h h g g g g g h h h h g g g g h h h h h h h h h h h h h h h h h h h h h h h h h h h h h h h h h h h h h h h h h h h h g z 0 < ; 2 3 3 2 8 g z h h h h h h h h h h h h h h h h g g g g g g g d g g g h h h h h h h h h g g g g h h h h h h h h h h h h h h h h h h h h h h h h h h h h h h h h h h h g g g g g g g h h h g h s 3 * @ # # @ = 2 4 3 , 7 u s u r 5 0 s u u u u u u u u u u u u u u u u u u u u u s s s s u u u u u u u u u u u u s u s g h h g g g s s s u u u u y u d g h h h h h h h h h h h h h h h h h h h h h h h h g g 3 2 * $ $ $ ",
"= $ @ = 2 2 < < < < < < 2 r y u s u u y s d g g g g g g h h h h h h h h h h h h h h h h h h h h h h h h h h h h h h h h h h h h h g h d u u u u u u u u u u u u u u u u u u u u u u u u u u u u u u u u u u u u u u u u u d h g h h h h h h h h h h h h h h g s u u u u u u s d s u u s g g g g h h h h h h h h h h h h h h h h h h h h h h h h h h h h h h h h h h h h h h h h h h h h h h h h h h h h h h h h h h h h g g g g g g g g h h h h h h h h h h h h h h h h h h h h h h h h h h h h h h h h h h h h h h h h h h h h h h h h h h h h h h h h g g g h g g g g h h h h h h h h h h h h h h h h h h h h h s u u u u u u u y s g h h h h h h h h h h h h h h h h h h h h h h h h h h h h h h h h h h h h h h h h h h h h h h h h h h h h h h h h h h h h h h h h h h h h h h h h h h h h h h h h h h h h g x q , ; 2 3 3 3 3 s h h h h h h h h h h h h h h h h h h h h h g g g g g g g g h h h h h h h h h h h h h h h h h h h h h h h h h h h h h h h h h h h h h h h h g g g h h h g g g g g g h h h h h g h s 3 : $ $ @ # % 2 3 3 3 3 e d e 3 2 s y u u u u u u u u u u u u u u u u u u u u u s s s s u u u u u u u u u u u u u s g g h h h h s u u u u y y s g g g h h h h h h h h h h h h h h h h h h h h h h h h h h d 2 2 * $ $ $ ",
"* # @ ; 2 2 < < < < < < 2 5 y u y u s s g g h g g g g g h h h h h h h h h h h h h h h h h h h h h h h h h h h h h h h h h h h h h g h d u u u u u u u u u u u u u u u u u u u u u u u u u u u u u u u u u u u u u u u u u d h g h h h h h h h h h h h h h h g s u u u u y y u s s s d g g g g g h h h h h h h h h h h h h h h h h h h h h h h h h h h h h h h h h h h h h h h h h h h h h h h h h h h h h h h h h h h h h h h h g g g g h h h h h h h h h h h h h h h h h h h h h h h h h h h h h h h h h h h h h h h h h h h h h h h h h h h h h h h h g g g g g g h h h h h h h h h h h h h h h h h h h h h h h d s s u u u u s u u s h h h h h h h h h h h h h h h h h h h h h h h h h h h h h h h h h h h h h h h h h h h h h h h h h h h h h h h h h h h h h h h h h h h h h h h h h h h h h h h h h h h h g z e < ; 2 3 2 5 1 7 g h h h h h h h h h h h h h h h h h h h h g g g g g g g g h h h h h h h h h h h h h h h h h h h h h h h h h h h h h h h h h h h h h h h h h h h h h h h g h h h h h h h h h g z s 3 : $ $ @ # % 2 3 3 3 3 2 7 2 : 0 d y u u u u u u u u u u u u u u u u u u u u u s s s s u u u u u u u u u u u u s f g g h h h g s u u u u u u d g h h h h h h h h h h h h h h h h h h h h h h h h h h h h d 2 2 * $ $ $ ",
"% @ # , 2 2 2 2 < < < < < < e s s d g g h g g g g g g g h h h h h h h h h h h h h h h h h h h h h h h h h h h h h h h h h h h h h g h d u u u u u u u u u u u u u u u u u u u u u u u u u u u u u u u u u u u u u u u u u d h g h h h h h h h h h h h h h h g s u u u u u u s s g g h g g g g g h h h h h h h h h h h h h h h h h h h h h h h h h h h h h h h h h h h h h h h h h h h h h h h h h h h h h h h h h h h h g g g g g g g g h h h h h h h h h h h h h h h h h h h h h h h h h h h h h h h h h h h h h h h h h h h h h h h h h h h h h h h h g g d s d g h h h h h h h h h h h h h h h h h h h h h h g g d s u u u u s u u s h h h h h h h h h h h h h h h h h h h h h h h h h h h h h h h h h h h h h h h h h h h h h h h h h h h h h h h h h h h h h h h h h h h h h h h h h h h h h h h h h h h h h z u 3 ; < 4 2 3 3 3 0 s h h h h h h h h h h h h h h h h h h h g g g g g g g g h h h h h h h h h h h h h h h h h h h h h h h h h h h h h h h h h h h h h h h h z h g d d d d d g g g g h h h h h g z s 3 : $ $ # # % 2 3 3 3 3 < 2 , 2 y s u u u u u u u u u u u u u u u u u u u u u u s s s s u u u u u u u u u u u s g g g g h h h d u u u y u s d g g h h h h h h h h h h h h h h h h h h h h h h h h h h h h d 2 2 * $ $ $ ",
"% @ $ , 2 2 2 2 < < < < < , 5 d h h g g g g g g g g g g g h h h h h h h h h h h h h h h h h h h h h h h h h h h h h h h h h h h h g h d u u u u u u u u u u u u u u u u u u u u u u u u u u u u u u u u u u u u u u u u u d h g h h h h h h h h h h h h h h g s u u u u d d g g h h h h g g g g h h h h h h h h h h h h h h h h h h h h h h h h h h h h h h h h h h h h h h h h h h h h h h h h h h h h h h h h h h h h d d d d g g g g h h h h h h h h h h h h h h h h h h h h h h h h h h h h h h h h h h h h h h h h h h h h h h h h h h h h h h h h h g s s u s d g h h h h h h h h h h h h h h h h h h h h g h g s u u u u u y s g h h h h h h h h h h h h h h h h h h h h h h h h h h h h h h h h h h h h h h h h h h h h h h h h h h h h h h h h h h h h h h h h h h h h h h h h h h h h h h h h h h h h h h d 4 ; < 3 2 2 < 5 2 q s h h h h h h h h h h h h h h h h h h g g g g g g g g h h h h h h h h h h h h h h h h h h h h h h h h h h h h h h h h h h h h h h h h h g s u u u u u s s s s h h h h h g h s 2 : $ $ # # $ 2 3 3 3 2 < < , 5 s u u s u u u u u u u u u u u u u u u u u u u u s s s s u u u u u u u u u u s d g g g g h h g s u u u y y d h g g g g g h h h h h h h h h h h h h h h h h h h h h h h h h d 2 2 * % $ $ ",
"% # % 2 < 2 3 2 , < 2 2 3 2 3 7 g g z h g g g g h h g g h g g g h h h h h h h h h h h h h h h h h h h h h h h h h h h h h h h h h h g s u u s s h g s s u u u u u u u u u u u u u u u u s u u u u u u u u u u u u u u u s g h h h h h h h h h h h h h h h h h g s u u s g g h h h h h h h h g g h h h h h h h h h h h h h h h h h h h h h h h h h h h h h h h h h h h h h h h h h h h h h h h h h h h h h h h h h g g s y u s d g g g g h h h h h h h h h h h h h h h h h h h h h h h h h h h h h h h h h h h h h h h h h h h h h h h h h h h h h h h h h s u s u u s d g h h h h h h h h h h h h h h h h h h h h h h h s s s s d g g h h h h h h h h h h h h h h h h h h h h h h h h h h h h h h h h h h h h h h h h h h h h h h h h h h h h h h h h h h h h h h h h h h h h h h h h h h h h h h h h h h h h h z h g 4 % < 3 2 3 3 3 3 < 7 y g h g g g g g g g h h h h h h h h h h h h h h h h h h h h h h h h h h h h h h h h h h h h h h h h h h h h h h h h h h h h h h h h h g u u u u u u u u s s d g h h h g h s 2 : $ $ $ $ $ , 3 3 3 2 2 3 2 e u u u u u u u u u u u u u u u u u u u u u u u u y y y y u u u u s s s s d d g g g g g g h h h d y y y y d g g g h h h h g g g g h h h h h h h h h h h h h h h h h h h h h s 2 4 * $ $ $ ",
"& $ % 2 < 2 2 < 4 3 2 2 < , < 2 8 g h g g g g g z z z h g g g g h h h h h h h h h h h h h h h h h h h h h h h h h h h h h h h h h h g s y u d g z h g d s u u u u u u u u u u u u u u u y u u u s s u u u u u u u u u s d g h h h h h h h h h h h h h h h h h h s u u s g g h h h h h h h g g g h h h h h h h h h h h h h h h h h h h h h h h h h h h h h h h h h h h h h h h h h h h h h h h h h h h h h h h h h g g d s d g h g g g g h h h h h h h h h h h h h h h h h h h h h h h h h h h h h h h h h h h h h h h h h h h h h h h h h h h h h h h h g s u s u u u s g h h h h h h h h h h h h h h h h h h h h h h h g g g g g h h h h h h h h h h h h h h h h h h h h h h h h h h h h h h h h h h h h h h h h h h h h h h h h h h h h h h h h h h h h h h h h h h h h h h h h h h h h h h h h h h h h h h h h h h 5 & , 3 3 3 3 3 3 3 , 3 e h z h g g g g g h h h h h h h h h h h h h h h h h h h h h h h h h h h h h h h h h h h h h h h h h h h h h h h h h h h h h h h h h g u u u u u u u u s s s d g h h h z d 3 , $ $ $ $ # , 3 3 2 < 3 < 4 s u u u u u u u u u u u u u u u u u u u u u u u u y u s d g g g g h h h h g g g g g g g g h h h g d d d d g g g g h h h h h h h h h h h h h h h h h h h h h h h h h h h h h s 2 4 * $ $ $ ",
"& $ & 2 2 2 3 8 u y r r 8 8 8 5 , e g z g g g g g h h h h g g g h h h h h h h h h h h h h h h h h h h h h h h h h h h h h h h h h h g s u s g z h h h g d s u u u u u u u u u u u u u u s g h g g d s u u u u u u u u d g h h h h h h h h h h h h h h h h h h h s s s s g g h h h h h h h h h h h h h h h h h h h h h h h h h h h h h h h h h h h h h h h h h h h h h h h h h h h h h h h h h h h h h h h h h h h h g g g g h z g g g g h h h h h h h h h h h h h h h h h h h h h h h h h h h h h h h h h h h h h h h h h h h h h h h h h h h h h h h h g u u s u u u u d g h h h h h h h h h h h h h h h h h h h h h h h h h h h h h h h h h h h h h h h h h h h h h h h h h h h h h h h h h h h h h h h h h h h h h h h h h h h h h h h h h h h h h h h h h h h h h h h h h h h h h h h h h h h h h h h h h h g g h 7 * < 4 3 3 3 3 3 4 4 3 2 0 g z s g g g g h h h h h h h h h h h h h h h h h h h h h h h h h h h h h h h h h h h h h h h h h h h h h h h h h h h h h h h h h g u u u u u u u u s s s s d g z h z d 3 , % % $ $ # , 3 3 2 , < , q d u u u u u u u u u u u u u u u u u u u u u u u u s d g h h h h h h h h h g g g g g g g g g h h h g g g g g g g g h h h h h h h h h h h h h h h h h h h h h h h h h h h h h s 2 4 * $ $ $ ",
"% $ & 2 4 , 5 g g g h z h z h s s r d g g g g g u s d g g g g g h h h h h h h h h h h h h h h h h h h h h h h h h h h h h h h h h h g s g g g h g g h h g d s u u u u u u u u u u u u u u g h g h g s u u u u u s s s g g h h h h h h h h h h h h h h h h h h h s s s s g g h h h h h h h h h h h h h h h h h h h h h h h h h h h h h h h h h h h h h h h h h h h h h h h h h h h h h h h h h h h h h h h h h h g h h h h h h h g g g g h h h h h h h h h h h h h h h h h h h h h h h h h h h h h h h h h h h h h h h h h h h h h h h h h h h h h h h h d u u s u u u u s g h h h h h h h h h h h h h h h h h h h h h h h h h h h h h h h h h h h h h h h h h h h h h h h h h h h h h h h h h h h h h h h h h h h h h h h h h h h h h h h h h h h h h h h h h h h h h h h h h h h h h h h h h h h h h h h h h h g g z 8 * < 4 2 3 3 3 2 2 3 3 2 , 5 y z g g g g h h h h h h h h h h h h h h h h h h h h h h h h h h h h h h h h h h h h h h h h h h h h h h h h h h h h h h h h h g u u u u u u u u s s s s s d g g h s 2 : $ # $ $ # , 3 2 2 < , 3 u u u u u u u u u u u u u u u u u u u u u u u u u u h h h h g g g g h h h h g g g g g g g g g h h h g g g g g g g g h h h h g g g g h h h h h h h h h h h h h h h h h h h h h s 2 3 * $ $ $ ",
"% $ & 2 3 < y z h h h h g g g h h h g g d d s u u s d g g g g g h h h h h h h h h h h h h h h h h h h h h h h h h h h h h h h h h h h h h h h h h h h h h g s u u u u u u u u u u u u u d g h z g s s u u u u u s s d h h h h h h h h h h h h h z z h g g g h h h h h h h h h h h h h h h h h h h h h h h h h h h h h h h h h h h h h h h h h h h h h h h h h h h h h h h h h h g g h z g g g h h h h h h h h h h h h h h h h h h h h h g g g g g h g g h h h h h h h h h h h h h h h h h h h h h h h h h h h h h h h h h h h h h h h h h h h h h h h h g s u y s s u u g g h h h h h h h h h h h h h h h h h h h h h h h h h h h h h h h h h h h h h h h h h h h h h h h h h h h h h h h h h h g g g d d d g g h h h h h h h h h h h h h h h h h h h h h h h h h h h h h h h h h h h h h h h h h h h h h h h h g g z 0 & : 4 2 3 2 3 5 < 2 2 2 3 < < 8 g g g g g g h h h h h h h h h h h h h h g h z h g u u g h h h h h h h h h h h h h h h h h h h h h h h h h h h h h h h h h h g s u u u u u u u u s s s s d s g y 2 < # @ $ $ @ ; 3 3 2 2 : 9 s u u u u u u u u u u u u u u u u u u u u u u u s g g g g g g g g g h h h h h h h h h h h h h h h h h h h h g g g g h h h h h h d s f g g h h h h h h h h h h h h h h h h h g y 2 3 & $ $ $ ",
"$ $ * 3 2 5 s h h h h h h g g h h h g g u u y y s s d g g g g g h h h h h h h h h h h h h h h h h h h h h h h h h h h h h h h h h h h h h h h h h h h h g d s u u u u u u u u u u u u u u s d g s u u u u u u u s s s g h h h h h h h h h h h h h h h h g g h h h h h h h h h h h h h h h h h h h h h h h h h h h h h h h h h h h h h h h h h h h h h h h h h h h h h h h h h h g g h h h h h h h h h h h h h h h h h h h h h h h h h h h g d s s d g g h h h h h h h h h h h h h h h h h h h h h h h h h h h h h h h h h h h h h h h h h h h h h h h h g d s s y u d h g h h h h h h h h h h h h h h h h h h h h h h h h h h h h h h h h h h h h h h h h h h h h h h h h h h h h h h h h h h h s s u u u u s s h h h h h h h h h h h h h h h h h h h h h h h h h h h h h h h h h h h h h h h h h h h h h h h h h g z 0 * : 4 2 5 3 4 8 5 4 3 < 2 2 2 3 4 r g z g g h h h h h h h h h h h h h h g h h g d u u d h h h h h h h h h h h h h h h h h h h h h h h h h h h h h h h h h h g s u u u u u u u u s s s s s s d y 2 < $ $ $ $ @ ; 3 3 2 2 2 r u u u u u u u u u u u u u u u u u u u u u u u u s g g g g g g g g g h h h h h h h h h h h h h h h h h h h h g g g g h h h h h g g d g h h h h h h h h h h h h h h h h h h h g y 2 3 & $ $ $ ",
"$ # * 3 < q h g h h h h h h g h h h g g y y u u d d g g g g g g h h h h h h h h h h h h h h h h h h h h h h h h h h h h h h h h h h h h h h h h h h h h g s s u u u u u u u u u u u u u u u s s u u u u u u u u u u s g h h h h h h h h h h h h g g h h h h h h h h h h h h h h h h h h h h h h h h h h h h h h h h h h h h h h h h h h h h h h h h h h h h h h h h h h h h h h g g g g z h g d h h h h h h h h h h h h h h h h h h h h g d s u y s d h h h h h h h h h h h h h h h h h h h h h h h h h h h h h h h h h h h h h h h h h h h h h h h h h g g g g f g g h h h h h h h h h h h h h h h h h h h h h h h h h h h h h h h h h h h h h h h h h h h h h h h h h h h h h h h h h h h h h s s u u u u s s h h h h h h h h h h h h h h h h h h h h h h h h h h h h h h h h h h h h h h h h h h h h h h h h h g h 0 * : 4 2 < < 8 g s s y r 5 3 < < 2 2 7 u z h g d h h h h h h h h h h h h g h g s s u u s h h h h h h h h h h h h h h h h h h h h h h h h h h h h h h h h h h g s u u u u u u u u s s s s s u s r 2 < $ $ $ $ # ; 3 3 2 2 5 s y s u u u u u u u u u u u u u u u u u u u u u u s g g g g g g g g g h h h h h h h h h h h h h h h h h h h h g g g g h h h h h h h g h h h h h h h h h h h h h h h h h h h h h y 2 3 & $ $ $ ",
"$ # * 3 3 r h d h h h h g h g h l h g g u s d d d g h h h g g g h h h h h h h h h h h h h h h h h h h h h h h h h h h h h h h h h h h h h h h h h h h h d s s u u u u u u u u u u u u u s s s u u u u u u u u u y y u d h h h h h h h h h h h h d g g h h h h h h h h h h h h h h h h h h h h h h h h h h h h h h h h h h h h h h h h h h h h h h h h h h h h h h h h h h h h h g g d d s d g z h h h h h h h h h h h h h h h h h h h h u u u u u s d h h h h h h h h h h h h h h h h h h h h h h h h h h h h h h h h h h h h h h h h h h h h h h h h h g h h h g h h l h h h h h h h h h h h h h h h h h h h h h h h h h h h h h h h h h h h h h h h h h h h h h h h h h h h h h h h h h h h h g g g d d d g g h h h h h h h h h h h h h h h h h h h h h h h h h h h h h h h h h h h h h h h h h h h h h h h h h g h 0 * : 4 2 2 2 0 z h z z h g s e 7 4 3 , , w g h z h h h h h h h h h h h h h h g u u u u u h h h h h h h h h h h h h h h h h h h h h h h h h h h h h h h h h h g s u u u u u u u u s s s s u y s e 2 < $ $ $ $ # ; 3 3 2 2 8 d y s u u u u u u u u u u u u u u u u u u u u u u s g g g g g g g g g h h h h h h h h h h h h h h h h h h h h g g g g h h h h h h h h h h h h h h h h h h h h h h h h h h h h h y 2 3 & $ $ $ ",
"% @ * 3 2 y h h h h h h h h h h h h h h h h h h h h h h h h h h h h h h h h h h h h h h h h h h h h h h h h h h h h h h h h h h h h h h h h h h h h h h s s s u u u u u s s s s u u u u s y y u u u u u u u u u s y d h h h h h h h h h h h g d u u u u g g g g h h h h g g g g h h h h h h h h h h h h h h h h h h h h h h h h h h h h h h h h h h h h h h h h h h h h h h h h h h g g g g g g h h h h h h h h h g d g g g g g h g g d u u u u u u d g g g h z g g g g h h g g g g g g h h h h h h h h h h h h h h h h h h h h h h h h h h h h h h h h h h h h h h h h h h h h h h h h h h h h h h h h h h h h h h h h h h h h h h h h h h h h h h h h h h h h h h h h h h h h h h h h h h h h h h h h h h h h h h h h h h h h h h h h h h h h h h h h h h h h h h h h h h h h h h h h h h h h h h h h h h h h h g h r * : 4 3 2 2 0 z g h j h h h h h u r 8 4 3 2 r g x h g h h h h h h h h h h h g u s u u s h h h h h h h h h h h h h h h h g d d g g g g g g g g g g g g g g h g d u u u u u u u u s s s s u y s e 2 < $ $ # $ $ ; 3 3 2 < 9 s y s u u u u u u u u u u u u u u u u u u u u u u s d g g g g g g g g h h h h h h h h h h h h h h h h h h h h h h h h h h h h g g g g h h h h h h h h h h h h h h h h h h h h h y 2 3 * $ $ $ ",
"% @ = 3 2 y h l h h h h h h h h h h h h h h h h h h h h h h h h h h h h h h h h h h h h h h h h h h h h h h h h h h h h h h h h h h h h h h h h h h h h h g s u u u u u u u u u u u u u s u s s s u u u u u u u s u g h h h h h h h h h h g d s u u u u u u u u d g g g g g g g h h h h h h h h h h h h h h h h h h h h h h h h h h h h h h h h h h h h h h h h h h h h h h h h h h h h g g g g h h h h h h h h g s s s u u u u s s s s u u u u u u s d h h g g h h g g g h h h g g g g h h h h h h h h h h h h h h h h h h h h h h h h h h h h h h h h h h h h h h h h h h h h h h h h h h h h h h h h h h h h h h h h h h h h h h h h h h h h h h h h h h h h h h h h h h h h h h h h h h h h h h h h h h h h h h h h h h h h h h h h h h h h h h h h h h h h h h h h h h h h h h h h h h h h h h h h h h h h h g h r = : 4 3 2 2 0 z g h j h h h h h z z h g e 7 4 7 r g z h h h h h h h h h h h g u s u u s h h h h h h h h h h h h h h h h u y y u s s s s g g g g g g g g g g g s u u u u u u u u s s s s u y s e 2 < $ $ # $ $ ; 3 3 2 < 9 s y u u u u u u u u u u u u u u u u u u u u u u u s d g g g g g g g g h h h h h h h h h h h h h h h h h h h h h h h h h h h h g g g g h h h h h h h h h h h h h h h h h h h h h y 2 3 * $ $ $ ",
"% @ = 3 2 y h h h h h h h h h h h h h h h h h h h h h h h h h h h h h h h h h h h h h h h h h h h h h h h h h h h h h h h h h h h h h h h h h h h h h h h h g d s s s d s s a a u u u u s d g g s s u u u u u u s s h h h h h h h h h h h d s u u u u u s s s s u s g g g g g g h h h h h h h h h h h h h h h h h h h h h h h h h h h h h h h h h h h h h h h h h h h h h h h h h h h h h h h h h h h h h h h h g s u u u u u u y y u u u u u u u u u d g g g g h h g d s d g h g g g g h h h h h h h h h h h h h h h h h h h h h h h h h h h h h h h h h h h h h h h h h h h h h h h h h h h h h h h h h h h h h h h h h h h h h h h h h h h h h h h h h h h h h h h h h h h h h h h h h h h h h h h h h h h h h h h h h h h h h h h h h h h h h h h h h h h h h h h h h h h h h h h h h h h h h h h h h h h h h h h r = : 4 3 2 2 0 z h h l h h h h h g g h z h z d 0 3 0 y d g h h h h h h h h h g u u u s d h h h h h h h h h h h h h h h h s u u s u u u u u u u u u u u u u s u r u u u u u u u u s s s s u y s e 2 < % $ $ $ $ = 3 2 2 < 9 s y u u u u u u u u u u u u u u u u u u u u u u u u s d g g g g g g g h h h h h h h h h h h h h h h h h h h h h h h h h h h h g g g g h h h h h h h h h h h h h h h h h h h h h r < 4 * $ $ $ ",
"% @ = 2 2 y h h h h h h h h h h h h h h h h h h h h h h h h h h h h h h h h h h h h h h h h h h h h h h h h h h h h h h h h h h h h h h h h h h h h h h g h h h h h h h d d d d u u u u s g h h g s s u u u u u s g z g h h h h h h h h g d s u u u u u s s s s y u s d g g g g h h h h h h h h h h h h h h h h h h h h h h h h h h h h h h h h h h h h h h h h h h h h h h h h h h h h h h h h h h h h h h h h z d u u s s s s y y u s u u u u u u u s s d g z z h g d y u s d g g g g h h h h h h h h h h h h h h h h h h h h h h h h h h h h h h h h h h h h h h h h h h h h h h h h h h h h h h h h h h h h h h h h h h h h h h h h h h h h h h h h h h h h h h h h h h h h h h h h h h h h h h h h h h h h h h h h h h h h h h h h h h h h h h h h h h h h h h h h h h h h h h h h h h h h h h h h h h h h g h h r = : 4 3 2 2 0 z h h l h h h h h g g g h h h d g z u q y d g h h h h h h h h g u y u s g h h h h h h h h h h h h h h h h s u u s u u u u u u u u u u u u u s u r u u u u u u u u s s s s u y s e < < % $ $ # $ = 3 2 2 < 9 s y u u u u u u u u u u u u u u u u u u u u u u u u s d g g g g g g g h h h h h h h h h h h h h h h h h h h h h h h h h h h h g g g g h h h h h h h h h h h h h h h h h h h h h r < 3 * $ $ $ ",
"% @ = 2 2 y h h h h h h h h h h h h h h h h h h h h h h h h h h h h h h h h h h h h h h h h h h h h h h h h h h h h h h h h h h h h h h h h h h h h h h h h h h g g g g h h h h s u u u d h h d u u u u u u u u d h h g h h h h h h h h g g d s u u u u u u u u s s s s g g g g h h h h h h h h h h h h h h h h h h h h h h h h h h h h h h h h h h h h h h h h h h h h h h h h h h h h z h g g h h h h h h g g h g s u u u u u u u u u u u u u u u u u u s d g h h g d s s d d g g g g h h h h h h h h h h h h h h h h h h h h h h h h h h h h h h h h h h h h h h h h h h h h h h h h h h h h h h h h h h h h h h h h h h h h h h h h h h g g g g g g h h h h h h h h h h h h g g g g g g g g h h h h h h h h h h h h h h h h h h h h h h h h h h h h h h h h h h h h h h h h h h h h h h h h h h h h h h h h g g h y = : 4 3 2 2 e h h h h h h h h h h h h h h h h h h h h h g g h h h h h h h h g d s s s g h h h g h h h h h h h h h h h h h g s u y y y y u u u u y y u u u u u u u u d z z h d s s s s s u y s e < 2 % $ $ # $ * 3 3 2 3 e d u u u u u u u u u u u u u u u u u u u u u u u u u u y s g h h h h h h h h h h h h h h h h h h h h h h h h h h h h h h h h h h h h h h h h h h h h h h h h h h h h h h h h h h w 2 3 & $ $ $ ",
"& @ = 2 2 r h h h h h h h h h h h h h h h h h h h h h h h h h h h h h h h h h h h h h h h h h h h h h h h h h h h h h h h h h h h h h h h h h h h h h h h h h h g g g g g g g g s u u u u d d u u u u u u u u u g h h h h h h h h h h h h h h g f f g g s s s s s s s s d g g g h h h h h h h h h h h h h h h h h h h h h h h h h h h h h h h h h h h h h h h h h h h h h h h h h h h h h g g g h h h h h h g g h h d s u u u u u u u u u u u u u u u u u u s s g h h g g g g g g g g g h h h h h h h h h h h h h h h h h h h h h h h h h h h h h h h h h h h h h h h h h h h h h h h h h h h h h h h h h h h h h h h h h h h h h h h h g d s s s d g h h h h h h h h h g h h g g g h h g g g g h h h h h h h h h h h h h h h h h h h h h h h h h h h h h h h h h h h h h h h h h h h h h h h h h h h h h h h h g g h y = : 4 3 2 2 e h h h h h h h h h h h h h h h h h h h h h h h h h h h h h h h h g g d g g g g h h h h h h h h h h h h h h h h h g d s s s u u u u u u u u u u u u u u s h z h g s s s s s u y s e , 2 % $ $ # # * 3 3 2 3 r d u u u u u u u u u u u u u u u u u u u u u u u u u u u d g h h h h h h h h h h h h h h h h h h h h h h h h h h h h h h h h h h h h h h h h h h h h h h h h h h h h h h h h h h w 2 2 & $ $ $ ",
"* # = 2 2 r z h h h h h h h h h h h h h h h h h h h h h h h h h h h h h h h h h h h h h h h h h h h h h h h h h h h h h h h h h h h h h h h h h h h h h h h h h g g g g g g g g s u u u y u u u u u u u u u u u h h g h h h h h h h h h h h h h h h h h g g g g s s s s s g g g h h h h h h h h h h h h h h h h h h h h h h h h h h h h h h h h h h h h h h h h h h h h h h h h h h h h h h h z h h h h h h g g g h g s u u u u u u u u u u u u u u u u s s u u s g h h h h h h g g g g h h h h h h h h h h h h h h h h h h h h h h h h h h h h h h h h h h h h h h h h h h h h h h h h h h h h h h h h h h h h h h h h h h h h h h h h s s u u u s g h h h h h h h h h g h g s s d g g g g g g h h h h h h h h h h h h h h h h h h h h h h h h h h h h h h h h h h h h h h h h h h h h h h h h h h h h h h h h g g z y = : 4 3 3 2 r h h h h h h h h h h h h h h h h h h h h h h h h h h h h h h h h h g h g g d g g h h h h h h h h h h h h h h h h h h g g d d d d d d s s s u u u u u y s d h g g g s s s s u y s e , 2 % $ $ # # * 3 3 3 3 y d u u u u u u u u u u u u u u u u u u u u u u u u u u s g h h h h h h h h h h h h h h h h h h h h h h h h h h h h h h h h h h h h h h h h h h h h h h h h h h h h h h h h h h h w 2 2 & $ $ $ ",
"* # * 2 2 r z h h h h h h h h h h h h h h h h h h h h h h h h h h h h h h h h h h h h h h h h h h h h h h h h h h h h h h h h h h h h h h h h h h h h h h h h h g g g g g g g g s u u u u u u u u u u u u u u u h h h h h h h h h h h h g g g g h h h h h h h h s s s s s d g g h h h h h h h h h h h h h h h h h h h h h h h h h h h h h h h h h h h h h h h h h h h h h h h h h h h h s s d g h h h h h h g g g h h d u u u u u u u u u u u u u u u u s s u y u s g h g g g g g g g g h h h h h h h h h h h h h h h h h h h h h h h h h h h h h h h h h h h h h h h h h h h h h h h h h h h h h h h h h h h h h h h h h h h h h h h h s s s u y s g h h h h h h h h h g h g u y u s d g g g g h h h h h h h h h h h h h h h h h h h h h h h h h h h h h h h h h h h h h h h h h h h h h h h h h h h h h h h h g g z y = : 3 3 3 2 r h h h h h h h h h h h h h h h h h h h h h h h h h h h h h h h h h g h g d s d g h h h h h h h h h h h h h h h h h h h h g g g g g h g d s u u u u u y u s g g g g d s s s u y s e , 2 % $ $ # # * 3 3 3 3 y d u u u u u u u u u u u u u u u u u u u u u u u u u u d h h h h h h h h h h h h h h h h h h h h h h h h h h h h h h h h h h h h h h h h h h h h h h h h h h h h h h h h h h h h w 2 2 % $ $ $ ",
"& $ * 2 2 e g h h h h h h h h h h h h h h h h h h h h h h h h h h h h h h h h h h h h h h h h h h h h h h h h h g h h g h h h g h h h h h h h h h h h h h h h h h h h h g g g d s s s s s s s s y y y y u s d g h h h h h h h h h h h h g g g g h h h h g d s s u i s d h h h h g g g g h h h h h h h h h h h h h h h h h h h h h h h h h h h h h h h h h h h h h h h h h h h h d s u u u u u u s f h h h h h h h h h g d s u y u u u u u u u r u u u u u u u u u y i h h h h h h h h h h h h h h h h h h h h h h h h h h h h h h h h h h h h h h h h h h h h h h h h h h h h h h h h h h h h h h h h h h h h h h h h h h h h h h h h h h g d s s g h h h h h h h h h h g h h s s u u g g g g g h h h h h h h h h h h h h h h h h h h h h h h h h h h h h h h h h h h h h h h h h h h h h h h h h h h h h h h h g g z y ; ; 3 3 3 2 r h h h h h h h h h h h h h h h h h h h h h h h h h h h h h h h h h h h h h h h h h g g g g h h h h h h h h h h h h h h h h g g h h h h h h g d u y u u u u u s g h h g d s s s d y 2 3 & # $ @ @ * 2 2 2 2 d g s y u u u u u u u u u u u u u u u s u u u u d g g g h h h h h h h h h h h h h h h h h h h h h g g z h h h h h h h h g g g g h h h h h h h h h h h h h h h h h h h h h h h h h 0 2 2 % $ $ $ ",
"& $ & 2 2 q g g h h h h h h h h h h h h h h h h h h h h h h h h h h h h h h h h h h h h h h h h h h h h h h h h h g d d d g h h h h h h h h h h h h h h h h h h h h h h g g g s s s s s s s s s d d d d g h h h h h h h h h h h h h h h g g g g h h h h d s s s i d g g h h h h g g g g h h h h h h h h h h h h h h h h h h h h h h h h h h h h h h h h h h h h h h h h h g d s u u u u u u u u u s s f s d g h h h h h g d d s d d d d d d s y u u u u u u u u u u s h h h h h h h h h h h h h h h h h h h h h h h h h h h h h h h h h h h h h h h h h h h h h h h h h h h h h h h h h h h h h h h h h h h h h h h h h h h h h h h h h h h h g g h h h h h h h h h h h g g h g h d g h g g g g h h h h h h h h h h h h h h h h h h h h h h h h h h h h h h h h h h h h h h h h h h h h h h h h h h h h h h h h g g z y ; ; 2 3 3 2 r h h h h h h h h h h h h h h h h h h h h h h h h h h h h h h h h h h h h h z h h h h g g g g h h h h h h h h h h h h h h h g g h h h h h h h g s u u u u u u s g h h h h g g g h s 2 3 * $ $ # # * 3 3 3 3 s g d s s s s s u u u u u u u u u s d d g g g g g g g h h h h h h h h h h h h h h h h h h h h h h g g g d d d d g g h h g g g g h h h h h h h h h h h h h h h h h h h h h h h h h 0 2 < $ $ $ $ ",
"& $ & 2 3 0 z g h h h h h h h h h h h h h h h h h h h h h h h h h h h h h h h h h h h h h h h h h h h h h h h h h s u s u s g h h h h h h h h h h h h h h h h h h h h h g g d u s s s s d d d d h h h h h h h h h h h h h h h h h h h h g g g g h h h h g d s s d g h h h h h h g g g g h h h h h h h h h h h h h h h h h h h h h h h h h h h h h h h h h h h h h h h h g d s u u u u u u u u u u u i s y u s d h h h h g g g g h h h h h h d u u u u u u u u u u s f h h h h h h h h h h h h h h h h h h h h h h h h h h h h h h h h h h h h h h h h h h h h h h h h h h h h h h h h h h h h h h h h h h h h h h h h h h h h h h h h h h h h h h h h h h h h h h h h h h g h h h h h h g g g g h h h h h h h h h h h h h h h h h h h h h h h h h h h h h h h h h h h h h h h h h h h h h h h h h h h h h h h h g g z y ; ; 2 3 3 2 r z h h h h h h h h h h h h h h h h h h h h h h h h h h h h h h h h h h h h h g g d g h g g g g h h h h h h h h h h h h h h g h h h h h h h h g d u u u u u u s g h h h h h h g z s 2 3 & # $ @ @ * 2 2 2 2 s h h g g g g g s s s s s s s s g g g g g g g g g h h h h h h h h h h h h h h h h h h h h h h h h h g s u u u u u s d g g g g g h h h h h h h h h h h h h h h h h h h h h h h h h 0 2 < $ $ $ $ ",
"& $ & 2 3 8 z g h h h h h h h h h h h h h h h h h h h h h h h h h h h h h h h h h h h h h h h h h h h h h h h h d u u d u s d h h h h h h h h h h h h h h h h h h h h h g g s u s s s s h h h h h h h h g g g g h h h h h h h h h h h h g g g g h h h h h g g g g g h z h h h h g g g g h h h h h h h h h h h h h h h h h h h h h h h h h h h h h h h h h h h h h h h h s s s s u u u u u u u u u u u u u u u u d h h h h h h h h h h h h h g s u u u u u u u u u s g h h h h h h h h h h h h h h h h h h h h h h h h h h h h h h h h h h h h h h h h h h h h h h h h h h h h h h h h h h h h h h h h h h h h h h h h h h h h h h h h h h h h h h h h h h h h h h h h h h g g h g g g g g g g g h h h h h h h h h h h h h h h h h h h h h h h h h h h h h h h h h h h h h h h h h h h h h h h h h h h h h h h h g g z y ; ; 2 3 3 2 r z h h h h h h h h h h h h h h h h h h h h h h h h h h h h h h h h h h h h g d s u s g g g g g g h h h h h h h h h h h h h h h h h h h h h h g s u u u u u u s g h h h h h h g z s 3 4 * $ $ $ $ * 3 3 3 3 s h z h h h h h g g g g g g g g h h h h h h h h h h h h h h h h h h h h h h h h h h h h h h h h g h g u u u u u y y u s g g g g h h h h h h h h h h h h h h h h h h h h h h h h h 0 2 < $ $ $ $ ",
"& $ & 2 3 5 h z h h h h h h h h h h h h h h h h h h h h h h h h h h h h z z h h g g g g g g g g h h h h h h h h g s u u u u s g h h h h h h h h h h h h h h h h h h h h d s u y u u d h h h h h h h h h g g g g h h h h h h h h h h h h h h h h h h h h g g g g h h h h g g g g h h g s u s d g h h g g h h h h h h h h h h h h h h h h h h h h h h h h h h h h z h g g u u u u u u u u u u u u u u u u s u y y s g h z g g g g h h h h h s u s u u u u s u u s d g g h g g g g h h h h h h h h h h h h h g g g h h g g g g g g h h h h h h h h h h h h h h h h h h h h h h h h h h h h h h h h h h h h h h h h h h h h h h h h h h h h h h h h h h h h h h h h h h h h h h h h g h h h h h h h h h h h h h h h h h h h h h h h h h h h h g g g h h h h h h h h h h h h h h h h h h h h h h h h h h h h h h h h g h h y ; ; 2 3 3 2 r z h h h h h h h h h h h h h h h h h h h h h h h h h h h h h h h h h h h h g d s u u u s g h h h g h h h h g g g g h h h h g h g d u u u u u u u u u u u u u s d g g h h h g g z u 3 4 * $ $ $ $ * 3 3 3 3 s h h g g g g g g g g g g g g g h h h h h h h h h h h h h h h h h h h h h h h h h h h h h h h h h h g s u u u y u u u u u g z g h h h h h h h h h h h h h h h h h h h h h h h h h 5 3 , $ $ $ $ ",
"& $ & 2 3 4 g z h h h h h h h h h h h h h h h h h h h h h h h h h h h h h h h z h g g g g g g g h h h h h h h h g d u u s s d g h h h h h h h h h h h h h h h h h h h h u u s s u s g h h h h h h h h h g g g g h h h h h h h h h h h h h h h h h h h h g g g g h h h h g g g g g s u s s s s u s d g h h h h h h h h h h h h h h h h h h h h h h h h h h h h h h d s s u u u u u u u u u u u u u u u u u u y y d g h z g g g g h h h g d u y u u u u u i s d g g h h h g g g g h h h h h h h h h h h h h h h z h h h h g g g g h h h h h h h h h h h h h h h h h h h h h h h h h h h h h h h h h h h h h h h h h h h h h h h h h h h h h h h h h h h h h h h h h h h h g g g h d g h h h h h h h h h h h h h h h h h h h h h h h h h h h h h z h h h h h h h h h h h h h h h h h h h h h h h h h h h h h h h h h h h r ; ; 3 3 3 2 r z h h h h h h h h h h h h h h h h h h h h h h h h h h h h h h h h h h h h g f s u u u u u u s g g h h h h g g g g g g g h g h g d u u u u u u u u u u u u u u s s h h h h g g z u 2 3 * $ $ # # * 3 3 3 3 s h h g g g g g g g g g g g g g h h h h h h h h h h h h h h h h h h h h h h h h h h h h h h h h h h g d s y t y u u u u y s g h h h h h h h h h h h h h h h h h h h h h h h h h h 5 3 , $ $ $ $ ",
"% $ % 2 3 2 s z h h h h h h h h h h h h h h h h h h h h h h h h h h h h h h g g g g h g g g g g h h h h h h h h h g d s d d g h h h h h h h h h h h h h h h h h h h h h g d s u d g h g h h h h h h h h g g g g h h h h h h h h h h h h h h h h h h h h g g g g h h h h g g g g s y y u s s u y u s d g h h h h h h h h h h h h h h h h h h h h h h h h h h h h h s y u u u u u u u u u u u u u u u u u s s s s d h h h g g g g h h g g u u u y u u u u i f g h h h h h g g g g h h h h h h h h h h h h h h g g g g h h g g g g h h h h h h h h h h h h h h h h h h h h h h h h h h h h h h h h h h h h h h h h h h h h h h h h h h h h h h h h h h h h h h h h h h h h h g s u u s g h h h h h h h h h h h h h h h h h h h h h h h h h h h g g h g g g h h h h h h h h h h h h h h h h h h h h h h h h h h h h h g h r : ; 3 3 3 2 r z h h h h h h h h h h h h h h h h h h h h h h h h h h h h h h h h h h h h g d s u u u u u u u u u d d d d s s s s s s d g g h g d u u u u u u u u u u u u u u s s h h h h g g z u 2 3 * $ $ # # * 3 3 3 3 d h h g g g g g g g g g g g g g h h h h h h h h h h h h h h h h h h h h h h h h h h h h h h h h h h h g g s y u u u u u u u s h h h h h h h h h h h h h h h h h h h h h h h h h h 5 3 , $ $ $ $ ",
"% $ % 2 3 < u z h h h h h h h h h h h h h h h h h h h h h h h h h h h h z h d s s d g g g g g g h h h h h h h h h h h d g g g z h h h h h h h h h h h h h h h h h h h h h h g g h h g g h h h h h h h h g g g g h h h h h h h h h h h h h h h h h h h h g g g g h h h h g g g g y s s u u u u y u u s s h h h h h h h h h h h h h h h h h h h h h h h h h h h h h s u u u u u u u u u u u u u u u u u u d d g h g h h g g g g g h g g s y u u y u u u u d g h h h h h h g g g g h h h h h h h h h h h h h g s u s s d g g g g g h h h h h h h h h h h h h h h h h h h h h h h h h h h h h h h h h h h h h h h h h h h h h h h h h h h h h h h h h h h h h h h h h h h h g s s u y u d g h h h h h h h h h h h h h h h h h h h h h h h h h g s u s d g g h h h h h h h h h h h h h h h h h h h h h h h h h h h h h g h r : ; 3 3 3 2 r z h h h h h h h h h h h h h h h h h h h h h h h h h h h h h h h h h h h h g d s u u u u u y y u s u u u u y y y y y u s d g h g d u u u u u u u u u u u u s s d g h h h h g g z u 2 3 * $ $ # # * 3 3 3 3 d h h g g g g g g g g g g g g g h h h h h h h h h h h h h h h h h h h h h h h h h h h h h h h h h h h g h h g s u u u u u y u g h h h h h h h h h h h h h h h h h h h h h h h h h 5 4 , $ $ $ $ ",
"% $ % 2 3 < q h h h h h h h h h g h g d g g g g h h h h h h h h z h h h u u u u s s d h h h h h h h h h h h h h h h h h h h h h h h h h h h h h h h h h h h h h z z h h g h h h g g g g h h h h h h h h h h h h h h h h h h h h h h h h h h h h h h h h h h h h h h h h g g g s s s s u u u u u u u u u f g g g h h h h h h h h h h h h h h h h h h h h h h h h h d y s s s u y u u u u u s d g z z z z h h h h g h h g g g g g h d s s u u u u u u u u g h h h h h h h h h h h h h h h h h h h h h h h h s u u u u u u d d g g g h h h h h h h h h h h h h h h h h h h h h h h h g g g g g h h h h h h h h h h h h h h h h h h h h h h h h h h h h h h h h h h g h g s u u u u y u u g h h h h h h h h h h h h h h h h h h h h h h h h h d u s u s g g h h h h h h h h h h h h h h h h h h h h h h h h h h h h h g h r : ; 3 2 3 2 u z h h h h h h h h h h h h h h h h h h h h h h h h h h h h h h h h h h h h h h h h s s s u s s s s u u u u u u u u u u s s s s s s u u u u u u u u u u u u u s g z h h h h g h z u 2 3 & # # $ $ & 2 2 2 2 g h g g g g g g h h h h h h h h h h h h h h h h h h h h h h h h h h h h h h h h h h h h h h h h h h h h g g g g g s u u u u u u g h h h h h h h h h h h h h h h h h h h h h g g g 5 5 : $ $ $ $ ",
"% $ % 2 2 < 9 h h h h h h h h h g h g d s s d d h h h h h h h h h h g d u u u u u u d h h h h h h h h h h h h h h h h h h h h h h h h h h h h h h h h h h h h h g g h h g g h h g g g g h h h h h h h h h h h h h h h h h h h h h h h h h h h h h h h h h h h h h h h h g g g s s s s s u u u u u u u u d g g g h h h h h h h h h h h h h h h h h h h h h h h h h g u s u u u y y u d d d g h h g g g g g g g g g g g g h h h h d d s y u u u u u u u u h h h h h h h h h h h h h h h h h h h h h h h h h d u u u u u u u s d d g g h h h h h h h h h h h h h h h h h h h h h h h g g g y u d g h h h h h h h h h h h h h h h h z z z z h h h h h h h h h h h h h g d u u u u u y u u g h h h h h h h h h h h h h h h h h h h h h h h h g s u s y s g h h h h h h h h h h h h h h h h h h h h h h h h h h h h h h g h r : ; 3 2 3 2 u z h h h h h h h h h h h h h h h h h h h h h h h h h h h h h h h h h h h h h h h h h h g s s s s s u u u u u u u u u u u u u u u u s s s s g d u y u u u u s d h l h h h h g h z u 2 3 & # # $ $ & 2 2 2 2 g h g g g g g g h h h h h h h h h h h h h h h h h h h h h h h h h h h h h h h h h h h h h h h h h h h h g g g g g h d u u u u u g g h h h h h h h h h h h h h h h h h h h h h h d 3 4 ; $ $ $ $ ",
"% $ % 2 < 2 7 g h h h h h h h h g h g d y u s s h h h h h h h h h g s u u u u u u u s h h h h h h h h h h h h h h h h h h h h h h h h h h h h h h h h h h h h h g g h z g h h h g g g g h h h h h h h h h h h h h h h h h h h h h h h h h h h h h h h h h h h h h h h h g g s u s s s s u u u u u u u u u g g g h h h h h h h h h h h h h h h h h h h h h h h h h h s s u u s s s d g h g h h h h h h h h h h h g h h h g g g g s s s y u u u u u u u u h h h h h h h h h h h h h h h h h h h h h h h h h g d u u u u u u u u s d g g h h h h h h h h h h h h h h h h h h h h h h g g g u u s d h h h h h h h h h h h h h h h h h h h h h h h h h h h h h h h h h d u u u u u u y u u g h h h h h h h h h h h h h h h h h h h h h h h h s u u s s d h h h h h h h h h h h h h h h h h h h h h h h h h h h h h h g g h r : ; 3 2 3 2 u z h h h h h h h h h h h h h h h h h h h h h h h h h h h h h h h h h h h h h h h h z z h s s s s s u u u u u u u u u u u u u u u u d d d d h g d s s s s s g h h h h h h h g h z u 2 3 & # @ $ $ % 2 2 2 2 h g g g g g g g h h h h h h h h h h h h h h h h h h h h h h h h h h h h h h h h h h h h h h h h h h h h g g g g g h d u u u u u s g h h h h h h h h h h h h h h h h h h g g h h d 3 4 = $ $ $ $ ",
"% $ $ 2 , 2 4 g h h h h h h h h g h g d u u s s h h h h h h h h h d u y u u u u u y s g h h h h h h h h h h h h h h h h h h h h h h h h h h h h h h h h h h h h d s s u u s s s g g g g h h h h h h h h h h h h h h h h h h h h h h h h h h h h h h h h h h h h h h h h g g s u s s s s u u u u u u u u u d g h h h h h h h h h h h h h h h h h h h h h h h h h h z d s s s d g g g g g g g g g d d d d s s s s u s s s d d d d s y y u u u u u u u u u h h h h h h h h h h h h h h h h h h h h h h h h h h d u u u u u u u u u s d g g h h h h h h h h h h h h h h h h h h h h h g g g g f d s h h h h h h h h h h h h h h h h g g g g g g g g g g g g h h h h g s y u u u u u y u u g h h h h h h h h h h h h h h h h h h h h h h h h s y u s g g g g h h h h h h h h h h h h h h h h h h h h h h h h h h h h g g h r : ; 4 2 3 2 u x h h h h h h h h h h h h h h h h h h h h h h h h h h h h h h h h h h h h h h h h h h d u s s s s u u u u u u u u u u s s s s s s g g g g g g h h h h h h j l h h h h h h g h z u 2 3 & # @ $ $ % 2 2 2 2 h g g g g g g g h h h h h h h h h h h h h h h h h h h h h h h h h h h h h h h h h h h h h h h h h h h h g g g g g s u u u u u u u g g h h h h g h h h h h h h h h h h h s d d g s 2 3 = $ $ $ $ ",
"% # $ , 2 2 , s h h h h h h h h h h h g h h h h h h h h h h h h g d s u u u u u u s d g h h h h h h h h h h h h h h h h h h h h h h h h h g d s s s s s h h g s u u u u u u u u u u s s g h h h h h h h h h h h h h h h h h h h h h h h h h h h h h h h h h g g g g g g d s u u u u u u u u u u u u u u s g g h h h h h h h h h h h h h h h h h h h h h h h h h h h h h g g g g g g g g g g g g u u u s s s s s u u u u u u u u u s u y u u u u u u u d g g g g h h h h h h h h h h h h h h h h h h h h h h g d u u u u u u u u s s g h h h h h h h h h h h h h h h h h h h h h g g g g h h h h h h h h h h h h h h h h h h h h g s u s u u u u u u u u d d d d d s s s u u u u u u u s g h h g h h h h h h h h z h g h g g g g h h h h d d d d h h h h h h h h h h h h h h h h h h h h h h h h h h h h h h h h g g h 0 : ; 4 2 3 3 u h h h h h h h h h h h h h h h h h h h h h h h h h h h h h h h h h h h h h h h h h h g d y s s s s u u u u u u u u u u u u u s g h z h g g g g g g g g h h h h h h h h h h g h z u 2 3 & # $ $ # $ 3 2 2 5 g g g g g g g g h h h h h h h h h h h h h h h h h h h h h h h h h h h h h h h h h h h h h h h h h h h h h h h h g d u y u u u u u d z x h h g g h h h h h h h h h d s s y u s h s 2 3 * $ $ $ $ ",
"% # $ , 2 2 , y h h h h h h h h g h h g h h h h h h h h h h h h g d u y u u u u s s g g h h h h h h h h h h h h h h h h h h h h h h h h h d s s u u u u d g d u u u u u u u u u s u u y s g g g g g g g g g g g h h h h h h h h h h h h h h h h h h h h h g g d s s s s s u u u u u u u u u u u s s s s d g h h h h h h h h h h h h h h h h h h h h h h h h h h h h h h g g g g g g g g g g g g s s s u s s s s u u u s s s s s u u u s u u u u u u s g g g g g h h h h h h h h h h h h h h h h h h h h h h h h s u u u u u u u y u s g h h h h h h h h h h h h h h h h h h h h g g g g h h h h h h h h h h h h h h h h h h h h g s u s u u u u u u u u s s s s s s s u u u u u u u u s d g h h h h h h h h h h h g d g h h g g h h h h h h h h h h h h h h h h h h h h h h h h h h h h h h h h h h h h h h h h g g h 0 : ; 4 2 3 3 u h h h h h h h h h h h h h h h h h h h h h h h h h h h h h h h h h h h h h h h h h h g g s s s s s s s s s s u u u u u u u u s g g z z h h g g g g g g h h h h h h h h h h g h z u 2 3 & # $ $ # $ 3 2 2 5 g g g g g g g g h h h h h h h h h h h h h h h h h h h h h h h h h h h h h h h h h h h h h h h h h h h h h h h h g d s u u u u u u s g h z h h h h h h h h h h h h d u u y s s h u 2 3 & $ $ $ $ ",
"% # $ , 2 2 < q h h h h h h h h g g g g h h h h h h h h h h h h g d s u y y y y s d g g h h h h h h h h h h h h h h h h h h h h h h h h h s u s u u u u u s s y u u u u u u u u s u u y u s d d d d d d d d d d g g h h h h h h h h h h h h h h h h h h h g d s u u u u u u u u u u u u d d d d u u u u g g h h h h h h h h h h h h h h h h h h h h h h h h h h h h h h g g g g g g g g g g g g g d s u s s s s u u s d g g g g s s u u u u u u u u d g g g g g h h h h h h h h h h h h h h h h h h h h h h h h d u u u u u u u y u s g h h h h h h h h h h h h h h h h h h h h g g g g h h h h h h h h h h h h h h h h h h h h g s u s u u u u u u u u u u u u s u u u u u u u u y u u s s g h h h h h h h h h g s s s g g g g h h h h h h h h h h h h h h h h h h h h h h h h h h h h h h h h h h h h h h h h h g h 0 : ; 4 2 3 3 u h h h h h h h h h h h h h h h h h h h h h h h h h h h h h h h h h h h h h h h h h h h g g h h h h g g g g d s s u u u s s s s s s d g g g g g g g g g h h h h h h h h h h g h z u 2 3 & # $ $ # $ 3 2 2 5 g g g g g g g g h h h h h h h h h h h h h h h h h h h h h h h h h h h h h h h h h h h h h h h h h h h h h h h h g g d u u u u u s u s d g h z h h h h h h h h h z s y u u s d z y 3 3 % $ $ $ $ ",
"% # $ , 2 < 2 7 h h h h h h h h g g g g h h h h h h h h h h h h z h d d d d d d d g g g h h h h h h h h h h h h h h h h h h h h h h h h h u y s u u u u s g g d u u u u u u u u y u u s u y u u y y y y y y y y s d g g h h h h h h h h h h h h h h h h h g s u u u u u u u u u u u u u h h h h f f g g g h h h h h h h h h h h h h h h h h h h h h h h h h h h h h h h g g g g g g g g g g g g h g s u s s s s y s d g h h h h g d s s u u u u u s g g g g g g h h h h h h h h h h h h h h h h h h h h h h h h g s u u u u u u s s g h h h h h h h h h h h h h h h h h h h h h g g g g h h h h h h h h h h h h h h h h h h h h g s u s u u u u u u u u u u u u u u u u u u u u u u u u y s d h h h h h h h h h s u y u y s g h h h h h h h h h h h h h h h h h h h h h h h h h h h h h h h h h h h h h h h h h h g h 0 : ; 3 2 3 3 u h h h h h h h h h h h h h h h h h h h h h h h h h h h h h h h h h h h h h h h h h h h h h h h h h g g g g g g d s u u s s s s s u y u s d g g g g g g h h h h h h h h h h g h z u 2 3 & # $ $ # $ 3 2 2 5 g g g g g g g g h h h h h h h h h h h h h h h h h h h h h h h h h h h h h h h h h h h h h h h h h h h h h h h h g g d s u u u u u u y u s d g h h h h h h h h h h s u u s d d z r 3 4 $ $ $ $ $ ",
"% # $ , 2 2 2 2 d h h h h h h h h h h h h h h h h h h h h h h h g g g g h h h h g g g g h h h h h h h h h h h h h h h h h h h h h h h h d u y u u s s g h h h h g g g g d d d d s s s s u u u s u u u u u u u u u s g g h h h h h h h h h h h h h h h h h g s y u u u u u u u u u y s g h h h h h h h h h h h h h h h h h h h h h h h h h h h h h h h h h h h h h h h h z h d u g g g g g g g g h h g s u u u u s d g h h h h h h h g d s s s s d g g g g g g g h h h h h h h h h h h h h h h h h h h h h h h h h g s s u u u s g g h z h h h h h h h h h h h h h h h h h h h h h h h h h h h h h h h h h h h h h h h h h h h h h g s s u u u u u u u u u u u u u u u u u u u u u u u u u u s d g g h h h h h h h s u u y u d g h h h h h h h h h h g g h h h h h h h h h h h h h h h h h h h h h h h h h h h h h g h 4 < = 3 2 3 3 u h h h h h h h h h h h h h h h h h h h h h h h h h h h h h h h h h h h h h h h h h h h h h h h h h h h h h g g d y u u u u u u u u u u u u u u u u u g h h h h h h h h h h g h z u 2 3 & # $ $ # $ 2 3 2 5 h h h h h h h h h h h h h h h h h h h h h h h h h h h h h h h h h h h h h h h h h h h h h h h h h h h h h h h h g g g g u u u u u u u u u u u u d h h g h h h h h g d g g g g g 8 3 4 $ $ $ $ $ ",
"% # $ , 3 3 2 2 u h g h h h h h h h h h h h h h h h h h h h h h g g g g h h h h g g g g h h h h h h h h h h h h h h h h h h h h h h h h g s u u u s d g h h h h g g g g g g g g g d d s s s s u u u u u u u u u u s g g h h h h h h h h h h h h h h h h h h d u u u u u u u u u u u s g h h h h h h h h h h h h h h h h h h h h h h h h h h h h h h h h h h h h h h h h h h h g g g g g g g g g g h h g d f d d d g h h h h h h h h h h g g g g h h h g g g g g h h h h h h h h h h h h h h h h h h h h h h h h h g s s u u u s g h h h h h h h h h h h h h h h h h h h h h h h h h h h h h h h h h h h h h h h h h h h h h h h h g d s u u u u u u u u u u u u u u u u u u u u u u u u u u u s s d g g h h h h h g s s u s g h h h h h h h h h h h g g h h h h h h h h h h h h h h h h h h h h h h h h h h h h h g g 4 < = 2 2 3 3 u h h h h h h h h h h h h h h h h h h h h h h h h h h h h h h h h h h h h h h h h h h h h h h h h h h h h h g g d u u u u u u u u u u u u u u u u u u g h h h h h h h h h h h h z y 2 3 & # $ $ # $ 2 3 2 5 h h h h h h h h h h h h h h h h h h h h h h h h h h h h h h h h h h h h h h h h h h h h h h h h h h h h h h h h h h h h g d s y u u u u u u u u s h z g h h h h h g g g g g g g 7 3 3 $ $ $ $ $ ",
"% $ $ , 2 2 2 2 w z g h h h h h h h h h h h h h h h h h h h h h g g g g h h h h g g g g h h h h h h h h h h h h h h h h h h h h h h h h g s u s u d g h h h h h g g g g h h h h g g h g d s s u u u u u u u u u u s g g h h h h h h h h h h h h h h h h h h g s u u u u u u u u u s g g h h h h h h h h h h h h h h h h h h h h h h h h h h h h h h h h h h h h h h h h g h h h g g g g g g g g g g h h h h h g g h h h h h h h h h h h h h h h h h h h g g g g h h h h h h h h h h h h h h h h h h h h h h h h g g d u u u u s g h h g h h h h h h h h h h h h h h h h h h h h h h h h h h h h h h h h h h h h h h h h h h h h h h g s u u u u u u u u u u u u u u u u u u u u u u u u u u u u u s s d g g h h h g g d d g g g h h h h h h h h h h h h h h h h h h h h h h h h h h h h h h h h h h h h h h h h h h g 4 < = 2 2 3 3 u h h h h h h h h h h h h h h h h h h h h h h h h h h h h h h h h h h h h h h h h h h h h h h h h h h h h h g h g d u u u u u u u u u u u u u u u u u g h h h h h h h h h h h h z y 2 3 & # $ $ # $ 2 3 2 5 h h h h h h h h h h h h h h h h h h h h h h h h h h h h h h h h h h h h h h h h h h h h h h h h h h h h h h h h g g g g g d s y u u u u u u u u s g h h h h h h h h h g g g g g 5 2 2 @ $ $ $ $ ",
"% $ $ , 2 2 2 2 8 z g h h h h h h h h h h h h h h h h h h h h h g g g g h h h h g g g g h h h h h h h h h h h h h h h h h h h h h h h h h d s s s g g g h h h h g g g g g g g g g h z h h d s u u u u u u u u u u s g g h h h h h h h h h h h h h h h h h h g d u u u u u u u u u g h g h h h h h h h h h h h h h h h h h h h h h h h h h h h h h h h h h h h h h h h h g g g d g g g g g g g g g g g h g g h h h h h h h h h h h h h h g g g g h h h h g g g g h h h h h h h h h h h h h h h h h h h h h h h h g g d s u u u s g h g g h h h h h h h h h h h h h h h h h h h h h h h h h h h h h h h h h h h h h h h h h h h h h h g d u u u u u u u u u u u u u u u u u u u u u u u u u u u u u u u s s d g g h g g h g g g g h h h h h h h h h h h h h h h h h h h h h h h h h h h h h h h h h h h h h h h h h h g 4 < = 2 2 3 3 u h h h h h h h h h h h h h h h h h h h h h h h h h h h h h h h h h h h h h h h h h h h h h h h h h h h h h g h h g u u u u u u u u u u u u u u u u u g h h h h h h h h h h h h z y 2 3 & # $ $ # $ 2 3 2 5 h h h h h h h h h h h h h h h h h h h h h h h h h h h h h h h h h h h h h h h h h h h h h h h h h h h h h h h h d d d d u u u u u u u u u u u u s d g g h h h h h h h h g g g g 5 2 2 @ $ $ $ $ ",
"% $ # ; 2 2 2 2 2 g h d u s d d h h h h h h h h h h h h h h h h d s u y s g h h h h h h h h h h h h h h h h h h h h h h h h h h h h h g d s u u g g g h h h h h h h h h h h h h z h h h g d s u u u u u u u u u u d g h h h h h h h h h h h h h h h h h g g g g g d s u s s s s d g h h h h h h h h h h h h h h h h h h h h h h h h h h h h h h h h h h h h h h h h h h h h h h g g g g g g g g g g g g g g g g h h h h h h h h h h h h h h g g h h h h h h h h h h h h h h h h h h h h h h h h h h h h h h h h h h s s s u s h h h h h h h h h h h h h h h h h h h h h h h h h g g h h h g h g h h h h h h h h h h h h h h h h h h h h d u u s u u u u u u u u u u u u u u u u u u u u u u u u u u u u u s d g h h g g g g g g h h h h h h h h h h h h h h h h h h h h h h h h h h h h h h h h h h h h h h h h h h s 3 < ; 3 3 2 3 s h h h h h h h h h h h h h h h h h h h h h h h h h h h h h h h h h h h h h h h h h h h h h h h h h h h h h h h h h g g s s s s s s s u u u u u u u d g h h h h h h h h h h h h z y 2 3 & # $ $ # $ 2 3 2 5 h h h h h h h h h h h h h h h h h h h h h h h h h h h h h h h h h h h h h h h h h h h h h h h h h h h h h g d u y y u s u u u u u u u u u u u u d g h h g g g g h h h h h h h h 4 2 < $ $ $ $ $ ",
"% $ # ; 2 2 2 2 2 s h y y u s s h h h h h h h h h h h h g h h g s s u y s g h h h h h h h h h h h h h h h h h h h h h h h h h h g g g d s u u s g g h h h h h h h h h h h h h h g h h h d s s u u u u u u u u u s g g h h h h h h h h h h h h h h h h h g g g g g g g d d d d d g h h h h h h h h h h h h h h h h h h h h h h h h h h h h h h h h h h h h h h h h h h h h h h h g g g g g g g g g g g g g g g g h h h h h h h h h h h h h h g g h h h h h h h h h h h h h h h h h h h h h h h h h h h h h h h h h h s u s s d h h h h h h h h h h h h h h h h h h h h h h h h h h h h h h g g d h h z z h h h h h h h h h h h h h h h h g s s s u u u u u u u u u u u u u u u u u u u u u u u u u u u u u u s s g h g g g g g g h h h h h h h h h h h h h h h h h h h h h h h h h h h h h h h h h h h h h h h h h h s 3 < ; 3 3 2 3 s h h h h h h h h h h h h h h h h h h h h h h h h h h h h h h h h h h h h h h h h h h h h h h h h h h h h h h h h h h g g f d s s s s s u u u u u u d g h h h h h h h h h h h h z y 2 3 & # $ $ # $ 2 3 2 5 h h h g h h h h h h h h h h h h h h h h h h h h h h h h h h h h h h h h h h h h h h h h h h h h h h h h h g g s u u u u u u u u u u u u u u u u s d g h g g g g h h h h h h h h 4 2 < $ $ $ $ $ ",
"% $ # = 2 2 2 2 < q h s u s s d h h h h h h h h h h h h g h g s s s u u s g h h h h h h h h h h h h h h h h h h h h h h h h h h h g d s s s d d g h h h h h h h h h h h h h h h h g g g s s u u u u u u u u u u d g h h h h h h h h h h h h h h h h h h g g g g g g g g g g g g h h h h h h h h h h h h h h h h h h h h h h h h h h h h h h h h h h h h h h h h h h h h h h h h g g g g g g g g g g g g g g g g h h h h h h h h h h h h h h g g h h h h h h h h h h h h h h h h h h h h h h h h h h h h h h h h g g u u s d g h h h h h h h h h h h h h h h h h h h h h h h h h h g d d u u u u d d g g g h h h h h h h h h h h h h h h g d s s u u u u u u u u u u u u u u u u u u u u u u u u u u u u s s u u g h h g g g g g h h h h h h h h h h h h h h h h h h h h h h h h h h h h h h h h h h h h h h h h h z s 3 < ; 3 3 2 3 s h h h h h h h h h h h h h h h h h h h h h h h h h h h h h h h h h h h h h h h h h h h h h h h h h h h h h h h h h g g g g g g d s s s s u u u u u d g h h h h h h h h h h h h h y 2 3 & # $ $ # $ 2 3 2 5 h h g g h h h h h h h h h h h h h h h h h h h h h h h h h h h h h h h h h h h h h h h h h h h h h h h h h h g d s s s u u u u u u u u u u u u u s s d g g g g g h h h h h h h h 4 2 < $ $ $ $ $ ",
"% $ # = 2 2 2 2 < 5 d h d g h h h h h h h h h h h h h h g h g u u u s s s g h h h h h h h h h h h h h h h h h h h h h h h h h h z h g g g h h g h h h h h h h h h h h h h h h h z h d s u u u u u u u u u u u u g g h h h h h h h h h h h h h h h h h h g g g g g g g g g g g g h h h h h h h h h h h h h h h h h h h h h h h h h h h h h h h h h h h h h h h h h h h h h h h h g g g g g g g g g g g g g g g g h h h h h h h h h h h h h h g g h h h h h h h h h h h h h h h h h h h h h h h h h h h h h h h h g g u y u g h g h h h h h h h h h h h h h h h h h h h h h h h h d s u y u u s s u u u s d g h h h h h h h h h h h h h h g g d u u u u u u u u u u u u u u u u u u u u u u u u u u u u u s s u y s g h g g g g g h h h h h h h h h h h h h h h h h h h h h h h h h h h h h h h h h h h h h h h h h z s 2 < ; 3 3 2 3 d h h h h h h h h h h h h h h h h h h h h h h h h h h h h h h h h h h h h h h h h h h h h h h h h h h h h h h h h h g g g g g g g g d s s s u u u u d g h h h h h h h h h h h h h y 2 3 & # $ $ # $ 2 3 2 7 h h g g h h h h h h h h h h h h h h h h h h h h h h h h h h h h h h h h h h h h h h h h h h h h h h h h h h h g f d s u u u u u u u u u u u u u u u s d g g g g h h h h h h h h 4 2 < $ $ $ $ $ ",
"% $ @ = 2 2 2 2 3 2 5 e x z h g d f h h h h h h h h h h h g s u u s d g h g h h h h h h h h h h h h h h h h h h h h h h h h h h h h h h g h g h h h h h h h h h h h h h h h h h h d s u u u u u u u u u u u d h g h h h h h h h h h h h h h h h h h h h h h h h h h h h h h h h h h h h h h h h h h h h h h h h h h h h h h h h h h h h h h h h h h h h h h h h h h h h h h h h h h h h h h h h h h h h h h h h h h h h h h h h h h h h h h h h h h h h h h h h d d d s u u u u u u u u g g g g h h h h h h h h h g s u u s g z h h h h h h h h h h h h h h h h h h h z g g d s s s s s s s s s u u u u s s s s g g g g g g h z g g g g h g g d u u u u u u u u s s s s s u u u u u u u u u u u u u u u s s u y g h h g g g g g h h h h h h h h h h h h h h h h h h h h h h h h h h h h h h h h h h h h h h h h h z y 2 < = 2 2 2 3 d h h h h h h h h h h h h h h h h h h h h h h h h h h h h h h h h h h h h h h h h h h h h h h h h h h h h h h h h h h h h h h h h h g g d s u s s d h h h h h g g g h h h h h h h y 2 3 & # $ $ # $ 2 3 2 7 h h g g d d d d s g h g h h h h g g g h h h h g g d g h g g g g h h h h h h h h h h h h h h h h h h h h h h h h h g g d s s u s u u u u u u u u u u u s s s g g g g g g h h h h 5 2 : $ $ $ $ $ ",
"& $ @ = 2 2 2 2 5 3 , 2 5 q s d x z h g g h h h h h h h h g d s d g g h h g h h h h h h h h h h h h h h h h h h h h h h h h h h h h h h h g h h h h h h h h h h h h h h h h h h d s u u u u u u u u u u u s g h h h h h h h h h h h h h h h h h h h h h h h h h h h h h h h h h h h h h h h h h h h g g d g g g h h h h h h h h h h h h h h h h h h h h h h h h h h h h h h h h h h h h h h h h h h h h h h h h h h h h h h h g h h h h h h h h h h h h h h h h g u y s u u u u u u u u u d g g h h h h h h h h h g d s s d g h h h h h h h h h h h h h h h h h h h h g d s s u s s s s s s s s u u u u u u u u s s s s g g g g g g g g g h g g d d d d d d d d h h h h s s u u u u u u u u u u u u u u s s u u g h g g g g g g h h h h h h h h h h h h h h h h h h h h h h h h h h h h h h h h h h h h h h h h h z y 2 < = 2 2 2 3 d j h h h h h h h h h h h h h h h h h h h h h h h h h h h h h h h h h h h h h h h h h h h h h h h h h h h h h h h h h h h h h h h h h g g g g g g g h h h h h g g g h h h h h h h y 2 3 & # $ $ # $ 2 3 2 7 h h g g u u u u s g h g h h h h h h h h g g d s s s s g g g g g h h h h h h h h h h h h h h h h h h h h h h h h h h h g g d s u u u u u u u u u u u u u y u d d g g g g h h h h 5 2 < % $ $ $ $ ",
"& $ @ = 2 2 2 2 < < 2 2 , < 1 4 w y d g h h z h h h h h h h g g g h h h h g h h h h h h h h h h h h h h h h h h h h h h h h h h h h h h g h h h h h h h h h h h h h h h h h h h s u u u u u u u u u u u d g h h h h h h h h h h h h h h h h h h h h h h h h h h h h h h h h h h h h h h h h h h h g g d u s d d h h h h h h h h h h h h h h h h h h h h h h h h h h h h h h h h h h h h h h h h h h h h h h h h h h h h g g g g h h h h h h h h h h h h h h h h g u y u u u u u u u u u u s g g h h h h h h h h h g g d d g g h h h h h h h h h h h h h h h h h z h g d s u u u u u s s s s s s u u u u u u u u u u u u y s d g g g g g g g h g h h h h h h h h g g g g g s s u u u u u u u u u u u u u u u s s h h g g g g g g h h h h h h h h h h h h h h h h h h h h h h h h h h h h h h h h h h h h h h h h h z y 2 < = 2 2 2 2 d j h h h h h h h h h h h h h h h h h h h h h h h h h h h h h h h h h h h h h h h h h h h h h h h h h h h h h h h h h h h h h h h h h h h g h h h h h h h h g g g g h h h h g g h y 2 3 & # $ $ # $ 2 3 2 7 h h g g u u u u s g z h h h h h z h g d s s u u u u s g g g g g h h h h h h h h h h h h h h h h h h h h h h h h h h h h h g d u u u u u u u u u u u u u y u d d g g g g h h h h 8 2 3 % $ $ $ $ ",
"* $ @ = 2 2 2 2 2 2 2 2 2 2 < 2 < 3 4 5 0 r u s h h h h h h h h h h h h h h h h h h h h h h h h h h h h h h h h h h h h h h h h h h h h h h h h h h h h h h h h h h h h h h h h u u u u u u u u u u u u h h h g h h h h h h h h h h h h h h h h h h h h h h h h h h h h h h h h h h h h h h h h h g d s y u s d h h h h h h h h h h h h h h h h h h h h h h h h h h h h h h h h h h h h h h h h h h h h h h h h h h h h g g g g h h h h h h h h h h h h h h h h h g s y u u u u u u u u s s d h h h h h h h h h h h g g g g h h h h h h h h h h h h h h h h h h z g d s u u u u u u s s s s s s u u u u u u u u s s s s s s u s g g g g g g g h g g g g g g g g h h h h g g s s u u u u u u u u u u u u y u s s h g g g g g g g h h h h h h h h h h h h h h h h h h h h h h h h h h h h h h h h h h h h h h h h h z y 2 < = 2 2 2 2 d j h h h h h h h h h h h h h h h h h h h h h h h h h h h h h h h h h h h h h h h h h h h h h h h h h h h h h h h h h h h h h h h h h h h h g g g g h h h h h g g g h h h h g g h y 2 3 & # $ $ # $ 2 3 3 8 h h g d d d d d g g h h h h h h h g s u y y y y u u d z g g g g h h h h h h h h h h h h h h h h h h h h h h h h h h h h h g d u u u u u u u u u u u u u s s g g g g g g h h h h 0 2 4 & $ $ $ $ ",
"* $ @ = 3 2 2 < < < < < 2 2 2 2 2 2 3 3 3 3 3 3 4 5 8 q y u s d h h z z h h g g h g g g g g g h h h h h z h g g h h h h h g g g g g g g h h h h h h h h h h h h h h h h h h h h u u s s u u u u u s g h h g g h h h h h h h h h h h h h h h h h h h h h h h h h h s s h h h h h h h h h h h h h h h h h s y y s h h h h h h h h h h h h h h h h h h h h h h h h h h h h h h h h h h h h h h h h h h h h h h h h g h z g d s u u s g h g h h h h h h h h h h h h z g s u u u u u u u u u s s g g h h h h h h h h h h h h h h h h h h h h h h h h h h h h h h h h g d s u u u u u u u u u s s s s s s s s u u u u u u u u u u u u d g h g g g g g g g g g g g g g h h h g g d s u u u u u u u u u u u u u s s d h h h h h h h h h h h h h h h h h h h h h h h h h h h h h h h h h h h h h h h h h h h h h h h h h h z q < < ; 3 3 2 2 d h h h h h h h h h h h h h h h h h h h h h h h h h h h h h h h h h h h h h h h h h h h h h h h h h h h h h h h h h h h h h h h h h h h h h h h h h h h h h g g g g h h h h h g z y 2 3 & # $ $ # $ 3 2 2 9 g g g g g g g g h h h h h h g g u u u u u u u u u s d z g g g g h h h h h h h h h h h h h h h h h h h h h h h h h h h h g g d s u u u u u u u u u u s d d g h h h h h h h h h h 0 < 4 = $ $ $ $ ",
"* $ @ = 3 2 < < < < < < 2 2 2 2 2 2 2 2 2 2 2 2 2 2 2 2 2 3 4 4 7 9 q e u s s d g g h z x x z h g g g h g g g g h h h h g g g g g g g g h h h h h h h h h h h h h h h h h h h h u y u u u u u u u u s s g g g g h h h h h h h h h h h h h h h h h h h h h h h h h d d h h h h h h h h h h h h h h h h h d s s d h h h h h h h h h h h h h h h h h h h h h h h h h h h h h h h h h h h h h h h h h h h h h h h h h h g s u u u u s g h g h h h h h h h h h h h h h g s u u u u u u u u u s d g g h h h h h h h h h h h h h h h h h h h h h h h h h h h h l l h h d s u u u u u u u u u u s s s s s s s s u u u u u u u u u u u u d g h g g g g g g g g g g g g g h h g g d s u u u u u u u u u u u u s s s d h h h h h h h h h h h h h h h h h h h h h h h h h h h h h h h h h h h h h h h h h h h h h h h h h h h h q < < ; 3 3 2 2 d j h h h h h h h h h h h h h h h h h h h h h h h h h h h h h h h h h h h h h h h h h h h h h h h h h h h h h h h h h h h h h h h h h h h h h h g g d d f g g g g g h h h h h d z r 2 3 & # $ $ # $ 3 2 2 8 h h h h g g g g h h h h h g g d u u u u u u u u u s d z g g g g h h h h h h h h h h h h h h h h h h h h h h h h h h h h g g g s u u u u u u u u u u s d g h h h h h h h h h h h q < 4 ; $ $ $ $ ",
"* $ # = 3 2 < < < < < < 2 2 2 2 2 2 2 2 2 2 2 2 5 4 3 2 2 2 2 2 2 2 2 2 2 2 3 4 5 5 7 8 e r y y u s d g h h z z z z z z z z z z g g g g h h h h h h h h h h h h h h h h h h h h s u u u u u u u u u u u u d g g h h h h h h h h h h h h h h h h h h h h h h h h h g g h h h h h h h h h h h h h h h h h g d d g h h h h h h h h h h h h h h h h h h h h h h h h h h h h h h h h h h h h h h h h h h h h h h h h z d u y u u u u s g h g h h h h h h h h h h h h h d s u u u u u u u u u d g h h h h h h h h h h h h h h h h h h h h h h h h h h h h h h h h g d s u u u u u u u u u u u s s s s s s s s u u u u u u u u u u u u d g h g g h h g g g g g g g g g h g g d s u u u u u u u u u u u u s d d d h h h h h h h h h h h h h h h h h h h h h h h h h h h h h h h h h h h h h h h h h h h h h h h h h h h h h q < < ; 3 3 2 2 f l h h h h h h h h h h h h h h h h h h h h h h h h h h h h h h h h h h h h h h h h h h h h h h h h h h h h h h h h h h h h h h h h h h h h h g g d u u u u g g h g h h h h h d z r 2 3 & # $ $ # $ 2 < < 7 g g g g g g h h h h h h h g d s u u u u u u u u u s f z g g g g h h h h h h h h h h h h h h h h h h h h h h h h h h h h g g g d s u u u u u u u u u s d h h h h h h h h h h h h r 2 4 , $ $ $ $ ",
"% $ # = 3 2 < < < < < < 2 2 2 2 2 2 2 2 2 2 2 2 2 2 2 2 4 3 2 2 2 3 4 5 3 3 2 2 3 2 2 < 3 3 2 2 < 2 4 5 5 7 8 0 e e e e u u u u g g g g h h h h h h h h h h h h h h h h h h h h g d s s u u u u u s s s u u s g h h h h h h h h h h h h h h h h h h h h h h h h h h h h h h h h h h h h h h h h h h h h z h h z h h h h h h h h h h h h h h h h h h h h h h h h h h h h h h h h h h h h h h h h h h h h h h h h g s y u u u u u s g h g h h h h h h h h h h h h g s s u u u u u u u u u g h z z h h h h h h h h h h h h h h h h h h h h h h h h h h h h g d s u u u u u u u u u u u u u s s s s s s s s u u u u u u u u u u u u d g h g g h g g g g g g g g g g g g d s u u u u u u u u u u u u u s d g h h h h h h h h h h h h h h h h h h h h h h h h h h h h h h h h h h h h h h h h h h h h h h h h h h h h h h q < < ; 3 3 3 3 f l h h h h h h h h h h h h h h h h h h h h h h h h h h h h h h h h h h h h h h h h h h h h h h h h h h h h h h h h h h h h h h h h h h h h h g d s u u u u g g h g h h h h h d z r 2 3 & # $ $ # $ < , , 7 s s s s h h h h h h h h h g s u u u u u u u u u u s f z g g g g h h h h h h h h h h h h h h h h h h h h h h h h h h h h g g g g s u u u u u u u u u s g h h h h h h h h h h h h y 2 4 < $ $ $ $ ",
"% $ $ % < 2 < < 2 , : , 2 2 2 2 2 2 2 2 2 2 2 2 2 < < < 2 2 2 2 2 2 2 2 2 3 3 3 3 3 3 3 3 3 3 3 3 3 3 4 3 2 2 2 2 < < < 3 4 8 r d g z h h d s s g g g g h h h h h h h h h h h h h h g d s s s s u u u u s s d g h h h h h h h h h h h h h h h h h h h h h h h h h h h h h h h h h h h h h h h h h h h h h s y s h h h h h h h h h h h h h h h h g g g h h h h g g g d d d d d d d d d d s d h z h h h h g g h h s u u u s u u s d g h h h h h h h h h h h h h h h u y u s s u y s s d g g g g g h h h h h h h h h h h h h h h h h h h h h h h h h h h h h s u s s s u u u u u u u u u u s s s s s s u y u u u u u u u u y u s d h h h h h h h h h h h h h h h h g s u s u u u u u u u u u u u u h h h h h h h h h h h h h h h h h h h h h h h h h h h h h h h h h h h h h h g g h h h h h h h h h h h h h h h h h h 7 < < ; 3 3 2 2 d h h h h h h h h h h h h h h h h h h h h h h h h h h h h h h h h h h h h h h h h h h h h h h h h h h h h h h h h h h h h h h h h h h h h h g s u u u u u u s h h h h h h h h d z r 2 3 & # $ $ # $ < , , 7 u u u u s s g h h h h h g s u u u u u u u u u u u u g h g g g g h h h h h h h h h h h h h h h h h h h h h h h h h h h h g g g g h d s u u u u u u u u s h h h h h h h h h h h h u 2 2 < * $ $ $ ",
"% # $ % < 2 < < 2 2 2 3 7 9 q e r r r r r r r r e e w w 0 0 0 0 5 5 5 5 3 3 3 3 2 2 2 2 2 2 2 2 2 2 2 3 3 3 4 5 5 7 q r y d z z z h h h g s u u u g h g h h h h h h h h h h h h h h h h g g g g d d d d d g g g h h h h h h h h h h h h h h h h h h h h h h h h h h h h h h h h h h h h h h h h h h h h g s u s h h h h h h h h h h h h h h h h h h h h z h g d s s u y y y y y y y y y u s s d g h h h g g g d u u u u s u s g g h h h h h h h h h h h h h h h h s y u u u u y s g h h g g g g h h h h h h h h h h h h h h h h h h h h h h h h h h h h h s u s s s u u u u u u u u u u s s s s u u u y u u u u u u u u s d g g h h h h h h h h h h h h h h g g d s u s u u u u u u u u u u s s h h h h h h h h h h h h h h h h h h h h h h h h h h h h h h h h h h h h g d s s d d d d h z h h h h h h h h h h h g 7 2 < = 2 2 2 2 d h h h h h h h h h h h h h h h h h h h h h h h h h h h h h h h h h h h h h h h h h h h h h h h h h h h h h h h h h h h h h h h h h h h h h g s y u u u u u s h h h h h h h h d z r 2 3 & # $ $ # $ < , , 7 u u u u u s s s h h h h s u u u u u u u u u u u u u g h g g g g h h h h h h h h h h h h h h h h h h h h h h h h h h h h g g g g h g d s u u u u u u u u d d g g h h h h h h g g u 2 2 < * $ $ $ ",
"% # $ % < 2 < < 2 7 e u d h z v z z z z z z z z h h h h h h h h g g g g s s s s u u i s s s u u u u s s s s s s y u s s y d h g h h h h g s u u a u s g h h h h h h h h h h h h h h h h h h h h g g g g g g g g h h h h h h h h h h h h h h h h h h h h h h h h h h h h h h h h h h h h h h h h h h h h h h g h h h h h h h h h h h h h h h h h z h g d d d s s u y y y u u u u u u u u u u u u s d g h g g s s u u u u s u d g h h h h h h h h h h h h h h h h h d s u s s s s g h h h g g g g h h h h h h h h h h h h h h h h h h h h h h h h h h h h h s u s s s s s u u u u u u u u s s s s u u s s d d d d d d d d g g g g h h h h h h h h h h h h h g d s s s s u u u u u u u u u u s d d h h h h h h h h h h h h h h h h h h h h h h h h h h h h h h h h h h h h s s u u u u i i d h h h h h h h h h h h z g 5 2 < ; 3 3 2 2 d h h h h h h h h h h h h h h h h h h h h h h h h h h h h h h h h h h h h h h h h h h h h h h h h h h h h h h h h h h h h h h h h h h h h h g s u u u u u u s h z h h h h h h g z r 2 3 & # $ $ # % 2 < , 7 u u u u u u u s s s s s u u u u u u u u u u u u u u g h g g g g h h h h h h h h h h h h h h h h h h h h h h h h h h h h g g g g g g g d u u u u u u u u u s s g g h h h h g g d u 2 2 < * $ $ $ ",
"% # $ $ < 2 2 < q y d d h g g g g g g g g g g g h h h h h h h h h g g g h h h h h l z z z z h h h h z z z g s y y u u s s u s h h h h h h d s s u s s u h h h h h h h h h h h h h h h h g g g g h h h h g g g g h h h h h h h h h h h h h h h h h h h h h h h h h h h h h h h h h h h h h h h h h h h h g h h h h h h h h h h h h h h h h h h h h f s u u u u u u u u u u u u u u u u u u u u u u s s d d s u s u u u u s s g g h h h h h h h h h h h h h h h h h g s u d g g h h h h h g g g g h h h h h h h h h h h h h h h h h h h h h h h h h h h h h s u s u u u u u u u u u u u u s s s s s s d g h h h h h h h h g g g g h h h h h h h h h h h h h g s u u s s u u u u u u u u u u s d g h h h h h h h h h h h h h h h h h h h h h h h h h h h h h h h h h h h h s s s u u u u u y s d g h h h h h h h h z d 4 3 < = 2 2 3 2 d h h h h h h h h h h h h h h h h h h h h h h h h h h h h h h h h h h h h h h h h h h h h h h h h h h h h h h h h h h h h h h h h h h h h h g s u s u u u u s h h h h h h h g g z r 2 3 & # $ $ # % 2 < , 7 u u u u u u u u u u u u u u u u u u u u u u u u u u g h g g g g h h h h h h h h h h h h h h h h h h h h h h h h h h h h g g g g g g h h s u u u u u u u u u s d g g h h h g d s u 2 < < * $ $ $ ",
"% $ $ $ < 3 2 2 r g d g g g h h h h h h h g g g h h h h h h h h h h h h h h h h h h h h h h h h h h h h h d u s u u u u u u s g h h h h h h g s u u u u u d g g g z z h z h g h h h h h g g h g h h h h g g g g h h h h h h g g h h h h g g g g g g g g h h h h h h h h h h h h h h h h h h h h h h h h h h h h h h h h h h h h g g g h g d s s s s s u u u u u u u u u u s s d s s s s y u u u u u u s u u u u u u u u u d h g h h h h h h h h h h h h h h h h g g g g h h h h h h h h h h h h h h h h h h h h h h h h h h h h h h h h h h h h h h h h g g y u u u u u u u u u u u u u s s s s h h h h h h h h h h h h g g g g g g h h h h h h h h h h g d s u u u u u u u u u u u u u u s g g h h h h h h h h h h h h h h h h h h h h h h h h h h h h h h h h h h h h d s u u u u u u s s s s s d g h h h h h z u 2 3 < = 2 2 2 4 g h h h h h h h h h h h h h h h h h h h h h h h h h h h h h h h h h h h h h h h h h h h h h h h h h h h h h h h h h h h h h h h h h h h h h h s y y u u u u g g h g h h h h g g z r 2 3 & # $ $ $ % 2 < < 7 s s s s s s s s s s s s u u u u u u u u u u u u s d g z g g g g h h h h h h h h h h h h h h h h h h h h h h h h h h h h h h h h h h h h g d s u u u u u u u u u s g z z h s u s u 4 < 2 , $ $ $ ",
"& $ $ $ , 3 3 2 u h g g g g h h h h h h h g g g h h h h h h h h h h h h h h h h h h h h h h h h h h h h h d u s u u u u u u s g h h h h h h h g s s s s s g g g g h h g s s s g h h h h h h g d s g z h g g g g h h h h g g h z h h h h g g g g g g g g h h h h h h h h h h h h h h h h h h h h h h h h h h h h h h h h h h h h h g s u s s s s s u u u u u u u u u s s s d g g g g g g g d d s s s u u u u u u u u u u u d h g h h h h h h h h h h h h h h h h g g g g h h h h h h h h h h h h h h h h h h h h h h h h h h h h h h h h h h h h h h h h g g s u u u u u u u u u y u s g g g g g h h h h h h h h h h h h h h h h h h g g h h h h h h h g d s u u u u u u u u u u u u u u u s g g h h h h h h h h h h h h h h h h h h h h h h h h h h h h h h h h h h h h f s s u u u u u s s s s s s d g g h h h z u 2 2 < = 2 2 2 3 g h h h h h h h h h h h h h h h h h h h h h h h h h h h h h h h h h h h h h h h h h h h h h h h h h h h h h h h h h h h h h h h h h h h h h h d u y u u u u g g g g h h h h g g z r 2 3 & # $ $ $ & 2 < , 7 s s s s s s s s s s s s u u u u u u u u u u u u u s g h g g g g h h h h h h h h h h h h h h h h h h h h h h h h h h h h h h h h h h h h h g d s u u u u u u u u u g h h g s s u s 4 < 2 , $ $ $ ",
"& # $ # : 3 3 4 s z g h h h h h h h h h h g g g h h h h h h h h h h h h h h h h h h h h h h h h h h h h h d u s u u u u u u s g h h h h h h h h g g g g d h h g h h g s u u s g h h h h h h g d u s g g g g g g h h h h z g d s u u u u s g g g g g g g h h h h h h h h h h h h h h h h h h h h h h h h h h h h h h h h h h h h h g u y u s s s u u u u u u u u u s d d g g g g h h h h g g h z g d s s u u u u u u u u u d h g h h h h h h h h h h h h h h h h g g g g h h h h h h h h h h h h h h h h h h h h h h h h h h h h h h h h h h h h h h h h g h s u u u u u u u u u s s g h h h h h h h h h h h h h h h h h g g g g h h h h h h h h h h g d s u u u u u u u u u u u u u u u u s g g h h h h h h h h h h h h h h h h h h h h h h h h h h h h h h h h h h h h g d s u u u u u s s s s s s s s d g h h z u 2 2 < = 2 2 2 4 g h h h h h h h h h h h h h h h h h h h h h h h h h h h h h h h h h h h h h h h h h h h h h h h h h h h h h h h h h h h h h h h h h h h h h h g s y u u u u g g g g h h h h g g x e 2 3 & # $ $ $ * 2 2 < 8 s s s s s s s s s s s s u u u u u u u u u u u u y s g h g g g g h h h h h h h h h h h h h h h h h h h h h h h h h h h h h h h h h h h h h h g d u u u u u u u u s d g d s s s u s 4 < 2 , $ % $ ",
"& # $ # ; 3 3 4 d z g h h h h h h h h h h g g g h h h h h h h h h h h h h h h h h h h h h h h h h h h h h d u s u u u u u u s g h h h h h h h h h h h h g h h g h h g s d d g h h h h h g g h g d u u d g g g g h h h h d s u y u u u u y s s g g g g g h h h h h h h h h h h h h h h h h h h h h h h h h h h h h h h h h h h h h g s s u u u u u u u u u u u u u s d g h h h h g g g g h h h g h g g d u u u u u u u u u d h g h h h h h h h h h h h h h h h h g g g g h h h h h h h h h h h h h h h h h h h h h h h h h h h h h h h h h h h h h h h h g h d s u u u u u u u u g g g g g g g g h h h h h h h h h h h h d d d d g g h h h h h h h g d s u u u u u u u u u u u u u u u u u s g g h h h h h h h h h h h h h h h h h h h h h h h h h h h h h h h h h h h h g g s s u u u u s s s s s s s s s d g h z u 2 3 < = 3 2 2 4 g h h h h h h h h h h h h h h h h h h h h h h h h h h h h h h h h h h h h h h h h h h h h h h h h h h h h h h h h h h h h h h h h h h h h h h g d u u u u u g g g g h h h h g g x e 2 3 & # $ $ $ * 2 2 , 8 s s s s s s s s s s s s u u u u u u u u u u u u y u d g g g g g h h h h h h h h g h h h h h h h h h h h h h h h h h h h h h h h h h h h h h h g u u u u u u u u s d s s y s s u u 4 < < , $ $ $ ",
"& # $ # ; 3 2 4 s g g h h h h h h h h h h h h h h h h h h h h h h h h h h h h h h h h h h h h h g g g g h d u s u u u u s u s g g g g g h h h h h h h h h h h h h h h h h g g g g g d s u u s s z g u u d g h z h g d s u u u u u u u u u u u u u g h g h h h h h h h h h h h h g g g g g g g g d g h g h h h h h h h h h h h h h h h h s s s s u u u y u u u u s d g h h h h h h h h h h h h h h h g d y y u s s s u u u s d g h h h h h h h h h h h h h h h h h h g g h h h h h h h h h h h h h h h h h h h h h h h h h h h h h h h h h h h h h h h h h h h d s s s s g g h h h h h h g g g g g h h g d d d d s u u u u u u u s s s s s s s s u u u u u u u u u u u u u u u u u u u u y s h z h h h h h h h h h h h h h h h h h h h h h h h h h h h h h h h h h h h h g g g s u u u u u u u u s s s s s s s d x r 2 2 < * 3 2 2 4 g h h h h h h h h h h h h h h h h h h h h h h h h h h h h h h h h h h h h h h h h h h h h h h h h h h h h h h h h h h h h h h h h h h h h h h h g d u u u s g g g h h h h h g g z e 2 3 & # $ $ $ * 2 2 , 8 s s s s s s s s u u u u u u u u u u u u u u u u s u s s g g g g h h h h z h g g g g g g h h h h h h h h h h h h h h h g g g g h h h g d s s u u u u u u u u u u s u u u u s s u u 9 < < 2 ; # $ ",
"& # $ # ; 3 2 4 s g g h h h h h h h h h h h h h h h h h h h h h h h h h h h h h h h h h h h h h g g g g h d u s u u u u s u s g g g g g h h h h h h h h h h h h g g g g g g h g d s s u s s u u g g d y u s d g d s s u u u u u u u u u u u u u u d g g h h h h h h h h h h h h g d s u u u u u d g h g h h h h h h h h h h h h h h h h g g g g g d s s u u u s d g h h h h h h h h h h h h h h h h g g d s s u s s s s u u s d h h h h h h h h h h h h h h h h h g g d d d d d g g g g h h h h h h h h h h h h h h h h h h h h h h h h h h h h h h h h h h h g h h h h h h h h h h h h g g g g g h g s y y y y u u u u u u u u u u u u u u u u u u u u u u u u u u u u u u u u u u u u y s g g h h h h h h h h h h h h h h h h h h h h h h h h h h h h h h h h h h h h g h g g s u u u u u u u s s s s s s s s h q < 2 , & 3 < 2 4 g h h h h h h h h h h h h h h h h h h h h h h h h h h h h h h h h h h h h h h h h h h h h h h h h h h h h h h h h h h h h h h h h h h h h h h h h g s u u s g g h h h h h h h g z e 2 3 & # $ $ $ * 2 2 , 8 s s s s s s s s u u u u u u u u u u u u u u u u s u s d g g g g g g g g h h g g g g g g h h h h h h h h h h h h h h h h z h h h g d s s u u u u u u u u u u u u u u u u u s s u u 0 2 2 2 : # $ ",
"% @ # @ ; 3 2 4 s g g h h h h h h h h h h h h h h h h h h h h h h h h h h h h h h h h h h h h h g g g g h d u s u u u u s u s g g g g g h h h h h h h h h h h h h h h h g d s s s u u u s s u u s d d u u u y s s u u u u u u u u u u u u u u u u u d g h h h h h h h h h h h h s s y y u u u u d g h g h h h h h h h h h h h h h h h h h h h h h g s s u u s d g h h h h h h h h h h h h h h h h h h g g g d d s s s s s u u s h h h h h h h h h h h h h h h h h g d s u u u u u s d d g h h h h h h h h h h h h h h h h h h h h h h h h h h h h h h h h h h h h g g g h h h h h h h h g g g g g h g s u u u u u u u u u u u u u u u u u u u u u u u u u u u u u u u u u u u u u u u u s d g g h h h h h h h h h h h h h h h h h h h h h h h h h h h h h h h h h h h h h h h g s u u u u u u u s s s s s s s s g q < 3 < * 4 2 2 4 h h h h h h h h h h h h h h h h h h h h h h h h h h h h h h h h h h h h h h h h h h h h h h h h h h h h h h h h h h h h h h h h h h h h h h h h h h d s s s g h h h h h h h h g z e 2 3 & # $ $ $ * 2 2 , 8 s s s s s s s s u u u u u u u u u u u u u u u u s s s g g g g g s s s s s d g h h g g g h h h h h h h h h h h h h h h h z h g d s s u u u u u u u u u u u u u u u u u u u u u u s q 2 2 3 , # $ ",
"% @ # @ ; 3 2 4 s g g h h h h h h h h h h h h h h h h h d d d d h h h h h h h h h h h h h h h h g g g g h d u s u u u u s u s g g g g g h h h h h h h h h h h h d d d d u u u u u u u u u u s s s u u s u y y y u u u u u u u u u u u u u u u u u y s g h h h h h h h h h h h h u u u u y u u u d g h g h h h h h h h h h h h h h h h h g g g g z g s u u s d g h h h h h h h h h h h h h h h h h h h g g g h h g d s s s s u u h h h h h h h h h h h h h h h h h g s u s s s s y u u s d g h h h h h h h h h h h h h h h h h h h h h h h h h h h h h h h h h h h h h h h h h h h h h h g g g g g h h g u u u u u u u u u u u u u u u u u u u u u u u u u u u u u u u u u u u u u u u u g g z h h h h h h h h h h h h h h h h h h h h h h h h h h h h h h h h h h h h h h h h h g s u u u u u u s s s s s s u s d 0 < 3 2 = 4 3 2 4 h h h h h h h h h h h h h h h h h h h h h h h h h h h h h h h h h h h h h h h h h h h h h h h h h h h h h h h h h h h h h h h h h h h h h h h h h h g g d s h h h h h h h h h g z e 2 3 & # $ $ # * 2 2 , 8 s s s s s s s s u u u u u u u u u u u u u u u u s s d g g g g g u u u u u s g h g g g g h h h h h h h h h h h h h h h h h d s y u u u u u u u u u u u u u u u u u u u u u u u u s e 3 3 4 < $ $ ",
"% @ # @ % 3 2 < r x h g h h h h h h h h h z h g u u u u u u s d h h h h h h h h h h h h h h h h g g h g g u u s u u u u s s s d g g g g g g g g z z h h g g d s u u u u u u u u u u u u u u u u u u u u u u u u u u u u u u u u u u u u u u u u u s g h h h h h h h h h z g s s s s u u a a a a u d h h h h h h h h h h h h h h h h h h h h h h h h g s d g h h h h h h g g g g g g g g g g g g h h h h h h h h h g d s u u u u h h h h h h h h h h h h h h h h z g y u s s s s u u u u y s h h h h h h h h h h h h h h h h h h h h h h h h h h h h h h h h h h h h h h g g h h h h h h h h h h h h h h d s u s u u u u u u u u u u y u s d g g g d d s y y u u u u u u u u u u u y y s g g g g h h h h h h h h h h h h h h h h h h h h h h h h h h h h h h h h h h h h h h h h h s u s u u u u s s s s s u s u s 7 3 3 : % 3 2 2 4 h h h h h h h h h h h h h h h h h h h h h h h h h h h h h h h h h h h h h h h h h h h h h h h h h h h h h h h h h h h h h h h h h h h h h h h h h h h h h h h h h h h h h h h g z e 2 3 & # $ $ # : 2 2 , 8 s s s s s s s s u u u u u u u u u u u u s u u u s d g g g g g g d u u u u u u s g g g h h h h h h h h h h h h h h g g d s s s s u u u u u u u u u u u u s s s s s s s u u u u u s e < 2 3 2 * $ ",
"% @ # @ % 3 2 < w z h g h h h h h h h h g g g s u u u u y u s d h h h h h h h h h h h h h h h h g h g d s u u s u u u u s s s s g g g g h h h h h g g g d s u u u u u u u u u u u u u u u u u u u u u u u u u u u u u u u u u u u u u u u u u u u d g h h h h h h h h h h d u u u u u s u u u u s g h h h h h h h h h h h h h h h h h h h h h h h h h g h h h h h h h h d d d d h h h h h h h h h h h h h h h h h h g d s s s s h h h h h h h h h h h h h h h h h g u u s s s s u u u u s u s g h h h h h h h h h h h h h h h h h h h h h h h h h h h h h h h h h h h h h h h h h h h h h h h h h h h h g d s s s u u u u u u u u u u s g g h h h g g g d s u u u u u u u u u u u u u d g g g g h h h h h h h h h h h h h h h h h h h h h h h h h h h h h h h h h h h h h h h h h d s s u u u u s s s s u s s s z 7 2 4 : % 3 2 2 4 h h h h h h h h h h h h h h h h h h h h h h h h h h h h h h h h h h h h h h h h h h h h h h h h h h h h h h h h h h h h h h h h h h h h h h h h h h h h h h h h h h h h h h h g z e 2 3 & # $ $ @ : 2 2 , 8 s s s s s s s s u u u u u u u u u u u u u u s s d g g g g g g g g s u u u u u u g g h h h h h h h h h h h h h h h g s u s s s s u u u u u u u u u u s s s s s s y y y y u u u u s y 2 2 2 3 * $ ",
"% @ # @ % 3 2 2 0 h g g h h h h h h h h g g g s u u u u u u d g h h h h h h h h h h h h g g h h h g d s u s s u u u u u u s s s d g g g g g g g d d s s u u u u u u u u u u u u u u u u u u u u u u u u u u u u u u u u u u u u u u u u u u u u s g h h h h h h h h h h d s u u u s d g s s a a g h h h h h h h h h h h h h h h h h h h h h h h h h h h h h h h h h h h s s s s s u u u d d d g g g h h h h h h h h h g g g g g h h h h h h h h h h h h h h h h h g g s s s s s u u u u s u s g h h h h h h h h h h h h h h h h h h h h h h h h h h h h h h h h h h h h h g d d g h h h h h h h h h h h h h f s s s u u u u u u y u s d h h h h h h g g h g d s s u u u u u u u u s d g g g g g h h h h h h h h h h h h h h h h h h h h h h h h h h h h h h h h h h h h h h h h g g d u u u u u s s s u s s d g g 5 2 4 : % 3 2 2 4 h h h h h h h h h h h h h h h h h h h h h h h h h h h h h h h h h h h h h h h h h h h h h h h h h h h h h h h h h h h h h h h h h h h h h h h h h h h h h h h h h h h h h h h g z e 2 3 & # $ % # : 2 2 , 8 s s s s s s s s u u u u u u u u u u u u y u s s g g g g g g g g g d u u u u u u g h h h h h h h h h h h h h h h d s u y s s s s u u u u u u u u u s d g h h h h g g g g s s s s s u 3 2 < 4 = @ ",
"% @ # @ $ 3 2 2 7 g g g h h h h h h h h h z h g u u u u s d g h h h h h h h h h h h h h g g h h g d s s u s s u u u u u u s s s s g g g d d d d s s u u u u u u u u u u u u u u u u u u u u u u u u u u u u u u u u u u u u u u u u u u u u u u d g h h h h h h h h h h y u s u d g h z d d d d g z h g h h h h h h h h h h h h h h h h h h h h h h h h h h h h h h h h u u u u s s s s u u u u s d g h h h h h h h h h h h h h h h h h h h h h h h h h h h h h g g h s s s s s u u u u y s g g h h h h h h h h h h h h h h h h h h h h h h h h h h h h h h h h h h h h d s u y d g h h h h h h h h h h l h g d s s s u u u u u y s d g h h h h h h g g g g h h g s s u u u u u u d h h g g g g h h h h h h h h h h h h h h h h h h h h h h h h h h h h h h h h h h h h h h h h g h g u u u u u s s s s u s g z q 3 2 3 , % 3 2 2 4 h h h h h h h h h h h h h h h h h h h h h h h h h h h h h h h h h h h h h h h h h h h h h h h h h h h h h h h h h h h h h h h h h h h h h h h h h h h h h h h h h h h h h h h g z e 2 3 & $ $ % $ : 2 2 , 8 s s s s s s s s u u u u u u u u u u u u y u s d g g g g g g g g g g s u u u u u h h h h h h h h h h h h h h g h r y u s s s s s u u u u u u u u u s g h h h h h h h h h h h h h s s 5 2 < 4 ; @ ",
"% @ # @ $ < 2 2 3 s z d g g g g h h h h h h h h g g g g h h h h h h h h h h h h h h h h h h h h d s s u u u u u u u u u u u u u u u u u u u u u u u u u y u s s s s s s s s s s s s u u u u u u u u u u u u u u s s u y s s s s u u u u u u u u g h l h h h h h h g g d u u u u d g h g h h h h h h h h h h h h h h h h h h h h h h h h h h h h h h h h h h h h g h g d u u u u u u u u u u u u u u d h h h h h h h h h h h h h h h h h h h h h h h h h h h h h g g g g d s u u u u u u d g g h h h h h h h h h h h h h h h h h h h h h h h h h h h h h h h h h h h h h h g g s g h h h h h h h h h h h h h h h g d s s u u u u d g g h h h h h h h h h h h h h h g g s d d d d g g g h h h h h h h h h h h h h h h h h h h h h h h h h h h h h h h h h h h h h h h h h h h h h g h h d u u u u y y u s s h z u 3 3 3 3 , % 3 2 2 4 h h h h h h h h h h h h h h h h h h h h h h h h h h h h h h h h h h h h h h h h h h h h h h h h h h h h h h h h h h h h h h h h h h h h h h h h h h h h h h h h h h h g s y s u d 8 2 2 % $ $ @ $ : 2 2 , 8 s s s s s s s s u u u u u u u u u u u u s y s h g g h h h h g g h g d s s s s s s s g h h h h g g g h z h g g d u u u u s s s s s s s s s s s s s g g h h h h h l g g z g g g g h s 7 < 2 2 < @ ",
"% @ # @ $ < 2 2 2 w h g g g g g h h h h h h h h h h h h h h h h h h h h h h h h h h h h h h h g s s u s u u u u u u u u u u u u u u u u u u u u u u u u y y u u s s s s s s s s y u u u u u u u u u u u u u u u y u s s d s u y u u u u u u u u h l h h h h h h g h g u u u u u d g h h h h h h h h h h h h h h h h h h h h h h h h h h h h h g h h h h h h h h g h g d u u u u u u u u u u u u u u d h h h h h h h h h h h h h h h h h h h h h h h h h h h h h g g g g g g d s d d d d g h h h h h h h h h h h h h h h h h h h h h h h h h h h h h h h h h h h h h h h h h h g h h h h h h h h h h h h h h h h h g g d g g g g g h h h h h h h h h h h h h h h h h h g g g g g g h h h h h h h h h h h h h h h h h h h h h h h h h h h h h h h h h h h h h h h h h h h h h h h g g h g u u u u u u u u s h y 2 3 3 3 3 : % 3 2 2 4 h h h h h h h h h h h h h h h h h h h h h h h h h h h h h h h h h h h h h h h h h h h h h h h h h h h h h h h h h h h h h h h h h h h h h h h h h h h h h h h h h h g d s u u u d 7 < < $ $ $ @ $ , 2 < , 8 s s s s s s s s u u u u u u u u u u u u u y u g h h g g h h h h g g d s s s s s s s s s s s s s d d g h g g d s u u u u s s s s s s s s s s s s g g h h h h h h h d d h g g g g h d 8 < 2 2 < # ",
"% @ # @ $ < 3 2 < 5 h h g g g g h h h h h h h h h h h h h h h h h h h h h h h h h h h h l h g d s u s s u u u u u u u u u u u u u u u u u u u u u u u u s s u u s s s s s s s s y u s s g g g g g g g g g g g g g g h h h g d s s s s s u u u u l h h h h h h h g z d y u u u u s g h h h h h h h h h h h h h h h h h h h h h h h h h h h h g g h h h h h h h h g h g d u u u u u u u u u u u u u u d h h h h h h h h h h h h h h h h h h h h h h h h h h h h h g g g g h h h g g g g g h h h h h h h h h h h h h h h h h h h h h h h h h h h h h h h h h h h h h h h h h h h h h h h h h h h h h h h h h h h h h h h g h h h h h h g g h h h h h h h h h h h h h h h h h h h h h h h h h h h h h h h h h h h h h h h h h h h h h h h h h h h h h h h h h h h h h h h h h h h h h g h h u u u u r y s d s 0 2 < 3 3 3 3 : % 3 2 2 4 h h h h h h h h h h h h h h h h h h h h h h h h h h h h h h h h h h h h h h h h h h h h h h h h h h h h h h h h h h h h h h h h h h h h h h h h h h h h h h h h h h s s u u u y s 7 < < $ $ $ @ % , 2 < < 8 s s s s s s s s u u u u u u u u u u u u u u u s d g h h h h h h g d s u s s s s s s s s s s s u u s s d d d s s u u u u s s s s s s s s s s s s g h h h h h h h d s s d g g g g h h q < 2 2 < # ",
"% @ # @ # < 3 2 2 3 d g g g g h h h h h h h h h h h h h h h h h h h h h h h h h h h h h h g d s u s s u u u u u u u u u u u u u u u u u u u u u u u u u g d s s s s s s s s s s u s g g h h h h h h h h g g g g l h g g h h h h s s s s u u u u h h h h h h h h g h d y u u u u s g h z h h h h h h h h h h h h h h h h h h h h h h h h h h g g h h h h h h h h g h h d u u u u u u u u u u u u u u d h h h h h h h h h h h h h h h h h h h h h h h h h h h h h g g g g h h h h g g g g h h h h h h h h h h h h h h h h h h h h h h h h h h h h h h h h h h h h h h h h h h h h h h h h h h h h h h h h h h h h h h h h g g g g g g g g h h h h h h h h h h h h h h h h h h h h h h h h h h h h h h h h h h h h h h h h h h h h h h h h h h h h h h h h h h h h h h h h h h h h h g g h u u u u g s y e 4 2 2 < 3 3 3 3 : % 3 2 2 4 h h h h h h h h h h h h h h h h h h h h h h h h h h h h h h h h h h h h h h h h h h h h h h h h h h h h h h h h h h h h h h h h h h h h h h h h h h h h h h h h h g u u u u u y s 7 < < $ $ $ @ % , 2 < , 8 s s s s u u u u u u u u u u u u u u u u u u u y s s d g g g h h d d s u s s s s s s s s s s s s y y u s d s s u u u u u s s s s s s s s s s s s h h h h h h h h s u u s g g g g h z e < 2 2 < # ",
"% @ # @ # ; 4 3 2 , e z h h h h g g g g h h h h h h h h h h h h h h h h g g g g h h h h g d s s u u u u u u u u u u u u u u u u u u u u u u u u u y s h z g s u u u u u u u u u s d h h h h h h h h h h h h h h h h h h g g g g s s s s s s s s s d g h h h h h g g d u s s s s u u d g h h g g h h h g g d d s d g g h h h h h h h g s s s s s d g h h h h h h h h h g g g g g f s u y u u u u u r u h h h h h z h g g d d d d h h h h h h h h h h h h h h h h h h h h h h h h h h h h h h h h h h h h h h h h h h h h h h h h h h h h h h h h h h h h h h h h h h h h h h h h h h h h h h h h h h h h h h h h h h h h h h h h h h h h h h h h h h h h h h h h h h h h h h h h h h h h h h h h h h h h h h h h h h h h h h h h h h h h h h h h h h h h h h h h h h h h h h h h z g g g u y s s u 0 4 < 2 2 2 2 3 3 3 3 = % 4 2 < 5 g h h h h h h h h h h h h h h h h h h h h h h h h h h h h h h h h h h h h h h h h h h h h h h h h h h h h h h h h h h h h h h h h h h h h h h h h h h h h h h h h g y y y y u y s 7 < < $ $ $ # * 2 2 < , 5 d s t u u u u u u u u u u u u u u u u u u u u u u u u u s s s s s s u u g s u u u s s s u y y y s s s s u u u u u u u u u y y y y y y y s s d h h h h h h h h h g g g g g g g g h z y < 3 2 2 @ ",
"% @ # @ @ * 3 3 2 2 5 s d g g h g g g g h h h h h h h h h h h h g g g g g g g g g g g g s s u u u u u u u u u u u u u u u u u u u u u u u u u u u u d h z g s u u u u u u u u u s d h h h h h h h h h h h h h h h h h h g g g g s s s s s s s s s d g h h h h h h h g s s s s s u u u d d g h h h g g d s u u u s d g h h h h h h g s y u u u u u u s s d d d d g h h h h h h h g d s u u u u u u y s h g g g g g g d d s s s s h h h h h h h h h h h h h h h h h h h h h h h h h h h h h h h h h h h h h h h h h h h h h h h h h h h h h h h h h h h h h h h h h h h h h h h h h h h h h h h h h h h h h h h h h h h h h h h h h h h h h h h h h h h h h h h h h h h h h h h h h h h h h h h h h h h h h h h h h h h h h h h h h h h h h h h h h h h h h h h h h h h h h h h h h g g g u s y 8 3 2 2 3 3 2 2 2 3 3 3 3 = % 3 2 < 5 g h h h h h h h h h h h h h h h h h h h h h h h h h h h h h h h h h h h h h h h h h h h h h h h h h h h h h h h h h h h h h h h h h h h h h h h h h h h h h h h h g s s s s u y s 7 < < $ $ $ # * 2 < < < 3 e u s u u u u u u u u u u u u u u u u u u u u u u u u u u u u u u u u u u u u u s s s s s s u y y y y u u u s s s s s s s s s s s s s s s s d h z z z z z z z z z z z z z z z z g z y 2 2 2 < @ ",
"% @ # @ @ % < 3 2 2 , 9 u s d g g g g g h h h h h h h h h h h h s s s s u u u u u y y y u u u u u u u u u u u u u u u u u u u u u u u u u u u u u s g h z g s u u u u u u u u u s d h h h h h h h h h h h h h h h h h h g h g g s s s s s s s s s s g h h h h h h h g s s s s s u u u u s s d g d s s s u u u u y s g h h h h h h h d u s s s s u u u y s s s s d g h h h h h h h g d s u u u u u s g h g g g g d s s u u u s s h h h h h h h h h h h h h h h h h h h h h h h h h h h h h h h h h h h h h h h h h h h h h h h h h h h h h h h h h h h h h h h h h h h h h h h h h h h h h h h h h h h h h h h h h h h h h h h h h h h h h h h h h h h h h h h h h h h h h h h h h h h h h h h h h h h h h h h h h h h h h h h h h h h h h h h h h h h h h h h h h h h h h h h h g z h d e 7 < , : < 3 4 2 2 2 2 3 3 3 3 = % 4 2 < 5 g h h h h h h h h h h h h h h h h h h h h h h h h h h h h h h h h h h h h h h h h h h h h h h h h h h h h h h h h h h h h h h h h h h h h h h h h h h h h h h h h g d d d d u u d 7 < < $ $ $ $ * 2 < < 2 < 4 w u y u u u u u u u u u u u u u u u u u u u u u u u u u u u u u u u u s s s s u y r e q 8 4 2 < < < < 5 5 5 5 9 9 9 9 w w w w w w w w e e r s u u u u u u i i u u u u y y y y e 8 3 2 2 3 , # ",
"% @ # @ @ # , 3 2 < 2 2 r y s g g g g g h h h h h h h h h h h h u u u u u u u u s u u u u u u u u u u u u u u u u u u u u u u u u u u u u u u u u d h h z g s u u u u u u u u u s d h h h h h h h h h h h h h h h h h h g h g g s s s s s s s s s s g h h h h h g g d u u s s s u u u u y u s s s s s s s s s s y y s g h h h h g h z h g g g g d s s u s s s s s g g h h h h h g h g f u u u u u d h h g g g g s s u y y u s s h h h h h h h h h h h h h h h h h h h h h h h h h h h h h h h h h h h h h h h h h h h h h h h h h h h h h h h h h h h h h h h h h h h h h h h h h h h h h h h h h h h h h h h h h h h h h h h h h h h h h h h h h h h h h h h h h h h h h h h h h h h h h h h h h h h h h h h h h h h h h h h h h h h h h h h h h h h h h h h h h h h h h h h h h d q 3 < < 2 3 < 2 2 2 2 2 2 2 3 3 3 2 = % 3 2 < 5 g h h h h h h h h h h h h h h h h h h h h h h h h h h h h h h h h h h h h h h h h h h h h h h h h h h h h h h h h h h h h h h h h h h h h h h h h h h h h h h h h g g g g g u y s 5 < < $ $ # # * 2 < 2 2 , , 3 8 y u u u u u u u u u u u u u u u u u u u u u u u u u u u u u u u u y r q 0 5 4 2 , , , < < < < < , , , , , , , , , < < < < < < < < , , < 4 1 2 2 2 2 2 2 2 3 3 3 3 < < < 2 2 2 2 3 2 4 , $ ",
"% @ # @ & @ = 3 2 < < < 3 y y y d d d d d d g g h h h h g d s s u u u u u u u u u u u u u u u u u u u u u u u u u u u u u u u s s s u y y u u s s s s u g d s u d u r e e e e r r u g h z z h h h h g g h h h h h h h h g h g s s u u u s s s s s d g g g d s s u y y u u u u u u u u u u u u u u u u u u u s s y u s g g g g g g h h h h h h h h g g g y y y y d g h h h h h h h h h h s s u y g g g g z g s u s s s u u s d g g g g g g g h h h h h h h h h h h h h h h h h h h h h h h h h h h h h h h h h h h h h h h h h h h h h h h h h h y y u u u s s s g g g g h h h h h h h h h h h h h h h h h h h h h h h g h h h h h h h h h h h h h h h h h h h h h h h h h h h h h h h h h h h h h h h h h h h h h h h h h h h h h h h h h g h h h h h h g h h j g d g z x g y e 7 4 2 2 2 2 2 2 2 2 2 2 2 2 2 3 3 2 4 < $ % 3 2 2 7 g g h h h h h h h h h h h h h h h h h h h h h h h h h h h h h h h h h h h h h h h h h h h h h h h h h h h h h h h h h h h h h h h h g g g g d d d d g g g g g g g g g g g g s u s 5 < < $ $ @ @ & , 2 2 2 2 < < < < 5 5 5 5 5 4 4 4 3 3 4 4 4 4 4 4 4 4 5 5 5 5 5 5 5 5 5 5 5 5 5 5 2 2 < < < < < < < < 2 < < , , , < < < < < 2 2 2 2 2 2 2 2 2 2 < < < 2 2 3 3 3 3 3 3 3 3 3 3 3 3 2 2 2 2 2 2 2 4 < : * $ ",
"% @ # @ % @ = 2 < < < < , 7 s y s s s s s s s s s s d s s s u u u u u u u u u u u u u u u u u u u u u u u u u u u u u u u u u u y y u s s s s s s s u u e w q 0 5 4 3 2 1 1 1 2 , 2 4 5 0 e u d h h h g g g h h h h h h g h g s s u u u s s s s d g g g s s u y y y u u u u u u u u u u u u u u u u u u u u s s y u s g g g g g h h h h h h h h h g g g g d d d g h h h h h g g g g g g s s d g g h h h g d u y u u y y r q 8 7 5 5 5 5 7 0 y s z z z h h h h h h h h h h h h h h h h h h h h h h h h h h h h h h h h h h h h h h h h h h h h h s s s s y s f g g g g g h h h h h h h h h h h h h h h h h h h h h h z z g h h h h g h h h h h h h h h h h h h h h h h h h h h h h h h h h h h h h h h h h h h h h h z z z z z z z z z h h g g g x z z h h h h g h h d r 7 4 2 2 2 2 2 2 2 2 2 2 2 2 2 2 2 2 2 2 3 2 3 : $ % 3 2 2 7 g g h h h h h h h h h h h h h h h h h h h h h h h h h h h h h h h h h h h h h h h h h h h h h h h h h h h h h h h h h h h h h h h h h g d s u s d g g g g g g g g g g g g g s u s 5 < < $ $ # # % ; < < 2 2 2 2 2 < < < < < < < < < < < < < < < 2 2 2 2 < < < < < < < < < < < < < < < < < , < 2 2 < < < < < < < < < < , < < < < < < < < < < < < < , , , < < < < < < < 2 2 2 2 2 2 2 2 2 2 2 3 2 < < * $ @ # ",
"% @ # @ % @ = 2 < < < < 3 < 7 y u u u u u u u u u u u u u u u u u u u u u u u u u u u u u u u u u u u u u u u u u u u u u u u s s s s s s s y r q 8 5 2 2 < , , < < < < 1 2 2 2 < 2 3 3 < 2 2 3 8 r d g g g g g h h h h g h g s s u u u s s s d g g g g s s u y u u s s u u u u u u u u u u u u u u u u u u s s y u s g g g g g h h h h h h h h h g g g h h h h h h h h h g h g s s s s s s d g g g g g u u s s e 0 5 3 2 2 2 2 2 2 2 2 2 2 2 2 8 y g z z h h h h h h h h h h h h h h h h h h h h h h h h h h h h h h h h h h h h h h h h h h g g g g g u s g h g g g g h h h h h h h h h h h h h h h h h h h h z z z h h d u r g h d d h h h h h h h h h h h h h h h h h h h h h h h h h h h h h h h h h h h g g g g g g g g g g g g g g g g g g h z z h g d s q 5 2 3 2 2 2 2 2 3 3 2 2 2 2 2 2 2 2 2 2 2 2 2 4 2 2 = $ % 3 2 2 7 g g h h h h h h h h h h h h h h h h h h h h h h h h h h h h h h h h h h h h h h h h h h h h h h h h h h h h h h h h h h h h h h h h g d s u s s g g g g g g g g g g g g g g s u s 5 < < $ $ % $ # $ % % % % % % % % & & * * & & & % % % % % & & * * * * & & % % % % % % % % % % % % % $ $ # $ % % $ $ $ $ $ $ $ % % % % & & % % % % & & & % % % % % $ % % & % % % $ $ $ $ $ $ $ $ $ # # # $ % $ @ @ @ @ $ $ ",
"% @ # @ % @ * 2 < < < < 2 3 , 3 u u u u u u s s u u u u u u u u u u u u u u u u u u u u u u u u u u u u u u u u u u u u u u u u s y q 8 7 4 2 < , , , < 2 < , , < < 2 2 1 1 1 1 2 3 4 3 < 2 2 2 2 3 3 4 e u g g h h h h g h g s u u u u u u s d g g g g g d s s s s s s u u u u u u u u u u u u u u u u u u s u y u s g g g g g h h h h h h h h h g g g g g g g h h h h g g g g u u u u s s u u u s s s y e 8 5 < 2 2 2 2 2 3 3 3 2 2 3 3 3 3 2 < 4 7 w g z l h h h h h h h h h h h h h h h h h h h h h h h h h h h h h h h h h h h h h h h h h h h h g g g g g g g g g h h h h h h h h h h h h h h h h h h h h d u r q 5 4 2 < 5 u l x h h h h h h h h h h h h h h h h h h h h h h h h h h h h h h h h h h h h u u u u u u u u u u u u g g g g x h u r 8 7 4 3 < 2 3 3 3 3 3 3 3 3 3 2 2 2 2 2 2 2 2 2 2 2 2 2 4 1 , % $ % 3 2 2 7 g g h h h h h h h h h h h h h h h h h h h h h h h h h h h h h h h h h h h h h h h h h h h h h h h h h h h h h h h h h h h h h h h h u u u u g g g g g g g g g g g g g g g g s u s 5 < < $ $ % $ # @ $ $ $ @ @ + + + + + + @ @ @ @ @ @ @ @ @ # # $ $ $ $ $ $ $ $ % % % % % % % % % % % $ $ # # # $ $ $ $ $ $ # @ @ @ @ @ @ @ + + + + + + + + + + + o o o + @ @ @ # # # # $ $ $ $ $ $ # # # # # @ # $ $ $ $ $ ",
"% @ # @ @ # * < 2 2 < , 2 2 2 2 5 q u y s u y y u u s s s s s s s s s s s s s s u u u s u u y y s s u u u s s d s u r e q 8 5 5 1 < , , , < < < < < < < < < < < < < < < 2 2 2 2 2 2 2 2 2 2 2 2 2 2 3 3 < 2 4 7 r s z v x h g g s s u y u u u d g g g g g h h h h h h h h g d d s s u u u u u s u u y r y s s u s u s h g g g g h h h g h g h h h h h h h g g g h h h h g g s y u u u u u s s d d r 8 5 2 2 < < 3 3 3 3 2 2 2 2 2 2 2 2 3 3 3 3 3 3 3 3 5 e g x d g h h h h h h h h h h h h h h h h h h h h h h h h h h h h h h h h h g g g g g g g h h h h h h h h h g g h z z h h z z z h g d d s y e q 8 5 5 3 2 2 2 2 2 3 3 2 2 7 y h z z h h h h z l h h h h h h h h h h h h h h h h h h h h h h h s s s s s s u y y y y u u s s d u y e q 7 4 2 2 2 2 2 2 2 2 2 2 3 3 3 2 2 2 2 2 2 2 2 2 2 2 2 2 2 2 3 3 2 : * $ $ & 3 2 2 5 h g h h h h h h h h h h h h h h h h h h h h h h h h h h h h h h h h h h h h h h h h h h h h h h h h h h h h h h h h h h h h h h d y u u s d h h h h h h h h h h h h f j h d u u s 7 < < $ $ % $ $ $ % $ + @ ; 8 s d g g g g z z z z x x x x x v v v ] P P ) R J M v m m m C G G G C C m m m m m m m m m m m x x x z z z z z g g g g u u u u 0 0 0 0 5 4 3 2 < , ; * * % @ + @ @ + + # % % % % @ $ $ $ $ $ $ ",
"% @ # @ @ $ % ; < < 2 < < < < < 2 2 5 r d s s u u u u s s s s s s s s s s s s s s s s s d s s u u u y y r r e q 5 4 3 2 , , < < < < < < < < 2 2 < < < < < < < < < < < < 2 2 2 2 2 2 2 2 2 2 2 2 2 2 3 3 3 2 < 2 < 4 9 e s g z z z s y y y y u d g g g g g h h h h h h h z h g g d d s s u u u s u s u u s g g s s u d h g g g g h h h h g g g g g g g g g g g g h h h g g d s u u u s s s u e 0 4 2 , < < < 2 2 2 2 2 2 2 2 2 2 2 2 2 2 3 3 3 3 3 3 3 3 2 2 5 e x h h h h h h h h h h h h h h h h h h h h h h g g g g g g g g g g g h h g g g g x x x x z z z z g g g g d s u u r e q 0 7 7 5 5 4 2 < , < < 2 2 2 2 2 2 2 3 3 3 3 2 2 2 0 y d g z z h h h h h h h h h h h h h h l l j l h h h h g g g g s u y r u u s s g s u y y e 8 5 3 2 < , 2 2 2 2 2 2 2 2 2 2 2 2 2 2 2 3 2 2 2 2 2 2 2 2 2 2 2 2 2 3 3 2 * % # $ $ * 3 2 2 5 h g h h h h h h h h h h h h h h h h h h h h h h h h h h h h h h h h h h h h h h h h h h h h h h h h h h h h h h h h z z h h g s u u s s g h h h h h h h h h h h h h j h d u u u s 7 < < $ $ $ $ $ $ # o ; s ) R ] ] ] ] ] ] ] | | | ] ) ) ) ) ) ) ) ;.&.;.>.;.&.o.| o.o.o.o.R ) ) ] R R R R R R R R ) ' ) ) ) ) ] ] ] ] ] ] ] ] ] ] ] ) ] ] ] ] | | | | ] ] ) ) R J G m z h y e 8 5 , % + + + # % $ # $ $ $ ",
"% @ # @ $ % $ $ = ; : : 2 2 2 2 3 2 < 3 5 q y s d s s s s s s s s s s s s s s u u u y y r e q q q 8 4 2 3 2 < < < < < , < < 2 2 2 2 < < 2 2 2 2 < < < < < < < < < < < < 2 2 2 2 2 2 2 2 2 2 2 2 2 2 3 3 3 3 3 2 2 2 2 < 2 8 r y g z h u u u u d g g g g g h h h h h h h h h h g g g d d s u u u s s s d g h g s u s g g g g g g h h h h h g s s s s s s g g g g h h h h g s u u d u r q 7 5 2 , 2 2 2 2 2 < < < 2 2 2 2 2 2 2 2 2 2 2 2 3 3 3 3 3 3 3 3 2 3 3 2 7 y h g h h h h h h h h h h h h h h h h h h h h h h h h z z z z h h h h g g g g y y y y q q q q 5 5 5 5 3 2 2 < , , 2 2 2 2 3 3 3 3 3 2 2 3 3 3 3 3 2 2 3 3 3 3 3 3 3 2 , 2 4 8 r s z x h h h h h h h h h h h h l l l l h h h h h h h h z g s y u y e 0 9 7 5 3 < , , , 2 2 < < 2 2 2 2 2 2 2 2 2 2 2 2 2 2 2 2 2 2 2 2 2 2 2 2 2 2 2 2 4 2 : % @ @ $ $ % * 4 3 2 5 h g h h h h h h h h h h h h h h h h h h h h h h h h h h h h h h h h h h h h h h h h h h h h h h h h h h h h h h h h h h g d d s s d d g h h h h h h h h h h h h h h l d s u u u s 7 < < $ $ $ $ $ $ + 2 P o.C R ) ) P P R R R R R P P P G J ! ! ! ! | o.&.;.;.&.%.%.%.%.%.%.o.} R G R R R R R R R R P P R R R R R R J P P P P P P R R R R R R R ! R R R R R R R P P R ) ) ] | | | | R J z y < # $ $ $ $ $ $ ",
"% @ # @ $ $ # @ + @ @ $ * * * * * : , ; : , < 2 3 7 q 0 0 0 0 0 0 0 0 0 0 0 0 0 4 4 4 4 3 2 2 < , , < < < < 2 2 2 2 2 2 < < < < < 2 2 2 2 2 2 2 < < < < < < < < < < < < 2 2 2 2 2 2 2 2 2 2 2 2 2 2 3 3 2 2 3 3 3 3 3 2 2 2 < 3 5 8 r u u u u d g g g g g h h h h h h h g g g g g g g g d s u u s s d g g h g s y d g g g g g g h h h h h g s y y y y y g g g g h h h h z g u r 4 3 2 , , , < 2 2 2 2 < < < < < 2 2 2 2 2 2 2 2 2 2 2 2 3 3 3 3 3 3 3 3 5 4 2 3 2 3 5 r d h h h h h h h h h h h h h h h h h h h s s s s e e e e 8 8 8 8 4 4 4 4 2 2 2 2 2 < 2 2 2 2 2 2 2 2 3 4 4 4 4 4 2 2 3 4 3 3 4 4 2 2 2 2 2 3 3 3 3 3 3 3 3 3 3 3 3 2 2 3 < 4 8 q u d h h h h h h l l h h l l l l h h h h s s s s y w 8 5 2 2 < < , , , , 3 2 2 < < , < < 2 2 2 2 2 2 2 2 2 2 2 2 2 2 2 2 2 2 2 2 2 2 2 2 2 2 2 2 * * & $ $ $ # @ # % 2 2 2 5 h g h h h h h h h h h h h h h h h h h h h h h h h h h h h h h h h h h h h h h h h h h h h h h h h h h h h h h h h h g d s u s d g g h z z z h h h h h h h h h h h h f u u d u u s 7 , , $ $ % $ $ # = C o.J ) R R R R R R R R R R R R R ! ! ! ! ) ) ) o.;.&.;.;.;.;.;.;.;.;.>.;.o.| R R R R R R R R R R ! ! ! ! ! ! R R R R R R R R R P P P R R R P P R ! ! R R R R R R R R G P P R ! ! ] o.] u o @ $ $ $ $ ",
"% @ # @ $ $ # # # # $ $ $ $ $ $ $ $ $ $ $ $ $ $ $ $ $ $ $ $ $ $ $ $ $ $ * * * * * * = = = ; ; ; ; : : : : : , : : : , , , , , , 2 2 2 2 3 3 3 3 3 2 2 2 2 2 2 2 2 2 2 2 3 3 3 3 3 3 3 3 3 3 3 3 3 3 3 3 3 3 3 3 3 3 3 3 3 3 2 2 2 2 2 2 3 5 0 e d g z z g g g h h h g g g g g g h h h g s s s s s s d g z g s u u g h h g g g g g h h h g s u y y y u s h h h h g d u y 0 5 2 , < < < < 2 < 2 2 2 2 2 < < < < < 2 2 2 2 2 2 2 2 2 2 2 2 2 2 2 2 2 2 2 2 2 2 2 2 2 2 2 2 5 7 0 q q q q q 0 0 0 0 5 5 5 5 5 5 5 5 2 2 2 2 2 2 2 2 2 2 2 2 2 2 3 3 3 3 3 3 3 3 3 3 3 3 3 3 3 3 3 3 2 2 2 2 2 2 2 2 2 2 2 2 2 2 2 2 2 2 2 2 2 2 3 3 3 3 3 2 2 2 2 2 2 2 2 2 2 3 4 4 q q q q q q q q q 0 0 0 5 5 5 5 2 2 2 2 2 2 2 < < , < < < < < < 2 2 2 < < , < < 2 2 2 2 2 2 2 2 2 2 2 2 2 2 2 2 2 3 4 4 5 2 < , ; = % $ # # # # $ $ $ # $ % 3 2 2 7 g g h h h h h h h h h h h h h h h h h h h h h h h h h h h h h h h h h h h h h h h h h h h h h h h h h h h h h h h h s s s s h h h h g g g g h h h h g g g h h g s u u u u u u u s 7 , , $ $ & # % @ g | ! ! R ) ) G R R R R R R R R R R R R R R R R ! ) | %.;.;.;.;.;.;.;.;.;.;.;.>.| ) R ) R R R R R P R R R R ! R R R ! ! ! R R R R R ! ! ! ! ) R R R R R R R R R R R R R ! ! ! ! ! ! ! ! R %.4 @ # # # # ",
"% @ # @ # # # # # # $ $ $ $ $ $ $ $ $ $ $ $ $ $ $ $ $ $ $ $ $ $ $ $ $ # @ @ @ @ # # $ $ $ $ $ $ $ $ $ $ $ $ $ $ # # $ $ $ $ $ $ $ $ $ $ $ $ % % % % % % & * * * * * * * = = = = = = = = = = ; ; ; ; ; ; ; : : : , , , , , , < < < < < < : : , , 2 3 7 8 y s d h h z z z x x z z h h z z y y y y y u s d h u y s s g h g h h h h h h h g z g d s d s u y y y y y 7 5 3 3 3 2 2 < < < < < < < < < < < 2 2 2 2 2 2 3 3 3 3 3 3 4 4 4 4 4 4 3 3 3 3 3 3 3 3 3 2 2 2 2 2 2 2 2 < < < 2 2 2 2 2 2 2 2 2 2 2 2 2 2 3 3 2 2 3 3 3 3 3 3 3 3 3 3 3 3 3 3 3 3 3 3 3 3 3 3 3 3 3 3 3 3 3 3 3 3 2 2 2 2 2 2 2 2 2 2 2 2 2 2 2 2 2 2 2 2 2 2 2 2 2 2 2 2 < 2 2 2 2 2 < < 2 2 2 < < < 2 2 2 < < < < < 3 3 2 2 2 2 2 2 3 3 3 3 2 2 2 2 < < < < < < 2 < < , < < 3 3 3 3 3 3 4 4 4 4 4 3 3 3 3 2 2 < , , = * & * % $ # @ # # # # $ $ $ $ $ & 3 2 2 7 g g h h h h h h h h h h h h h h h h h h h h h h h h h h h h h h h h h h h h h h h h h h h h h h h h h h h h h h h h h h h h h h h h g g g g h h h h h h h h g d s u u u u u u u s 7 , , # # % $ $ $ R R P R R R ) R R ! ! ! ! ! R R ) ) ) ) ) ) ) ) ) ) | ;.;.;.;.;.;.;.;.;.;.;.;.>.>.o.) ) ) ) ) ) ) ) ) ) ) ) ) ) ) ) R P P R R R R R R R R R R R R R R R R R R R R R R R ! ! ! ! ! ! ! ! P | g + # # # # ",
"% @ # @ # # # # # # $ $ $ $ $ $ $ $ $ $ $ $ $ $ $ $ $ $ $ $ $ $ $ $ $ $ $ $ $ $ $ $ $ $ # # $ $ $ $ $ $ $ $ % $ $ $ $ $ $ $ $ $ $ $ $ $ $ $ $ $ $ $ $ $ # @ @ @ # # # # $ $ $ $ $ $ $ $ $ $ $ $ $ $ $ # @ @ @ @ @ @ # # $ $ $ $ $ $ $ % % % $ $ $ # @ + @ $ * = 2 5 0 e r u d h g h z z s s s d g g z z h s u g z x x z z z z z z h g s s y 9 5 3 2 < < ; ; ; ; , , , , , , < 2 , , , , , , , , , , , , , , < < < < 2 2 2 2 2 2 2 2 2 2 2 2 2 2 2 2 2 2 2 2 2 2 2 2 2 2 5 4 2 2 3 3 3 3 3 3 4 4 4 4 4 4 3 3 3 3 3 3 4 3 3 3 3 3 3 3 3 3 2 2 2 2 3 3 3 3 3 3 3 3 3 3 3 3 3 3 3 3 3 3 3 2 2 2 2 2 2 2 2 2 3 3 3 3 3 3 3 3 3 3 4 4 4 4 4 3 3 3 2 2 2 2 2 2 2 3 4 4 3 3 3 3 3 3 3 3 3 3 3 3 3 3 3 3 4 4 4 4 3 3 3 3 2 2 2 2 2 2 2 2 2 2 2 2 < < < 2 2 3 3 3 2 2 2 2 : : : : = = = * * % $ $ $ $ $ # # @ @ @ # # # # $ $ $ $ $ & 3 2 2 7 g g h h h h h h h h h h h h h h h h h h h h h h h h h h h h h h h h h h h h h h h h h h h h h h h h h h h h h h h h g g g g h h h h g g g g h h h h z h g d s s s u u u u u u u s 7 , , # # @ $ $ * g | G R R P P P G G G G G G G G G G G G G G G G G J ! | ] ] | | ] ] ] ] ] ] } | ] P m m x x x x x z z z z z z z m C G J ) ) ) ) ! ! ! ! ) ) ) ) ! R R R R R R R R ! R R ! ! ! ! ! ! ! ! P ) y + # # # # ",
"% @ # @ # # # # # # $ $ $ $ $ $ $ $ $ $ $ $ $ $ $ $ $ $ $ $ $ $ $ $ $ $ $ $ $ $ # @ @ @ @ @ @ @ # # # $ $ $ $ $ # # $ @ @ @ @ @ % % % $ $ $ $ # @ @ @ @ @ @ # # $ $ $ $ $ $ $ $ $ $ % % % % % % $ $ $ $ % % % $ $ $ $ # # @ # # $ $ $ $ # # $ $ $ $ $ $ $ $ $ # @ @ @ $ @ $ & = ; : , 2 3 3 4 4 5 7 9 0 0 0 0 q 8 9 8 5 4 4 4 4 < : ; * % $ $ @ + @ # $ # @ @ @ @ @ # # # # $ $ $ $ $ $ $ $ $ $ $ $ $ $ $ $ $ $ $ $ % % % % % % % % % % % % % % % % % % % % * * * * * * = = = * * * = = = = = = = = = = = = ; = = = = = = = ; ; = = ; ; ; ; ; ; : : : : : : : : : : : : : : : : , , , , , , , , , , , , , , , , : : , , , , , , , , , , : , : : , , , , ; : , , , , , , , , , , , , , : : : : : ; ; ; ; ; ; ; ; ; = ; ; ; ; ; ; = = = * * & * * % % % % $ $ $ $ # # @ @ # # # @ @ # $ % & % $ @ @ @ @ @ # # # # $ $ $ $ $ % 3 2 2 7 g g h h h h h h h h h h h h h h h h h h h h h h h h h h h h h h h h h h h h h h h h h h h h h h h h h h h h h h h h h h h h h h h h g g g g h h h h h g s u u u u u u u u u u u s 7 , , # # @ $ $ = < v ) ) C z d s y y y y y y y y y y y y y y y y y y d h g g g g g d g g g g g g g u u s u u u u u u u y y y y y y y y r d d d d x x x x G G G G R R R R R R R R ! ! R R ! ! ! ! ! ! ! ! | s 3 * # # # # ",
"% @ # @ # # # # # # $ $ $ $ $ $ $ $ $ $ $ $ $ $ $ $ $ $ $ $ $ $ $ $ $ $ $ $ $ $ $ $ $ $ $ $ $ $ $ $ $ $ $ $ $ $ $ $ $ $ $ # $ $ $ $ $ $ $ $ $ $ $ $ $ $ $ $ $ $ $ $ $ $ $ $ $ $ $ $ $ $ $ $ $ $ # # # $ $ $ # # $ $ $ $ # # # # $ $ $ # $ $ $ $ $ $ $ $ $ $ $ $ $ $ $ $ $ $ $ $ $ $ $ $ $ # # @ @ @ @ @ @ @ # # # $ # @ @ @ @ @ @ @ # # # # $ $ $ $ $ $ $ $ # @ # $ $ $ $ $ $ $ $ $ $ $ $ $ $ $ $ $ $ $ $ $ $ $ $ $ $ $ $ $ $ $ $ $ $ # @ @ @ @ # # $ $ $ $ $ $ $ $ $ $ $ $ $ $ # # # # @ @ @ @ # # # @ @ @ @ @ @ @ @ @ # # # # # # # # # # # # # # # # # # @ @ @ @ @ @ @ @ @ @ @ # $ $ $ $ $ $ @ @ # # # # $ $ $ $ $ $ $ $ $ $ # # @ @ $ $ # $ % % % % $ $ # # $ % % % $ $ $ $ % % % % $ $ $ $ % % % $ $ $ % % % $ % % % % % % $ $ $ $ $ $ $ $ $ $ $ $ $ $ $ $ $ $ $ $ $ $ % % % % % % $ $ $ $ % % * * % & o o $ $ $ $ $ % 3 2 2 7 g g h h h h h h h h h h h h h h h h h h h h h h h h h h h h h h h h h h h h h h h h g g h h h g g g g g g g h h h h h h h h h h h h h h h h h h h h g s u s s u s s u u u u u y u 5 , , @ @ @ $ $ , , 3 z ! g u s u s s s s s s s u u u u u u u u s s d d g g g g g h h h h g g g g h g s y u u u u u u u u u u u u u u u u u u u u u u u u u u u u g g g g v v v v G G G G ) ) ) ) ] ] P ) g < 3 ; # # # $ ",
"% @ # @ # # # # # # $ $ $ % % % % % % % % % % % % % % % $ $ $ $ $ $ $ $ $ $ $ $ $ $ $ $ $ $ $ $ $ $ $ $ $ $ $ $ $ $ $ $ $ $ $ $ $ $ $ $ $ $ $ $ $ $ $ $ $ $ % $ $ $ $ $ $ $ $ $ % $ $ $ $ $ $ $ # $ $ $ $ # $ # $ $ $ $ # # # # $ $ $ $ $ $ $ $ $ $ $ $ $ $ $ $ $ $ $ $ $ $ $ $ $ $ $ $ $ $ $ $ # # # # # $ $ $ $ $ $ $ $ $ $ $ $ $ $ $ $ $ % $ $ # # # $ $ $ $ $ $ $ $ $ $ $ $ $ $ $ $ $ $ $ $ $ $ $ $ $ $ $ $ $ $ $ $ $ $ $ $ $ $ $ $ $ $ % $ $ $ $ $ $ $ % % % % % % % % % $ % % % % % % % % % % % % % % % % % % % $ $ $ $ % % % % % % $ $ $ $ $ $ % $ $ % % $ $ $ $ $ # # # $ $ % % $ $ $ $ $ $ $ $ # @ # # # # $ # @ @ @ + + + + + + @ + + + + + + # + o X + + + o o o o o o o o o o o o o o o o o + + + + + @ @ + + + + + + + @ @ + o o o @ @ @ @ @ @ @ @ @ @ @ @ @ @ @ + + + + + + + O o o o o o @ @ * $ $ $ $ $ # % 2 2 2 7 g g h h h h h h h h h h h h h h h h h h h h h h h h h h h h h h h h h h h h h h h h h h h h g g h h g g g g h h h h h h h h h h h h h h h h h h h h d s u s s s s s u u u u u u u 5 , , @ @ $ @ % , 2 : 2 0 d u s s s s s s s s s s s s s s u u s s d g h h h g g g h h h h g g g g g d u y u u u u u u u u u u u u u u u u u u u u u u u u u u u u u u u u u u u u u s s s h h h h x x g 7 , , 2 ; # # $ $ ",
"% @ # @ # # # # # # $ $ $ $ $ $ $ $ $ $ $ $ $ $ $ $ $ $ $ $ $ $ $ $ $ $ $ $ $ $ $ $ $ $ $ $ $ $ $ $ $ $ $ $ $ $ $ $ $ $ # $ $ $ $ % % % % % % % % % % % $ $ $ $ $ $ $ $ $ $ $ $ % % $ $ $ $ $ $ $ $ $ $ $ $ $ $ $ $ $ $ # # # # $ $ $ $ # $ $ $ $ $ $ $ $ $ $ $ $ $ $ $ $ # # $ $ $ $ $ $ $ $ $ $ $ $ $ $ $ $ $ $ $ $ $ $ $ $ $ # # # # # # $ $ $ $ % $ $ $ $ $ $ $ $ $ $ $ $ $ $ $ $ $ $ $ $ $ $ $ $ $ $ $ $ $ $ $ $ $ $ $ $ $ $ $ $ $ $ # # @ @ @ @ @ @ @ @ @ @ @ @ @ @ @ + + @ @ @ @ @ + + + @ @ + + + o o o o o + + + + + + + + + + + + + + + o + + + + @ + + + + o # # # # $ $ % % % % % % % & * * ; ; ; ; ; ; ; ; , , , , , , , , < 2 < < 3 3 3 3 5 7 0 q q q q q e e e e u u u u y y y y d d d d g d s u u s s s d d g g g g g g g z m G C C C C C C C C C C C C C C C C m m m m v v x x z g s u 4 $ o @ $ $ $ $ # % 2 2 2 7 g g h h h h h h h h h h h h h h h h h h h h h h h h h h h h h h h h h h h h h h h h h g d d u s s d g g g g h h h h h h h h h h h h h h h h h h h h s y u s s s s s u u u u u u u 5 , , # # $ # % , < 2 , 4 s s s s s s u u s s s s s s s s u s s g h h h h h h h g h h h h g g g g s u u u u u u u u u u u s s s s s s s s s s s s s s s s u u u u u u u u u u u u u u a u u u u u u y y 0 2 3 3 ; # $ # # ",
"% @ # @ # # # # # # @ @ @ + + + + + + + + + + + + + @ @ @ @ @ @ @ @ @ @ # # # # # # # # # # # # # # # # # # # # # # # # o o o o + + + + + + + + + + + + + + @ @ @ @ @ @ # $ $ $ % % $ $ $ $ $ $ $ $ $ $ # $ $ $ $ $ $ $ # # # # $ $ $ $ $ $ $ $ $ $ $ $ $ $ $ $ $ $ $ $ $ # # # $ $ $ $ $ $ $ $ $ % % % % $ $ $ $ $ # @ @ + + + + o o o o + + o o o o o @ # $ $ $ $ $ $ $ $ $ $ $ $ $ $ $ $ $ $ $ $ $ $ $ $ $ $ $ $ $ $ $ $ $ $ $ $ $ % % % * * * * = = = = = = : : : : , , , : < < < < 4 4 4 4 4 4 4 4 7 7 7 7 q q q q r r r r y y y y y r r r g g g g z z z z m m m m m C C C C G J P ) ) ) ) ) ] | | | | o.o.o.o.o.o.%.%.%.%.) ) ) ) ] | ] ] | | | | ;.;.>.4.4.4.4.4.8.8.8.8.8.4.4.4.4.4.4.4.4.4.1.1.4.;.o.| ] ] ] ] ] ] ] ] ) ) ) ) %.;.1.8.>.>.>.>.>.>.>.>.>.>.>.>.1.1.4.4.4.4.4.4.4.4.4.>.>.1.8.e.>.m 2 + $ $ $ % $ % 3 2 2 7 h g h h h h h h h h h h h h h h h h h h h h h h h h h h h h h h h h h h h h h h h h d s u y u s d g g g g g h h h h h h h h h h h h h h h h h h h h u y u s s s s s u u u u u u u 4 , , # # $ # & , < 2 : 4 s s s s s s s u s s s s s s s s s s g z z h h h h h h g h h h h g g g g y y u u s s s a a s s s s s s s s s s s s s s s s s s s s u u u u u u u u u u u s s s s s s s s y d u s 0 2 3 , $ $ # # ",
"% @ # # $ % $ @ + % : 0 y y y y d d d d d g g g h h z z z z z z x x x x x x m P P P R ! R R R R R R R P P P J G G G C C x x x x h h h h g d s s q q q q 8 5 4 2 < , ; * * % $ @ + o o o @ # $ $ $ % # @ @ # # # $ $ $ $ $ $ $ $ $ $ $ $ $ $ $ % % $ $ # $ $ $ $ $ $ % $ $ $ $ $ $ $ % % $ $ $ $ @ + o X o o + @ + @ % * * ; , < 4 5 8 q r y s g z z z z G G J J P P P R R R ! ! R R R R R G m x v v v v v v v v v x x x C G R ) ) ) ) ) ] ] ] ] o.o.o.o.o.o.o.o.%.%.&.%.;.;.;.;.;.;.;.;.>.>.>.>.>.>.>.>.1.1.4.4.4.4.4.4.4.4.4.4.8.8.;.| | | | | >.>.4.4.>.%.| ] | | | | | | | | | | | ] | | | | %.;.1.4.4.>.;.;.;.;.;.;.>.>.%.] ! ! ! R R R R R ) P P | ;.;.;.;.&.&.&.&.&.&.&.&.&.&.&.&.&.&.&.&.&.&.&.&.;.) P ) R R R R R R R P G J R ] ;.;.&.&.;.;.;.;.;.;.;.;.;.;.;.;.;.;.&.&.&.;.;.;.;.;.&.&.&.&.&.&.;.q.;.z & @ @ % $ % 3 2 2 7 h g h h h h h h h h h h h h h h h h h h h h h h h h h h h h h h h h h h h h h h h h u u u u s g g h h h h h h h h h h h h h h h h h h h h h h h h h d u u s u u u u u u u u u u s 5 , , # $ # # * 2 1 2 , 7 s s s s s s s s s s s s s s s s h h h h h h h h h h h h h g g h g d s u u u u u u u u u u u u u u u u u u u s s u u u u u u u u u u u u u u u u u u u u u u u u u u u u u u u u y 5 , < $ $ $ $ ",
"% @ # @ % + & @ 5 g R ] ] ] ] ] ] ] ] ] | | | | ] ] ] ] ] ] ] ] ] ] ] ] ] ) | &.8.4.>.>.>.1.1.1.1.1.1.1.>.>.>.>.>.>.1.1.4.4.4.4.4.4.4.4.4.4.4.4.4.4.4.4.1.>.>.>.;.%.o.| ] ! G m x g y q 4 < * # + @ % $ # # # # $ $ $ $ $ $ $ $ $ $ $ $ $ $ $ $ $ $ $ $ $ $ % % $ $ $ # @ @ + o o o + + $ & = ; , 2 5 8 r s h x m G ! ] o.%.;.>.;.>.4.8.8.4.4.4.4.4.4.4.4.4.1.1.>.>.>.>.1.1.4.4.1.1.1.1.1.>.o.) ] ] ] ] ] ] ] ] ) ) ) ) o.%.;.>.>.>.>.>.>.;.;.;.;.;.;.;.;.;.>.;.;.%.%.%.;.;.;.&.%.%.%.%.;.;.;.;.;.;.;.;.;.;.;.&.%.%.%.%.%.%.%.%.%.o.] J ] J J ] >.;.%.| R P J J R R R R R R R R R R R P R R R R P ) o.&.>.;.&.%.%.;.;.;.>.%.] ) ! ! ! R R R R R ) ! ) o.;.;.;.;.&.&.&.&.&.&.&.&.&.&.&.&.&.&.&.&.&.&.&.&.;.] R ) R R R R R R ! ) ) ] | %.;.;.&.&.;.;.;.;.;.;.;.;.;.;.;.;.;.;.&.&.&.&.;.;.;.;.&.&.&.&.&.&.1.%.;.e.| ; + $ @ $ 2 < 2 8 h g h h h h h h h h h h h h h h h h h h h h h h h h h h h h h h h h h h h h h h h h s s s s g g h h h h h h h h h h h h h h h h h h h h h h h h h h g s u u u u u u u u u u u s s 4 < , # $ # # * 2 2 2 , 7 s s s s s s s s s s s s s s s s h h h h h h h h h h h h z h h h d d s u u u u u u u u u u u u u u u u u u y y y u u u u u u u u u u u u u u u u u u u u u u u u u u u u u u u u u 0 , < $ $ $ $ ",
"% @ # @ % % + u | ) ! R R R R R R R P P P P P P P P P P R R R R R R R R ! P R ) ;.&.%.%.%.%.%.%.%.%.&.&.&.&.;.;.;.;.;.;.&.%.%.%.%.%.%.o.o.%.%.%.%.%.%.%.%.%.%.%.>.>.>.;.;.;.>.>.>.>.4.8.4.%.) G u 2 & o # # # # $ $ $ $ $ $ $ $ $ $ $ $ % % % % * % @ + @ + o o o @ $ * : , 3 5 r u g z v m G P P ] ;.8.4.4.8.8.4.>.>.;.&.&.;.&.%.o.%.&.;.%.o.| %.%.&.&.;.;.;.;.;.;.&.&.&.&.&.&.%.%.%.%.&.;.| P R R R R R R R R R P P P | o.o.%.%.%.%.%.%.&.;.%.%.%.%.%.%.%.%.%.%.%.;.;.;.;.;.;.%.%.%.%.;.;.;.;.;.;.;.&.&.%.&.&.;.;.;.;.;.;.;.;.;.&.| R | R R | o.] ) R ! ! R R R R R R R R R R R R R R R R R R P R ] | o.%.;.&.&.&.;.;.%.] ! R ! ! ! R R R R R ) ] o.%.&.&.;.;.&.&.&.&.&.&.&.&.&.&.&.&.&.&.&.&.&.&.%.&.;.o.] ) R ! R R R ! ] | o.%.;.;.;.;.;.;.;.;.;.;.;.;.;.;.;.;.;.;.;.&.&.&.;.;.;.;.;.;.&.&.&.&.&.%.%.;.;.;.8.R & $ $ & 3 2 2 8 h g h h h h h h h h h h h h h h h h h h h h h h h h h h h h h h h h h h h h h h h h d d d d g h h h h h h h h h h h h h h h h h h h h h h h h h h h h d u u u u u u u u u u u s s 4 < : $ $ $ $ * 2 2 2 , 7 s s s s s s s s s s s s s s s s h h h h h h h h h h h h h h g d s s s u u u u u u u u u u u u u u u u u s s u y u u u u u u u u u u u u u u u u u u u u u u u u u u u u u u u u u e < , $ $ $ $ ",
"% @ # @ % o q ] J R ) ! R R R R R R ! R R R R R ! ) ) ) ) ) ) ) ) ) ! ! ) P P R o.%.;.;.;.&.&.&.&.&.;.;.;.;.;.;.;.&.%.%.%.&.&.;.;.;.;.;.%.%.;.>.;.;.;.;.4.>.%.o.| | o.o.&.&.%.%.%.&.&.&.;.;.>.1.o.) v * # # @ $ $ $ $ $ $ $ $ $ $ $ $ $ o o o o o @ % = 2 5 0 e d z G ) %.;.4.8.4.4.1.>.) ) ) ) ] | o.%.&.%.%.o.;.;.;.;.;.;.;.;.;.;.;.;.;.&.&.%.&.&.&.&.%.%.&.&.;.;.;.;.;.&.&.&.%.%.%.%.&.>.%.P R R R R R R R ! ) ) ) ) ;.;.;.;.;.;.;.;.&.&.&.&.&.&.;.;.;.;.;.;.;.;.;.=.;.;.;.;.;.;.;.;.>.>.>.>.>.>.>.;.;.;.;.&.&.%.%.%.&.&.&.&.>.;.o.R R R R R G P R R ! ! R R R R R R R R R R R R R P R R R R R R P J ) | %.;.&.&.;.;.] ) R P ! ! ! R R R R R ) o.;.;.&.;.;.;.&.&.&.&.&.&.&.&.&.&.&.&.&.&.&.&.&.&.&.%.;.%.| ) ! ! R R P ) | o.;.>.;.;.;.;.;.;.;.;.;.;.;.;.;.;.;.;.;.;.;.&.&.&.;.;.;.;.;.;.&.&.&.&.&.%.%.;.;.%.o.e.g @ # & 3 2 2 8 h g h h h h h h h h h h h h h h h h h h h h h h h h h h h h h h h h h h h h h h h h g g g g h h h h h h h h h h h h h h h h h h h h h h h h h h h h h g s u u u u u u u u u u s s 4 < : # $ $ $ * 2 2 2 , 7 s s s s s s s s s s s s s s s s h h h g h h h h h h h h g g d u u u u u u u u u u u u u u u u u u u u u g d s u u u u u u u u u u u u u u u u u u u u u u u u u u u u u u u u u u r 4 < $ $ $ $ ",
"% @ # @ + 2 | ! R R R R R R R R ) %.>.;.) ) ) R R R R R R R R R R R R R ! R R R R ) ] | %.%.o.%.&.&.%.o.%.%.%.%.%.%.%.%.%.%.;.;.;.;.;.;.;.;.;.;.>.>.>.;.%.| ) R ) P R | ;.;.;.;.;.;.;.;.&.&.&.&.) G %.s + ; @ $ % $ % @ + @ @ o + o @ = < 5 q y g x G C ) ] ] | | | | | | | o.%.%.%.%.] R R R ! ! o.;.&.;.;.;.;.;.;.;.;.;.;.;.;.;.;.;.;.>.>.;.%.&.;.;.>.>.>.>.>.>.;.;.;.;.;.;.;.;.;.;.;.>.%.| ) R R R R R P P G G G G G G G G G v v v x x x z z x x z z z z z z z z z z v v x x C C C M P P P P ) ) ) ) | | o.o.o.%.%.&.;.;.;.;.%.o.| ] ! ! ! ! R R ! ! ) ) ) ) ) ) ) ) ) ) ) ) ) ) ) ) ) ) ) ) ) ) ) ) ) ) ) ) ) ) ) ) ) ! ) ) ) ) ) ) ) ! ! ! %.%.%.&.%.%.%.%.;.;.;.&.%.%.%.%.%.%.&.&.&.&.%.%.%.%.%.%.%.&.%.o.) ) ) ) &.&.&.;.;.>.;.;.;.;.;.&.;.;.;.;.&.&.&.;.;.;.;.;.&.&.&.&.&.&.&.&.%.%.%.%.%.&.>.>.>.;.%.o.4.] 8 * + * 4 2 2 8 h g h h h h h h h h h h h h h h h h h h h h h h h h h h h h h h h h h h h h h s s h g g g g h h h h h h h h h h h h h h h h h h h h h h h h g g g h g d u u u u u u u u u u u s s 4 2 : @ % $ # * < 2 2 1 1 y u s y s s s s s s s s s s s s h h h g g g g g h h h h g d u u u u u u u u u u u u u u u u u u u u u u h h d y u u u u u u u u u u u u u u u u u u u u u u u u u u u u u u u u u y < 2 * $ $ $ ",
"% @ # @ X y | R ] ) ) R R ! ! ! ) o.&.%.) ) ) ) ) ) ) ) ! R R R ! ! ! ! ) ! R R ) ) ] ) ) ) ] | o.%.&.;.;.;.;.;.;.;.;.;.>.>.;.;.;.;.;.;.%.%.;.;.o.%.;.>.| ] ) R ) G P o.;.;.;.;.;.;.;.;.&.&.&.&.] G ! C * @ $ $ + + o @ % % = , 3 q h G ] ] ) ] ) ) R R R R R R R P P P P ) | %.1.&.] R R R ! ! ] %.;.%.;.;.;.;.;.;.;.;.;.;.;.;.;.;.;.;.>.;.&.%.%.o.| | ] | o.%.;.;.;.;.>.>.;.;.;.%.| ] ) J v z g g g g s d d d d d d d d d d s h h h g g g g g g g g g g g g g g g g g g g g g g g g g g g g g g g g h h h z z z z z z h h h h h g g g z z z z z z z z z z z z x x x x m m m m m m m m C C C C C C G C C G G G C C C C P J P P P P P P P J J J &.&.;.;.;.;.;.;.;.;.>.>.>.>.>.>.;.;.;.;.;.;.;.;.>.>.>.>.>.4.1.>.>.4.4.>.>.>.>.>.>.4.>.>.>.>.>.>.>.>.>.>.;.;.>.>.>.>.1.1.>.>.>.>.>.>.>.1.4.4.1.>.&.| ] R ) ] &.>.>.q < , $ * 3 2 2 8 h g h h h h h h h h h h h h h h h h h h h h h h h h h h h h h h h h h h h h h d d h g g g g h h h h h h h h h h h h h h h h h h h h h h h h h h h h g s u u u u u u u u u u u s s 4 2 ; @ % $ # & < 2 2 2 2 r g u u s s s s s s s s s s s s h h h h h h h h h h h h d u u u u u u u u u u u u u u u u u u u u u u u s s s u u u u u u u u u u u u u u u u u u u u u u u u u u u u u u u u u s y < 2 * $ $ $ ",
"% @ # @ @ 5 R ) P R ! ! R P P P m G P C m m C C C C D C G G G G J J J J P J G J P P G G J G C m m C G P R R R R R R R R C P ] | ;.;.;.;.o.%.;.1.>.;.%.o.) ) ) R ! R ] ;.;.;.;.;.&.&.;.;.&.&.&.&.R R ) R ; + $ @ = d G R ] ] o.>.o.| ) ! P P R R R R P P P R R R R R ! ! R ! ) ) ) P P ) R R R R o.;.;.%.;.;.;.;.;.;.;.;.;.;.;.;.;.;.;.;.] ] ) R P R ) ) ) ! ) ) | | | | ] R C v v z h g y y y y u s s s s d g h h h h h h h h h h h g g h h h h h h h h h h h h h h h h h h h g h h h h g g g g g g g g g g g g d d d d u u u u u u u u u u u u u u u u u y y y y y y y y y y y u u u u u u u u u u u u u u s u u u u u d s s s s s d s s s s s z z z x x x x x x x x x v v v v m m m m m m m m m m C C C G C m P P P P P P P P R ! R R R R R R C C C C C C C C v v v v v v v v v v v v v v x x G R | ] ! | >.! 0 < 3 2 * * 2 2 2 8 h g h h h h h h h h h h h h h h h h h h h h h h h h h h h h h h h h h h h h h g g h g g g g h h h h h h h h h h h h h h h h h h h h h h h h z h g d d u u s u u u u u u u u u s s 4 2 ; @ % $ $ & , 2 2 2 2 5 u s s s s s s s s s s s s s s h h h h g g g g s s s s u u u u u u u u u u u u u u u u u u u u u u u u u y u s u u u u u u u u u u u u u u u u u u u u u u u u u u u u u u u u s y < 2 * # $ # ",
"% @ # @ = < s ] ] R m z s s s s y s u y y y u u u u s s u u u u s s s s s s u s s s y y y u u s s u y y s s s s s s s s u s g h g g g g g h x m G J P P R R ! ! ! %.>.>.;.;.;.;.&.&.;.;.&.&.&.&.G ) ! e = * $ o m q.4.4.%.>.>.%.;.) P ) ) ! P P ! ! ) ) ) ! ) ! ! R R R ! ! R R ) R R R R R R R &.>.>.%.;.;.;.;.;.;.;.;.;.;.;.;.;.;.;.;.] ) ! R P G G G m v z g h h h h g g h h g g g g d s u u u i i u u s g h h h h h l h h h g g g g h h h h h h h h h h h h h h h h h g g g g g g g g g g g h h g h h h h h s s s s s s s s r y u s s s s s u u s s s s s s u u u u g g g g z z z h g g g g s s s s s s s s s s s s s u s s s s s s s u u u h h h h h h h h h h h h h g g g g g g g g g g g g g d d g g g d d g g d d s s s d g d d d d d d d d g g g d d d d d d s s s s s s s s s y y r r y d z z z h e 2 < 4 4 5 ; & < 2 2 8 h g h h h h h h h h h h h h h h h h h h h h h h h h h h h h h h h h h h h h h h h h g g g g h h h h h h h h h h h h h h h h h h h h h h h h h g s u s u u s u u u u u u u u u s u 3 2 ; @ % $ $ & , 2 2 2 2 < 5 u s s s s s s s s s s s s s h h h h s s s s s s s s u u u u u u u u u u u u u u u u u u u u u u u u d u u s u u u u u u u u u u u u u u u u u u u u u u u u u u u u u u u u s y < 2 * # # # ",
"% @ # @ ; < : y ) P s y u u u u u u u u u u s s u u u u s s s s s s s s s s s s u u u u u u u u u u u u y s f g h h h h h h h h s s u u u u u u u u u u s d h z C C G G G J Y ! o.&.>.4.;.>.%.] o.C 9 , , $ % & | | >.o.%.%.%.%.;.%.| ) ) ) ) ) ) ) ) ) ! P P ) ! ! ! R R R R R R R ! ! R P ) o.;.;.;.;.;.;.;.;.;.&.;.;.&.&.&.&.| ] ) R v g d g s u u u u u u s s g h h h h h h g g g g h s y u i u u u u s g h h h h h h h h h h h h h h h h h h h h h h h h h h h h h h h h h h h h h h h h h h h h h d d s u u u u u s s u u u u u u u u u u u u u u u u y y u s d g g g h h h h h h h h h h h h h h d s u u s s s s s s s s u u u u u u u u h h g g h h h h h h h h h h h h h h h h h h h h h h h h g g g g g g g g g g g g g h h h h h h h h h h h h h h h h h g d s s d d d d d d d s s s u u u y d y 0 3 2 2 2 2 2 & < 2 2 8 h g h h h h h h h h h h h h h h h h h h h h h h h h h h h h h h h h h h h h h h h h h h h h h h h h h h h h h h h h h h h h g g h g g g d d s u u u u u u u u u u u u u u u u s u 3 2 ; @ $ $ $ @ , < < < < < < 5 y d r r u u u u u s s s s h h g d u u u u u u u u u u u u u u u u u u u u u u u u u u u u u u u u s s s s u u u u u u u u u u u u u u u u u u u u u u u u u u u u u u u u s r < 2 * $ $ $ ",
"% @ # @ * 3 , , 5 s u s u u u u u u u u u u u u y y u u u u s s s s s s s s s s u u u u u u u u u u u u y s f g h h h h h h h g d s s u u u u u u u u u r y s d g g d s y y u u g h v C C m v z y 2 , 2 < $ $ % ) 4.&.>.&.&.&.&.%.%.%.o.o.o.o.o.o.o.o.o.] ! R ) R R R R R ! ) ) ) ) ) ) ) ! ] %.%.&.>.1.%.%.%.%.] ) P G v v v v h g g g g s u y u u u u u u u u u s d g h h h h g g g g h d u u u u u u u s g h h h h h h h h h h h h h h h h h h h h h h h h h h h h h h h h h h h h h h h h h h h h h s s u u u u u u s s u u u u u u u u u u u u u u u u u s d g g h g g h h h h h h h h h h h h h h g d d s s s s s s s s s u u u u u u u u g h h h h h h h h h h h h h h h h h h h h h h h h h h h h h h h h h h h h h h h h h h h h h h h h h h h h h h h g d s u u u s s s s s s s u u u u u u u u d g 3 2 2 2 2 2 & 2 3 2 8 h g h h h h h h h h h h h h h h h h h h h h h h h h h h h h h h h h h h h h h h h h h h h h h h h h h h h h h h h h h h h h g d d s s s s s u u u u u u u u u u u u u u u u u u u 3 2 = @ $ $ $ @ , < < < < 2 2 < 3 w d y s u u u u s s s s z h g s u u u u u u u u u u u u u u u u u u u u u u u u u u u u u u u u s s s s u u u u u u u u u u u u u u u u u u u u u u u u u u u u u u u u s y < 2 * $ $ $ ",
"% @ # @ : , , 2 ; q u y u u s s s s s s s s s s u u u u s s s s s s s s s s s s u u u u u u u u u u u u y s g g h h h h h h h g g d s s u u u u u u u u y y u s g d s s s s u u u y y y s u y u u 3 < 2 2 % $ @ P q.;.4.>.>.>.>.4.4.4.1.1.1.1.1.4.4.4.4.o.) R ) R R R R G G G G m m m m m m G ! P G C m h h h h z g d s g g g g g g g g h g d u u u u u u u u u u u u s h h h h g g g g h h d u u u u u u s g h h h h h h h h h h h h h h h h h h h h h h h h h h h h h h h h h h h h h h h h h h h h h d d s u u u u u s s u u u u u u u u u u u u u u y u d g g h h h h g h h h h h h h h h h h h h h g g g d s s s s s s s s u u u u u u u u d g h h h h h h h h h h h h h h h h h h h h h h h h h h h h h h h h h h h h h h h h h h h h h h h h h h h h h h g s u y u u u u s s s s s s s s s s s s g d z e 2 2 2 2 2 * 2 3 2 8 h g h h h h h h h h h h h h h h h h h h h h h h h h h h h h h h h h h h h h h h h h h h h h h h h h h h h h h h h h g g g g s u u s u u u u u u u u u u u u u u u u u u u u u u u 3 2 = # $ $ $ @ : < < < < 2 2 , : < 8 d d u u u u s s s s z h d u u u u u u u u u u u u u u u u u u u u u u u u u u u u u u u u u s s s s u u u u u u u u u u u u u u u u u u u u u u u u u u u u u u u u s r < 1 * $ $ $ ",
"% @ # @ < , < 3 < y s u u s s s s s s d d g g g d d d d s s s s s s s s s s s s u u u u u u u u u u u u y s g g h h h h h h h h g g d s u u u u u u u u u u u y u u s d s u y t y y u u s y y s s u 5 , 3 % # @ e m v x v v v v m x h g g g d d u u u u r 0 7 8 0 0 0 q q w w w r r r r y y s h g g h h g g g g g g h h h h h g g g h z h z g u u u u u u u u u u u u u h h h h g g g g h z g u u u u u u s g h h h h h h h h h h h h h h h h h h h h h h h h h h h h h h h h h h h h h h h h h h h h h h h g d u u u u s s u u u u u u u u u u u u u u y s g h h h h h h g h h h h h h h h h h h h h h g g g g s s s s s s s s u u u u u u u u s g h z h h h h h h h h h h h h h h h h h h h h h h h h h h h h h h h h h h h h h h h h h h h h h h h h h h h h z g s u u u u u g g g g h h h h g g g g g h h u 2 2 2 2 2 * 2 2 2 8 h g h h h h h h h h h h h h h h h h h h h h h h h h h h h h h h h h h h h h h h h h h h h h h h h h h h h h g h h h u u u u y y u s s s s s u u u u u u u u u u u u u u u u u u u 3 1 = # $ $ $ @ : < < < < < , , < , , 4 r u u u u s s u s z g s u u u u u u u u u u u u u u u u u u u u u u u u u u u u u u u u u s s s s u u u u u u u u u u u u u u u u u u u u u u u u u u u u u u u u s y < < * $ $ $ ",
"% @ # @ , < 2 < < y d s d u g s h h h h h h h h h h h h g d s s h h h h d s s s s u u u u u u u u u s s g g g g h h h h h h h h h h h h g d u u u u u u u u u u u s s u u u u u u u u u u u u u s d q < 2 ; $ @ = < < 2 , < , = ; , < 2 2 2 2 2 9 9 9 9 u y y r y y u u u u u u u u u u u u d z g g g g g g g g g g g g h h h h h h h h g g g g u u u u u u u u u u u u d h h h h h h h h g g g s s s s u d g h h h h h h h h h h h h h h h h h h h h h h h h h h h h h h h h h h h h h h h h h h h h h h h h h g g g g g g g g s u u u u u u u y u u s g g g g h h h h h h h h h h h h h h h h h h h h h h h h y y y y u u s s s s s s s s s s s d g l h h h h h h h h h h h h h h h h h h h h h h h h h h h h z z h h h h h h h h h h h h h h h h h h h h h h h h h g g h h h h h h h h h h h h h h h h h h h 5 2 2 2 3 * 2 2 2 8 h g h h h h h h h h h h h h h h h h h h h h z h g g h h h h h h h h h h h h h h h h h h h h h h h h h h h h g g g s u u u u u u u u s s s s s s a a s s s s s s s s s s s s u s u 3 2 = $ $ $ $ @ ; < < < < 2 , < 2 3 2 , , 8 u s u u u u s u s s u u u y y g s u y u s s s u u u u u u u u u u u u u u u u u u u u u u u u u u u u u u u u u u u u u u u u u u u u u u u u u u u u u u u u u e 2 < & # # # ",
"% @ # @ , < < < 2 u d s h g h g g h h h h h h h h h h h h g g g g h h h h g d s s s u u u u u u s s d g g g g g h h h h h h h h h h h h h g g d s d d s s s u u u u s u u u u u u u u u u u u u s s y 4 2 ; $ $ = 2 2 2 2 < 5 r y u s g h h h h z z z z z h g g u u u s u u u u u u u u s u s h g g g g g g g g g g g g h h h h h h h h g g g g s u u u u u u u u u u u s g h h h h h h g g g g u u u u s g g h h h h h h h h h h h h h h h h h h h h h h h h h h h h h h h h h h h h h h h h h h h h h h h h h g g g g g g g g g d s u u u u u u u s d g g g g h h h h h h h h h h h h h h h h h h h h h h g g g g d d s s u u s s s s s s s s s s d g h h h h h h h h h h h h h h h h h h h h h h h h h h h h h g g d s s s s d g h h h h h h h h h h h h h h h h h h h h h h h h h h h h h h h h h h h h h h 5 2 3 2 3 * 2 2 2 8 h g h h h h h h h h h h h h h h h h g g g g d d d s h h h h h h h h h h h h h h h h h h h h h h h h h h h h g g d u u u u u u u u u s s s s s s s s s s s s s s s s s s s s u s u 3 2 = $ $ $ $ @ ; < < < < 2 < < 3 2 2 2 3 , 5 e u g d s u u s s s u u u s h g d d s s u s s s u u u u u u u u u u u u u u u u u u u u u u u u u u u u u u u u u u u u u u u u u u u u u u u u u u u u u u u e 2 , & # # # ",
"% @ # @ , < 2 < 3 s g d z z d d h h h h h h h h h h h h h h h g h h h h h h h g d s s u u u u u d g h h h g g g h h h h h h h h h h h h h h h g g g g g g d s s s s s u u u u u u u u u u u u u s s g 7 2 ; $ $ * 3 2 < , 8 u s s d g h h h h g g g g g g g d s s s s s s u u u u u u u s u u d g g g g g g g g g g g g h h h h h h h h g g g g g u u u u u u u u u u u u d h h h h h h g g g g s s s s d h h h h h h h h h h h h h h h h h h h h h h h h h h h h h h h h h h h h h h h h h h h h h h h h h h h g g g g g g g g h g d u u u u u u s d g g g g g h h h h h h h h h h h h h h h h h h h h h h h h h h h h g d s s s s s s s s s s s s s d h h h h h h h h g g g g h h h h h h h h h h h h h h h g g d s u u u u u s s g g g h h h h h h h h h h h h h h h h h h h h h h h h h h h h h h h h h h h 5 2 2 2 4 * 2 2 2 8 h g h h h h h h h h h h h h h h h h g g d s u s s s h h h h h h h h h h h h h h h h h h h h h h h h h h h h g g s y u u u u u u u u s s s s s s s s s s s s s s s s s s s s u s u 3 2 = # $ $ $ @ ; < < < < 2 4 4 3 , , < < 3 < 3 8 u s s s s s s s y u d g h h h h g d s s s s s s u u u u u u u u u u u u u u u u u u u u u u u u u u u u u u u u u u u u u u u u u u u u u u u u u u u u u e 2 , * $ $ $ ",
"% @ # @ : < 2 2 3 d h g g h y y h h h h h h h h h h h h h h h h h h h h h h h h g d s u u u u u g h z z g g g g h h h h h h h h h h h h h h h h h h h h h g g s s s s u u u u u u u u u u u u u s y h 0 2 ; $ $ % 4 3 , 4 r d y y u d g h h h h h h z z z h g g s s s s s u u u u u u u s y y s g g g g g g g g g g g g h h h h h h h h g g g g g s u u u u u u u u u u u s g h h h h h g g g g g g g g g h h h h h h h h h h h h h h h h h h h h h h h h h h h h h h h h h h h h h h h h h h h h h h h h h h h g g g g g g g g z h d u u u u u s d g g g g g g h h h h h h h h h h h h h h h h h h h h h h h h h h h h h g g d s s s s s s s s s s s s h h h h h h h g g g g g g g h h h h h h h h h h h h h h s s u y u u u u u u s s d g g h h h h h h h h h h h h h h h h h h h h h h h h h h h h h h h h h 5 2 2 2 4 * 2 2 2 8 h g h h h h h h h h h h h h h h h h g d s u u s s d h h h h h h h h h h h h h h h h h h h h h h h h h h h h g d u y u u u u u u u u s s s s s s s s s s s s s s s s s s s s u s u 3 2 = # $ $ $ @ ; < < < < 7 s s r w 8 4 3 2 2 < 2 4 e s d s s s s y s g h g h h h z h g d d s s s u u u u u u u u u u u u u u u u u u u u u u u u u u u u u u u u u u u u u u u u u u u u u u u u u u u u u w 2 < * $ $ $ ",
"% @ # @ : 3 2 2 3 u h g z w 7 h h h h h h h h h h h h h h h h h h h h h h h h g z g s u u u u u u s g h g g g h g g g g h h h h h h h h h h g g h h h h g g s u u u u u u u u u u u u u u u u u r u g 0 2 : $ $ * 3 2 7 g d u s s u s h h h h h h h h h h h h h z g u y u s u u u u u u u u u u s s g g g g g g h h h h h h h h h h h h h h h h h d u y u u u u u u u u u d h z h h h h h h h h h h h h h h h h h h h h h h h h h h h h h h h h h h h h h h h h h h h h h h h h h h h h h h h h h h h h h h h h h h h h h h h h g h d u s s s s h h h h h h h h h h h h h h h h h h h h h h h h h h h h h h h h h h h h h h h h g d u y u s s s s u y y h h h h h h h h h h h h h h h h h h h h h h h h h h g s s s s s u u u u u u u u y s g z h h g g h h h h h h h h h h h h h h h h h h h h h h h h h h h h 5 2 2 2 3 * 2 2 2 8 h g h h h h h h h h h h h h g h h d u u u u s d g g g g g g h h h h h h h h h h h h h h h h h h h h h h h h h g s u u u u u u u u u u u u u u u u u u u u u u u u u u u u u u s u 2 2 = # $ $ $ @ ; 2 2 2 1 8 d u y s s u r 0 7 2 , , , 7 y s u s s d d d h g g h h h h g g h g s u u u u u u u u u u u u u u u u u s s u y s u u u u u u u u u u u u u u u u u u u u u u u u u u u y y y y s w < 2 * $ $ $ ",
"% @ # @ : 3 2 2 2 0 z z y < r h h h h h h h h h h h h h h h h h h h h h h h g g h d s s u u u u u u u s g g h h h h h h h h h h h h h h h h g g h h h h g d s u u u u u u u u u u u u u u u u u y s h 0 2 ; $ $ = 3 3 q z g u s u s d h h h h h h h h h h h h h h g g s u u s u u u u u u u u u u u s s g g h h h h h h h h h h h h h h h h h h h g s y u u u u u u u s s d h h h h h h h h h h h h h h h h h h h h h h h h h h h h h h h h h h h h h h h h h h h h h h h h h h h h h h h h h h h h h h h h h h h h h h h h h h g g g s s d g g h h h h h h h h h h h h h h h h h h h h h h h h h h h h h h h h h h h h h h h h h g d s u u s s s u u u h h h h h h h h h h h h h h h h h h h h h h h h h h g s s s s s u u u u u u u u s s s s g h z h h h h h h h h h h h h h h h h h h h h h h h h h h h h h 5 2 2 2 3 * 2 2 2 8 h g h h h h h h h h h h h h g h h d y u s d g g h h g g g g h h h h h h h h h h h h h h h h h h h h h h h h h g s u u u u u u u u u u u u u u u u u u u u u u u u u u u u u u s u 2 2 = # $ $ $ # ; 2 2 2 2 8 d u y r y s s d s y e 8 4 : 5 q u s r d g h h g h h g d s s s g d s u u u u u u u u u u u u u u u u u s s u u s s d g g g g g s u u u u u u u u u u u u u u u u u s s s s s s d w < < * $ $ $ ",
"% @ # @ : 3 2 2 2 2 0 0 2 5 d g h h h h h h h h h h h h h h h h h h h h h h g d d s u u u u u u u u u u g h h g g g g g g g h h h h h h h h h g h h h h d s u u u u u u u u u u u u u u u u u u s d h 9 2 ; # # = 2 4 s h g d s u d g h h h h h h h h h h h h h g g g g s u u s u u u u u u u u u u u u s d g g g g g g g g h g h h h h h h h h h g s y u u u u u u u s d h h g h h h h h h h h h h h h h h h h h h h h h h h h h h h h h h h h h h h h h h h h h h h h h h h h h h h h h h h h h h h h h h h h h h h h h h h h g h h d g g h h h h h h h h h h h h h h h h h h h h h h h h h h h h h h h h h h h h h h h h h h h g g d s u u s s s s s h h h h h h h h h h h h h h h h h h h h h h h h h h g s s s s s u u u u u u u u s s u y s g h h h h h h h h h h h h h h h h h h h h h h h h h h h h h h 5 2 2 2 3 * 2 2 2 8 h g h h h h h h h h h h h h g h h d s s g g z h h h g g g g h h h h h h h h h h h h h h h h h h h h h h h h h g s u u u u u u u u u u u u u u u u u u u u u u u u u u u u u s s y 2 < = @ $ $ $ $ = 2 2 2 2 8 d u u u u u y s g z x z s y 5 2 4 q g h h g g h h g g u u u u s s u u u u u u u u u u u u u u u u u u u u s s f g h h h h h h g s u u u u u u u u u u u u u u u s d d g g g g g e < , * $ $ $ ",
"% @ # @ ; 3 2 3 2 3 , 2 2 0 h h h h h h h h h h h h h h h h h h h h h h h g g s u u u u u u u u u u u u h g h h s s s s g h h h h h h h h h g g h h h h s s u u u u u u u u u u u u u u u u u u g g h 9 2 ; # # % 2 0 h g h h s u g h g h h h h h h h h h h h h g g g g g s u u u u u u u u u u u u u u y y u u y u s s d g g h h h h h h h h h h g d u u u u u u u s g g h g g h h h h h h h h h h h h h h h h h h h h h h h h h h h h h h h h h h h h h h h h h h h h h h h h h h h h h h h h h h h h h h h h h h h h h h h h g g h g z h h g h h h h h h h h h h h h h h h h h h h h h h h h h h h h h h h h h h h h h h h h h g g g d s u u u s d d h h h h h h h h h h h h h h h h h h h h h h h h h h g s s s s s u u u u u u u u s u u u s s s g h h h h h h h h h h h h h h h h h h h h h h h h h h h h 5 2 2 2 3 * 2 2 2 8 h g h h h h h h h h h h h h g h h d h h h h z h g g g g g g h h h h h h h h h h h h h h h h h h h h h h h h h g s u u u u u u u u u u u u u u u u u u u u u u u u u u u u u s s y 2 < = @ $ $ $ $ = 2 2 2 < 8 s u y y u s d h h h h h z h u r 0 5 4 d g h g h g g d s s s u u u u u u u u u u u u u u u u u u u u u y u s s z j h g g g g g h g s u u u u u u u u u u u u u u s d g h h h h h r < , * $ $ $ ",
"% @ # @ ; 3 2 3 2 2 2 2 < s z g h h h h g g g g h h h h h h h h h g d s s s s s u u u u u u u u s u s g h g d s s s s s g h h h h h h h g z z g h g s s u u u u u u u u u u u u u u u u s u y s z z z 9 2 : @ @ * 2 0 x h h h h h h h g h h h h h h h h h h h h g g g g h g d s s u u u u u u u u u u u u u u u u u u u u s d d g g h h z h h g d d s u d d d d g g h h h h h h h h h h h h h h h h h h h h h h h h h h h h h h h h h h h h h h h h h h h h h h h h h h h h h h h h h h h h h h h h h h h h h h h h h h h h h h g g h g h h h h h h h h h h h h g d s u s s s s s s s s g g g g h h h h h h h h h h h h h h h h h h h h g g d s d g g g h h h h h h h h h h h h h h h h h h h h h h h h h h g d y y u s u u u u u u u u u u u u u y s g h h h h h h h h h h h h h h h h h h h h h h h h h h h h 5 2 2 2 3 * 2 2 2 0 z x h h h g g g g g g g h h h h h h h h h h h h h h h h h h h h h h h h h h h h h h h h h h h h h h h h h h l g s y u u u u u u u u u u u u u u u u u u u u u u u u u u u u s s y 2 < = @ $ $ $ $ = 2 2 < < q s u u g g g h g g g g g h d y u d d y r y s d g g g g s u u u u u u u u u u u u u u u u u u u u u u u u u s g g g g g g g g g h g d s u u u u u u u u u u u u u s g z d g h g z q < < % $ $ $ ",
"% @ # @ = 3 2 4 2 2 2 2 8 h z h g g g g g g g g h h h h h h h h d s u u u u u u u u u u u u u u s u s g h g g s u u u u g h h h h h h h h h g s s s u y u u u u u u u u u u u u u u u u s u u s h h z 8 3 : @ @ * 3 8 z h h h h h h h h h h h h h h h h h h h h g g g g h h g d s s u u u u u u u u u u u u u u u u u u u u u s s s d d g d d s s s u u h h h h h h h h h h h h h h h h h h h h h h h h h h h h h h h h h h h h h h h h h h h h h h h h h h h h h h h h h h h h h h h h h h h h h h h h h h h h h h h h h h h h h g g g h h h h h h h h h h h h g u y s u u u u u u u u s s s s d d d d h h h h h h h h h h h h h h h h h g g g g g h h h h h h h h h h h h h h h h h h h h h h h h h h h h g g u u s s u u u u u u u u u u u u u u s g h h h h h h h h h h h h h h h h h h h h h h h h h h h h 5 2 2 2 3 * 2 2 < 0 h h h h h h g g g g g g h h h h h h h h h h h h h h h h h h h h h h h h h h h h h h h h h h h h h h h h h h g d s y u u u u u u u u u u u u u u u u u u u u u u u u u u u u s s y 2 < = @ $ $ $ $ = 2 2 < < q s u u g g g h h h h h h g d y s y u h h h h h g g g g d s s u u u u u u u u u u u u u u u u u u u u u u u s g g g g g g g g g g g g s u u u u u u u u u u u u s u u d g h h g g 0 < < % $ $ $ ",
"% @ # @ = 2 2 3 2 2 2 2 y z g g s s s s u u u u u u u u u u u u u u u u u u u u u u u u u u u u s u s g h h g d s s s s g h h h h h h h g s u u u u u u u u u u u u u u u u u u u u u u s u s g h h h 8 3 : @ @ * 4 4 g h h h h h h h h h h h h h h h h h h h h g g g g h h h g d s s u u u u u u u u u u u u u u u u u u u u u u u s s s u s u u u u u h h j j h h g g g g g g h h h h h h h h h h h h h h h h h h h h h h h h h h h h h h h h h h h h h h h h h h h h h h h h h h h h h h h h h h h h h h h h h h h h h h h h h g g h h h h h h h h h h h h h d y y s u u u u u u u u u u u u s s s s d g g g h h h h h h h h h h h h h h h g h h h h h h h h h h h h h h h h h h h h h h h h h h h h h h h g g s s s u u u u u u u u u u u u u s g h h h h h h h h h h h h h h h h h h h h h h h h h h h h h 5 2 2 2 3 * 2 2 < 8 d d d d d d g g g g g h h h h h h h h h h h h h h h h h h h h h h h h h h h h h h h h h h h h h h h h h h h g s u y u u u u u u u u u u u u u u u u u u u u u u u u u u u u s s y 2 < * # $ $ $ $ = 3 2 < < q s s u g f g h h h h h z d s u y u s s h h h h g g h g g g d s s u u u u u u u u u u u u u u u u u u u u u s g g g g g g g g g g h g d u u u u u u u u u u u u s u y u d g d u s 8 < < $ $ $ $ ",
"% @ # @ = 2 2 3 2 2 2 2 u g y s u u u u u u y y u u u u u u u u u u u u u u u u u u u u u u u u s u s g g g g g d d d d g h h h h h h h s y y s s s s s u u u u u u u u u u u u u u u u s u d h h h h 7 3 , # # * 4 2 g h h h h h h h h h h h h h h h h h h h h g g g g h h h h g d s s u u u u u u u u u u u u u u u u u u u u u u s s s u u u u u u u g g g g g g g g g g g g h h h h h h h h h h h h h h h h h h h h h h h h h h h h h h h h h h h h h h h h h h h h h h h h h h h h h h h h h h h h h h h h h h h h h h h h h h g g h h h h h h h h h h h h u u u u u u u u u u u u u i i i u u u u u d g g h h h h h h h h h h h h h h h h h h h h h h h h h h h h h h h h h h h h h h h h h h h h h h h g h d s u u u u u u u u u u u u u u d g h h h h h h h h h h h h h h h h h h h h h h h h h h h h g 5 2 2 2 3 * 2 2 , 7 s u u u u u s s g g h h h h h h h h h h h h h h h h h h h h h h h h h h h h h h h h h h h h h h h h h h h h d s u y u u u u u u u u u u u u u u u u u u u u u u u u u u u u u u y 2 < * # # $ # # = 3 2 < < q s u u d f g h h h h h z d s s s s u y s d g z g g g g h h g g d s s u u u u u u u u u u u u u u u u u u u s g g g g g g g g g g g g g u u u u u u u u u u u u s u u d g g d u u 7 < < $ $ $ $ ",
"% @ # @ * 2 2 3 1 2 , e u u u u u u u u u u u u u u u u u u u u u u u u u u u u u u u u u u u u u u d g g g g h h h h h h h g g h g g s u u u u s s s s u u u u u u u u s s s s s s s s u s g h z g h 5 3 , # # * 4 3 y h h h h h h h h h h h h h h h h h h h g h h h h h h h h h g g d s u u u u u u u u u u u u u s s s s s s s u u u s s s u u u s g g g g g g g g g g g g g h h h h h h h h h h h h h h h h h h h h h h h h h h h h h h h h h h h h h h h h h h h h h h h h h h h h h h h h h h h h h h h h h h h h h h h h h h h h h h h h h h h h h h h h s u u u u u u u u u u u u u u u u u u u u s u d h h h h h h h h h h h h h h h h h h h h h h h h h h h h h h h h h h h h h h h h h h h h h h h h h h g s s s u y u u u u y u s d d g h h h h h h h h h h h h h h h h h h h h h h h h h h h h g g 4 2 3 3 3 * 2 2 : 7 s s u u u u y y u s d h h d h h h h h h h h h h h h h h h h h h h h h h h h h h h h h h h h h h h h h h g s s u u u u u u u u u u u u u u u u u u u u u u u u u u u u u u u u u y 2 < * # @ % # @ & < < < < r s u u d g g h h h h h g s s s u u u u u u u u g g g d g h h g g g g g d s u u s s d g g g u u u u u u s u s g g g g g g g g g g g g g d s s u u u u u u u u u s d g g h h h h g 0 < < $ $ $ $ ",
"% @ # @ * 2 2 2 1 < 3 u u u u u u u u u u u u u u u u u u u u u u u u u u u u u u u u u u u u u u s d g g g g g h h h h h h g g d s s u u u u u s s s s u u u u u u u u u u u u u u u u s d g g z g g 5 3 , # # * 3 2 e h h h h h h h h h h h h g g g g g g g h h h h h h h h h h h h g d s u u u u u u u u u u u u s s g g g g g d d d s u u u u s g g g g g g g g g g g g g g h h h h h h h h h h h h h h h h h h h h h h h h h h h h h h h h h h h h h h h h h h h h h h h h h h h h h h h h h h h h h h h h h h h h h h h h h h h h h h h h h h h h h h h h s u u u u u u u u u u u u u u u u u u u u s u d h h h h h h h h h h h h h h h h h h h h h h h h h h h h h h h h h h h h h h h h h h h h h h h h h h h g g g g d s s s s s d g g g h h h h h h h h h h h h h h h h h h h h h h h h h h h h h g g 4 2 3 3 3 * < 2 < 7 u y y y y y y u u s s g h h h h h h h h h h h h h h h h h h h h h h h h h h h h h h h h h h h h h h g g s u u u u u u u u u u u u u u u u u u u u u u u u u u u u u u u u u u u y < < & # @ % @ @ & < < < < r s u u s d g g h h h h d s s s u u u u u u u u y s g h g g h h h h h h h g d s d g g g g g u u u u u u u s d h g g g g g g g g g g g g h g d d d d d d d d d d g g h h h h h h g 0 < < $ $ $ $ ",
"% @ # @ * < < 2 2 , 9 d u u u u u u u u u u u u u u u u u u u u u u u u u u u u u u u u u u u u u d g g g g g g l l z z h g d d u u u u u u u u s s s s u u u u u u u u y u s d d d d d g g g g z g g 5 3 , # # = 3 , 0 h h h h h h h h h h h h s s s s s d g h h h h h h h h h h h h h g d s u u u u u u u u u u u s s h h h h h g g g z h g g s g g g g g g g g g g g g g g g h h h h h h h h h h h h h h h h h h h h h h h h h h h h h h h h h h h h h h h h h h h h h h h h h h h h h h h h h h h h h h h h h h h h h h h h h h h h h h h h h h h h h h h h s u u u u u u u u u u u u u u u u u u u u s u d h h h h h h h h h h h h h h h h h h h h h h h h h h h h h h h h h h h h h h h h h h h h h h h h h h h h z z h h l l l l h g g g h h h h h h h h h h h h h h h h h h h h h h h h h h h h z h g g 4 2 2 3 3 & < 2 < 7 u y s s s s d s s s s g h h h h h h h h h h h h h h h h h h h h h h h h h h h h h h h h h h h h h h h d s y u u u u u u u u u u u u u u u u u u u u u u u u u u u u u u u u u u y < < % $ @ % # @ & < < < < r s u s u s g g h h h h s s s s u u u u u u u u y u s d g g g h h h h h h h h g g g h h g g u u u u u u u d h h g g g g g g g g g g g g h g g h h h h h h h h h h h h h h h h h g 0 2 < $ $ $ $ ",
"% @ # @ & < < 2 2 2 y s u u u u u u u u u u u u u u u u u u u u u u u u u u u u u u u u u u u u s d g g g g g g d d d d d s s u u s s d u u u u s s s s u u u u u u u u s s g h h h h h h g g g h g g 5 3 : @ @ = 2 : 8 g h h h h h h h h h h h u u u u u s g h h h h h h h h h h h h h h g d s u u u u u u u u u u s s g g g g g g g g h h h g g g g g g g g g g g g g g g g g h h h h h h h h h h h h h h h h h h h h h h h h h h h h h h h h h h h h h h h h h h h h h h h h h h h h h h h h h h h h h h h h h h h h h h h h h h h h h h h h h h h h h h h h s u u u u u u u u u u u u u u u u u u u u s u d h h h h h h h h h h h h h h h h h h h h h h h h h h h h h h h h h h h h h h h h h h h h h h h h h h h h z h h g h h h h h h h h h h h h h h h h h h h h h h h h h h h h h h h h h h h h z h g g 4 2 2 3 3 % < 2 : 7 s s h h h h h h g d d h h d h h h h h h h h h h h h h h h h h h h h h h h h h h h h h h h h h h h h h g s s u u u u u u u u u u u u u u u u u u u u u u u u u u u u u u u u u u r < < % $ @ % # @ & < < < < r s u s u s d g g h h g s s s u u u u u u u u s s s u y d g g g g g g g h h h h h h h h g g u u u u u u s g h g g g g g g g g g g g g g g g g h h h h h h h h h h h h h h h h h g 9 2 < $ $ $ $ ",
"% @ # @ & < < 2 < 2 y y u u u u u u u u u u u u u u u u u u u u y y u u u u u u u u u u s s d g g g g g g h g s s s s s u u u u u u u s u u u u u u u u u u u u u u u u u d h g g g g g g g g g h h h 4 3 , # # = 2 3 4 g h h h h h h h g g d y u u u u s d g h h h h h h h h h h h h h h h g d s u u u u u u u u u s d g g g h g g g g h h h h g g g g g g g g g g g g g g g g h h h h h h h h h h h h h h h h h h h h h h h h h h h h h h h h h h h h h h h h h h h h h h h h h h h h h h h h h h h h h h h h h h h h h h h h h h h h h h h h h h h h h h h h d s u u u u u u u u u s u u u u u u u u u u s s h h h h h h h h h h h h h h h h g g g g h h h h h h h h h h h h h h h h h h h h h h h h h h h h h h h h h h h h h h h h h h h h h h h h h g g h h h h h h g s s s s s s s s d g g h h h h h z y < 1 2 < < % < 2 , q z g h h h h g g g g h h h h h h h h h h h h h h h h h h h h h h h h h h h h h h h h h h h h h h h h h h h h s s s s s s s s s s s s y y u u u u u u u u u u u u u u u u u u u s r 1 , % $ # $ $ # % < < < < r s u s u s s g g h h g s s s u u u u u u u u u u u u u u d g g g g g h h h h h h h h h h d s s u u u u g g g g g g g g g g g g g g g g g g g g h h h h h h h h h h h h h h h h h 8 2 , $ $ $ $ ",
"% @ # @ % < < 2 , 2 y y u u u u u u u u u u u u u u u u u u u u u u s d u u u u u u u u d g h g g g g g g h g s s s s s y y y y u y u u u u u u y y y y u u u u u u u u u s g g g g g g g g g g h h h 4 3 : # # ; 2 2 3 g h h h h h h h h g u y u u u u s d g g h h h h h h h h h h h h g g g s s u u u u u u u u u a d g g g h g g g g h h h h g g g g g g g g g g g g g g g g h h h h h h h h h h h h h h h h h h h h h h h h h h h h h h h h h h h h h h h h h h h h h h h h h h h h h h h h h h h h h h h h h h h h h h h h h h h h h h h h h h h h h h h h g s s s u u u u u u u u u u u u u u u u u u s s h h h h h h h h h h h h h h h h h h h h h h h h h h h h h h h h h h h h h h h h h h h h h h h h h h h h h h h h h h h h h h h h h h h h h g g h h g d s s s s s u u u u u u s s s s s s s d d w < < 1 < < % < 2 , q z g h h h h g g g g h h h h h h h h h h h h h h h h h h h h h h h h h h h h h h h h h h h h h h h h h h h h g g g g g g g g g g g g s s u u u u u u u u u u u u u u u u u u u s r 2 , % $ $ $ $ $ % < < < < r s u s s s s d g h h g d s s u u u u u u u u u u u u u u u d g g g h h h h h h h h h h h d u s u u u u g g g g g g g g g g g g g g g g g g g g h h h h h h h h h h h h h h h h h 8 2 , $ $ $ $ ",
"% @ # @ % < < 2 < 2 y u u u u u u u u u u u u u u u u u u u u u s d g g g g g g g g g g g g g g g g g g g h g d s s s s s s s s u u y y u u u u u u u u u u u u u u u u u u d g g g g g g g g g h h h 4 3 : $ $ ; 2 2 3 g h h h h h h h h d u y u u u u s d h g h h h h h h h h h h h h g g s u s u u u u u u u u u a d g g h h g g g g h h h h g g g g g g g g g g g g g g g g h h h h h h h h h h h h h h h h h h h h h h h h h h h h h h h h h h h h h h h h h h h h h h h h h h h h h h h h h h h h h h h h h h h h h h h h h h h h h h h h h h h h h h h h g g d d g g g g g s y y u u u u u u u u u u s s h h h h h h h h h h h h g g g g g g g g h h h h h h h h h h h h h h h h h h h h h h h h h h h h h h h h h h h h h h h h h h h h h h h h g h h g d s u y u u u u u u u u s s u u u u u u u s s 0 2 2 1 2 < % < 2 , q z g h h h h g g g g h h h h h h h h h h h h h h h h h h h h h h h h h h h h h h h h h h h h h h h h h h h h h h h h h h h h h h h h g d s s u u u u u u u u u u u u u u u u u s r < , % $ $ $ $ $ % 2 2 2 2 r s u s s u s s g h h g d s s u u u u u u u u u u u u u u u u d g h h h h h h h h h h h g s u u u u u u g g g g g g g g g g g g g g g g g g g g h h h h h h h h h h h h h h h h h 8 2 , $ $ $ $ ",
"% @ # @ % < < 2 < 2 y u u u u u u u u u u u u u u u u u u u u u d g h h g g g g g g g g g g g g g g g g g h h g s s s s g g g g d s u u u u u u s s s s u u u u u u u u u y s g g g g g g g g g h h h 4 2 : $ $ ; 2 2 3 g h g h h h h h g s s u u u u u s g h g h h h h h h h h h h h h g d s y s u u u u u u u u u a d g g h h g g g g h h h h g g g g g g g g g g g g g g g g h h h h h h h h h h h h h h h h h h h h h h h h h h h h h h h h h h h h h h h h h h h h h h h h h h h h h h h h h h h h h h h h h h h h h h h h h h h h h h h h h h h h h h h h g h g g h h h h z g s y u u u u u u u u u u s s h h h h h h h h h h h h s s s s s s s s h h h h h h h h h h h h h h h h h h h h h h h h h h h h h h h h h h h h h h h h h h h h h h h h g h h g u u u u y y y y u u u u s s u u s s s s s d d w 2 1 1 2 < % < 2 < q z g h h h h g g g g h h h h h h h h h h h h h h h h h h h h h h h h h h h h h h h h h h h h h h h h h h h h g g g g g g g g h h h h h g d s u u u u u u u u u u u u u u u u u s r < , % $ $ $ $ $ % 2 2 2 2 y s u s s s s s g h h g d s s u u u u u u u u u u u u u u u u u h h h h h h h h h h h h g s y u u u u u g g g g g g g g g g g g g g g g g g g g h h h h h h h h h h h h h h h h h 8 3 , $ $ $ $ ",
"& # $ # @ < < 2 < 4 s u u u u u u u u u u u u u u u u u u u u u g g g g h h h h h h h h h h h h h h h h g h h h h h h h g g g g h h h h h h h h h h h h h h h h s s s s s d g h h h h h h h h h d f u 3 2 : $ $ ; 2 2 3 r d d g d d d d s s s s u u u u g g h g h h h h h h h h h h h h d s u y y y u u u u u u s u s g g h h h h h h h h h h h h g s s s d g h h h h h h h h h h h h h h h h h h h h h h h h h h h h h h h h h h h h h h h h h h h h h h h h h h h h h h h h h h h h h h h h h h h h h h h h h h h h h h h h h h h h h h h h h h h h h h h h h h h h h h h h h h h g s u u u u u u u u y y u s h h h h h h h h g g d s s s s u u u u d h h h h h h h h h h h h h h h h h h h h h h h h h h h h h h h h h h h h h h h h h h h h h h h h g g d u s s s s u u u u u u u s u u u s h h h h z h z 0 2 2 2 2 < % 2 4 < q z g h h h h h h h h h h h h h h h h h h h h h h h h h h h h h h h h h h h h h h h h h h h h h h h h h h h h g h h h z h g g g g g g g h g u u u u u u u u u u u u u u u u u u s e < , % $ $ $ $ $ % 2 2 2 < y s u s s s s s u u u u u u u u u u u u u u u u u u u u u u u u g h h h h h h h h h h h h d s s y u s s h h h h h h h h h h h h h h h h h h h h h h h h h h h h h h h h h h h h h 7 3 ; $ $ $ $ ",
"& # $ # @ < < 2 < 4 s u u u u u u u u u u u u u u u u u u u u u g g g g h h h h h h h h h h h h h h h h h h h h h h h h h g g g h h h h h h h h h h h h h h h h g g g g d g h h h h h h h h g g s d u 2 2 : $ $ ; 2 2 2 e s s s s s s s s s s s u u u u g g h g h h h h h h h h h h h h h g d s u u y y u u u u s u s h g h h g h h h h h h h h h g d s s d g h h h h h h h h h h h h h h h h h h h h h h h h h h h h h h h h h h h h h h h h h h h h h h h h h h h h h h h h h h h h h h h h h h h h h h h h h h h h h h h h h h h h h h h h h h h h h h h h h h h h h h h h h h h h g s u u u u u u u y u s d h h h h h h g g d s s s s u u u u u s g h h h h h h h h h h h h h h h h h h h h h h h h h h h h h h h h h h h h h h h h h h h h h h h h g g d u s s s s u u u u u u y y u s d g h h h h h g h 8 2 2 2 2 < % 2 4 < q z g h h h h h h h h h h h h h h h h h h h h h h h h h h h h h h h h h h h h h h h h h h h h h h h h h h h h g g h h h g g g g g g g h h g s u u u u u u u u u u u u u u u u u s e < , % $ $ $ $ $ % 2 2 2 1 y u u s s s s s u u u u u u u u u u u u u u u u u u u u u u u u g h h h h h h h h h h h h g d d s d d d h h h h h h h h h h h h h h h h h h h h h h h h h h h h h h h h h h h h g 5 3 = $ $ $ $ ",
"& # $ # # < 2 2 < 4 s u u u u u u u u u u u u u u u u u u u u u g g g g h h h h h h h h h h h h h h h h h h h g g g g g g h g g h h h h h h h h h h h h h h h h h h h h g h h h h h h h h g d s i s y 2 2 : $ $ ; 2 2 2 e u s s u u u u s s s s u u u u g g h g h h h h h h h h h h h h h h h g g s u u u u u u u y s g h h h g h h h h h h h h g g g g g g g h h h h h h h h h h h h h h h h h h h h h h h h h h h h h h h h h h h h h h h h h h h h h h h h h h h h h h h h h h h h h h h h h h h h h h h h h h h h h h h h h h h h h h h h h h h h h h h h h h h h h h h h h h h h h g s u u u u u u u s d g h h h h h g g d s s u u u u u u u u d g h h h h h h h h h h h h h h h h h h h h h h h h h h h h h h h h h h h h h h h h h h h h h h h h g g d u s s s s u u u u u u u s d g h h h h h h g d g 7 2 2 2 2 < % 2 4 < q z g h h h h h h h h h h h h h h h h h h h h h h h h h h h h h h h h h h h h h h h h h h h h h h h h h h h h f f f f h h h z g g g g h g d s u u u u u u u u u u u u u u u u u s e < , % $ $ % % $ & 2 2 2 2 u u u u u s s s u u u u u u u u u u u u u u u u u u u u u u u u g h h h h h h h h h h h h g g g g g g g h h h h h h h h h h h h h h h h h h h h h h h h h h h h h h h h h h h h d 4 2 * $ $ $ $ ",
"& # $ # # < 2 2 < 4 s u u u u u u u u u u u u u u u u u u u u u g g g g h h h h h h h h h h h h h h h h h h h h g g g g g g g g h h h h h h h h h h h h h h h h g g h h h h h h g h h h h g s u u i r < 2 ; $ $ ; 2 2 2 q u u u u u u u u u u u u u u u g g h g h h h h h h h h h h h h g g h h h g g s s u u u u u s g h h g g h h h h h h h h g g h h h h h g h h h h h h h h h h h h h h h h h h h h h h h h h h h h h h h h h h h h h h h h h h h h h h h h h h h h h h h h h h h h h h h h h h h h h h h h h h h h h h h h h h h h h h h h h h h h h h h h h h h h h h h h h h h h h g s u u u u u s d g h h h h h h g d s u u u u u u u u u s g g h h h h h h h h h h h h h h h h h h h h h h h h h h h h h h h h h h h h h h h h h h h h h h h h g g d u s s s s u u u u y s g h h h h h h h h h g d d 7 2 2 2 2 , $ 2 3 < q z g h h h h h h h h h h h h h h h h h h h h h h h h h h h h h h h h h h h h h h h h h h h h h h h h h h h h s s s s s s d g g g g g g s u u u u u u u u u u u u u u u u u u u s e < , % $ $ % % $ % 2 2 2 2 u u u u s s s s u u u u u u u u u u u u u u u u u u u u u u u u g h h h h h h h h h h h h g g h h h h h h h h h h h h h h h h h h h h h h h h h h h h h h h h h h h h h h h h h d 3 2 * $ $ $ $ ",
"& # $ @ $ : 2 2 , 7 s u u u u u u u u u u u u u u u u u u u s s g g g g g g g h h h h h h h g g g g g h g g d s y y u g g g g g h h h h h h h h h h h h g g h h l z z h h h h h g g g g d d s u u u r < 2 * $ $ : < 2 , 0 s y u u u u u u u u u u u u u s d h g h h h h h h h h h h h h h h h h h h h h g d s u s y s g g h h g h h h h h h h h h h h h h h h h h h h h h h h h h h h h g g h h g g g g g d g h h h h h h h h h h h h h h h h h h h h h h h h h h h h h h h h h h h h h h h h h h h h h h h h h h h h h h h h h h h h h h h h h h h h h h h h h h h h h h h h h h h h h h g d s y u s d h h h h h g g g d s u s u u u s s u u y s d g h h h h h h h h h h h h h h h h h h h h h h h h h h h h h h h h h h h h h h h h h h h h h h h h h h h h h g d s s s s s s g g g g h h h h h h h h g h d 3 3 2 2 < , $ < 3 < q z g h h h h h h h h h h h h h h h h h h h h h h h h h h h h h h h h h h h h h h h h h h h h h h h h h h g s u u u u u u u u s s s s s s u u u u u u u u u u u u u u u u u u u s 9 < , $ $ $ $ $ $ % < 2 < 4 u u u s s s s s u u u u u u u u u u u u u u u u u u u u u u u d g h h h h h h h h h h h h h h h h h h h h h h h h g g d g g g g h h h h h h h h h h h h h h h h h h h h h h h h u < 2 * $ $ $ $ ",
"& # $ @ $ : 2 2 , 7 s u u u u u u u u u u u u u u u u u s y u g g g g g z h h h h h h h h h h h h h h h g s s u u y y s g g g g h h h h h h h h h h h h g g g g h h h l h h h h g g g g d s u u y u r < 2 * $ $ : < 2 , 0 s u u u u u u u u u u y u s g g g h h h h h h h h h h h h h h h h h h h h h h h g f d g s s s g g h g h h h h h h h h h h h h h h h h h h h h h h h h h h h h h h h h s s s s s u s g h h h h h h h h h h h h h h h h h h h h h h h h h h h h h h h h h h h h h h h h h h h h h h h h h h h h h h h h h h h h h h h h h h h h h h h h h h h h h h h h h h h h g d s s s d g g h h h h g h z h s u s s s u u u u u s g g h h h h h h h h h h h h h h h h h h h h h h h h h h h h h h h h h h h h h h h h h h h h h h h h h h h h h h h h g g d g g g g g g g g h h h h h h h h g h s 3 3 2 2 < , $ < 2 < q z g h h h h h h h h h h h h h h h h h h h h h h h h h h h h h h h h h h h h h h h h h h h h h h h h h g s u u u u u u u u u u u u u u u u u u u u u u u u u u u u u u u u u u s 9 < , $ $ $ $ $ $ % < 2 < 4 u u u s s s s s u u u u u u u u u u u u u u u u u u u u u u d g h h h h h h h h h h h h h h h h h h h h h h h h g d s y g g g g h h h h h h h h h h h h h h h h h h h h h h h h u < 2 * $ $ $ $ ",
"& # $ # $ : 2 2 , 7 s u u u u u u u u u u u u u u u u u s u s h g g g g z h g d d d d d g g h h z h g d s u u u s u u s g g g g h h h h h h h h h h h h h g d d s d g h h h h h g g g s s s u u u u r < 2 * $ $ : < 2 , 8 s u s u u u u u u u u s s g h h h g g h h h h h h h h h h h h h h h h h h h h h g g g h g s y d g h h h h h h h h h h h h h h h h h h h h h h h h h h h h h h h g d d u u u u y y s g h h h h h h h h h h h h h h h h h h h h h h h h h h h h h h h h h h h h h h h h h h h h h h h h h h h h h h h h h h h h h h h h h h h h h h h h h h h h h h h h g g g g s s s u s d g h h h h h z h g s u s s u u u u u u s g h h h h h h h h h h h h h h h h h h h h h h h h h h h h h h h h h h h h h h h h h h h h h h h h h h h h h h h h h h h h g h h h h g g g g h h h h h h h h g h s 2 3 2 2 < , $ < 2 < q z g h h h h h h h h h h h h h h h h h h h h h h h h h h h h h h h h h h h h h h h h h h h h h h h h h d s u u u u u u u u u u u u u u u u u u u u u u u u u u u u u u u u u u s 9 < , $ $ $ $ $ $ % < 2 < 4 u u s s s s s s u u u u u u u u u u u u u u u u u u u u u d g g h h h h h h h h h h h h h h h h h h h h h h h h h h g d g g g g h h h h h h h h h h h h h h h h h h h h h h h h u < 2 * $ $ $ $ ",
"& # $ # $ : 2 2 , 7 s u u u u u u u u u u u u u u u u u u s g h g g g g h d s y y y y y s d g g h d s y u u u u y y u g g g g g h h h h h h h h h h h h h g d s y s d g h h h h g g s u s s s s u s r 2 2 * $ $ : < 2 , 7 u u d u u u u u u u u g g g g g g g g h h h h h h h h h h h h h h h h h h h h h g g g g h g s s g g h h h h h h h h h h h h h h h h h h h h h h h h h h h h h d s u y s s s s u u d h h h h h h h h h h h h h h h h h h h h h h h h h h h h h h h h h h h h h h h h h h h h h h h h h h h h h h h h h h h h h h h h h h h h h h h h h h h h h h h h h s s s s u u u u s d g h h h h h d s s u s s u u u u u u g g g h h h h h h h h h h h h h h h h h h h h h h h h h h h h h h h h h h h h h h h h h h h h h h h h h h h h h h h h h h h h h h h h h g g g g h h h h h h h h g h s 2 3 2 2 < , $ < 2 < q z g h h h h h h h h h h h h h h h h h h h h h h h h h h h h h h h h h h h h h h h h h h h h h h h h d s s u u u u u u u u u u u u u u u u u u u u u u u u u u u u u u u u u u s 9 < , $ $ $ $ $ $ % < 2 < 4 u u s s s s s s u u u u u u u u u u u u u u u u u u u u d g g g h h h h h h h h h h h h h h h h h h h h h h h h g g h z g g g g h h h h h h h h h h h h h h h h h h h h h h h h u < 3 * $ $ $ $ ",
"% @ # @ $ : < 1 , 8 s u u u u u u u u u u u u u s s s s u d g g d g g d s s s s u u u u u u u u s s s s s u u u u y s h g g g g h h h h h h h h h h h h h h d y s s s s g g g g d s u u s s s s y s r 2 2 = % $ , 2 2 < 5 s u r y y y y s s d g g g g g g g g g h h h h h h h h h h h h h h h h h h h h h h h h h h g u s s d h h h h h h h h h h h h h h h h h h h h h h h h h g g d u s s s s u u u u s s s s h h h h h h h h h h h h h h h h h h h h h h h h h h h h h h h h h h h h h h h h h h h h h h h h h h h h h h h h h h h h h h h h h h h h h h h h g h h g g d s u u u u u u u u u u u s s s s s s u u u u u u u u s s s g h h h h h h h h h h h h h h h h h h h h h h h h h h h h h h h h h h h h h h h h h h h h h h h h h h h h h h h h h h h h h h h h h h h h h h h h h h h h h h h h g h s 2 3 3 2 3 ; $ 2 3 < q z g h h h h h h h h h h h h h h h h h h h h h h h h h h h h h h h h h h h h h h h h h h h h h h h g d s s u u u u u u u u u u u u u u u u u u u u u u u u u u u u u u u u u u s 3 < , $ # # $ $ # % < 2 < 3 u u u u u u u u u u u u u u u u u u u u u u u u u u u u g g g h h h h h h h h h h h h h h h h h h h h h h h h h h h h h h h h h z h h g h h h h h h h h h h h h h h h h h h h h y < 3 & $ $ $ $ ",
"% @ # @ $ : < < , 8 s u u u u u u u u u u u u u s s s s s g h g h h g u u u u u u u u u u u u u u u u u u u u u u u d g g g g g h h h h h h h h h h h h h h d u s s s s s s s s s u u u s s s s u d r 2 2 * $ $ , 2 3 < 7 g g s s s s s d g h h g g g g g g g g h h h h h h h h h h h h h h h h h h h h h h h h h g d u s u s g h h h h h h h h h h h h h h h h h h h h h h h h g s u u s s s s u u u u y y u s h h h h h h h h h h h h h h h h h h h h h h h h h h h h h h h h h h h h h h h h h h h h h h h h h h h h h h h h h h h h h h h h h h h h h h h h g h h g d s s u u u u u u u u u u u u u u u u u u u u u u u u u s s g h h h h h h h h h h h h h h h h h h h h h h h h h h h h h h h h h h h h h h h h h h h h h h h h h h h h h h h h h h h h h h h h h h h h h h h h h h h h h h h h h g h u 2 3 3 2 3 ; $ 2 3 < q z g h h h h h h h h h h h h h h h h h h h h h h h h h h h h h h h h h h h h h h h h h h h h h h g d s s u u u u u u u u u u u u u u u u u u u u u u u u u u u u u u u u u u u u 3 < , $ # # $ $ # % < 2 < 3 u u u u u u u u u u u u u u u u u u u u u u u u u u u u g g h h h h h h h h h h h h h h h h h h h h h h h h h h h h h h h h g g d d s s s s s s h h h h h h h h h h h h h h h h q < 3 & $ $ $ $ ",
"% @ # @ $ : 2 2 , 8 s u u u u u u u u u u u u u s s s s g h h g j z g s s s s s u u u u u u u u u u u u u u u u y d g g g g g g h h h h h h h h h h h h h h g d s s s u u u u u u u u u s s s s d g r < 2 * $ # < 3 4 2 5 g h g g g g g h h h h h g g g g g g g h h h h h h h h h h h h h h h h h h h h h h h h h d s u u u s g h h h h h h h h h h h h h h h h h h h h h h h h g s u u s s s s u u u u y u s g h h h h h h h h h h h h h h h h h h h h h h h h h h h h h h h h h h h h h h h h h h h h h h h h h h h h h h h h h h h h h h h h h h h h h h h h h z h d s s u u u u u u u u u u u u u u u u u u u u u u u u u u s g h h h h h h h h h h h h h h h h h h h h h h h h h h h h h h h h h h h h h h h h h h h h h h h h h h h h h h h h h h h h h h h h h h h h h h h h h h h h h h h h h h h h u 2 3 3 3 3 ; $ 2 3 < q z g h h h h h h h h h h h h h h h h h h h h h h h h h h h h h h h h h h h h h h h h h h h h h h g s s s u u u u u u u u u u u u u u u u u u u u u u u u u u u u u u u u u u s u 3 < , $ # # $ $ # % < 2 < 3 u u u u u u u u u u u u u u u u u u u u u u u u u u u u g h h h h h h h h h h h h h h h h h h h h h h h h h h h h h h h h g g d s u u u u u u u s s s s d g h h h h h h h h h h 7 2 2 % # # # # ",
"% @ # @ $ : 2 2 , 8 s u u u u u u u u u u u u u s s s s g h h g g h h g d d d d u u u u u u u u u u u u u u u u u g h g g g g g h h h h h h h h h h h h g h h g s s s s s s s s u u u u s s s s h h r < 2 * $ @ < 3 4 2 3 s g d g g h h h h h h h g g g g g g g h h h h h h h h h h h h h h h h h h h h h h h h h s y u u u u g h h h h h h h h h h h h h h h h h h h h h h h h g g d u s s s s u u u u s s g z h h h h h h h h h h h h h h h h h h h h h h h h h h h h h h h h h h h h h h h h h h h h h h h h h h h h h h h h h h h h h h h h h h h h h h h h z z h d u u u u u u u u u u u u u u u u u u u u u u u u u u u u g h h h h h h h h h h h h h h h h h h h h h h h h h h h h h h h h h h h h h h h h h h h h h h h h h h h h h h h h h h h h h h h h h h h h h h h h h h h h h h h h h h h h h u 2 3 3 3 3 ; $ 2 3 < q z g h h h h h h h h h h h h h h h h h h h h h h h h h h h h h h h h h h h h h h h h h h h h h g d s s u u u u u u u u u u u u u u u u u u u u u u u u u u u u u u u u u u u u y 3 , , $ # # $ $ # % < 2 < 3 u u u u u u u u u u u u u u u u u u u u u u u u u u u u h h h h h h h h h h h h h h h h h h h h h h h h h h h h h h h h h g d s s s s s u u u u u u u u s s d g h h h h h h h h 4 2 2 % # # # # ",
"% @ # @ $ : 2 2 , 8 s u u u u u u u u u u u u u s u u s h h h h h h h h g g g g d s s u s s s s s s s s s s s s s g h h h h h h g g g g g g g g g g g g g g g g s u u u u u u u u u u u u s d f z z e 2 2 % $ * < < < 2 < e s s h h h h h h h h h h h h h h h h h h h h h h h h g g g h h h h h h h h h h g g d u u u u u u u s h g g h h h h h h h h h h h h h h h h h h h h h g h f u u u u u s u s d h h h h h h h h h h h h h h g g h d s s u d g g g g g g h h h h h h h h h h h h h h h h h h h h h h h h h h h h h h h h h h h h h h h h h h h h h h h h h h g d u u u s u u u u u u u u u u u u u u u u u u u u u u u u u s g h h h h h h h h h h h h h h h h h h h h h h h h h h h h h h h h h h h h h h h h h h h h h h h h h h h h h h h h h h h h h h h h h h h h h h h h h h h h h h h h h h h y 2 3 3 3 3 ; $ 2 3 < q z g h h h h h h h h h h h h h h h h h h h h h h h h h h h h h h h h h h h h h h h h h h h h h d u s u u u u u u u u u u u u u u u u u u u u u u u u u u u u u u u u u u u u u u 3 , , $ $ $ $ $ $ % < 2 < 4 u u s s s s s s u u u u u u u u u u u u u u u u u u u u d g h h g g g g h h h h h h h h h h h h h h h h z h h g h h h h g d s u u u u u u u u u u u u u u u s s s s s s g g g g 3 2 < $ $ # # # ",
"% @ # @ $ : 2 2 , 8 s u u u u u u u u u u u u u s u u s h h h h h h h h h h h h h g g d s s s s s s s s s s s s s g h h h h h h g g g g g g g g g g g g g g g g s u y y u u u u u u u u u s s s g h q 2 2 % $ & < < < < < e s s h h h h h h h h h h h h h h h h h h h h h h h h h h h h h h h h h h h h g d s s u u u u u u u s g h z h h h h h h h h h h h h h h h h h h h h h h g g s u u u u s u s d h h h h h h h h h h h h h h g g d s u u u d g g g g g g h h h h h h h h h h h h h h h h h h h h h h h h h h h h h h h h h h h h h h h h h h h h h h h h h h g d u u u s u u u u u u u u u u u u u u u u u u u u u u u u u u u s h h h h h h h h h h h h h g d s s s s d h h h h h h h h h h h h h h h h h h h h h h h h h h h h h h h h h h h h h h h h h h h h h h h h h h h h h h h h h h h h h h y 2 3 3 3 3 ; $ 2 3 < q z g h h h h h h h h h h h h h h h h h h h h h h h h h h h h h h h h h h h h h h h h h h h h g s u s u u u u u u u u u u u u u u u u u u u u u u u u u u u u u u u u u u u u u u 3 , , % $ $ $ $ $ % < 2 < 4 u u s s s s s s u u u u u u u u u u u u u u u u u u u u s s g h h g g g h h h h h g d d d d f d h h h h g g d s s s s s s u u u u u u u u u u u u u u u u u u u u u u u s s s s 2 < , $ $ # # $ ",
"% @ # @ $ : 2 2 , 8 s u u u u u u u u u u u u u u y u d h h h h h h h h h h h h h h g g s s s s s s s s s s s s s g h h h h h h g g g g g g g g g g g g g g g g g s u u u u u u u u u s s u u y u d 0 2 < $ @ % < < < < < e s s h h h h h h h h h h h h h h h h h h h h h h h h z h g d s s s s g g g g s s u u u u u u u u u u s g h g h h h h h h h h g g g g g h h h h h h h h g g g s u u u s u s d h h h h h h h h h h h h h h g g s u y u u d g g g g g g h h h h h h h h h h h h h h h h h h h h h h h h h h h h h h h h h h h h h h h h h h h h h h h h h h g d u u u s u u u u u u u u u u u u u u u u u u u u u u u u u u u u h h h h h h h h h h h h g d s u u u s d h h h h h h h h h h h h h h h h h h h h h h h h h h h h h h h h h h h h h h h h h h h h h h h h h h h h h h h h h h h h h h y 2 3 3 3 3 = $ 2 2 < q z g h h h h h h h h h h h h h h h h h h h h h h h h h h h h h h h h h h h h h h h h h h h h g u y u u u u u u u u u u u u u u u u u u u u u u u u u u u u u u u u u u u u u u u 3 , , % $ $ $ $ $ % < 2 < 4 u u s s s s s s u u u u u u u u u u u u u u u u u u u u u u s g g g h g g g g g d d s u s s s s s s s s s s s s u u u u u u u u u u u u u u u u u u u u u u u u u u u u u u u u 2 < , $ $ $ $ $ ",
"% @ # @ $ : 2 2 , 8 s u u u u u u u u u u u u u y y s g h h h h h h h h h h h h h g g d s s s s s s s s s s s s s g h h h h h h g g g g g g g g g g g g g g g g z h g d u u u u u u u u s u y t r u 8 < < $ @ % 2 2 2 2 < e s s h h h h h h h h h h h h h h h h h h h h h h h h h g s u u u u u s s s u u u u u u u u u u u u u u u s g h h h h h h h h s s s s d g g h h h h h h g g z g s u u s u s d h h h h h h h h h h h h h h g g s u u s u d g g g g g g h h h h h h h h h h h h h h h h h h h h h h h h h h h h h h h h h h h h h h h h h h h h h h h h h h g d u u u u u u u u u u u u u u u u u u u u u u u u u u u u u u u u h h h h h h h h h h h h s s s s s d g h h h h h h h h h h h h h h h h h h h h h h h h h h h h h h h h h h h h h h h h h h h h h h h h h h h h h h h h h h h h h h h y 2 3 3 3 3 = % 3 2 < q z g h h h h h h h h h h h h h h h h h h h h h h h h h h h h h h h h h h h h h h h h h h h h d u y u u u u u u u u u u u u u u u u u u u u u u u u u u u u u u u u u u u u u u u 3 , < % $ $ $ $ $ $ < 2 < 4 u u s s s s s s u u u u u u u u u u u u u u u u u u u u u u u s s d g g g g g g y u s s u u u u s s s s u u u u u u u u u u u u u u u u u u u u u u u u u u u u u u u u s s s s 2 < , $ $ $ $ $ ",
"% @ @ @ $ : 2 2 , q s s u u u u u u u u u u u u y s g h h h h h g g g g g g g g s s s s s s s s s s s s s s s s s s s s d d g z h h h h h h h h h h h h h h h h h h h h g u y u u u u u u u u u u y 7 < < $ $ * 2 2 2 2 < e z z g h h h h h h h h h h h h h h h h h h h h h h h h h g u u u u u u s s s u u u u u u u u u u u u u u u s h z z z h h g d u u u s s g z h h h h h h h h h h g s u u s d d g g g g h h h h h h h h h h g d s s s s s g h g h h h h h h h h h h h h h h h h h h h h h h h h h h h h h h h h h h h h h h h h h h h h h h h h h h h h g h g g i y y u u u u u u u u u u u u u u u u u u u u u u u u u s u u g h h h h h h h h h h h h h h h h h h h h h h h h h h h h h h h h h h h h h h h h h h h h h h h h h h h h h h h h h h h h h h h h h h h h h h h h h h h h h h h h h h y 2 3 3 3 3 = % 3 2 2 w z g h h h h h h h h h h h h h h h h h h h h h h h h h h h h h h h h h h h h h h h h h h h h g d s u u u u u u u u u u u u u u u u u u u u u u u u u u u u u u u u u u u u u u u 3 , < % $ # $ $ $ $ < 2 < 3 u u u u u u u u s u u s d d d d s s s d u u u u u u u u u u u u u u u u u u u u u u u u u u u u u u u u u u u u u u u u u u u u s s s s d g g d u u u u u u u u u u u u s s s s 2 < , # $ $ $ $ ",
"% @ # @ $ : 2 2 , q s s u u u u u u u u u u u u u s d g h h h h g g g g s s s s s s s s s s s s s s s s s s s s s s s s u s d h h h h h h h h h h h h h h h h h h h h h g g d s u u u u u u u u u s 5 2 , $ $ * 3 3 3 3 < w z z g h h h h h h h h h h h h h h h h h g g d d d d g g g s s s u u u u s s u u u u u u u u u u u u u u y u d g h h g g s s u u u s d h h h h h h h h h h h h h g s d d g g g g g g h h h h h h h h h h g d s s s s s g h g z z z z h h h h h h h h h h h h h h h h h h h h h h h h h h h h h h h h h h h h h h h h h h h h h h h h g h g g d u u u u u u u u u u u u u u u u u u u u u u u u u u u s u s g h h h h h h h h h h h h h h h h h h h h h h h h h h h h h h h h h h h h h h h h h h h h h h h h h h h h h h h h h h h h h h h h h h h h h h h h h h h h h h h h h h u 2 3 3 3 3 = % 3 2 2 w z g h h h h h h h h h h h h h h h h h h h h h h h h h h h h h h h h h h h h h h h h h h h h h g d s u u u u u u u u u u u u u u u u u u u u u u u u u u u u u u u u u u u u u s 4 , < % $ # $ $ $ $ < 2 < 3 u u u u u u u u u u s g h h h h h h g g u u u u u u u u u u u u u u u u u u u u u u u u u u u u u u u u u u u u u u u u u u u u u s g g l z g d u u u u u u u u u u u u s s s s 2 < , $ $ $ $ $ ",
"% @ @ @ $ : 2 2 , q s s u u u u u u u u u u u u u u s s d d d d u u u u u u u u s s s s s s s s s s s s s s a a s s s s u u u g h h h h h h h h h h h h h h h h h h h h g z h g u u u u u u u u s d 5 3 , $ # * 2 2 2 2 < q h h g h h h h h h h h h h h h h h h h g g d u u u u s g h g d s s s u u u s u u u u u u u u u u u u u u u u u s g g d s u u u u s d h g g h h h h h h h h h h h h g g g g g g g g g h h h h h h h h g h g d s s s s s g h g h h h h h h h h h h h h h h h h h h h h h h h h h h h h h h h h h h h h h h h h h h h h h h h h h h h h g g g g g s s s u u u u u u u u u u u u u u u u u u u u u u u u s u s h h h h h h h h h h h h h h h h h h h h h h h h h h h h h h h h h h h h h h h h h h h h h h h h h h h h h h h h h h h h h h h h h h h h h h h h h h h h h h h h h h h u 2 3 3 3 3 = % 3 2 2 w z g h h h h h h h h h h h h h h h h h h h h h h h h h h h h h h h h h h h h h h h h h h h h h h g d s u u u u u u u u u u u u u u u u u u u u u u u u u u u u u u u u u u u u s 4 , < % $ $ $ $ $ $ < 2 < 3 u u u u u u u u u u s g g g g g z h g d u u u u u u u u u u u u u u u u u u u u u u u u u u u u u u u u u u u u u u u u u u u u u s g g g g f s u u u u u u u u u u u u s s s s 3 2 < % $ $ $ $ ",
"% @ @ @ $ : 1 1 , q s u u u u u u u u u u u u u u u u u u u u u u u u u s s s s s s s s s s s s s s s s s a a a s s s s u u u d h h h h h h h h h h h h h h h h h h h h g g h g u u u u u u u u s h 5 4 , # @ * 2 2 2 2 < q h h g h h h h h h h h h h h h h h h h g d s u u u u u g h h g g d s s u u u u u u u u u u u u u u u u u u u y y s d u y u u u u s d z g g g h h h h h h h h h h h h h h g g g g g g h h h h h h h h g h g d s s s s s g h g d d d d h h h h h h h h h h h h h h h h h h h h h h h h h h h h h h h h h h h h h h h h h h h h h h h h g g g g h g s s u u u u u u u u u u u u u u u u u u u u u u u u s s d h h h h h h h h h h h h h h h h h h h h h h h h h h h h h h h h h h h h h h h h h h h h h h h h h h h h h h h h h h h h h h h h h h h h h h h h h h h h h h h h h h h s < 3 3 3 3 = % 3 2 2 w z g h h h h h h h h h h h h h h h h h h h h h h h h h h h h h h h h h h h h h h h h h h h h h h h g d s u u u u u u u u u u u u u u u u u u u u u u u u u u u u u u u u u u u s 4 , 2 & $ $ $ $ $ $ < < < 3 u u u u u u u u s u u s h h h h g d s u u u u u u u u u u u u u u u u u u u u u u u u u u u u u u u u u u u u u u u u u u u u u s s s s y u u y u u u u u u u u u u u u s s s s 4 3 2 & $ $ $ $ ",
"% @ # @ $ : 2 1 , w s u u u u u u u u u u u u u u u u u u u u u u u u u u u u u u u u u u u u u s s s s u u u u s s s s s d g h h h h h h h h h h h h h h h h h h h h h g g g z s u u u u y u d z g 5 3 ; $ # = 3 3 3 3 < q h g g d s s s g h h h h h h h h h h h h g d u u u u s d g g g h g s u u u u u u u u u u u u u u u u u u u u u u u u u u u u u u s s g g g g h h h h z h h z h h h h h h h h h h h h h h h h h h h h g g g g d s u u s s s u s s s s g h h h h h h h h h h h h h h h h h h h h h h h h h h h h h h h h h h h h h h h h h h h g g g g g g g g g g g g g g g g d s u u u u u u u u u u u u u u u u u u y u g h h h h h h h h h h h h h h h h h h h h h h h h h h h h h h h h h h h h h h h h h h h h h h h h h h h h h h h h h h h h h h h h h h h h h g g g g h h h h h h h h g h s 3 3 3 3 3 % $ 3 2 2 w z g h h h h h h h h h h h h h h h h h h h h h h h h h h h h h h h h h h h h h h h h h h h h h h h h g g d y u u u u u u u u u u u u u u u u u u u u u u u u u u u u u u u u u u 0 , < : $ $ $ $ $ $ < < < 5 u u u u u u u u u u u u u u u u u u u u u u u u u u u u u u u u u u u u u u u u u u u u u u u u u u u u u u u u u u u u u u u u s s s s u u u u u u u u u u u u y y y y s s s s 4 , 2 % $ $ $ $ ",
"% @ # @ $ : 2 2 < w s u u u u u u u u u u u u u u u u u u u u u u u u u u u u u u u u u u u u u s s s s u s d f h h h h h h h h h h h h h h h h h h h h h h h h h h h h g g g h s u u u u u u s z s 3 4 ; $ # = 3 3 3 3 2 w h g g d u y y g h g h h h h h h h h h h h g g g g g g g g g h g s y u u u u u u u u u u u u u u u u u u u u u u u u u u u u u u s s s s s s h h h h h g h l h h h h h h h h h h h h h h h h h h h h g g g g g g d d s d s u s s s s g h h h h h h h h h h h h h h h h h h h h h h h h h h h h h h h h h h h h h h h h h h h g g g g g g g g g g g g g g g g g d d s u u u u u u u u u u u u u u u u y s g h h h h h h h h h h h h h h h h h h h h h h h h h h h h h h h h h h h h h h h h h h h h h h h h h h h h h h h h h h h h h h h h h h h h h g g g g h h h h h h h h g h s 3 3 3 3 3 % $ 3 2 2 w z g h h h h h h h h h h h h h h h h h h h h h h h h h h h h h h h h h h h h h h h h h h h h h h h h g h g s u u u u u u u u u u u u u u u u u u u u u u u u u u u u u u u u u u 0 < < : $ $ $ $ $ $ < < < 5 u u u u u u u u u u u u u u u u u u u u u u u u u u u u u u u u u u u u u u u u u u u u u u u u u u u u u u u u u u u u u u u u s s s s u u u u u u u u u u u u y y y y s s s s 5 , < * $ $ $ $ ",
"% @ # @ $ : 2 2 < w s u u u u u u u u u u u u u u u u u u u u u u u u u u u u u u u u u u u u u s s s s u s d f h h h h g g g g h h h h h h h h h h h h h h h h g g g g h z h g s u u u u s s u g r < 4 ; $ $ = 3 3 3 3 2 w h g g d s s s d h g h h h h h h h h h h h h h h h h g g g g h d u y u u u u u u u u u u u u u u u u u u u u u u u u u u u u u u s s u u u u s s s s d g h h h h h h h h h h h h h h h h h h h h h h g g g g h h h g g g d u s s s s g h h h h h h h h h h h h h h h h h h h h h h h h h h h h h h h h h h h h h h h h h h h g g g g g g g h g g g g g g g g g g g d u u u u u u u u u u u u u u u u u d g g h h h h h h h h h h h h h h h h h h h h h h h h h h h h h h h h h h h h h h h h h h h h h h h h h h h h h h h h h h h h h h h h h h h h h h h h h h h h h h h h g h s 3 3 3 3 3 % $ 3 3 2 w z g h h h h h h h h h h h h h h h h h h h h h h h h h h h h h h h h h h h h h h h h h h h h h h h h g h g d u u u u u u u u u u u u u u u u u u u u u u u u u u u u u u u u s s q 2 < : $ $ $ $ $ $ < < < 5 u u u u u u u u u u u u u u u u u u u u u u u u u u u u u u u u u u u u u u u u u u u u u u u u u u u u u u u u u u u u u u u u s s s s u u u u u u u u u u u u u u u u s s s s 8 , < ; % $ $ $ ",
"% @ # @ $ : 2 2 < w s u u u u u u u u u u u u u u u u u u u u u u u u u u u u u u u u u u u u u s s s s u u u u s s s s u s d g h h h h h h h h h h h h h h h h s s s s d g d u s u u u s s s y s q , 4 = $ $ = 3 3 3 3 2 w h g d g h h h h h h h h h h h h h h h h h h h h h h g g g g d u y s u u u u u u u u u u u u u u u u u u u u u u u u u u u u u u s s s s s s u u u u u g h h h h h h h h h h h h h h h h h h h h h h g g g g h h h h h g d s s s s s g h h h h h h h h h h h h h h h h h h h h h h h h h h h h h h h h h h h h h h h h h h h g g g g g g g h g g g g g g g g g g g g u u u u u u u u u u u u u u u u s d g g h h h h h h h h h h h h h h h h h h h h h h h h h h h h h h h h h h h h h h h h h h h h h h h h h h h h h h h h h h h h h h h h h h h h s s s s h h h h h h h h g h s 3 3 3 3 3 % $ 3 3 2 w z g h h h h h h h h h h h h h h h h h h h h h h h h h h h h h h h h h h h h h h h h h h h h h h h h g h g d u u u u u u u u u u u u u u u u u u u u u u u u u u u u u u u u s s e 2 2 : $ $ $ $ $ $ < < < 5 u u u u u u u u u u u u u u u u u u u u u u u u u u u u u u u u u u u u u u u u u u u u u u u u u u u u u u u u u u u u u u u u s s s s u u u u u u u u u u u u d d d d s s s s 0 , < : % $ $ $ ",
"% @ # @ $ : 2 2 < w s u u u u u u u u u u u u u u u u u u u u u u u u u u u u u u u u u u u u u u u u u u u u u u u u u u u u u d d d d d d d d s s s s s s u u u u u u u u u u u u u u u u u u s 8 , 3 = # $ ; 3 3 3 3 < y z h h h h h h h h h h h h h h h h h h h h h h h h h g g g g u y u s u u u u u u u u u u u u s s s s s s s s s u u s z h g s s s s s u u u u u u u u s g z h g g g g h h h h z h g g g g g g g g g g g g g g g g g d s s s u u s s s u s s d g h h h h h h h h h h h g g g g h h h h h h h h g g g g d d d d g g g h h h h h g d u y d g h h h h h h h h h h h h h h s u u u u u u u u u u u u u u u y s g h z h g g g g d u u d g g h h h h h h h h h h h h h h h h h h h h h h h h h h h h h h h h h h h h h h h h h h h h h h h h h h h h h h h h s s s s h h h h h h h h g h s 3 3 3 3 3 % % 2 3 2 w z g h h h h h h h h h h h h h h h h h h h h h h h h h h h h h h h h h h h h h h h h h h h h h h h h g g g g d s s s u u u u u u u u u u u u u u u u u u u u u u u u u u u u u s y 2 < , % $ # $ $ $ < , < 5 u u u u u u u u u u u u u u u u u u u u u u u u u u u u u u u u u u u u u u u u u u u u u u u u u u u u u u u u u u u u u u u u s s s s u u u u u u u u u u u u u s d d d s u s q < < : % $ $ $ ",
"% @ # @ $ : 2 2 < w s y u u u u u u u u u u u u u u u u u u u u u u u u u u u u u u u u u u u u u u u u u u u u u u u u u u u u u u u u u u u u s s s s s s u u u u u u u u u u u u u u u u u u s 8 , 3 = # $ ; 3 3 3 3 2 s h h h h h h h h h h h h h h h h h h h h h h h h h h g g g g s u u u u u u u u u u u u u u u u u u u u u s s s u u s g g d s s s s s u u u u u u u u u d g g g g g g g g g g z h g g g g g g g g g g g g d d d s s s s u u u s s s s u u u s s d g g h h h h g g g g s s s s h h h h h g d s s s s s u u u u d g h h h h h h g d s s d g h h h h h h h h h h h h h h s u u u u u u u u u u u u u u u s f h h z h h g d s u y s g g g h h h h h h h h h h h h h h h h h h h h h h h h h h h h h h h h h h h h h h h h h h h h h h h h h h h h h h h h g g g g h h h h h h h h g h s 3 3 3 3 3 % % 2 3 2 w z g h h h h h h h h h h h h h h h h h h h h h h h h h h h h h h h h h h h h h h h h h h h h h h h h g g g g s u u u u u u u u u u u u u u u u u u u u u u u u u u u u u u u u s y 2 < < * # $ $ $ $ < , < 5 u u u u u u u u u u u u u u u u u u u u u u u u u u u u u u u u u u u u u u u u u u u u u u u u u u u u u u u u u u u u u u u u s s s s u u u u u u u u u u u u u u u s s u u s e 2 2 , % $ $ $ ",
"% @ # @ $ : 2 2 < w s u u u s s s s s s s s s s u u u u u u u u u u u u u u u u u u u u u u u u u u u u u u u u u u u u u u u u u u u u u u u u s s s s u u s s u u u u u u u u u u u u u u u u s 9 , 3 = # $ ; 3 3 3 3 4 g h h h h h h h h h h h h h h h h h h h h h h h h h h g g g g g s u u u u u u u u u u u u u u s s s s s s s u u s s s s s s u s s s s u u u u u u u u y s d g g g g g g g g g g g d d u u u u u u u u s s s s s u u u u u y y s s s s s u u u y u s s g g g g s s s s y u u s h h h h h g d s s s s s g g g g g g h h h h h h g g g g d g h h h h h h h h h h h h h h s u u u u u u u u u u u u u u u s d g g g g d d s s u s d g h g h h h h h h h h h h h h h h h h h h h h h h h h h h h h h h h h h h h h h h h h h h h h h h h h h h h h h h h h h h h h h h h h h h h h g h s 3 2 3 3 2 % % 2 3 2 w z g h h h h h h h h h h h h h h h h h h h h h h h h h h h h h h h h h h h h h h h h h h h h h h h h g g g g g s u u u u u u u u u u u u u u u u u u u u u u u u u u u u u u u s y 2 , 2 * @ $ # $ $ < < < 5 u u u u u u u u u u u u u u u u u u u u u u u u u u u u u u u u u u u u u u u u u u u u u u u u u u u u u u u u u u u u u u u u s s s s u u u u u u u u u u u u u u u u u s s u r 2 2 < & $ $ $ ",
"% @ # @ $ : 2 2 < w s u u u u u g g h h h g h h u u u u u u u u u u u u u u u u u u u u u u u u u u u u u u u u u u u u u u u u u u u u u u u u s s s s u u s s u u u u u u u u u u u u u u u u s 9 , 3 = # $ ; 3 3 3 2 5 z g h h h h h h h h h h h h h h h h h h h h h h h h h g g g g h d u u u u u u u u u u u u u u d d d d s s s s u s s u y u u u u u s s u u u u u u u u y u s s s d g g g g g g s s u y u u u u u u u u u u u u y y y y y y y y s s s s d s s u y y y u u u u u y y y y u s d g h h h h h h h h h h h h h h h h h h h h h h h h h h h h d g h h h h h h h h h h h h h h s u u u u u u u u u u u u u u u y s s s s s u u s d d g g h h g h h h h h h h h h h h h h h h h h h h h h h h h h h h h h h h h h h h h h h h h h h h h h h h h h h h h h h h h h h h h h h h h h h h h g h s 4 2 3 3 2 $ % 2 2 2 w z g h h h h h h h h h h h h h h h h h h h h h h h h h h h h h h h h h h h h h h h h h h h h h h h h g g g g h g s s u u u u u u u u u u u u u u u u u u u u u u u u u u u u u s u 2 , 2 = + $ $ $ $ < < < 5 u u u u u u u u u u u u u u u u u u u u u u u u u u u u u u u u u u u u u u u u u u u u u u u u u u u u u u u u u u u u u u u u s s s s u u u u u u u u u u u u u u u u u s s u r 3 3 < & $ $ % ",
"% @ # @ $ : 1 1 < w s u u s s d h h h h z h h g s s s s s s s s u u u u u u u u u u u u u u u u u u u u u u u u u u u u u u u u u u u u u u u u u u u u u u u u u u u u u u u u u u u u u u u u s 0 , < = $ $ ; 5 2 < 2 r g g h g g g g h h h h h h h h h h h h h h h h h h h h h h h h h h g d u u s s u u u u u s s g g g g g g h g s s s s s u u u u u u u u u u u u u u u u u u u u s s s s s u u u u u u u s u u u u u u u y u s d d d d d g g h h h h h g g g g g g g g g s s s s d s s s d g h h h h h h h h h h h h h h h g h h h h h h h h h h h h h h g g g h h h h h h h h h h h h h d s u u u u u u u u u u u u u u u u u u u u s d h h h h h h h h h h h h h h h h h h h h h h h h h h h h h h h h h h h h h h h h h h h h h h h h h h h h h h h h h h h h h h h h h h h h h h h h h h h h g h h 4 2 3 3 2 $ & 2 2 2 w z g h h h h h h h h h h h h h h h h h h h h h h h h h h h h h h h h h h h h h h h h h h h h h h h h h h h h h h g g g u y u u u u u u u u u u u u u u u u u u s d s s u u u u s u 2 , , , $ # $ $ & < < < 7 u u u u u u u u u u u u u u u u u u u u u u u u u u u u u u u u u u u u u u u u u u u u u u u u u u u u u u u u u u u u u u u u s s s s s s s s s s s s u u u d s s s s u u u u u 4 < 2 ; # % % ",
"% @ # @ $ : 1 1 < e s u s d g g g g g h h h g g s s s s s s s s u u u u u u u u u u u u u u u u u u u u u u u u u u u u u u u u u u u u u u u u u u u u u u u u u u u u u u u u u u u u u u u u s 0 , < = $ $ ; 4 2 < 3 s g g g g g g g h h h h h h h h h h h h h h h h h h h h h h h h h h h h d u s s u u u u u u s g g g g g g z z h u u u u u u u u u u u u u u u u u u u u u u u u u u u u u u u u u u u u d s u y u u u u d g h h g g g g h h h h h g g g g g g g g g g g g g h h g g g g h h h h h h h h h h h h h h h h h g h h h h h h h h h h h h h h g g g g h h h h h h h h h h h h d s u u u u u u u u u u u u u u u u u u u u s g h h h h h h h h h h h h h h h h h h h h h h h h h h h h h h h h h h h h h h h h h h h h h h h h h h h h h h h h h h h h h h h h h h h h h h h h h h h h g h h 4 2 3 3 < $ * 2 2 2 w z g h h h h h h h h h h h h h h h h h h h h h h h h h h h h h h h h h h h h h h h h h h h h h h h h h h h h h h h h h d s u u u u u u u u u u u u u u u u u q 8 q d d s s s u s u 2 , < , % # $ $ & 2 < 2 7 s u u u u u u u u u u u u u u u u u u u u u u u u u u u u u u u u u u u u u u u u u u u u u u u u u u u u u u u u u u u u u u u s s s s s s s s s s s s s s s s u u u u u u u u u 4 < 2 : # % % ",
"% @ # @ $ : 1 2 < e s u s s g g h h h h g g d d s s s s s s s s u u u u u u u u u u u u u u u u u u u u u u u u u u u u u u u u u u u u u u u u u u u u u u u u u u u u u u u u u u u u u u u u s 0 , < = $ $ ; 2 < 2 4 g g g g g g g g h h h h h h h h h h h h h h h h h h h h h h h h h h h h h d s u u u u u u u s s g g g g h h d u s s s s s s s s u u u u u u u u u u u u u u u u u u u u u u u u u u u u s s u u d d d d h h h h h h h h h h g g g g g g g g g g g g g g h h h l h h h h h h h h h h h h h h h h h h h h h h h h h h h h h h h h h h h h g g g g h h h h h h h h h h h h d s u u u u u u u u u u u u u u u u u u u s d g h h h h h h h h h h h h h h h h h h h h h h h h h h h h h h h h h h h h h h h h h h h h h h h h h h h h h h h h h h h h h h h h h h h h h h h h h h h h h h h 5 2 3 3 < # * 2 2 2 w z g h h h h h h h h h h h h h h h h h h h h h h h h h h h h h h h h h h h h h h h h h h h h h h h h h h h h h h h h h g g s u u u u u u u u u u u u u u u u u 0 4 4 0 r u u u d s 3 2 2 < * # # $ * 2 2 2 7 s u u u u u u u u u u u u u u u u u u u u u u u u u u u u u u u u u u u u u u u u u u u u u u u u u u u u u u u u u u u u u u u s s s s s s s s s s s s u y y s g u y s u u u u u 4 < 2 , $ $ # ",
"% @ # @ $ : 2 2 < e s u y u s d s s s s s s u u u s s s s s s s u u u u u u u u u u u u u u u u u u u u u u u u u u u u u u u u u u u u u u u u u u u u u u u u u u u u u u u u u u u u u u u u u q , < = # $ ; 2 < 2 5 g g g g g g g g h h h h h h h h h h h h h h h h h h h h h h h h h h h h z h d u u u u u s s s u g g g g g z h g g g g g h h h h u u u u u u u u u u u u u u u u u u u u u u u u u u u u r y s d h h g g g g g g g g g g g g g g g g g g g g g g g g g g h h h h h h h h h h h h h h h h h h h h h h h h h h h h h h h h h h h h h h h h g g g g h h h h h h h h h h h h d s u u u u u u u u u u u u u u u u u u s s g h h h h h h h h h h h h h h h h h h h h h h h h h h h h h h h h h h h h h h h h h h h h h h h h h h h h h h h h h h h h h h h h h h h h h h h h h h h h h h h h 5 2 3 3 < # * 2 2 1 w z g h h h h h h h h h h h h h h h h h h h h h h h h h h h h h h h h h h h h h h h h h h h h h h h h h h h h h h h h g h h s u u u u u u u u u u u u u u u u u h s 0 < 3 5 0 u d s 3 2 2 2 * # # $ * 2 < 2 7 s u u u u u u u u u u u u u u u u u u u u u u u u u u u u u u u u u u u u u u u u u u u u u u u u u u u u u u u u u u u u u u u s s s s s s s s s s s s u s r 5 8 y d s u u u u u 4 < 2 < $ $ @ ",
"% @ # @ $ : 2 2 < e a u u u u u u u u u u u u u u u u u s s s s u u u u u u u u u u u u u u u u u u u u u u u u u u u u u u u u u u u u u u u u u u u s u u u u u u u u u u u u y y y y u u u u u w , < : # # ; < < < 8 g g g g g g g g h h h h h h h h h h h h h h h h h h h h h h h g g g g g h g s u u u u u u u s d h h h h g g g g g g g g h h h h d u u u u u u u u u u u s u u u u u u u u u u u u u u u s d g g h h h h g g g g h h h h h h h h h h h h h h h h h h h h h h h h h h h h h h h h h h h h h h h h h h h h h h h h h h h h h h h h h h h h h h h h h h h h h h h h h h h h h s u u u u u u u u u u u u u u s u u u u s d g h h h h h h h h h h h h h h h h h h h h h h h h h h h h h h h h h h h h h h h h h h h h h h h h h h h h h h h h h h h h h h h h g g g h h h h h h h h h h h h 5 2 3 3 , # * 2 3 2 e z g h h h h h h h h h h h h h h h h h h h h h h h h h h h h h h h h h h h h h h h h h h h h h h h h h h h h h h h h g h g s s s u u u u u u s s s s s s u u u u u u e 5 , 2 5 8 4 3 2 2 2 : $ # $ * 2 < , 8 s s u u u u u u u u u u u u u u u u u u u u u u u u u u s s s s s s s s u u u u u u u u u u u u u u u u u u u u u u u u u u u u s s s s s s s s s s s s u u u e 7 4 5 r s s s u y 3 < 2 3 = # @ ",
"% @ # @ $ : 2 2 < e u u u u u u u u u u u u u u u u u u s s s s u u u u u u u u u u u u u u u u u u u u u u u u u u u u u u u u u u u u s s s s y u u s s s u u u u u u u u s s s s s s u u u u u e , < , $ $ ; 2 < < 9 g g g g g g g g h h h h h h h h h h h h h h h h z z h h d s s s u u u u d s u y u u u u u s d g h g d s d d d d g g g g h h h h g s u u u u u u u u u u u u s s u u u u i i s s d d d d g g h h h h h h g g g g h h h h h h h h h h h h h h h h h h h h h h h h h h h h h h h h h h h h h h h h h h h h h h h h h h h h h h h h h h h h h h h h h h h h h h h h h h h h g d s u u u u u u u u u u u u u u u u u d g g h h h h h h h h h h h h h h h h h h h h h h h h h h h h h h h h h h h h h h h h h h h h h h h h h h h h h h h h h h h h h h h h h h h h h h h h h h h h h h h h 5 2 3 3 , # = 2 3 2 e z g h h h h h h h h h h h h h h h h h h h h h h h h h h h h h h h h h h h h h h h h h h h h h h h h h h h h h h h h h g d s y y u u u u u u u u u u s s s s s s s s s g u 5 3 4 2 3 3 2 2 < $ # $ * 2 2 , 0 s s u u u u u u u u u u u u u u u u u u u u u u u u u u u s d g g g g g u u u u u u u u u u u u u u u u u u u u u u u u u u u u s s s s s s s s s s s s s u u u s e 4 ; 3 q r s 9 2 2 2 3 = $ # ",
"% @ # @ $ : 2 2 < e u u u u u u u u u u u u u u u u u u s s s s u u u u u u u u u u u u u u u u u u u u u u u u u u u u u u u u u u u u u u u u s s d d g d s u u u u u u s d d g g g g s u u u s r < 2 , % % : 3 2 2 0 g g g g g g g g h h h h h h h h h h h h h h h h h h g d u y y u y y u u u u u u u u u u s d g g g d s y s s s s g g g g h h h h h d u u u u u u u u u u y u s s s s s s g g g g h h h h h h h h h h h h g g g g h h h h h h h h h h h h h h h h h h h h h h h h h h h h h h h h h h h h h h h h h h h h h h h h h h h h h h h h h h h h h h h h h h h h h h h h h h h h d d u u u u u u u u u u u u u u u s d d g g h h h h h h h h h h h h h h h h h h h h h h h h h h h h h h h h h h h h h h h h h h h h h h h h h h h h h h h h h h h h h h h h h h z h g d d d d g g g h h h z z 5 2 3 3 , # = 2 3 2 e z g h h h h h h h h h h h h h h h h h h h h h h h h h h h h h h h h h h h h h h h h h h h h h h h h h h h h h h h h h g s u y u s d d d d d s s s s s s s s s s s s z h g d 4 3 3 4 3 2 2 2 $ @ $ * 3 3 < q s s u u u u u u u u u u u u u u u u u u u u u u u u u u s d g h h h h h u u u u u u u u u u u u u u u u u u u u u u u u u u u u s s s s s s s s s s s s s s u u u s u e , , 3 5 3 2 4 < 3 ; $ # ",
"% @ # @ # : 2 2 < r u u u u u u u u u u u u u u u u u u s s s s u u u u u u u u u u u u u u u u u u u u u u u u u u u u u u u u u u u u d d d d g g g g z h d s u u u u u s d g h h h h g s u u s y < 2 < % % : 3 2 2 q h h h h g g g g h h h h h h h h h h h h h h h h g d s u y u s s u u u u u u u u u u u u d g g g u u u u u u u u g g g g h h h h h g s u u u u u u u u u y u s d g g g g h h h h h h h h h h h h h h h h g g g g h h h h h h h h h h h h h h h h h h h h h h h h h h h h h h h h h h h h h h h h h h h h h h h h h h h h h h h h h h h h h h h h h h h h h h h h h h h h s s s u u u u u u u u u u u u u s g h z g g g g h h h h h h h h h h h h h h h h h h h h h h h h h h h h h h h h h h h h h h h h h h h h h h h h h h h h h h h h h h h h h h h h h g s u u u u s s d g h h h h 5 2 3 3 , # = 2 3 2 e z g h h h h h h h h h h h h h h h h h h h h h h h h h h h h h h h h h h h h h h h h h h h h h h h h h h h h h h h h g d s u u s g h h h h h g g g g s s s s d d d g g g z v r 2 4 3 3 3 2 2 $ @ $ * 4 4 2 q s s u u u u u u u u u u u u u u u u u u u u u u u u u u h h h h h h h h u u u u u u u u u u u u u u u u u u u u u u u u u u u u s s s s s s s s s s s s s s s u s u s d r 8 < 2 2 2 3 < 4 : $ # ",
"% @ # @ @ : 4 2 2 s d u u u u u u u u u u u u u u u u u s s s s u u u u u u u u u u u u u u u u u u u u u u u u u u u u u u u u u s d g z z z z h g d d s s s s u u u u s g h g h h h h g s u u u s 5 , 3 * % ; 3 2 2 q h h h h h h h h h h h h h h h h h h h h g g g g s s s s u u u u u u u u u u u y s d g h g g g g u u u u u u u u g g g g h h h h h g g s s s s s u u u u u s g h h h h h h h h h h h h h h h h h h h h h h h h h h h h h h h h h h h h h h h h h h h h h h h h h h h h h h h h h h h h h h h h h h h h h h h h h h h h h h h h h h h h h h h h h h h h h h h h h h h s s u u u u u u u u u u u u s s d g h h h h h h h h h h h h h h h h h h h h h h h h h h h h h h h h h h h h h h h h h h h h h h h h h h h h h h h h h h h h h h h h h h h h h h h h g s s u u u u u u s s d h g h 8 2 3 3 : # , 3 3 2 e z g h h h h h h h h h h h h h h h h h h h h h h h h h h h h h h h h h h h h h h h h h h h h h h h h h h h h h h h h g h g d g g h h h h h h g g g g g g g g g g g g h h h h z 8 2 2 3 3 3 3 = + + * 4 4 2 q x d s d u u u u u u u u u u u u u u u u u u u u u u s g g g g g h h h h h s u y u u u u u u u u u u u u u u u u u u u u u u u u s s s s u u u u s s s s u i s d d d d d h g 5 2 2 2 2 2 3 < % $ ",
"% @ # @ @ , 4 2 2 s d u u u u u u u u u u u u u u u u u s s s s u u u u u u u u u u u u u u u u u u u u u u u u u u u u u u u u u s s d d d d d s s u u u u u u u u u u d h h g h h h h g s u u u s 5 , 2 = $ ; 3 < < q g g g g h h h h h h h h h h h h z h g d d d d d s s s s u u u u u u u u u s s s d g h z g g g g u u u u u u u u g g g g g g g g g h g g g g g g s u u u u s g h h h h h h h h h h h h h h h h h h h h h h h h h h h h h h h h h h h h h h h h h h h h h h h h h h h h h h h h h h h h h h h h h h h h h h h h h h h h h h h h h h h h h h h h h h h h h h h h h h h s s u u u u u u u u u u u u g g h h h h h h h h h h h h h h h h h h h h h h h h h h h h h h h h h h h h h h h h h h h h h h h h h h h h h h h h h h h h h h h h h h h h h h h h h h s s u u u u u u u u u s d s g 7 2 3 3 : # , 3 3 2 e z g h h h h h h h h h h h h h h h h h h h h h h h h h h h h h h h h h h h h h h h h h h h h h h h h h h h h h h h h h h h h g g h h h h h h h g g g g g g g g g g g h h h h h d < 3 3 3 3 3 = @ @ = 4 3 < q z g s s u u u u u u u u u u u u u u u u u u u u u u s g g g g g h h h h h g s u u u u u u u u u u u u u u u u u u u u u u u u u s s s s u u u y u u u u s d g g g g g g g z d 3 2 2 2 2 3 2 % # ",
"% @ # @ @ , 4 2 2 s d u u u u u u u u u u u u u u u u u s s s s u u u u u u u u u u u u u u u u u u u u u u u u u u u u u u u u u u s s s s s s u u u u u u u u u u u u g h z g h h h h f s u u u s 5 < 2 ; @ : 3 < < 0 d d d d h h h h h h h h h h h h g d s u s s s s s s s s u u u u u u u u s d g h h h z z g g g g s s s s s s s s g g g g s s s s g g h g g g g g s u u u u s g h h h h h h h h h h h h h h h h h h h h h h h h h h h h h h h h h h h h h h h h h h h h h h h h h h h h h h h h h h h h h h h h h h h h h h h h h h h h h h h h h h h h h h h h h h h h h h h h h h h s s u u u u u u u u u u u u z z h h h h h h h h h h h h h h h h h h h h h h h h h h h h h h h h h h h h h h h h h h h h h h h h h h h h h h h h h h h h h h h h h h h h h h h h h h s u u u u u u u u u u u s s g 8 2 3 3 : $ , 3 3 2 e z g h h h h h h h h h h h h h h h h h h h h h h h h h h h h h h h h h h h h h h h h h h h h h h h h h h h h h h h h h h h h g g h h h h h h g g g g g g g g g g g g h h h h h g q < 3 3 3 3 ; # # ; 4 4 2 q h g d u u u u u u u u u u u u u u u u u u u u u u u s g g g g g h h h h g g g s s u u u u u u u u u u u u u u u u u u u u u u u s s s s u u u u y u s d g g h h h h h h d z x q 2 2 2 2 2 3 * @ ",
"% @ # @ @ , 4 2 2 s d u u u u u u u u u u u u u u u u u s s s s u u u u u u u u u u u u u u u u u u u u u u u u u u u u u u u u u u u u s s s s s s s s u u u u u u u u g z z g h h h h f s u u u s 5 < 2 : + : 2 , , 0 s s s s h h h h h h h h h h h h u u u u u u u u s s s s u u u u u u u u s g h z h h h h g g h h h h h h g h h h g g g g u u u u s g g h h h h h g s u u u s g h h h h h h h h h h h h h h h h h h h h h h h h h h h h h h h h h h h h h h h h h h h h h h h h h h h h h h h h h h h h h h h h h h h h h h h h h h h h h h h h h h h h h h h h h h h h h h h h h h h s s u u u u u u u u u u u u z h g d h h h h h h h h h h h h h h h h h h h h h h h h h h h h h h h h h h h h h h h h h h h h h h h h h h h h h h h h h h h h h h h h h h h h h h h h u u u u u u u u u u u u u u g 0 2 2 3 : $ , 2 3 2 e z g h h h h h h h h h h h h h h h h h h h h h h h h h h h h h h h h h h h h h h h h h h h h h h h h h h h h h h h h h h h h g g h h h h h h g g g g g g g g g g g g h h h h g g d 2 3 3 3 3 : $ $ ; 4 3 < q h h g u u u u u u u u u u u u u u u u u u u u u u u s g g g g g h h h h g g h h g d s u u u u u u u u u u u u u u u u u u u u u s s s s u u u u a d g z h h h h h h h h h g h g 2 2 2 2 2 3 = + ",
"% @ # @ @ , 4 2 3 s s r u s s s s s s s s s s s u u u u s s s s u u u u u u u u u u u u u u u u u u u u u u u u u u u u s s s u u u u u u u u u u u u u u u u u u u u u g g g g d s s u u u u u u s 0 < 2 < $ , 2 2 2 0 s s s s u u u u d d d d d d s s s s s s s s s s u u u u s s s s u s s g g g g g h h h h h h h h h h h h g h h g g g s u u u u u s d h h h h h h g s u u u u s s g h h h h h h h h h h h h h h h h g g z g g g g h h h h h h h h h h h h h h h h h h h h h h h h h h h h h h h h h h h h h h h h h h h h h h h h h h h h h h h h h h h h h h h h h h h h h h h h h h g s s u u u u u u u u u u u s g z z h h h h h h h h h h h h h h h h h h h h h h h h h h h h h h h h h h h h h h h h h h h h h h h h h h h h h h h h h h h h h h h h h h h h h h h h d s u y u u u u u u u u s d z w 2 2 3 = $ 2 2 3 2 e z g h h h h h h h h h h h h h h h h h h h h h h h h h h h h h h h h h h h h h h h h d g h h z z g h h h h h h h h h h h h h h h h h h h h h h h h h h h h h h h h h h h h h g h h e 2 3 4 4 < $ $ < 3 3 < q h g d u u u u u u u u u u u u u u u u u u u u u u u s g g g g g h h h h h h h h h h h h g u y u u u u u u u u u u u u u u u u u s s s s d s u d g g h h h h h h h h h h h h h h e < 2 2 2 3 : @ ",
"% @ # @ @ , 4 2 5 g h s s u u s s s s s s s s s u u u u s s s s u u u u u u u u u u u u u u u u u u u u u u u u u u u u s g g s s u u u u u u u u u u u u u u u u u u u u u u u s u u u u u u u y s 0 < 2 2 % : 2 < < 8 s s s s u u u u u u u u s s s s s s s s s s s s u u u u u u u u s d g h g g g g h h h h h h h h h h h h g h h g d d s u u u u u s d h h h h h h g s u u u u u u d g h h h h h h h h h h h h h h g s s d u s d g h h h h h h h h h h h h h h h h h h h h h h h h h h h h h h h h h h h h h h h h h h h h h h h h h h h h h h h h h h h h h h h h h h h h h h h h h h h g s u u u u u u u u u u u s g h h h h h h h h h h h h h h h h h h h h h h h h h h h h h h h h h h h h h h h h h h h h h h h h h h h h h h h h h h h h h h h h h h h h h h h h h h g g d s u u u u s s s s d d z q 2 2 3 = % 2 2 3 2 e z g h h h h h h h h h h h h h h h h h h h h h h h h h h h h h h h h h h h h h h h h h d g z g r q d h h h h h h h h h h h h h h h h h h h h h h h h h h h h h h h h h h h h h h h u 3 2 3 4 2 $ $ < 3 3 < q z g d s u u u u u u u u u u u u u u u u u u u u u u s g g g g g h h h h h h h h h h h h h g s s u u u s s u u u u u u u u u u u s s s s s u s g h h h h h h h h h h h h h h h h s 3 3 2 2 3 : # ",
"& # $ # @ , 4 2 5 g z g g d s u s s s s s s s s u u u u s s s s u u u u u u u u u u u u u u u u u u u u u u u u u u u u s g h g s s u u u u u u u u u u u u u u u u u u s s s s u u u u u u u u u s 0 < < 2 % ; < < < 8 s s s s u u u u y y y y u u s s s s s s s s s s u u u u y u s d g g h g g g g g h h h h h h h h h h h h g h h g u s u u u u u u s d g h h h h h g s u u u u u u s d g h h h h h h h h h h h h h g s u s y u s d h h h h h h h h h h h h h h h h h h h h h h h h h h h h h h h h h h h h h h h h h h h h h h h h h h h h h h h h h h h h h h h h h h h h h h h h h h h h d s u u u u u u u u u u u d h g h h h h h h h h h h h h h h h h h h h h h h h h h h h h h h h h h h h h h h h h h h h h h h h h h h h h h h h h h h h h h h h h h h h h h h h h h h g g g g g g g g g g h g z q 2 2 3 = % 2 2 3 2 e z g h h h h h h h h h h h h h h h h h h h h h h h h h h h h h h h h h h h h h h h h z z g y 5 2 < e h h h h h h h h h h h h h h h h h h h h h h h h h h h h h h h h h h h h h h h h 8 < 2 3 2 $ $ 2 3 3 < q z g d s u u u u u u u u u u u u u u u u u u u u u u s g g g g g h h h h h h h h h h h h s g h h u u u u u u u u u u u u u u u u s s s s s u s g h h h h h h h h h h h h h h h h z 0 2 3 2 3 : $ ",
"& # $ # @ , 4 2 3 d h g h h g d s s s s s s s s u u u u s s s s u u u u u u u u u u u u u u u u u u u u u u u u u u u u u s g h g s s u u u u u u u u u u u u u u u u u u u u u u u u u u u u u u s 0 < < 3 * ; , , , 7 s s s s u u u u u u u u u u u u s s s s s s s s u u u u s s g h z h g g g g g g h h h h h h h h h h h h g h h g y u u u u u u u s d g h h h h h g s u u u u u u u s d g h h h h h h h h h h h h z d s s s s s s h h h h h h h h h h h h h h h h h h h h h h h h h h h h h h h h h h h h h h h h h h h h h h h h h h h h h h h h h h h h h h h h h h h h h h h h h h h h g s u u u u u u u u u u y d g g h h h h h h h h h h h h h h h h h h h h h h h h h h h h h h h h h h h h h h h h h h h h h h h h h h h h h h h h h h h h h h h h h h h h h h h h g g g h g g g g g g g g z h z q 2 2 3 = % 2 2 3 2 e z g h h h h h h h h h h h h h h h h h h h h h h h h h h h h h h h h h h h h h h h h h y 7 3 2 3 3 8 h h h h h h h h h h h h h h h h h h h h h h h h h h h h h h h h h h h h h h h h e 2 2 2 2 # $ 2 3 3 < q z g d s u u u u u u u u u u u u u u u u u u u u u u s g g g g g h h h h h h h h h h h h h h d y 0 e u u u u u u u u u u u u u u s s s s u u d h h h h h h h h h h h h h h h h h g d 2 4 2 2 : $ ",
"* $ $ $ % , 4 2 4 d h d h h h h h g d d h h h h s u u s u u u u u u u u u u u u u u u u u u u u s s s u u u u u u u u u u u s g g h g u u u u u s s u u d d d d d d d d s s u u u u u u u u u u u s y 2 < 2 , ; 2 2 2 2 y y s s s s s s u s g h g g s u u s s s s s s s y u u s d g h h g g g g g g g g h h h h h h h h h h h h h h h h g d u u y y y y d g h h z h h g s u u u u u u u u u s d h z h h h h h h h h h h h g s u u u s d h h h h h h h h h h h h h h h h h h h h h h h h h h h h h h h h h h h h h h h h h h h h h h h h h h h h h h h h h h h h h h h h h h h h h h h h h h h h g d s u u u u u u u u u y d g g h h h h h h h h h h h h h h h h h h h h h h h h h h h h h h h h h h h h h h h h h h h h h h h h h h h h h h h h h h h h h h h h h h h h h h h h h h h h h h h h h h h h h d z q 2 2 3 = & 3 2 3 < 7 d g g g h g h h h h g g g g h h h h g g g g g g g g h h h h h h h h x h g h h g d u 3 3 2 2 2 2 2 2 r d g g h h h h h h h h h h h h h g g g h h h h h h h h h h h h h h h g g g h z r 2 2 2 < @ % 2 3 4 < e h z s y u u u u u u u u u u u u u u u u u u u u u u s g g g g g h h h h z h g z h g h z s w 4 3 2 q s u d s u y u u u u u u u u s s s s u u u u u u u u d f g h g g g g h h h h g g 8 2 3 2 < $ ",
"* $ $ $ % < 4 2 4 d h d h h h h z h h g h h h h g d s u u u u u u u u u u u u u u u u u u u u u s s s s s s u u u u u u u u y y d h z g g g g d g g g h h h h h h h h h g d s s u u u u u u u u u s y 2 < 2 , ; 2 2 2 2 s s s u u u u u s d g h h h g d u s s s s s s s y u s s g h h h g g g g g g g g h h h h h h h h h h h h h h h h h g g d d d d d g h h z h g d s u u u u u u u u u u u s s d d d g h h h h h h h h g d s u s g g h h h h h h h h h h h h h h h h h h h h h h h h h h h h h h h h h h h h h h h h h h h h h h h h h h h h h h h h h h h h h h h h h h h h h h h h h h h h g g s s u u u u u u u u s g h g h h h h h h h h h h h h h h h h h h h h h h h h h h h h h h h h h h h h h h h h h h h h h h h h h h h h h h h h h h h h h h h h h h h h h h h h h h h h h h h h h h h h h g h e 2 2 3 = & 3 2 3 4 2 7 d v h g h h h h h g g g g h h h h g g g g g g g g h h h h h h h h g z z g g e 3 , 2 2 2 2 2 2 2 2 2 4 0 q r r y y y y u u d d d d d d d d d d d d d d d d d d d d d d d d d u e q 7 3 2 5 , @ * 2 3 4 2 9 h s d u u u u u u u u u u u u u u u u u u u u u u u s g g g g g h h h h h g g h z x d q 3 3 2 4 3 5 r d u u y y u u u u s s s s u u u u s s s s s s s u i s d d g g g g g g g g h h u 2 3 2 < $ ",
"* $ $ $ % < 4 3 4 d h g h h h h h h h h h h h h h g d s u u u u u u u u u u u u u u u u u u u u s s d g d s s s u u u u d s s u s g h h z h g g s s d g h h h h h h h h h g g d u u u u u u u u u s y 3 < 2 , ; 2 2 2 2 y h d s s s s s g g h h h h g g s u s s s s s s y u s g h h h g g g g g g g g g h h h h h h h h h h h h h h h h h h h g g g g g g g g g d s u u u u u u u u u u u u u u u u s s d g h h h h h h h h g g d g h h h h h h h h h h h h h h h h h h h h h h h h h h h h h h h h h h h h h h h h h h h h h h h h h h h h h h h h h h h h h h h h h h h h h h h h h h h h h h h g d s u u u u u u u u d h h g h h h h h h h h h h h h h h h h h h h h h h h h h h h h h h h h h h h h h h h h h h h h h h h h h h h h h h h h h h h h h h h h h h h h h h h h h h h h h h h h h h h h h g h e 2 2 3 = * 3 3 4 3 2 , 2 u h x g h h h h z z z z z z z z z z z z z z z z h h h h h h h h g d y 0 2 2 2 2 3 2 2 2 2 2 2 2 2 2 3 < < < < 2 2 2 2 2 2 2 2 2 2 2 2 2 3 3 3 3 3 3 3 3 3 3 3 3 3 3 3 2 2 2 2 2 2 2 2 4 ; @ ; 3 3 3 2 4 d h y y u u u u u u u u u u u u u u u u u u u u u u s g g g g g h h h h g h h h d q 3 , 3 3 3 2 2 2 7 e u u s s s s s s d d d d s s s s s s s s s s s s u u s d h h h h z z z z v h y 2 3 2 < $ ",
"* $ $ $ % 2 4 3 4 d h g h h h h g g g g h h h h g h h g u u u u u u u u u u u u u u u u u u u u u s g h g g d s s u u u y u u s d g h h h g d s y u s d h h h h h h h h h h h g s u u u u u u u u s y 3 < 2 < ; 2 2 2 2 q z h h g d d d g g g g g g h h d u s s s s s s y u s h h h g g g g g g g g g g h h h h h h h h h h h h h h h h h h h h g g g g g d s u u u u u u u u u u u u u u u u u u u i s s d g h h h h h h h h h h z z z h h h h h h h h h h h h h h h h h h h h h h h h h h h h h h h h h h h h h h h h h h h h h h h h h h h h h h h h h h h h h h h h h h h h h h h h h h h h h g g s u u u u u u u u g z z g h h h h h h h h h h h h h h h h h h h h h h h h h h h h h h h h h h h h h h h h h h h h h h h h h h h h h h h h h h h h h h h h h h h h h h h h h h h h h h h h h h h h h g h e 2 2 3 = * 3 3 4 2 3 , 3 2 4 9 y 0 0 0 0 8 8 8 8 8 8 8 8 9 9 9 9 9 9 9 9 0 0 0 0 0 0 0 0 8 4 < < 2 2 2 2 2 2 2 2 2 2 2 2 < 4 2 < 3 3 3 3 3 3 3 3 3 2 2 2 3 3 3 3 4 4 4 4 4 4 4 4 4 4 4 4 4 4 4 3 3 3 3 3 4 < 4 , = # ; 3 2 2 3 2 9 s z s u u u u u u u u u u u u u u u u u u u u u u s g g g g g h h h h z h u 0 3 2 3 3 3 3 4 4 < , < 2 3 4 5 5 9 9 9 9 0 q q q e e e e e e e e e e e e w e r y u u u u r r r r q 9 2 2 3 2 < $ ",
"* $ $ $ % 2 3 3 4 d h g g g g g g g g g h h h h h h h h g g s u u u u u y y u s s s s s s s s s g g g g h h h g g g g g g g g g g g h h h d s s y s d g h h h h h h h h h h h h g s u u u u u u u s y 4 , 2 < , 2 3 3 3 7 g h g h g g z d d d d g g h h h g h h s s g s u y y r q 8 5 5 5 5 5 5 5 7 0 e s g h z h z h d h h h h h h h h h h h h h h h h g d s u y y y y u u u u u u u u u u u u u u u s y s g h h h h h g g g g h h h h h h h h h h h h h h h h h h h h h h h h h h h h h h h h h h h h h h h h h h h h h h h h h h h h h h h h h h h h h h h h h h h h h h h h h h h h h h h h h h g s u s s d u u s d h h h h h h h h h h h h h h h h h h h h h h h h h h h h h h h h h h h h h h h h h h h h h h h h h h h h h h h h h h h h h h h h h h h h h h h h h h h h h h h h h h h h h h h h h g h y 2 2 3 = * , 3 4 < < 2 2 2 2 2 2 3 3 3 3 3 2 2 2 2 2 2 2 2 2 3 3 3 3 3 2 2 2 2 2 2 2 2 2 3 3 3 3 3 3 3 3 3 3 3 3 3 3 3 3 3 3 3 3 3 3 3 3 3 3 3 3 3 3 3 3 3 3 3 3 3 3 3 3 2 2 2 2 2 2 2 2 2 2 2 2 2 2 < 2 < : = = % # = 4 2 2 2 2 , 3 q g h h g d s s s s s s s s s s s s s s s u s s d g h h h h x z g s q 8 3 < 2 2 2 2 2 2 2 2 < < < < < < < < < < < < , , , , , , , , , , , , , , , , , , , , 2 2 2 2 2 2 2 2 2 2 3 3 3 2 : % ",
"* $ $ $ % 2 3 3 4 d h f g g g g g g g g h h h h h h h h h g g g u u u u u s s d g g g g g g g g g g g g h h h h h h h h h h h h h h h h h d s s u s d g h h h h h h h h h h h h h g s u u u u u u s u 4 , 2 < < < 2 2 2 3 0 h h g h h d s s s s d g g h g d g h z s e 8 7 5 3 2 3 2 2 2 2 2 2 2 2 2 2 2 3 2 5 q s g h g h h h h h h h h h h h h h h h h d d s u s s s s d s s s u u u u u u u u s u y y s d g h h h h h g g g g h h h h h h h h h h h h h h h h h h h h h h h h h h h h h h h h h h h h h h h h h h h h h h h h h h h h h h h h h h h h h h h h h h h h h h h h h h h h h h h h h h g d y y u s y s g z h h h h h h h h h h h h h h h h h h h h h h h h h h h h h h h h h h h h h h h h h h h h h h h h h h h h h h h h h h h h h h h h h h h h h h h h h h h h h h h h h h h h h h h h h g h y 2 3 3 = + % % $ * * * * = = = = = = = = ; ; = = = = = = ; ; ; ; ; ; ; ; ; = = = = = = = = = = = = = = = = = = = = = = = * * * * * * * * * * * * * * * * * * * * * & % % % % % % % % % % % % % % $ $ $ $ $ # # @ @ # * 2 2 2 2 3 3 3 2 3 8 7 7 5 4 4 4 3 3 3 3 3 3 3 3 3 4 4 4 4 3 3 4 5 8 8 8 8 8 7 5 4 2 2 3 4 3 3 3 3 3 3 3 3 2 2 2 2 2 2 2 2 2 2 2 2 2 2 2 2 < < < < < < < < < < < < 2 2 2 2 2 2 3 3 2 3 3 3 3 4 4 4 2 : % + ",
"& # $ # % 2 3 3 5 g z g g g g g g g g g h h h h h h h h h h h g s u u s s d g h h h h h h h h h h h g g h h h h h h h h h h h h h h h h h d s s s d g h h h h h h h h h h h h h h h g s s u u u u s u 5 , 2 < , < < < < < 2 u h g h d u u u u u s g g h z g d s e 7 2 < , < 2 3 4 4 3 3 3 3 3 3 5 4 3 2 2 4 3 , 3 r g g h h h h h h h h h h h h h h h h h h h g h h h h g s u s u u u u u u u u u s s g g h h g h h h h g g g g h h h h h h h h h h h h h h h h h h h h h h h h h h h h h h h h h h h h h h h h h h h h h h h h h h h h h h h h h h h h h h h h h h h h h h h h h h h h h h h h h h g g u s s d h h g g h h h h h h h h h h h h h h h h h h h h h h h h h h h h h h h h h h h h h h h h h h h h h h h h h h h h h h h h h h h h h h h h h h h h h h h h h h h h h h h h h h h h h h h h g g h y 2 3 3 ; @ % $ @ # # # # @ @ # # $ $ $ $ $ $ $ $ # # $ $ $ $ $ $ $ $ $ $ $ $ $ $ $ $ $ $ # # # # # # # # # # # # # # # # @ @ @ @ @ @ @ @ @ @ @ @ @ @ @ @ @ @ $ $ $ $ $ $ $ $ % % % % % % % % % $ $ $ # $ $ $ $ $ @ $ $ : 2 2 2 2 < 2 3 3 , < < < 2 2 2 < < < < < < < < , , , , , , < 2 2 < < < < 3 2 2 2 2 2 2 2 2 3 3 3 3 3 3 2 2 2 2 2 1 2 2 2 2 2 2 2 < < < < < < < < < < < < < < < < < < < < 2 2 2 2 < < < < < < < < = % @ + ",
"& # $ # % 2 3 3 5 g z g g g g g g g g g h h h h h h h h h h h h d u u u g g h z g g g g g g g g g g g g h h h h h h h h h h h h h h h h h d s s s d g h h h h h h h h h h h h h h h h g s s u u s s s 5 , 2 < , , < < < 2 3 5 s z d y u y y y y s g g g d e 7 3 3 2 2 2 , , < < < < < < < < < < < < < < < < < 2 < , 7 z h h h h h h h h h h h h h h h h g h h h g g g g g y r u u u u u u u u u g g g g h h h g h h h h g g g g h h h h h h h h h h h h h h h h h h h h h h h h h h h h h h h h h h h h h h h h h h h h h h h h h h h h h h h h h h h h h h h h h h h h h h h h h h h h h h h h h h g g g g h z z h h g h h h h h h h h h h h h h h h h h h h h h h h h h h h h h h h h h h h h h h h h h h h h h h h h h h h h h h h h h h h h h h h h h h h h h h h h h h h h h h h h h h h h h h h h g h h y 2 3 3 ; o $ % $ $ $ $ $ # # # # # # # # @ @ @ @ @ @ @ @ @ @ # # # # # @ @ @ @ @ @ @ @ @ # $ $ $ $ $ $ $ $ $ $ $ $ $ $ $ $ $ # # # $ $ $ $ $ $ $ # # $ $ $ $ $ $ # @ # # $ $ $ $ $ $ $ $ $ $ $ $ $ $ # # $ $ $ $ @ $ @ & $ $ $ $ $ $ % $ $ % * * & % % % % % % % % % % % % % % % % % * * % % % % % & * & & % % % % % % % % % % % $ $ $ $ $ $ $ $ $ $ $ $ $ # $ # # # # # # # # # # # # # $ $ $ $ # # # # @ @ # # # # $ # # @ # $ ",
"& # $ # = 3 3 3 4 d h g g g g g g g g g h h h h h h h h h h h h h h h h h h h h g g g g g g g g g g g g h h h h h h h h h h h h h h h h h h h g g g g g g g g g g g g g h h h h h h h h g g d s s d s 8 , 2 < , : , < , < < < < 8 q y s u s d d z g e 5 3 3 2 2 < 2 4 5 0 r s s u u u u r r w q q q q q 0 0 0 q q y g h h h h h h h h h h h h h h h h h h h h h h h h h g d u y u s s s y u d h g g g g h h h h h h h h h h h h h h h h h h h h h h h h h h h h h h h h h h h h h h h h h h h h h h h h h h h h h h h h h h h h h h h h h h h h h h h h h h h h h h h h h h h h h h h h h h h h h h h h h h h h h h h h h h h h h h h h h h h h h h h h h h h h h h h h h h h h h h h h h h h h h h h h h h h h h h h h h h h h h h h h h h h h h h h h h h h h h h h h h h h h h h h h h h h h h h h h g h h y < 3 3 ; $ $ $ $ $ $ $ $ $ $ $ $ $ $ $ $ # # # # $ $ $ $ $ $ $ $ $ $ $ $ # # # # # # # # $ $ $ $ $ $ $ $ $ $ $ $ $ $ $ $ $ $ # # # # $ $ $ $ $ $ $ $ $ $ $ $ $ $ $ $ $ $ $ $ $ $ $ $ $ $ $ $ $ $ $ $ # # $ $ $ $ $ $ $ $ $ $ $ $ $ $ $ $ $ $ $ $ # $ $ $ $ $ $ $ $ $ $ $ $ $ $ $ $ $ # # $ $ $ $ # # $ $ $ $ $ $ $ $ $ $ $ $ # # $ $ $ $ $ $ $ $ # # $ $ $ $ $ $ $ $ $ $ $ $ $ $ $ $ $ $ # # # # # # # # $ $ $ $ $ $ $ $ $ $ # # ",
"& # $ # = 3 3 3 4 d h g g g g g g g g g h h h h h h h h h h h h h h h h h h h h g g g g g g g g g g g g h h h h h h h h h h h h h h h g h h h g h h h h h h h h h h g g h h h h h h h h h g g g s d s q < < , , = , 2 < < < < < , < < 2 8 0 q q q 2 , 3 < 2 3 4 3 2 9 g z h h h h h h h z z z z z z h z z z z x g g h h h h h h h h h h h h h h h h h h h h h h h h h h h g d u u u s s u s g h h h h h g h h h h h h h h h h h h h h h h h h h h h h h h h h h h h h h h h h h h h h h h h h h h h h h h h h h h h h h h h h h h h h h h h h h h h h h h h h h h h h h h h h h h h h h h h h h h h h h h h h h h h h h h h h h h h h h h h h h h h h h h h h h h h h h h h h h h h h h h h h h h h h h h h h h h h h h h h h h h h h h h h h h h h h h h h h h h h h h h h h h h h h h h h h h h h h h g h h y < 3 3 ; $ $ $ $ $ $ $ $ $ $ $ $ $ $ $ $ # # # # $ $ $ $ $ $ $ $ $ $ $ $ # # # # # # # # $ $ $ $ $ # $ $ $ $ $ $ $ $ $ $ $ $ # # # # # $ $ $ $ $ $ $ $ $ $ $ $ $ $ $ $ $ $ $ $ $ $ $ $ $ $ $ $ $ $ $ # # $ $ $ $ $ $ $ $ $ $ $ $ $ $ $ $ $ $ $ $ # # $ $ $ $ $ $ $ $ $ $ $ $ # # $ # # $ $ $ $ $ # # $ $ $ $ $ $ $ $ $ $ $ $ # # $ $ $ # $ $ $ $ # # $ $ $ $ $ $ $ $ $ $ $ $ # # $ $ $ $ # # # # # # # # $ $ $ $ $ $ $ $ $ $ # # ",
"& # $ # = 3 3 3 4 d h g g g g g g g g g h h h h h h h h h h h h h h h h h h h h g g g g g g g g g g g g h h h h h h h h h h h h h h h h h g g g g g g g g g g g g g g g h h h h h h h h h h h g g g s r 2 < < < * , 2 2 2 2 2 2 2 2 < , , < 2 2 3 3 3 3 4 3 2 < 2 0 s g g g g g g g g g g g g h h h h h h g g h z h h h h h h h h h h h h h h h h h h h h h h h h h h h h h g d s u u s u s d d d d d d g g h h h h h h h h h h h h h h h h h h h h h h h h h h h h h h h h h h h h h h h h h h h h h h h h h h h h h h h h h h h h h h h h h h h h h h h h h h h h h h h h h h h h h h h h h h h h h h h h h h h h h h h h h h h h h h h h h h h h h h h h h h h h h h h h h h h h h h h h h h h h h h h h h h h h h h h h h h h h h h h h h h h h h h h h h h h h h h h h h h h h h h h h h h h h h h g h h y < 3 3 : $ $ $ $ $ $ $ $ $ $ $ $ $ $ $ $ # # # # $ $ # # $ $ $ $ $ $ $ $ # # # # # # # # $ $ $ $ # # $ $ $ $ $ $ $ $ $ $ $ $ $ # $ $ $ $ $ $ $ $ $ $ $ $ $ $ $ $ $ $ $ $ $ $ $ $ $ $ $ $ $ $ $ $ $ $ $ $ $ $ $ $ $ $ $ $ $ $ $ $ $ $ $ $ $ $ $ $ # # $ $ $ $ $ $ $ $ $ $ $ $ # # $ $ $ $ $ $ $ $ $ # $ $ $ $ $ $ $ $ $ $ $ $ $ $ $ $ # # $ $ $ $ # # $ $ $ $ $ $ $ $ $ $ $ $ # # $ $ $ $ # # # # # # # # $ $ $ $ $ $ $ $ $ $ $ # ",
"& # $ # = 3 3 2 4 d h g g g g g g g g g h h h h h h h h h h h h h h h h h h h h g g g g g g g g g g g g h h h h h h h h h h h h h h h h h g d d u u s s s s s s g g g g h h h h h h h h h h h h z g s r 2 < < < & : 2 2 2 2 2 < < 2 2 2 < 2 2 2 2 2 2 2 2 2 3 3 y d h g g g g g g g g d d d g h z h h h d s s d h h g g g h h h h h h h h h h h h h h h h h h h h h h h h h h g g s u u y u u u u u u u d g g h h h h h h h h h h h h h h h h h h h h h h h h h h h h h h h h h h h h h h h h h h h h h h h h h h h h h h h h h h h h h h h h h h h h h h h h h h h h h h h h h h h h h h h h h h h h h h h h h h h h h h h h h h h h h h h h h h h h h h h h h h h h h h h h h h h h h h h h h h h h h h h h h h h h h h h h h h h h h h h h h h h h h h h h h h h h h h h h h h h h h h h h h h h h h g h h y 2 3 3 : $ $ $ $ $ $ $ $ $ $ $ $ $ $ $ $ # # # # $ # # # $ $ $ $ $ $ $ $ # # # # # # # # $ $ $ $ # # $ $ $ $ $ $ $ $ $ $ $ $ $ # $ $ $ $ $ $ $ $ $ $ $ $ $ $ $ $ $ $ $ $ $ $ $ $ $ $ $ $ $ $ $ $ $ $ $ $ $ $ $ $ $ $ $ $ $ $ $ $ $ $ $ $ $ $ $ $ # $ $ $ $ $ $ $ $ $ $ $ $ $ # # $ $ $ $ $ $ $ $ $ $ $ $ $ $ $ $ $ $ $ $ $ $ $ $ $ $ # # $ $ $ $ $ $ $ $ $ $ $ $ $ $ $ $ $ $ # # $ $ $ $ # # # # # # # # $ $ $ $ $ $ $ $ $ $ # # ",
"& # $ # < 3 3 2 4 d g g g g g g g g g g h h h h h h h h h h h h h h h h h h h h h h h h h h h h h h h h h g g g g g d s s d g g h h h h z g s u s s s s s s s g h h h h h h h h h h h h z z h g g d s y 2 2 < < * ; 2 3 2 2 < < < < < < 2 3 2 < 2 2 < < < 5 e s g g g g d s u u u u s d g g g g h h h g g g d s g h g g g g h h h h h h h h h h h h h h h h h h h h h h h h h h g s u u u u u u u s s u g g h h h h h h h h h h h h h h h h h h h h h h h h h h h h h h h h h h h h h h h h h h h h h h h h h h h h h h h h h h h h h h h h h h h h h h h h h h h h h h h h h h h h h h h h h h h h h h h h h h h h h h h h h h h h h h h h h h h h h h h h h h h h h h h h h h h h h h h h h h h h h h h h h h h h h h h h h h h h h h h h h h h h h h h h h h h h h h h h h h h h h h h h h h h h h h g h z r 2 3 3 , $ $ $ $ $ $ $ $ $ $ $ $ $ $ $ $ $ $ $ # @ @ @ @ $ $ $ $ $ $ $ $ $ # $ $ $ $ $ $ $ # # # $ $ $ $ $ $ $ $ # # # # $ $ $ $ $ $ $ $ $ $ $ $ $ % % % $ $ $ $ # # # # $ $ $ $ $ $ $ $ $ $ $ $ $ $ % $ $ $ % % % $ $ $ $ $ $ $ $ $ $ $ $ $ $ $ # # # # # # $ $ $ $ $ $ $ $ $ $ $ $ % % % % % % % % % % % % % % % % % % % % % % % % % % % % % % % % % $ $ $ $ $ $ $ $ $ $ $ $ $ # # # # $ $ $ $ # # # # $ $ $ % % $ $ $ $ $ $ $ ",
"& # $ # < 3 3 2 3 d z g g g g g g g g g h h h h h h h h h h h h h h h h h h h h h h h h h h h h h h h g g g h h g d s s s s g h h h h h g d s u u u u u s u s g h h h h g g g g g g g g g g g s u u s u 2 2 2 2 * = 2 2 2 2 2 2 < < < < 2 < < < 3 2 2 5 q u s y s s s s u u u u d d g g g g g g g g d s d g g g g h g g u s d d h h h h h h h h h h h h h h h h h h h h h h h h g s u u u u u u u y u s g g h h h h h h h h h h h h h h h h h h h h h h h h h h h h h h h h h h h h h h h h h h h h h h h h h h h h h h h h h h h h h h h h h h h h h h h h h h h h h h h h h h h h h h h h h h h h h h h h h h h h h h h h h h h h h h h h h h h h h h h h h h h h h h h h h h h h h h h h h h h h h h h h h h h h h h h h h h h h h h h h h h h h h h h h h h h h h h h h h h h h h h h h h h h h h h h g z 9 2 3 2 , $ $ $ $ $ $ $ $ $ $ $ $ % % $ $ % % $ @ @ @ @ @ + + + + + + + + + + + + @ @ @ @ $ $ $ $ # # # # # # # # $ $ $ $ # # # # # # # # # # # # $ $ $ $ $ $ $ $ $ $ $ $ $ $ $ $ $ $ $ $ $ $ $ $ $ $ % $ $ $ $ $ $ # # # $ $ $ $ $ $ $ # # @ @ @ @ @ @ @ @ @ $ $ $ $ $ $ $ $ $ $ $ $ $ $ $ $ $ $ $ $ $ $ $ $ $ $ $ $ $ $ $ $ $ $ $ $ $ $ $ $ $ $ $ $ $ $ % % % % % $ $ $ $ $ $ $ $ # # @ $ $ # # $ $ $ $ $ $ # @ & % % $ $ $ $ $ ",
"& # $ # < 3 3 2 3 e g h g g g g g g g g h h h h h h h h h h h h h h h h h h h h h h h h h h h h h h h h h h h g u y y r u s g z z z z z z h h g u u u u s u s g h h h h g g g g g g g g g d s u u s s s 2 2 2 2 * = 2 2 2 2 2 2 2 2 2 3 4 3 < , 5 7 e u g u y u u u u u u u u u g g h h g g g g d s u u s s d g g h g g y u s s h h h h h h h h h h h h h h h h h h h h h h h h g s u u u u u u s u s g g h h h h h h h h h h h h h h h h h h h h h h h h h h h h h h h h h h h h h h h h h h h h h h h h h h h h h h h h h h h h h h h h h h h h h h h h h h h h h h h h h h h h h h h h h h h h h h h h h h h h h h h h h h h h h h h h h h h h h h h h h h h h h h h h h h h h h h h h h h h h h h h h h h h h h h h h h h h h h h h h h h h h h h h h h h h h h h h h h h h h h h h h h h h h h h h h g s 4 2 3 2 , $ $ $ $ $ $ $ $ $ $ $ $ $ $ @ + + @ $ % % * ; ; < < < < < < < < < < , , , , , , ; ; ; ; = = = = = = = * * * * % % $ $ $ $ $ $ $ $ $ $ $ $ $ $ $ $ $ $ $ $ $ $ $ $ $ $ $ $ $ $ $ # @ @ @ @ @ @ @ $ $ # @ @ @ @ @ @ @ @ @ @ @ @ @ @ @ @ @ + + + + + + + + + + @ + + + + + + + o o o o o o o o o o o o o o o o o o o o o o o o o o o o o o o o + + + + @ @ @ @ @ @ @ @ @ @ @ @ @ @ @ @ @ @ # $ $ $ % $ @ + o + $ $ $ $ $ $ ",
"& # $ # < 3 3 2 2 3 y z g g g g g g g g h h h h h h h h h h h h h h h h h h h h h h h h h h h h h h h h d u e 0 5 4 3 2 < 3 7 0 w w w w r r y y y r r r y r y s d d d d s s s s s s s s y r r e q 0 8 5 2 2 2 2 * = 2 2 2 2 2 2 2 3 3 3 2 3 7 0 r u s u u s s u u s s s u u u u s d g g g g g g s u u u u s s s g h g g u s d d h h h h h h h h h h h h h h h h h h h h h h h h g s u u u u u u s g z h g h h h h h h h h h h h h h h h h h h h h h h h h h h h h h h h h h h h h h h h h h h h h h h h h h h h h h h h h h h h h h h h h h h h h h h h h h h h h h h h h h h h h h h h h h h h h h h h h h h h h h h h h h h h h h h h h h h h h h h h h h h h h h h h h h h h h h h h h h h h h h h h h h h h h h h h h h h h h h h h h h h h h h h h h h h h h h h h h h h h h h h h h h h h h h h h g z q 2 2 3 2 , $ $ $ $ $ $ $ $ $ $ $ $ o $ , 3 u g v G ) ] o.;.;.;.;.;.;.;.;.;.&.&.%.%.%.%.%.%.%.%.%.%.| | | | | | | | P P P P C C C C C C C C C C C C m m m m v v v v v v v v v v v v v v v v z z z z C C C C v x z z h z z z z z z z z z z z z h h h h h h h v v v v m m m m m v v v v x x x x x x x x x x x x x x x x x x x x x x x x x x x x x x x x x x x z z z z d d d d d d d d h h h h z z z z z x x x v x h g r 3 $ + # $ $ $ ",
"& # $ # : 2 2 2 2 2 3 5 s g h z h h h h h h h h h h h l h h h h h h z z z z z z z h h h z g s u r q 7 4 3 3 3 3 3 2 2 2 2 2 2 3 3 3 3 3 2 2 3 3 3 3 2 < < 2 2 3 2 2 2 2 2 2 2 2 3 2 2 < < < < < , , < , 3 , , , $ = 2 2 2 2 2 2 2 < 2 4 q y d d u u u u u u u u s s s u u u u s d g g g g g g g u y y u u u u s u d g h g g g g h h h h h h h h h h h h h h h h h h h h h h h g u u u u u s d g h h h h h h h h h h h h h h h h h h h h h h h h h h h h h h h h h h h h h h h h h h h h h h h h h h h h h h h h h h h h h h h h h h h h h h h h h h h h h h h h h h h h h h h h h h h h h h h h h h h h h h h h h h h h h h h h h h h h h h h h h h h h h h h h h h h h h h h h h h h h h h h h h h h h h h h h h h h h h h h h h h h h h h h h h h h h h h h h h h h h h h h h h h h h h h h g g h h h h e 3 2 2 2 2 2 $ $ $ $ $ @ @ & # + & 9 z R >.>.4.4.4.4.1.>.;.;.;.;.;.;.;.;.;.;.;.;.&.&.&.&.&.&.&.&.&.&.&.&.&.&.&.&.&.&.| ] ! R R R ) | | | | | ! R ) ) ) ) ) ) ) ) ] ] | | ] ) ) ] ] ] ] ) ) ) ) ) ) ) &.4.8.>.>.! ) | | | | | | | | | | | | | | ] | | | | | | | o.;.4.4.4.1.4.4.4.4.4.4.4.4.4.4.4.4.4.4.4.4.4.4.4.4.4.4.4.4.4.4.4.4.4.4.4.4.4.4.4.4.4.4.4.4.4.4.4.4.4.%.| ] | | | | | | | | | ] ] ] ] ) ) ) ] ] ] | | ) ] s $ @ $ $ $ ",
"& # $ # : 2 2 2 2 2 2 2 3 5 8 q 8 8 8 8 8 8 7 7 7 7 7 8 7 7 7 7 7 7 8 8 8 9 0 9 9 8 8 8 4 2 < , 3 2 2 2 3 3 3 3 3 3 3 2 2 2 3 3 3 3 3 3 3 3 3 4 4 3 2 2 < 2 3 3 3 2 2 2 2 2 2 2 3 2 2 < < < 2 < < < 2 < < 3 < & $ = 2 2 2 2 2 2 2 5 r d z h d u u u u u u u u u s s s u u u u s d g g g g g g g s u u u u u u u s g g h g g g g h h h h h h h h h h h h h h h h h h h h g g d s u u u u s d g h h h h h h h h h h h h h h h h h h h h h h h h h h h h h h h h h h h h h h h h h h h h h h h h h h h h h h h h h h h h h h h h h h h h h h h h h h h h h h h h h h h h h h h h h h h h h h h h h h h h h h h h h h h h h h h h h h h h h h h h h h h h h h h h h h h h h h h h h h h h h h h h h h h h h h h h h h h h h h h h h h h h h h h h h h h h h h h h h h h h h h h h h h h h h h h h h g d g z e 4 2 2 2 2 2 2 $ $ $ $ $ # $ + $ r ] 8.1.;.%.o.o.%.%.%.&.;.;.;.;.;.;.;.;.;.;.;.;.;.&.&.&.&.&.&.&.&.&.&.&.&.&.&.&.&.&.&.R R P P R ] o.%.%.%.%.%.o.! R ) ! ! R R R P P P R R P P P P J J P P P P P P P P ] o.%.%.o.P R R R R R R R R R R R R R R R P R R R R R R P R ) ] o.%.&.%.&.%.&.&.&.&.&.&.&.&.&.&.&.&.&.&.&.&.&.&.&.&.&.&.&.&.&.&.&.&.&.&.&.&.&.&.&.&.&.&.&.&.&.&.%.| R P R R R R R R R R P P P P P P P P P P R R G J | 4 @ $ $ $ ",
"& # $ # : 2 2 < 3 3 3 3 3 2 2 < 2 2 2 2 3 3 3 3 3 3 3 3 3 3 3 3 3 3 3 3 2 2 2 2 2 < < 2 2 2 2 2 2 3 3 3 3 2 2 2 2 2 2 2 2 2 2 2 2 2 2 2 2 2 2 3 3 2 2 < , < 2 2 2 2 2 2 < < < 2 2 2 < , , , < , , , < , : = & * $ ; 3 2 2 2 2 2 s g h x g d d s s u u u u u u u s s s u u u s d g g g g g g g g g d s s s s u u d g h h g g g g h h h h h h h h h h h h h h h h h h h h g d s y u u u u u s d g h h h h h h h h h h h h h h h h h h h h h h h h h h h h h h h h h h h h h h h h h h h h h h h h h h h h h h h h h h h h h h h h h h h h h h h h g g g g h h h h h h h h h h h h h h h h h h h h h h h h h h h h h h h h h h h h h h h h h h h h h h h h h h h h h h h h h h h h h h h h h h h h h h h h h h h h h h h h h h h h h h h h h h h h h h h h h h h h h h h h h h h h h h h h h h h h d z h q 3 2 3 3 2 2 2 2 $ $ $ $ # % + 2 | 8.;.;.| o.;.>.;.;.&.;.;.;.;.;.;.;.;.;.;.;.;.;.;.;.;.;.&.&.&.&.&.&.&.&.&.&.&.&.&.&.&.&.P P R R | o.;.;.&.;.;.;.;.o.) R ! ! ) ) ! ! ! ! ! ) ) ) | ] R P R R R R R R R R ) ] o.;.o.) ] ! R R R R ! ! ! ! ! ! ! R R R R R R R ! R R R R ! | ;.>.;.;.;.;.;.;.;.;.;.;.;.;.;.;.;.;.;.;.;.;.;.;.;.;.;.;.;.;.;.;.;.;.;.;.;.;.;.;.;.;.;.;.;.;.;.>.;.| ! R R R R R R R R R R R R R R ! ! R R R R R P R 8 @ $ $ $ ",
"& # $ # + % & % # % = = * * * * * * * * = = = * * * = = = * * * * * * * * * * & & % % % & * * * * * % % * * * * * & & % % % & * * * * * & & * * * * % $ $ % & * & % % % % % % % * % % $ $ $ $ $ # # $ $ $ $ $ % $ ; 3 2 2 2 2 2 d h g g g d s u u u u u u u u u s s s s u u s g g g g g g g g g g g g d d s s s g g h g g g g g h h h h h h h h h h h h h h h h h h h h g d u u u u u u y u s g h h h h h h h h h h h h h h h h h h h h h h h h h h h h h h h h h h h h h h h h h h h h h h h h h h h h h h h h h h h h h h h h h h h h h h h h g g g g h h h h h h h h h h h h h h h h h h h h h h h h h h h h h h h h h h h h h h h h h h h h h h h h h h h h h h h h h h h h h h h h h h h h h h h h h h h h h h h h h h h h h h h h h h h h h h h h h h h h h h h h h h h h h h h h h h h h v g 0 2 < 2 3 2 2 2 2 2 $ $ $ $ # + 4 ;.>.| ;.o.%.%.&.&.&.%.&.&.&.&.;.;.;.;.;.;.;.;.;.;.;.;.;.;.&.&.&.&.&.&.&.&.&.&.&.&.&.&.&.&.R ! ] | %.&.;.>.;.;.;.;.;.;.o.) ) ) ) ! ! R R R R R ) ] &.o.] ) R R R R R R R R P P ] ;.o.] | R R R R R R R R R R R R R R P R R R R R R ! ! R R ! &.1.%.%.%.%.%.&.&.&.&.&.&.&.&.&.&.&.&.&.&.&.&.&.&.&.&.&.&.&.&.&.&.&.&.&.&.&.&.&.&.&.&.&.&.&.&.%.;.%.| R R R R R R R R R R R R R ! ) ! R R R R ) ) ] 8 @ % $ $ ",
"& # $ # $ % # & $ @ @ X o o o o o o o o + + + + + + + + @ @ # # # # $ $ + + + + @ @ @ @ $ $ $ $ $ $ $ $ + + + @ @ @ + o $ O o + o o o o @ + o o X + + o + o o @ @ @ @ @ $ $ # @ # $ % & % % % $ $ # @ @ $ $ $ $ $ ; 3 2 2 3 < y h h h h h g s u u u u u u u u u s s s s u s d g g g g g g g g g h h h h g g g g g g g g h h h h s s d h h h h h h h h h h h h h h h h h g g s u u u u u u u u u s g h h h h h h h h h h h h h h h h h h g g h h h h h h h h h h h h h h h h h h h h h h g g g g g g g g h h h h h h h h h h h h h h h h h h h h g s u u s h g g h h h h h h h h h h h h h h h h h h h h h h h h h h h h h h h h h h h h h h h h h h h h h h h h h h h h h h h h h h h h h h h h h h h h h h h h h h h h h h h h h h h h h h h h h h h h h h h h h h h h h h h h h h h h h h h h h 5 < < 3 3 3 3 2 2 2 2 * $ $ $ $ , ] ;.%.>.%.;.;.>.o.;.>.;.;.o.| ] R P R R R R ] | %.;.>.>.;.;.;.%.%.&.;.;.;.;.;.&.&.&.&.&.%.%.%.%.%.%.&.&.;.;.;.;.;.;.;.;.&...R ! ! R R R R ! ] | %.;.;.&.;.] G P R ) ) ) ) ! R R R R o.;.o.P ! ! ! ! R R R R R R R R R R R R P P P P G J R ! ] %.;.o.;.;.;.&.&.&.&.&.;.;.;.;.&.&.&.&.;.;.;.;.;.;.&.&.&.&.&.&.;.;.;.&.&.&.;.;.;.;.&.&.&.&.&.;.;.;.;.;.) ) ! ! ! ! R R R R R R R R ! ! R R R R ) P | 7 + % $ $ ",
"& # $ $ $ # $ @ o $ 3 y h h h h v v v v m m m m C C C C v v v m m m m m m m m m m m m m m m m m m m m m v v v x x x v m m v v v x x x x g d d s y 0 8 8 5 3 2 4 2 , : ; $ $ @ @ + o + o X o @ $ % % $ @ $ $ $ $ $ ; 3 2 2 2 5 g h h h h h g s u u u u u u u u u s s s s u s d h g g g g g g g g h h h h h h h h g g g g h g d s u u s g h h h h h h h h h h h h h h h h h g d s u u u u u u u u u s d h h h h h h h h h h h h h h h h h x z g s h h h h h h h h h h h h h h h h h h h h h h h h g g g g h h h h h h h h h h h h h h h h h h g g d s u u s h g g h h h h h h h h h h h h h h h h h h h h h h h h h h h h h h h h h h h h h h h h h h h h h h h h h h h h h h h h h h h h h h h h h h h h h h h h h h h h h h h h h h h h h h h h h h h h h h h h h h h h h h h h h h h h h h h h 0 2 3 2 3 3 3 3 2 2 2 2 * $ $ $ + s q.&.;.%.>.&.;.%.4.%.>.] C z z h g d d d d d d g h z G P ] o.;.1.1.%.&.;.;.;.;.;.&.&.&.&.;.;.;.;.;.;.;.;.;.;.;.;.;.;.;.;.&.&.! R R R R ! ) ] %.;.>.;.&.&.;.) P R R R R R R R ] ] ] ] %.;.%.) ) ) ) ) ) ) ) ! ! R ! ! ! ) ) ) ] ] ] ] ] ] ) ) R | &.%.;.;.;.&.;.&.&.&.;.;.;.;.;.&.&.&.;.;.;.;.;.;.&.&.&.&.&.&.;.;.&.&.&.&.;.;.;.;.&.&.&.&.;.;.;.;.;.;.) ) ! ! ! ! R R R R R R R R ! ! ! R R R ) P | 7 + % $ $ ",
"& # $ @ # % @ + 8 | >.8.>.>.1.1.1.1.4.4.4.4.4.1.>.>.>.>.] ] ] ) ) ) ) ! ! ! ! ! R R R R ] ] ] ] ] ] ] ] ] ] ] ) ) ) ] | ;.>.4.4.8.8.8.8.q.8.8.4.8.%.] ) ) ) o.>.4.>.&.o.| ) J m h d y w 4 < * @ o + @ $ $ $ $ $ % : 3 2 3 < e x h h h h h g s u u u u u u u u u s s s s u s d h g g g g g g g g h h h h h h h h g g g g g d s u u u s g h h h h h h h h h h h h h h h h h g g s u u u u u u u u u u d z h h h h h h h h h h h h h h h h h h g g h h h h h h h h h h h h h h h h h h h h g g g g g g g g h h h h h h h h h h h h h h h h h g g d u s u y s h g g h h h h h h h h h h h h h h h h h h h h h h h h h h h h h h h h h h h h h h h h h h h h h h h h h h h h h h h h h h h h h h h h h h h h h h h h h h h h h h h h h h h h h h h h h h h h h h h h h h h h h h h h h h h h h h h h 5 2 3 2 3 3 3 3 2 2 2 2 * $ $ $ : o.%.;.;.%.>.&.;.&.;.R z h g g z h h h h h h g g g h h d g g h x m ! | ;.;.>.>.;.;.&.&.&.&.;.;.;.;.;.;.;.;.;.;.;.;.;.;.;.;.;.;.| ! ! ! R ] %.>.>.;.;.;.>.>.>.| ] ) ) ) P P P P C C C C z z z h h h h h g g g g g g g g s s s d d d d g v m G P ) o.;.&.;.;.;.;.;.;.&.&.;.;.;.;.;.;.&.&.;.&.;.;.;.;.;.;.;.;.&.;.;.;.;.;.&.&.&.;.;.;.&.&.;.;.;.;.;.;.;.;.) ) ! ! ! ! R R R R R R R R ) / ! ! R R ) P | 7 + % $ # ",
"& # $ # * % # d >.;.%.o.o.%.%.%.%.%.%.%.%.%.%.%.%.%.%.%.R R R R R R R R R R R R P P P P P P R P P P P R R R R R ! R P P ] &.>.;.;.;.;.;.;.%.%.o.%.%.| ! ) ! ] %.;.;.;.;.;.>.>.>.e.q.8.8.;.o.) P d 5 $ + $ % $ $ % : 3 2 3 3 s z h h h h h g s u u u u u u u u u s s s s u s d h g g g g g g g g h h h h h h h h g g g g u u u u s s d h h h h h h h h h h h h h h h h h h h g d s u u u u u u u u d g h h h h h h h h h h h h h h h h h h h h g h h h h h h h h h h h h h h h h h h h h d d d d g g g g h h h h h h h h h h h h h h h h h g d s y u s y s h g g h h h h h h h h h h h h h h h h h h h h h h h h h h h h h h h h h h h h h h h h h h h h h h h h h h h h h h h h h h h h h h h h h h h h h h h h h h h h h h h h h h h h h h h h h h h h h h h h h h h h h h h h h h h h h h h h 0 2 2 < 3 3 3 3 3 2 2 2 * $ $ $ q 4.;.1.&.>.%.;.%.>.P z h h z z h h h h g g g g h h g g g g h h d g g g v J ] ] &.;.&.;.&.&.%.%.%.%.%.%.&.&.;.;.;.;.;.;.;.;.;.;.>.| | | ;.;.&.%.&.;.;.;.| | | P z h g d u u u u y y y y r r r y u u u u u u u y y y y y r r r r r r r e e e e e y z R ] ;.;.;.;.;.;.&.&.&.&.;.;.;.;.&.&.&.&.;.;.;.;.;.;.;.;.;.;.;.;.;.;.&.&.&.&.;.;.&.&.;.;.;.;.;.;.;.;.) ) ! ! ! ! R R R R R R R R ) ) ! ! R R ) P | 7 + % $ # ",
"& # $ # * + s e.;.;.;.;.;.;.;.;.;.;.=.&.&.&.&.&.&.&.&.&.o.| ) P P P R R R R ! ! R R R R R R ! ! ) ) ! R R R R R R R R R ;.;.;.&.&.&.;.;.&.%.%.%.%.%.%.%.&.&.;.;.;.;.&.&.&.&.&.&.%.o.] R P ) o.;.;.>.m ; + % % $ % , 3 2 3 4 h h h h h h z g s y u u u u u u u u u u u u u u s d g h h h g g g g h h g g h h h h g d s u u u u u s g h h h h h h h h h h h h h h h h h h g g g g g d s u u u s g g g h h h h h h h h h h h h h h h h h h h h h h h h h h h h h h h h h h h h h h h h d u u u u u u g h h h h h h h h h h h h h h h h h h d s u y y u s s g g g g h h h h h h h h h h h h h h h h h h h h h h h h h h h h h h h h h h h h h h h h h h h h h h h h h h h h h h h h h h h h h h h h h h h h h h h h h h h h h h h h h h h h h h h h h h h h h h h h h h h h h h h h h h h h h h h h y 2 2 4 3 3 3 3 3 3 3 3 = @ $ o z 4.;.;.%.;.&.>.o.v d h g g g g h h h h h h h h h h h h h h h h g g g g g g g g v C R ] &.&.&.&.;.;.;.;.;.;.&.%.%.%.o.o.o.o.| | P P P P G v g d d g h h h h h h s u u y u u u u u u u u u u u u u u u u u u u u u u u u u u u u u u u u u u u u y u d h z z x v G J R ! | | o.%.4.1.>.>.1.1.>.;.>.;.&.%.%.%.%.%.%.%.&.&.&.&.;.;.;.;.;.;.;.;.>.>.o.;.1.>.) ! ! R R R R R R P R ) ! ! ! ! P ! P m g r 7 ; $ $ $ $ ",
"& # $ # @ ; q.%.;.;.;.;.>.>.>.;.;.;.;.&.%.%.%.%.%.%.%.&.&.%.o.| P P R R R R ) ) ) ) ) ! R R R R R R R P P P P P P P P P ] ] ] ] R ) | %.;.;.;.;.&.%.%.%.&.;.;.;.;.;.&.&.&.&.&.&.| ] ) R R R ! ) R ! o.s $ $ % @ % , 3 2 2 7 h h h h h g g d u u u u u u u u u u u u u u u u u s g h h h h h h h g g h h h h h g s s u s u u u u s g h h h h h h h h h h h h h h h h h h g g g g g g g d u s g h h h h h h h h h h h h h h h h h h h h h h h h h h h h h h h h h h h h h h h h h h h d u u u u u u d g h h h h h h h h h h h h h h h h h d s u y s s g g g g g g h h h h h h h h h h h h h h h h h h h h h h h h h h h h h h h h h h h h h h h h h h h h h h h h h h h h h h h h h h h h h h h h h h h h h h h h h h h h h h h h h h h h h h h h h h h h h h h h h h h h h h h h h h h h h h h h g u 5 2 3 3 3 3 3 3 3 3 = @ $ # ) 8.%.o.&.%.;.o.v h h h g g g g h h h h h h h h h h h h h h h h g g g g g g g g g h h z z z z z z z z z x x x z z z z z g g g g g g g g g d s y y y u s h h h h d u u u u u u u u u u u u u u u u u u u u u u u u u u u u u u u u u u u u u u u y u s d h g d d d g g g h h z z v m C G ) ] | | o.o.%.;.;.>.;.>.;.;.;.;.;.;.&.&.&.&.%.&.&.&.%.%.;.;.%.| ) R ! ! ) ) ) ] | ] R C g g g g h y 5 < , , < ; $ $ $ $ ",
"& # $ # o g 1.>.;.;.;.;.;.;.;.;.;.;.>.>.;.;.;.;.;.;.;.>.>.>.>.>.| | | | ! ! ! ! R ! ) ) ) ) ) ) ) ! R R ) ) ] ] ] ] ] ) ) ! ! ! R R R R o.o.o.o.+.%.%.%.;.;.;.;.;.;.&.&.&.&.&.&.) ) ! ! ! ! R R R P R ] * @ % + & , 2 2 2 q z z g g g d s s s s s u u u u u u u u u u u u u u u s g g h s s s s d g h h h g g d u u u s u u u u g h h g h h h h h h h h h h h h h h h h g g g g g g g g s g h h h h h h h h h h h h h h h h h h h h h h h h h h h h h h h h h h h h h h h h h h h h d u u u u u u s d h h h h h h h h h h h h h h h h h d d d s g g h h g g g g h h h h h h h h h h h h h h h h h h h h h h h h h h h h h h h h h h h h h h h h h h h h h h h h h h h h h h h h h h h h h h h h h h h h h h h h h h h h h h h h h h h h h h h h h h h h h h h h h h h h h h h h h h h h h h h h g z r 3 3 3 3 3 3 3 3 3 = $ @ = | >.;.;.;.%.>.! d h z h h g g g h h h h h h h h h h h h h h h h g g g g g g g h z z h g g g g g g g g g g g g g g g h h h h h h h h h h h g g g s s d g g h h h g s s s u u u u u u u u u u u u u u u u u u u u u u u u u u u u u u u u u u u u u u u u h h g h h h g g h h g g h g d d d g h h z z x v P J J J | | | | ;.;.;.;.;.;.;.;.8.4.>.&.>.>.%.] P G G G m v z h d g g s y y u y u s e 4 < , < ; $ $ $ $ ",
"& # $ # + 8 >.%.;.;.;.;.o.| | | | | | | ] ] ] ] ] ] ] ] | | | | | | | | ! ! ! ! G G G G G C C C C m m v x x x x x x x x C C C C G P ! ) ) ) ) ) } ..%.%.&.;.;.;.;.;.&.&.&.&.&.&.R R R R R R ) ) ] R ) G ; + $ + * , 2 2 2 y z z f f d u u u s s s u u u u u u u u u u u u u u u y u s d u u u u s s d d g d s u s s u y d d d d h z z g h h h h h h h h h h h h h h h h g g g g g g g g g h h h h h h h h h h h h h h h h h h h h h h h h h h h h h h h h h h h h h h h h h h h h h d u u u u u u u s h h h h h h h h h h h h h h h h h g g h h h h h h g g g g h h h h h h h h h h h h h h h h h h h h h h h h h h h h h h h h h h h h h h h h h h h h h h h h h h h h h h h h h h h h h h h h h h h h h h h h h h h h h h h h h h h h h h h h h h h h h h h h h h h h h h h h h h h h h h h h g h g 9 3 3 3 3 3 3 3 3 = % @ : %.4.&.o.;.o.>.G h h z h h g g g h h h h h h h h h h h h h h h h g g g g g g g g g g g h g g g g g g g g h h h h h h h l l l h h h h g g g g g g g g h h h h h h g d s s u u u u u u u u u u u u u u u u u u u u u u u u u u u u u u u u u u u u u u y y u s g h z j g g z z g g g g h h z h g g g g d d d g g g g g h h z z z z m m m m m v j g s s s r 0 0 0 0 0 q e r u y r y u u u u u s u y 2 < 2 ; $ $ $ $ ",
"& # $ # = 2 s >.;.%.P v z h g g h h h h h h h h h h h h g g h h h h h g g g g g g g g d s s u u u u u u y y y y y y u y y y u u d d d d z z z z C C G C ] | o.&.;.>.1.4.;.;.4.%.P P R R R R R R R ] P 0 ; + $ @ * < 2 2 2 s z d s s s s s u s s s u u u u u u u u u u u u u u u u u u u u u u u u u u u u u u u s d d g h h h h h h h h h h h h h h h h g g g g g g h h g g g g g g g g d g g h h g d u g g h h h h h h h h h h h h h h h h h h h h h h h h h h h h h h h h h h h h g s s s u u d s s d h h h h h h h h h h h h g g g h h h h h h h h h h h h h h h h h h h h h h h h h h h h h h h h h h h h h h h h h h h h h h h h h h h h h h h h h h h h h h h h h h h h h h h h h h h h h h h h h h h h h h h h h h h h h h h h h h h h h h h h h h h h h h h h h h h h h h h h h h h h h h g g g 3 2 4 3 3 3 3 3 ; & @ 3 1.1.%.;.;.%.%.z h h h h h h h h h h h h h h h h h h h h h h h h h h h h h h h g g g g g h g s d g g g g g g h h h h h h h h h h h h h h g g g g g g g g h h h h g d d s u u u u u u u u u u u u u u u u u u u u u u u u u u u u u u u u u u u u u u u u u u u u h z g d g g g g g g h h h h z z z z h h h g g g g g g g h h h h h h h h u u u y u u u u u u u u u u u u u u u u u u u u u u u u e , 2 * $ $ $ $ ",
"& # $ # : 3 3 u %.%.h z g g g h h h h h h h h h h h h h g g h h h h h h h h h h g d d s u u u u u u u u s s s s s u u y u u u u u u u u y y y y y u u u u s h x C G G P ] ] o.) R R ! ! ! R R R ) J 8 , , $ $ $ * < < 2 3 d g d s s s s s u u u u u u u u u u u u u u u u u u u u u u u u u u u u u u u u u u u g g h h h h h h h h h h h h h h h h h h h g g g g g g g g g g g g g g g h h h h d s s u s d g h h h h h h h h h h h h h h h h h h h h h h h h h h h h h h h h h h h g d u u s s g g g g h h h h h h h h h h h h h h h h h h h h h h h h h h h h h h h h h h h h h h h h h h h h h h h h h h h h h h h h h h h h h h h h h h h h h h h h h h h h h h h h h h h h h h h h h h h h h h h h h h h h h h h h h h h h h h h h h h h h h h h h h h h h h h h h h h h h h h h h h h h h h h h g y 2 3 2 3 3 3 3 ; % @ 3 1.>.&.;.;.;.) h h h h h h h h h h h h h h h h h h h h h h h h h h h h h h h h h g g g g g s y s y s g h h h h h h h h h h h h h h h h h g g g g g g g g h h h g g g d d s s s s s i u u u u u u u u u u u u u u u u u u u u u u u u u u u u u u u u u u u u u u s g h g g g g g g g g g h h h h h z z z g g g g g g g g h h h h h h h h u u u y u u u u u u u u u u u u u u u u u u u u u u u u y 3 2 = $ $ $ $ ",
"& # $ # , 4 < < 5 s h h g h h h h h h h h h h g h h h h g g h h h h h g g g g g d s s u u u u u u u u u s s s s s u u u u u u u u u u u s s s u y u u u u u u y s d g g g g z d g g g g x x x x r , < , 2 % $ # = 2 < 2 4 h s s s s s s s u u u u u u u u u u u u u u u u u u u u u u u u u u u u u u u u u u u d g g h h h h h h h h h h h h h h h h h h g d d g g g g g g g g g g g g h h g d s u u s s g h h h h h h h h h h h h h h h h h h h h h h h h h h h h h h h h h h h h h g u u s s g h h g h h h h h h h h h h h h z h g d h h h h h h h h h h h h h h h h h h h h h h h h h h h h h h h h h h h h h h h h h h h h h h h h h h h h h h h h h h h h h h h h h h h h h h h h h h h h h h h h h h h h h h h h h h h h h h h h h h h h h h h h h h h h h h h h h h h h h h h h h h h h h h h h x 7 2 2 3 3 3 3 : $ + 4 1.&.;.;.;.4.G g h h h h h h h h h h h h h h h h h h h h h h h h h h h h h h h h g g g g g s y s y s g h h h h h h h h h h h h h h h h h g g g g g g g g h h h g g g g g g g g g s i i i u u u u u u u u u u u u u u u u u u u u u u u u u u u u u u u u u u u u s s d g g g g g g g g g g g g g g g g g g g g g g g g g h h h h h h g g s u u u u u u u u u u u u u u u u u u u u u u u u u u u s 8 , : $ $ $ $ ",
"& # $ # , 2 < 3 < u h z h h h h h h h h h h h h h h h h g g h h h h h h s s s s s s s u u u u u u u u u u y y y u u u u u u u u u u u u s s s u u u s u u u u u u u s s d d h s u u u s y y y y e 5 3 2 3 * % $ ; 2 2 2 5 z u u s s s s s u u u u u u u u u u u u u u u u u u u u u u u u u u u u u u u u u u u u u s s h h h h h h h h h h h h h h h h g d s u s d g g g g g g g g g g g d s y s s u y g z h g h h h h h h h h h h h h h h h h h h h h h h h h h h h h h h h h h h h g g s u u d h h d h h h h h h h h h h h h h g s u h h h h h h h h h h h h h h h h h h h h h h h h h h h h h h h h h h h h h h h h h h h h h h h h h h h h h h h h h h h h h h h h h h h h h h h h h h h h h h h h h h h h h h h h h h h h h h h h h h h h h h h h h h h h h h h h h h h h h h h h h h h h h h h h z s 4 3 3 3 3 3 , $ o 5 >.;.&.%.o.;.C g h h h h h h h h h h h h h h h h h h h h h h h h h h h h h h h h g g g g h g s d g g g g g g h h h h h h h h h h h h h h g g g g g g g g h h h g g g h z z h h h g s i i u u u u u u u u u u u u u u u u u u u u u u u u u u u u u u u u u u u u s u u d g g g g g g g g g g g g s s s s g g g g g g g g h h h h h h h h s u u u u u u u u u u u u u u u u u u u u u u u u u u u s e 3 : # # $ $ ",
"& # $ # , 2 2 3 5 d h h h h h h h h h g h h h h h h h h h g g h h h h h d s s s s s s u u u u u u u u s u s s s s u s s s s s s s s s s s s s s u u u u u u u u u u u u s s s s i u u u u u u u u u 5 < 4 * + $ ; 2 2 2 8 z u u u u u u u u u u u u u s s u u u u u u u u u u u s u u d h h h h d s u u s s s u u u u u d g h g h h h h h h h h h h h h h g s y u s s d h h h h j h g d u u u u s u s g h h h h h h h h h h h h h h h h h h h h h h h h h h h h h h h h h h h h h h h h h d u y s d g h h h h h h h h h g g g g g s u u d g h z h h h h h h h h h h h h h h h h h h h h h h h h h h h h h h h h h h h h h h h h h h h h h h h h h h h h h h h h h h h h h h h h h h h h h h h h h h h h h h h h h h h h h h h h h h h h h h h h h h h h h h h h h h h h h h h h h h h h h h h h h h h h h z 4 2 2 2 2 2 , @ + q e.%.;.o.%.o.h h h h h h h h h h h h h h h h h h h h h h h h h h h h h h h h h h h h h h h h h h h h h h h h h h h h h h h h h h h h h h h h h h h h h h h h h h h h h h h h h h h h h h s u u u u u u u u u u u u u u u u u u u u u u u u u u u u u u u u u u u s s s s s s s s s s s s u u u u s s s s s u s g g g g g h h h h h h h h s u u u u u u u u u u u u u u u u u u u u u u u u u u u s u 4 = $ # # $ ",
"& # $ # , 2 2 3 4 s g g g g g g g g g g g g g g g g g g g h g g h h h h g s s s s s s u u y y u u s g g s s s s s s s s s s s s s s s s s s s s u u u u u u u u u u u u u u u u u u u u u u u u u s 0 2 3 * + $ ; 2 2 < e x d g s s s u u u y y u s g g d s u u u u u u u u u u u y u s h h h h h g d s u u u s u u u u d g h g h h h h h h h h h h h h h g s s s d d g h h h h j h g s u u u u u s g h h h h h h h h h h h h h h h h h h h h h h h h h h h h h h h h h h h h h h h h h z h g s d g g h h h h h h h h h g g g g s u y u g g h h h h h h h h h h h h h h h h h h h h h h h h h h h h h h h h h h h h h h h h h h h h h h h h h h h h h h h h h h h h h h h h h h h h h h h h h h h h h h h h h h h h h h h h h h h h h h h h h h h h h h h h h h h h h h h h h h h h h h h h h h h h h h h z 0 2 2 2 2 2 , @ + q %...>.>.4.u d x h h h h h h h h h h h h h h h h h h h h h h h h h h h h h h h h h h h h h h h h h h h h h h h h h h h h h h h h h h h h h h h h h h h h h h h h h h h h h h h h h h h h g s u u u u u u u u u u u u u u u u u u u u u u u u u u u u u u u u u u s s s s s s s s s s s s u u u u s s s s s u s g g g g g h h h h h h h h s u u u u u u u u u u u u u u u u u u u u u u u u u u u s u 4 = $ $ # $ ",
"& # $ # , 2 2 3 3 u d d d g g g g g g g s s s s s s s s g g h g h h h h g d s s s s s s s s s s d g h h s s s s s s s s s s s s s s s s s s s s u u u u u u u u u u u u u u u u u u u u u u u u s s r 3 2 = @ @ ; 2 3 < y l h h g g d d d s s s g g h h g d s u u u u u u u u u u u u d h h h h h h h g g d s u s s s s d g h g h h h h h h h h h h h h h g g d d g g g h h h h h g d u u u u u s g h h h h h h h h h h h h h h h h h h h h h h h h h h h h h h h h h h h h h h h h h h h h h g g g h h h h h h h h h h g g g g s y u s g h h g h h h h h h h h h h h h h h h h h h h h h h h h h h h h h h h h h h h h h h h h h h h h h h h h h h h h h h h h h h h h h h h h h h h h h h h h h h h h h h h h h h h h h h h h h h h h h h h h h h h h h h h h h h h h h h h h h h h h h h h h h h h h g z u 2 2 2 2 2 , @ + q 8.o.;.>.r 7 z h h h h h h h h h h h h h h h h h h h h h h h h h h h h h h h h h h h h h h h h h h h h h h h h h h h h h h h h h h h h h h h h h h h h h h h h h h h h h h h h h h h h h h g s u u u u u u u u u u u u u u u u u u u u u u u u u u u u u u u u u s s s s s s s s s s s s u u u u s s s s s u s g g g g g h h h h h h h h s u u u u u u u u u u u u u u u u u u u u u u u u u u u s u 4 = $ $ $ $ ",
"& # $ # , 2 2 3 2 y d s s s s s g h g g u u u u u u u u s d g h h h h h g g s s s s s s h h h h h h h h s s s s s s s s s s s s s s s s s s s s u u u u u u u u u u u u u u u u u u u u u u u u u u s 5 2 ; $ @ : 3 2 2 y d g g h h h h h h h h h h h h h g d s u u u u u s u u d s d g h h h h h h h h z h h h d d d d g h z h h h h h h h h h h h h h h g g g g g h h h h h h h d s y u u u u g h h h h h h h h h h h h h h h h h h h h h h h h h h h h h h h h h h h h h h h h h h h d g h h h h h h h h h h h h h h g g g g s s d d h h g g h h h h h h h h h h h h h h h h h h h h h h h h h h h h h h h h h h h h h h h h h h h h h h h h h h h h h h h h h h h h h h h h h h h h h h h h h h h h h h h h h h h h h h h h h h h h h h h h h h h h h h h h h h h h h h h h h h h h h h h h h h h h h h s 2 2 2 2 2 , @ + q ;.;.o.u , u m h h h h h h h h h h h h h h h h h h h h h h h h h h h h h h h h h h h h h h h h h h h h h h h h h h h h h h h h h h h h h h h h h h h h h h h h h h h h h h h h h h h h h h h g s u u u u u u u u u u u u u u u u u u u u u u u u u u u u u u u u s s s s s s s s s s s s u u u u s s s s s u s g g g g g h h h h h h h h s u u u u u u u u u u u u u u u u u u u u u u u u u u u s u 4 = $ $ $ $ ",
"& # $ # , 2 2 3 , y s s s s s s g h g d u u y y y y y y u s g g h h h h g h g d d d d d h h h h g g h s i u u u u u u u u u u u s s u y s s s u u u u u u u u u u u u u u u u u u u u u s s s s u u s 5 < ; $ @ : 3 2 2 u u u u u s d d g h z g h h h h z g s u u u u u u s g h g g h h h h h h g g g g h h h h h h h h h h g g h h h h h h h h h h h h g g g g g g h h h h h h h g d s y u d g g g g g g g g g h h h h h h h h h h h h h h h h h h h h h h h h h h h h h h h h h h h h h h h h h h h h h h h h h h h h g g g g h h h h h h h h h h h h h h h h h h h h h h h h h h h h h h h h h h h h h h h h h h h h h h h h h h h h h h h h h h h h h h h h h h h h h h h h h h h h h h h h h h h h h h h h h h h h h h h h h h h h h h h h h h h h h h h h h h h h h h h h h h h h h h h h h h h h h h g 3 2 2 2 2 < % + 9 >.R 0 , 3 u z g h h h h h h h h h h h h h h h h h h h h h h h h h h h h h h h h h h h h h h h h h h h h h z h g g h h h h g g g h h h h h h h h h h h h h h h h g g h z h h h h h h h h h g g h u u u u u u u u u u u u u u u u u u u u u u u u u u u u u u u u u u u u u u u u u u u u u u u u u u u u s u s z h h h h h h h h h h g d s u u u u u u u u u u u u u u u u u u u u u u u u u u u s y 3 = $ $ $ $ ",
"& # $ # , 2 2 2 : r d u s s s s g h g s u u u u u u u u u u s g g h h h g h h h g g g g h h h h g g h s u u u i u u u u u s d g g g g g d s s u u u u u u u u u u u u u u u u u u u u u g g g g u u s 5 2 ; $ @ ; 3 < 3 u u u u u s s s s g h h h h h h h g s u u u u u u s d g g g g g s s s s s s s s d d g g h h h h h h g g h h h h h h h h h h h h h h h h g h h h h h h h h h g d s f g h g g g g g g g g h h h h h h h h h h h h h h h h h h h h h h h h h h h h h h h h h h h h h h h h h h h h h h h h h h h h g g g g h h h h h h h h h h h h h h h h h h h h h h h h h h h h h h h h h h h h h h h h h h h h h h h h h h h h h h h h h h h h h h h h h h h h h h h h h h h h h h h h h h h h h h h h h h h h h h h h h h h h h h h h h h h h h h h h h h h h h h h h h h h h h h h h h h h h h h g 4 2 2 2 2 < * @ 3 s 4 , < 3 g g h h h h h h h h h h h h h h h h h h h h h h h h h h g d s s d g h h h h h h h h h h h h h h h g u d g g h h g g g h h h h h h h h h h h h h h h h g g g h g g g g g g g g g h h g u u u u u u u u u u u u u u u u u u u u u u u u u u u u u u u u u u u u u u u u u u u u u u u u u u u u s u s g h h h h h h h h h h g s u u u u u u u u u u u u u u u u u u u u u u u u u u u u u y , ; $ $ $ $ ",
"& # $ # : < < 2 , 8 u u s s s s d g d u u u u u u u u u u u u s g g h h h h h h h h h h h h h h g g h s u u u u u u u u u s d g g g h h g g s u u u u u u u u u u u u u u u u u u u u u s s s s u u s 5 2 ; $ @ ; 2 2 5 u u u u s u u u u s d h h h h h h d s u u u u u s s s s u u u u u u u u y y y y s s d g h h h h h h g g h h h h h h h h h h h h h h h h h h h h h h h h h h h g g h h h g g g g g g g g h h h h h h h h h h h h h h h h h h h h h h h h h h h h h h h h h h h h h h h h h h h h h h h h h h h h g g g g h h h h h h h h h h h h h h h h h h h h h h h h h h h h h h h h h h h h h h h h h h h h h h h h h h h h h h h h h h h h h h h h h h h h h h h h h h h h h h h h h h h h h h h h h h h h h h h h h h h h h h h h h h h h h h h h h h h h h h h h h h h h h h h h h h h h g g g 5 2 2 2 2 2 = @ , 2 2 3 2 5 z g g h h h h h h h h h h h h h h h h h h h h h h h h h d u y y u s d h h h h h h h h h h h h g h d u u s d g g g g g h h h h h h h h h h h h h h h h z h h h g g g g g g g g h g d u u u u u u u u u u u u u u u u u u u u u u u u u u u u u u u u u u u u u u u u u u u u u u u u u u u u u s u s s h h h h h h h h h h d u u u u u u u u u u u u u u u u u u u u u u u u u u u u u s q , = $ $ $ $ ",
"& # $ # ; , < < 3 3 r d s s s s s d s y u u u u u u u u u u u u s g g h h h h h h h h h h h h h g g h s u u u u u u u u u u u u s s d g z g s u u u u u u u u u u u u u u u u u u u u u u u u u u u s 5 2 ; $ @ = 2 2 5 u u u u s u y y y y s h h h h h g d s u u u u s s s s u s s s s u u u u u u u u s d g h h h h h h h g g h h h h h h h h h h h h g g g g g g h h h h h h h h h h z z h h g g g g g g g g h h h h h h h h h h h h h h h h h h h h h h h h h h h h h h h h h h h h h h h h h h h h h h h h h h h h g g g g h h h h h h h h h h h h h h h h h h h h h h h h h h h h h h h h h h h h h h h h h h h h h h h h h h h h h h h h h h h h h h h h h h h h h h h h h h h h h h h h h h h h h h h h h h h h h h h h h h h h h h h h h h h h h h h h h h h h h h h h h h h h h h h h h h h h g g h 5 2 2 2 2 2 * $ 2 4 2 5 3 0 g z g h h h h h h h h h h h h h h h h h h h h h h h h g d s u u u u u d h h h h h h h h h h h g h g d s u u s g g g g h h h h h h h h h h h h h h h h g d s s s s s s s s s s d u u s u u u u u u u u u u u u u u u u u u u u u u u u u u u u u u u u u u u u u u u u u u u u u u u u u u u u u s u u h h h h h h h h h g s u u u u u u u u u u u u u u u u u u u u u u u u u u u u u d 5 2 * $ $ $ $ ",
"& # $ # * , 2 < < 2 2 e g s u s s s s u u u u u u u u u u u u u u s s g g d s s g h h h h h h h h h g s y u s u s s s s s d s u u s d g g s u u u u u u u u u u u u u u u u u u u u u u u u u u u u s 5 < : # @ % 2 2 q u u u u u u u u u s d g h h h h g s u u u u u u u u u u u u u u u u u u u u u u g g h h h h h h h h h h h h h h h h h h h g d s s u s d h h h h h h h h h h h h h h h z g g s u u u s s h h h h h h h h h h h h h h h h h h h h h h h h h h h h h h h h h h h h h h h h h h h h h h h h h h h h h h h h h h h h h h h h h h h h h h h h h h h h h h h h h h h h h h h h h h h h h h h h h h h h h h h h h h h h h h h h h h h h h h h h h h h h h h h h h h h h h h h h h h h h h h h h h h h h h h h h h h h h h h h h h h h h h h h h h h h h h h h h h h h h h h h h h h h h g g h 8 2 2 2 2 2 * $ , 3 4 3 , y z h g h h h h h h h h h h h h h h h h h h h h h h h h g d s u u u u u u s g g h h h h h h h h g g g g g g g g h h h h h h h h g g g g h h h h h h h h s s u y i s s s s s u u u u u u u u u u u u u u u u s s u u u u u u u u u u u u u u u u u u u u u u u u u u u u u u u u u u u u u u u u u u u u d g h g g g g g z g s u u u u u u u u u u u u u u u u u u u u u u u u u u u u u u 3 3 * # # $ $ ",
"& # $ # * < 2 < , < 4 3 9 s d s s s s s u u u u u u u u u u u u u u u s s s s s d g h h h h h h h h g s y d g h h h h h g g g s u s s d s u u u u u u u u u u u u u u u u u u u u u u u u u u u u u s 5 < : @ @ * 2 2 r s s s s u u u u d g h h h h g h g s u u u u u u u u u u u u u u s s s s u u u u g g h h h h h h h h h h h h h h h h h h h g d s s u s d h h h h h h h h h h h h h h h g s s u y y u s s h h h h h h h h h h h h h h h h h h h h h h h h h h h h h h h h h h h h h h h h h h h h h h h h h h h h h h h h h h h h h h h h h h h h h h h h h h h h h h h h h h h h h h h h h h h h h h h h h h h h h h h h h h h h h h h h h h h h h h h h h h h h h h h h h h h h h h h h h h h h h h h h h h h h h h h h h h h h h h h h h h h h h h h h h h h h h h h h h h h h h h h h h h h h h g h 8 2 2 2 2 2 * # , 3 3 3 2 d h g g h h h h h h h h h h h h h h h h h h h h h h h h g g d s s u u u u u s g g g h h h h h h g g g g g g g g g g h h h h g g g g g g h h h h h h h h d s s u u u u s u u u u u u u u u u u u u u u u s s s s u u u u u u u u u u u u u u u u u u u u u u u u u u u u u u u u u u u u u u u u u u u u u d g h g g g g h g s u u u u u u u u u u u u u u u u u u u u u u u u u u u u u y 2 3 = # # # $ ",
"& # $ # * < 2 < < 2 4 2 2 q s u s s s s u u u u u u u u u u u u u u u u u u u u s d g h h h h h h h g s s g z z g h h h h h h d u u s s u u u u u u u u u u u u u u u u u u u u u u u u u u u u u u s 5 < : @ # * < 2 u g g g g g g g g h h h h h h h h g s u u u u u u u u u u u u u u s s s s u u u u u u s s s s s s s s s s h h h h h h h h h g d s s u s d h h h h h h h h h h h h z h g d u u u y s s d d h h h h h h h h h h h h h h h h h h h h h h h h h h h h h h h h h h h h h h h h h h h h h h h h h h h h h h h h h h h h h h h h h h h h h h h h h h h h h h h h h h h h h h h h h h h h h h h h h h h h h h h h h h h h h h h h h h h h h h h h h h h h h h h h h h h h h h h h h h h h h h h h h h h h h h h h h h h h h h h h h h h h h h h h h h h h h h h h h h h h h h h h h h h h h g h 8 2 2 2 2 3 * # , 2 2 2 4 z h g h h h h h h h h h h h h h h h h h h h h h h h h h h h g d s s u u u u u s g h h h h h h h g g g g g g g g h g s u s d g g g g g g h h h h h h h h g g d s s u u u u u u u u u u u u u u u d d d d g d s u u u u u u u u u u u u u u u u u u u u u u u u u u u u u u u u u u u u u u u u u u u u u y u d h g g g g h g s y u u u u u u u u u u u u u u u u u u u u u u u u u u u u e < 2 = # # $ $ ",
"& # $ # * < 2 < 3 3 , 4 2 2 8 y s s s s u u u u u u u u s u u u u u u u y y y y u s d g h h h h h h g s d g h g h h h h h h h d u u u u u u u u u u u u u u u u u u u u u u u u u u u u u u u u u u s 5 < : @ # = < 3 d h h h h h h h h h h h h h h h h g s u u u u u u u u u u u u u u u u u u u u u u y u s s u u u u u u u u g h h h h h h h h g d s s u s d h h h h h h h h h h h h z g d s u u s s g g h h h h h h h h h h h h h h h h h h h h h h h h h h h h h h h h h h h h h h h h h h h h h h h h h h h h h h h h h h h h h h h h h h h h h h h h h h h h h h h h h h h h h h h h h h h h h h h h h h h h h h h h h h h h h h h h h h h h h h h h h h h h h h h h h h h h h h h h h h h h h h h h h h h h h h h h h h h h h h h h h h h h h h h h h h h h h h h h h h h h h h h h h h h h h h h g h 8 2 2 2 2 3 * # , 2 < 2 5 h g g h h h h h h h h h h h h h h h h h h h h h h h h h z h h g d s s u u u u u g h h h h h h h g g g g g g g g d s u u y u s d g g g g h h h h h h h h h g g d d s s u u u u u u u u u u u u u z z z z g g s u u u u u u u u u u u u u u u u u u u u u u u u u u u u u u u u u u u u u u u u u u u u u u y u d g g g g g h d y u u u u u u u u u u u u u u u u u u u u u u u u u u u u q , 2 ; $ $ $ $ ",
"& # $ # * < 2 < 2 2 3 3 3 2 < 2 e y s d d u y s g g g g d s s u y y u s d g g g h h h g h h h h h h h d h h h h h h h h h h g s u u u u u u u u u u u u u u u u u u u u s s u u u y y s u u u u s s u 5 < : @ # ; 2 7 x h h h h h h h h h h h h h h h h g g d u u u u u u u u u u u u u u u u u u u u u u u u u u u u u s s s u g g h h h h h h h g d u u u u u d g h z h h h h h h h h h g d s s s s s g g h h h h h h h h h h h h h h h h h h h h h h h h h h h h h h h h h h h h h h h h h h h h h h h h h h h h h h h h h h h h h h h h h h h h h h h h h h h h h h h h h h h h h h h h h h h h h h h h h h h h h h h h h h h h h h h h h h h h h h h h h h h h h h h h h h h h h h h h h h h h h h h h h h h h h h h h h h h h h h h h h h h h h h h h h h h h h h h h h h h h h h h h h h h h h h h g z r 2 2 2 2 3 = @ , 2 3 2 q h g h h h h h h h h h h h h h h h h h h h h h h h h h h h h h h g g g g s s d g h h h h h h h h h h h h g d s s s s s s u y u s d g g g h h h h h h h h g g g g g g g g d d s s u u u u u u u u g g g g g s s u u u u u u u u u u u u u u u u u u u u u u u u u u u u u u u u u u u u u u u u u u u u u u u u u d d d d g s u u u u u u u u u u u u u u u u u u u u u u u u u u u u u u 4 , < * $ $ $ $ ",
"& # $ # * < 2 < , < 2 2 2 2 2 2 : 5 r u s s u s g g g g g g d s s d d g g g h h h h h h h h h h h h h g h h h h h h h h h h g s u u u u u u u u u u u u u u u u u u u u u u u s s s d g u u u u s s u 5 < : @ # = < 8 h s s s s d d d d d d d d g g g g h h z h u u u u u u u u u u u u u u u u u u u u u u u u u u u u u s s s g g h h h h h h h g d s u u u u u d g g h h h h h h h h g g g s y u s d g g h h h h h h h h h h h h h h h h h h h h h h h h h h h h h h h h h h h h h h h h h h h h h h h h h h h h h h h h h h h h h h h h h h h h h h h h h h h h h h h h h h h h h h h h h h h h h h h h h h h h h h h h h h h h h h h h h h h h h h h h h h h h h h h h h h h h h h h h h h h h h h h h h h h h h h h h h h h h h h h h h h h h h h h h h h h h h h h h h h h h h h h h h h h h h h h g z r 2 2 2 2 4 = @ , 3 2 2 r h g h h h h h h h h h h h h h h h h h h h h h h h h h h h h h h h h h h g g g g h h h h h h g g h g d s s s u u s s s s u u s s s g h z h h h h h h h h g g g g g g g g h g d d u u u u u u u u s s s s s s u u u u u u u u u u u u u u u u u u u u u u u u u u u u u u u u u u u u u u u u u u u u u u u u u u s s s s s u u u u u u u u u u u u u u u u u u u u u u u u u u u u u u u 4 , 2 = $ $ $ $ ",
"& # $ # * < 2 2 , < 2 2 < < 2 2 , , 3 w y y u g g g g g g g g g g g g h h h h h h h h h h h h h h h h h h h h h h h h h g g d u u u u u u u u u u u u u u u u u u u u u u s d g d g g g u u u u s s u 5 < : @ # * , 0 d y y y y u u u u u u u u u s d d g h h h u u u u u u u u u u u u u u u u u u u u u u u u u u u u u u u d g g h h h h h h h h g s u u u u y s g g h h h h h h h h g h g d s s g g g g h h h h h h h h h h h h h h h h h h h h h h h h h h h h h h h h h h h h h h h h h h h h h h h h h h h h h h h h h h h h h h h h h h h h h h h h h h h h h h h h h h h h h h h h h h h h h h h h h h h h h h h h h h h h h h h h h h h h h h h h h h h h h h h h h h h h h h h h h h h h h h h h h h h h h h h h h h h h h h h h h h h h h h h h h h h h h h h h h h h h h h h h h h h h h h h g z r 2 3 3 2 4 = @ > 4 2 2 s g h h h h h h h h h h h h h h h h h h h h h h h h h h h h h h h h h h h h h h g h h h h h g g d f d s u u u u u s s s s y u s s d g h z h h h h h h h h g g g g g g g g h h h g u u u u u u u u u u u u s u u u u u u u u u u u u u u u u u u u u u u u u u u u u u u u u u u u u u u u u u u u u u u u u u u u u u u u u u u u u u u u u u u u u u u u u u u u u u u u u u u u u u u u 2 , 2 ; $ $ $ $ ",
"& # $ # * < < 2 2 2 3 4 2 < < < 2 2 2 , 3 s z s g g g g g g g g g g h h h h h h h h h h h h h h h h h h h h h h h h h h g g d u u u u u u u u u u u u u u u u u u u u u d g h z g h g u u u u u s s u 5 < : @ # % , w s u u u u u u u u u u u u y y u s s d d g u u u u u u u u u u u u u u u u u u u u u u u u u u u u u y u g g g h h h h h h h g g d u u u u y d h z h h h h h h h g g g g g h h h h g g h h h h h h h h h h h h h h h h h h h h h h h h h h h h h h h h h h h h h h h h h h h h h h h h h h h h h h h h h h h h h h h h h h h h h h h h h h h h h h h h h h h h h h h h h h h h h h h h h h h h h h h h h h h h h h h h h h h h h h h h h h h h h h h h h h h h h h h h h h h h h h h h h h h h h h h h h h h h h h h h h h h h h h h h h h h h h h h h h h h h h h h h h h h h h h h g z r 2 3 2 2 4 = @ : 3 2 2 g g h h h h h h h h h h h h h h h h h h h h h h h h h h h h h h h h h h h h h g g h h h h h g d s u u u u u u u u s s s s d d g g h h h g h h h h h h h h g g g g g g g g h h h h u u u u u u u u u u u u u u u u u u u u u u u u u u u u u u u u u u u u u u u u u u u u u u u u u u u u u u u u u u u u u u u u s s s s u u u u u u u u u u u u u u u u u u u u u u u u u u u u u u u u < , 2 ; $ $ $ $ ",
"& # $ # $ < < 2 < 2 e d y e 9 5 2 < < 2 < 2 0 g z g h x g g g h h h h h h h h h h h h h d g h z h h h h h h h g l h h g d s u u u u u u u u u u u u u u u u u u u s u d h h h h g g d y u u u u y u u 3 < : @ @ % , e u s s s s u u u u y y u u u u u u s s s s s s u u u u u u u u u u d s u y u u s s s s u u u u u u u u d h g h h h h h h h g g g g d u u d g h h g h h h h z z h g g g g g h h h h h h h h h h h h h h h h h h h h h g g g h h z h h h h h h h h h h h h h h h h h h h h h h h h h h h h h h h h h g g g g h h h h h h h h h h h h h h h h h h h h h h h h h h h h h h h h h h h h h h h h h h h h h h h h h h h h h h h h h h h h h h h h h h h h h h h h h h h h h h h h h h h h h h h h h h h h h h h h h h h h h h h h h h h h h h h h h h h h h h h h h h h h h h h h h h h h h g z s 2 2 2 2 3 : @ : 3 2 4 g h h h h h h h h h h h h h h h h h h h h h h h h h h h h h h h h g h h d g g g g h h h h g u y u u u u u s u s h h h h h h h h h h h h h h h h h h h h h h h h h g g g g g h h h d s u u u u u u u u u u u u u u u u u u u u u u u u u u u u u u u u u u u u u u u u u u u u u u u u u u u u u u u u u u u u u u u u u u u u u u u u u u u u u u u u u u u u u u u u u u u u u u u y u e < < 2 ; $ $ $ $ ",
"& # $ # $ < < 2 < 2 e d g g g g u q 5 3 2 2 2 4 u h x g g g g h h h h h h h h h h h h h h h h z h h h h h h g g f d s s u u u u u u u u u u u u u u u u u u u u u s s g h h h h z d s u u u u u y u u 2 < : @ # $ , e u y y y y u s d d d s s s u u u u u u u u u u u u u u u u u u u u s s s u d d g g d d s s u u u u u g h g h h h h h h h h h h h g d s d z h g g h h h h h h h g d h h h h h h h z h h h h h h h h h h h h h h h h h h h z h g g d h h h h h h h h h h h h h h h h h h h h h h h h h h h h h h h h z d d z h h h h h h h h h h h h h h h h h h h h h h h h h h h h h h h h h h h h h h h h h h h h h h h h h h h h h h h h h h h h h h h h h h h h h h h h h h h h h h h h h h h h h h h h h h h h h h h h h h h h h h h h h h h h h h h h h h h h h h h h h h h h h h h h h h h h h g h s 2 2 2 2 3 : @ ; 4 2 5 h h h h h h h h h h h h h h h h h h h h h h h h h h h h h h h h h g h g s u s d g h h h h u u u s u u u u s s d h h h h h h h h h h h h h h h h h h h h h h g d s g g g g g g g h g g g g s s u u u u u u u u u u u u u u u u u u u u u u u u u u u u u u u u u u u u u u u u u u u u u u u u u u u u u u u u u u u u u u u u u u u u u u u u u u u u u u u u u u u u u u u u u u s u u w , < 2 = $ $ $ $ ",
"& # $ # $ , < 2 < 2 e d d d g g h h h d u q 4 2 < 0 s h h h h h h h h h h h h h h h h h h h g g h h h h g d d d s u u u u u s s u u u u u u u u u u u u u u u u s u f h h h h h l d s u u u u u u u u 2 < ; @ # $ , e u u u u u d g g g h g d s u u u u s s s s s s u u u u u u u u u u u s s s g g h z h g d d d d d d d h h g h h h h h h h h z h g d y y s d h g g h h h h h g d s s u u u u d g g h h h h h h h h h h h h h h h h h h h g g d s s s h h h h h h h h h h h h h h h h h h h h h h h h h h h h h h h h g s s g h h h h h h h h h h h h h h h h h h h h h h h h h h h h h h h h h h h h h h h h h h h h h h h h h h h h h h h h h h h h h h h h h h h h h h h h h h h h h h h h h h h h h h h h h h h h h h h h h h h h h h h h h h h h h h h h h h h h h h h h h h h h h h h h h h h h h g j s 2 2 2 2 3 : @ ; 5 2 8 h h h h h h h h h h h h h h h h h h h h h h h h h h h h h h h h h h h d u y y u s h h h h g d s u u u u u s d g h h h h h h h h h h h h h h h h h h h h h g d s u u u u u s f g h h h h g g d s s u u u u u u u u u u u u u u u u u u u u u u u u u u u u u u u u u u u u u u u u u u u u u u u u u u u u u u u u u u u u u u u u u u u u u u u u u u u u u u u u u u u u u u u u s s u 0 , < 2 = $ $ $ $ ",
"& # $ # $ , < 2 < 3 e g z h g g d g h g g g d u 7 3 2 q h h h h h h h h h h h h h h h h g d s s d d d d s s s s s s s s s s s s u u u u u u u u u u u u u u u u s u h z h h h h g g d y u u u u u u u 2 < ; @ $ $ , e u g g g g h h h h h g d s u u u u d d d d u u u u u u u u u u u u y u s d g g h h z h h g h h h h h g g h h h h h h h h h h g s u u u u u g h h g h h h h d s u u s s s s y s d g h h h h h h h h h h h h h h h h h g s u u u s s h h h h h h h h h h h h h h h h h h h h h h h h h h h h h h h h h h h h h h h h h h h h h h h h h h h h h h h h h h h h h h h h h h h h h h h h h h h h h h h h h h h h h h h h h h h h h h h h h h h h h h h h h h h h h h h h h h h h h h h h h h h h h h h h h h h h h h h h h h h h h h h h h h h h h h h h h h h h h h h h h h h h h h h h h g h s 2 2 2 2 3 , @ ; 5 2 0 h h h h h h h h h h h h h h h h h h h h h h h h h h h h h h h h h h g d y u u u u h h h h g h h g u u u u s g h h h h h h h h h h h h h h h h h h h h h h s s s s s s s s u s s f h h h g g g g d s u u u u u u u u u u u u u u u u u u u u u u u u u u u u u u u u u u u u u u u u u u u u u u u u u u u u u u u u u u u u u u u u u u u u u u u u u u u u u u u u u u u u u u u s d s 8 , < 2 = $ $ $ $ ",
"& # $ # $ , < 2 < 3 u g h h h h g g g g h h h h x g r 8 8 e g h h h h h h h h h g g g g z g d u y y u u u u u u u u u u u u u u u u u u u u u u u u u u u u y y u d h h h h h h h g h s u u u u u u y 2 2 ; # $ $ 2 h h g g g g h h h h g s u u u y u h g g g g g g s s d d d d s s s s d g h h h h h h g h h h h h h h h h g h h h h h h h h h g s u u u u u u s g h h h h h h s s s u u u u u u u u u h h h h h h h h h h h h h h h h g s u u s y u d h h h h h h h h h h h h h h h h h h h h h h h h h h h h g g h z h h h h h h h h h h h h h h h h h h h h h h h h h h h h h h h h h h h h h h h h h h h h h h h h h h h h h h h h h h h h h h h h h h h h h h h h h h h h g g h h h h h h h h h h h h h h h h h h h h h h h h h h h h h h h h h h h h h h h h h h h h h h h h h h h h h h h h h h g g h g 5 2 2 3 3 , @ ; 5 2 e z h h h h h h h h h h h h h h h h h h h h h h h h h h h h h h h h h g s u s u y d h h h g g g g g g g g g g g g g g g g g h h h h h h h h h h h h h h g s u u u u u u u u u u u u d g h h h g d s s u u u u u u u u u u u u u u u u u u u u u u u u u u u u u u u u u u u u u u u u u u u u u u u u u u u u u u u u u u u u u u u u u u u u u u u u u u u u u u u u u u u u u u u u s s 5 , < 2 = $ $ $ $ ",
"& # $ # $ , < 2 < 3 u g h g h h g g g g h h h h g h x z s e q s h h h h h h h h g g g g g g g g d d s s y y u s u u u u u u u u u u u u u u u u u u u u u u u u d h h g h h h h h g g s u u u u u u y 2 2 ; # $ # 2 h h g g g g h h h h g s u u u y s d g g g g h h g g g g g g g g g g h h h h h g g g h h h h h h h h h h g g h h h h h h h g s u u u u u u u s g h h h h h h g g g d d d d d d d g g h h h h h h h h h h h h h h h g s u u s u s d h h h h h h h h h h h h h h h h h h h h h h h h h h h h h g g g h h h h h h h h h h h h h h h h h h h h h h h h h h h h h h h h h h h h h h h h h h h h h h h h h h h h h h h h h h h h h h h h h h h h h h h h h h h h h h h h h h h h h h h h h h h h h h h h h h h h h h h h h h h h h h h h h h h h h h h h h h h h h h h h h h h h h h h h h g g h g 5 2 2 3 3 , # ; 4 2 e z h h h h h h h h h h h h h h h h h h h h h h h h h h h h h h h h g g d s u u s g h h g g g g g g g g g g g g g g g g g g h h h h h h h h h h h h h g s u u u u u u u u u u u u u u u s d s s s s u u u u u u u u u u u u u u u u u u u u u u u u u u u u u u u u u u u u u u u u u u u u u u u u u u u u u u u u u u u u u u u u u u u u u u u u u u u u u u u u u u u u u u u u u s s 5 , < 2 = $ $ $ $ ",
"& # $ # $ , < 2 < 3 u g h h h h g g g g h h h h h h z h h h g y h h h h h h h h g g g g g g h h h h g g d s s u u u u u u u u u u u u u u u u u u u u u y u s d h h g g h h h h g h d u u u u u u u y 2 2 ; $ $ @ 3 h h g g g g h h h h g s u u y u s s g g g g h h h h h h h h h h h h h h g g g g g g h g g d s s s s h h h g h h h h h h h g u u u u u u u u s g h h h h h h z h h g g g h h h h h h h h h h h h h h h h h h h h g s u u s s s g h h h h h h h h h h h h h h h h h h h h h h h h h h h h h h z h h h h h h h h h h h h h h h h h h h h h h h h h h h h h h h h h h h h h h h h h h h h h h h h h h h h h h h h h h h h h h h h h h h h h h h h h h h h h h h h g d d g h h h h h h h h h h h h h h h h h h h h h h h h h h h h h h h h h h h h h h h h h h h h h h h h h h h h h h h g g h g 5 2 2 3 3 , # ; 4 2 e z h h h h h h h h h h h h h h h h h h h h h h h h h h h h h h h h g g g d u d g h h h g g g g g g g g g g g g g g g g g g h h h h h h h h h h h h h d s u u u u u u u u u u u u u u u u u u s s s u u u u u u u u u u u u u u u u u u u u u u u u u u u u u u u u u u u u u u u u u u u u u u u u u u u u u u u u u u u u u u u u u u u u u u u u u u u u u u u u u u u u u u u u u s s 5 , < 2 = $ $ $ $ ",
"& # $ # $ , 2 2 < 4 u g h h g h g g g g h h h g g g g h g g z h h h h h h h h h g g g g z h h g g g h h g g g g u u u u u u u u u u u u u u u u u u u u y u d g h g g g h h h h d h s u u u u u u u y < 2 = $ $ @ 3 h h g g g g h h h h g s u u y s s y g g g g h h h h h h h h g g g g g g g g g g g g g d u y s s s s g h h g h h h h h h g s u u u u u u u u s g h h h h h h h h g g h h h h h h h h h h h h h h h h h h h h h g s u u s s s g z h g h h h h h h h h h h h h h h h h h h h h h h h h h h h h g d s s h h h h h h h h h h h h h h h h h h h h h h h h h h h h h h h h h h h h h h h h h h h h h h h h h h h h h h h h h h h h h h h h h h h h h h h h h h h h d s u y d g h h h h h h h h h h h h h h h h h h h h h h h h h h h h h h h h h h h h h h h h h h h h h h h h h h h h h h g g g g 5 2 2 3 3 , $ ; 4 2 e z h h h h h h h h h h h h h h h h h h h h h h h h h h h h h h h h g h g g d h h g h g g g g g g g g g g g g g g g g g g g h h h h h h h h h h h h d s s u u u u u u u u u u u u u s s s s u u u u u u u u u u u u u u u u u u u u u u u u u u u u u u u u u u u u u u u u u u u u u u u u u u u u u u u u u u u u u u u u u u u u u u u u u u u u u u u u u u u u u u u u u u u u u s s 5 , < 2 = $ $ $ $ ",
"& # $ @ $ , 2 2 < 5 g h h h h h h h h h h h h h d s u y g g h h h h h h h h h h z h h h h h h h h h h h g g g g g g g g u u u u u u u u u u u u u u u u u u u u s s g z h h g g d s u u u u u u u u y < 2 = $ $ $ < s h h h g g h h h h g s u u u u u u u u s s g h h h z h h d g g g g h h h h h h g g u u u u u u u d h h h h h h h h h h g s s s u u y y u d g h h h g g g g g g g g h h h h h h h h h h h h h h h h h h h h h g g s d g g g h h h h h h h h h h h h h h h h h h h h h h h h h h h h h h h h h u y s u s s d h h h h h h h h h h h h h h h h z h g g h h g g h h h h h h h h h h h h h h h h h h h h h h h h h h h h h h h h h h h h h h h h h h h h h g h d s s s s g g h h h h h h h h h h h h h h h h h h h h h h h h h h h h h h h h h h h h h h h h h h h h h h h h h h h h h h h h h h 0 2 2 2 3 2 $ # 4 2 e h h h h h h h h h h h h h h h h h g d s s h h h h h h h h h h h h g g g g g g g g h h h h h h h h h h h h h h h h h h h h h h h h h h h h g g g g s s s s u u u u u u u u u u u u u u u u u u u u u u u u u u u u u u u u u u u u u u u u u u u u u u u u u u u u u u u u u u u u u u u u u u u u u u u u u u u u u u u u u u u u u u u u u u u u u u u u u u u u u u u u u u u u s s u 3 , < 2 = $ $ $ $ ",
"& # $ @ $ , 2 2 < 5 g h h h h h h h h h h h h h d s u y s g g h h h h h h h g g h h h h h h h h h h h h g g g g g g g g u u u u u u u u u u u u u u u u u u u u u u d h g d d s u u u u u u u u u u y < 2 = $ $ $ < u g g h h g h h h h g s u u u u u u u u s s u s f h h d s s u u u u d g h h h h g d u u u u u s d g h h h h h h h h z h g s y u s s y u d g h h h h z h g d s s s s s d g h h h h h h h h h h h h h h h h h h h g g g g h h h h h h h h h h h h h h h h h h h h h h h h h h h h h h h h h h z d s g s s s s h h h h h h h h h h h h h h g g g g h h g g g h h h h h h h h h h h h h h h h h h h h h h h h h h h h h h h h h h h h h h h h h h h h h g h z s u u u s g h h h h h h h h h h h h h h h h h h h h h h h h h h h h h h h h h h h h h h h h h h h h h h h h h h h h h h h h h h h 0 < 2 2 3 2 $ # 3 2 0 h h h h h h h h h h h h h h h h h h s u s h h h h h h h h h h h h g g g g g g g g h h h h h h h h h h h h h h h h h h h h h h h h h h h h g g g g s s s s u u u u u u u u u u u u u u u u u u u u u u u u u u u u u u u u u u u u u u u u u u u u u u u u u u u u u u u u u u u u u u u u u u u u u u u u u u u u u u u u u u u u u u u u u u u u u u u u u u u u u u u u u u u u s s u 3 , < 2 = $ $ $ $ ",
"& # $ @ $ , 2 2 2 5 g h h h h h h h h h h h h h d s u u u s g g h h h h h g g d y s g h h h h h h h h h g g g g g g g g u u u u u u u u u u u u u u u u u u u u u u d h d d s u u u u u u u u u u u y < 2 = $ $ $ , y s d g h h h h h h g s u u u u u u u u s s u u s d s s u u y y y y y s g h h h g s u u u u s g g g h h h h h h h h h g s u s s u y u d g g h h h h z h g d u u u u r y u s h h h h h h h h h h h h h h h h h h h g h h h h h h h h h h h h h h h h h h h h h h h h h h h h h h h h h h h h z h h h h h g g h h h h h h h h h h h h h g g d s d g g g h z z h h h h h h h h h h h h h h h h h h h h h h h h h h h h h h h h h h h h h h h h h h h h g h z s y u s s g h h h h h h h h h h h h h h h h h h h h h h h h h h h h h h h h h h h h h h h h h h h h h h h h h h h h h h h h h h h 0 2 2 2 3 2 % # 2 2 8 g h h h h h h h h h h h h h h h h g u y s h h h h h h h h h h h h g g g g g g g g h h h h h h h h h h h h h h h h h h h h h h h h h h h h g g g g s s s s u u u u u u u u u u u u u u u u u u u u u u u u u u u u u u u u u u u u u u u u u u u u u u u u u u u u u u u u u u u u u u u u u u u u u u u u u u u u u u u u u u u u u u u u u u u u u u u u u u u u u u u u u u u u s s u 3 , < 2 = $ $ $ $ ",
"& # $ # $ , 2 2 < 5 g h h h h h h h h h h h h h d s u u u u s g h h h h h g d s g g h h h h h h h h h h g g g g g g g g u u u u u u u u u u u u u u u u u u u u u u d h g g s s u u u u u u u u u u y < 2 = $ $ $ , r y s d g g h h h h g s u u u u u u u u s s s u u y u u u u u u u u y u s g h g d u u u u u g h h h h h h h h h h h d s y y u u s s d g g f h h h h g g g g d d d d d d d d h h h h h h h h h h h h h h h h h h h h h h h h h h h h h h h h h h h h h h h h h h h h h h h h h h h h h h h h g h h h h h g d h h h h h h h h h h h h h g d s s s u u u s d g h h h h h h h h h h h h h h h h h h h h h h h h h h h h h h h h h h h h h h h h h h h h h g h d u s d g h h h h h h h h h h h h h h h h h h h h h h h h h h h h h h h h h h h h h h h h h h h h h h h h h h h h h h h h h h h h 0 2 2 2 3 2 % # 2 3 5 g h h h h h h h h h h h h h h h h u u s s h h h h h h h h h h h h g g g g g g g g h h h h h h h h h h h h h h h h h h h h h h h h h h h h g g g g s s s s u u u u u u u u u u u u u u u u u u u u u u u u u u u u u u u u u u u u u u u u u u u u u u u u u u u u u u u u u u u u u u u u u u u u u u u u u u u u u u u u u u u u u u u u u u u u u u u u u u u u u u u u u u u u s s u 3 , < 2 = $ $ $ $ ",
"& # $ # $ , 1 2 < 9 g z h h h h h g g g g g g g d d s u u s g g g g g g h h h h h h h h g g g g h h h h h h h h h h h h d u u u u u u u s u u s u u u u u u u u y s g z g g d s u u u u s y y u d g r , 3 & $ % @ ; 0 g z h g g g g g g h g s u u u u u u u u u u s s s s s s s u u u u u s s d g g g g u s g g h h h h h h h h h g h d u u u u u d g h g g g g h h h h g g g g h h h h h h h h h h h h h h h h h h h h h h h h h h h h h h h h h h h h h h h h h h h h h h h h h h h h h h h h h h h h h h h h h h h h g g g g h h h h h h h h h h h h h g d s s s s s u u u u d h h g h h h h h h h h h h h h h h h h h h h h h h h h h h h h h h h h h h h h h h h h g g g g g g g g h h h h h h h h h h h h h h h h h h h h h h h h h h h h h h h h h h h h h h h h h h h h h h h h h h h h h h h h h h h h e 2 3 2 3 3 % @ < 3 3 d h h h h h h h h h h h h g g g s u y u g h h h h h h h h h h h h h h h h h h h h h h h h h h h h h h h h h h h h h h h h h h h h h h h h h g g g g s s u s g h h g d u y u u u u u u u u u u u u u u u u u u u u u u u u u u u u u u u u u u u u u u u u u u u u u u u u u u u u u u u u u u u u u u u u u u u u u u u u u u u u u u u u u u u u u u u u u u u u u u u u u u u u u u u 4 , < 2 = $ $ $ $ ",
"& # $ # $ , 1 2 < 8 g g g g h h h h h h h g g g g g g g s g g h g g g g h h h h h h h h g g g g h h h h h h h h h h h h g s u u u u u u y s d d d d d d u u u u u d h h h g g d u u u u u u s d h h y 2 2 % # $ @ ; 0 x h h g d d d d d h g d s u u u u u u u u u s s s s s s s u u u u s d g g g g g g d g h h h h h h h h h h h g h d u u u u u d g h g g g g h h h h g g g g h h h h h h h h h h h h h h h h h h h h h h h h h h h h h h h h h h h h h h h h h h h h h h h h h h h h h h h h h h h h h h h h h h h h g g g g h h h h h h h h h h h h h g d d u u u u u u u u u g h h h h h h h h h h h h h h h h h h h h h h h h h h h h h h h h h h h h h h h h h h g g g g g g g g h h h h h h h h h h h h h h h h h h h h h h h h h h h h h h h h h h h h h h h h h h h h h h h h h h h h h h h h h h h h e 2 3 2 3 3 % @ , 2 2 s h h h h h h h h h h h h g g d u u u s g h h h h h h h h h h h h h h h h h h h h h h h h h h h h h h h h h h h h h h h h h h h h h h h h h g g d s u u u u d g g d s u u u u u u u u u u u u u u u u u u u u u u u u u u u u u u u u u u u u u u u u u u u u u u u u u u u u u u u u u u u u u u u u u u u u u u u u u u u u u u u u u u u u u u u u u u u u u u u u u u u u u u u u u 4 , < 2 = $ $ $ $ ",
"& # $ # $ , 2 2 2 8 d s d d d d d d g g d d d g g h h g g g g h g g g g h h h h h h h h g g g g h h h h h h h h h h h h h d u u u u u u u g h g g g g g u u u u s g h h h h g g u u u u u s g g h z u 2 2 % @ $ $ ; 7 z g g d s s s s s g g g g s u u u u u u u d g h g g g g g d d d d g g h h g g g g h h h h h h h h h h h h h g h d u u u u u d h h g g g g h h h h g g g g h h h h h h h h h h h h h h h h h h h h h h h h h h h h h h h h h h h h h h h h h h h h h h h h h h h h h h h h h h h h h h h h h h h h g g g g h h h h h h h h h h h h h h g g s s s s s s s s s g g h h h h h h h h h h h h h h h h h h h h h h h h h h h h h h h h h h h h h h h h h g g g g g g g g h h h h h h h h h h h h h h h h h h h h h h h h h h h h h h h h h h h h h h h h h h h h h h h h h h h h h h h h h h h h e 2 3 2 3 3 & @ , 2 2 s h h h h h h h h h h h h g g s u s u s h h h h h h h h h h h h h h h h h h h h h h h h h h h h h h h h h h h h h h h h h h h h h h h h h g d u y u u u u u s s s u u u u u u u u u u u u u u u u u u u u u u u u u u u u u u u u u u u u u u u u u u u u u u u u u u u u u u u u u u u u u u u u u u u u u u u u u u u u u u u u u u u u u u u u u u u u u u u u u u u u u u u u u u u 4 , < 2 - $ $ $ $ ",
"& # $ # $ , 2 2 2 8 s u u u u u u u u u u u s s g g h h h g g h g g g g h h h h h h h h g g g g h h h h h h h h h h h h h g s u u u u u d z z d g g g g u u u u s g h g g h h g u u u u s g h g g h y < 2 % @ $ $ ; 4 u g d s s u u u u g g h h g s u u u u u u d g g h h h h h h h h h h h h h g g g g g g g g h h h h h h h h h g h d u u u u u d h h g g g g h h h h g g g g h h h h h h h h h h h h h h h h h h h h h h h h h h h h h h h h h h h h h g h h h h h h h h h h h h h h h h h h h h h h h h h h h h h h g g g g h h h h h h h h h h h h h h h h g g g g g g g g h h h h h h h h h h h h h h h h h h h h h h h h h h h h h h h h h h h h h h h h h h h h g g g g g g g g h h h h h h h h h h h h h h h h h h h h h h h h h h h h h h h h h h h h h h h h h h h h h h h h h h h h h h h h h h h h e 2 3 2 3 3 & @ : 2 < u h h g h h h h h h h h h g d u u s s d h h h h h h h h h h h h h h h h h h h h h h h h h h h h h h h h h h h h h h h h h h h h h h h h h z h d u u u u u u s u y y u u u u u u u u u u u u u u u u u u u u u u u u u u u u u u u u u u u u u u u u u u u u u u u u u u u u u u u u u u u u u u u u u u u u u u u u u u u u u u u u u u u u u u u u u u u u u u u u u u u u u u u u u u 4 , 1 2 - $ $ $ $ ",
"& # $ # $ , 2 2 < 8 s y u u u u u u u u u u s s s s s s s u s g h h h h h h h h g g g g h g d s s d g h h h h h h h h h z h d s u u u u u s d h g d s s u u u u g h h h h h g s y y s d h h h h g z r 2 2 % @ $ $ ; 4 y s s s s u u s g g g g g h g g s u u s s s s g h h h h h h h h h h h h h h h h h g g g g g g h h h h h h g g g g g d s u d g h h g g g g h h h h h h h h h h h h h h h g g g h h h g g h h h h h h h h h h h h h h h h h h h h h h h h h h h h h h h h h h h h h h h h h h h h h h h h h h h h h h h h h h h h h h h h h h h h h h h h h h h h h g g g g h h h h h h h h h h h h h h h h h h h h h h h h h h h h h h h h h h h h h h h h h h h h h h h h h h h h h h h h h h h h h h h h h h h h h h h h h h h h h h h h h h h h h h h h h h h h h h h h h h h h h h h h h h h h h h h h s 2 3 2 3 4 ; @ = 2 2 r h g g g h h h h h h h h g d u u u s z g h h h h h h h h h h h h h h h h h h h h h h h h h h h h h h h h h h h h h h h h h h h h h h h h h h h h d d d d u y u y u u u u u u u u u u u u u u u u u u u u u u u u u u u u u u u u u u u u u u u u u u u u u u u u u u u u u u u u u u u u y u s g d d s u u u u u u u u u u u u u u u u u u u u u u u u u u u u u u u u u u u u u u u u 4 , < 2 - $ $ $ $ ",
"& # $ # $ , 2 2 < 0 s y u u u u u u u u u u u u u y y y u y u d h h h h h h h h g g g g h g g d d d g h h h h h h h h h h g s u u u u u u u u s u u u u u u u s h g h l h g s u y u d g h h h h g z r 2 2 % @ $ @ ; 3 e s s s s u s g g g g g g g g h g g d s u y u s s h h h h h h h h h h h h h h h h g g g g h h h h h h h h g g g g g g g d g h h g g g g g h h h h h h h h h h h h h h h h g g g g d s s d h h h h h h h h h h h h h h h h h h h h g g g g h h h h h h h h h h h h h h h h h h h h h h h h h h h h h h h h h h h h h h h h h h h h h h h h h h h h g g g g h h h h h h h h h h h h h h h h h h h h h h h h h h h h h h h h h h h h h h h h h h h h h h h h h h h h h h h h h h h h h h h h h h h h h h h h h h h h h h h h h h h h h h h h h h h h h h h h h h h h h h h h h h h h h h h h s 2 2 < 3 3 ; @ = 2 2 r h g g g h h h h h h h h g d u u u d z h h h h h h h h h h h h h h h h h h h h h h h h h h h h h h h h h h h h h h h h h h h h h h h h h h h h h g g g g d s u u u u u u u u u u u u u u u u u u u u u u u u u u u u u u u u u u u u u u u u u u u u u u u u u u u u u u u u u u u u u u s s d g g d s u u u u u u u u u u u u u u u u u u u u u u u u u u u u u u u u u u u u u u u u 4 , < 2 = $ $ $ $ ",
"& # $ # $ , 2 2 < 0 s y u u u u u u u u u u u u u y y y u y u d h h h h h h h h g g g g h h g g g g h h h h h h h h h h d s s u u u u u u u u u s s s s u u s g g g h h h d s s s d g h h h h h g z r 2 2 % # $ # ; 2 0 s s s s s g g h g g g g g g g g h g d s u u s d h h h h h h h h h h h h h h h h g g g g h h h h h h h h g g g g g g g g h h g g g g g g h h h h h h h h h h h h h h h h h g d s s u u s h h h h h h h h h h h h h h h h h h h h g g g g h h h h h h h h h h h h h h h h h h h h h h h h h h h h h h h h h h h h h h h h h h h h h h h h h h h h g g g g h h h h h h h h h h h h h h h h h h h h h h h h h h h h h h h h h h h h h h h h h h h h h h h h h h h h h h h h h h h h h h h h h h h h h h h h h h h h h h h h h h h h h h h h h h h h h h h h h h h h h h h h h h h h h h h h s 2 2 2 3 3 ; @ = 2 2 r z g g g h h h h h h h h g d u u u g h h h h h h h h h h h h h h h h h h h h h h h h h h h h h h h h h h h h h h h h h h h h h h h h h h h h h h g g g g h g d s u u u u u u u u u u u u u u u u u u u u u u u u u u u u u u u u u u u u u u u u u u u u u u u u u u u u u u u u u u u u g g g g g g s s u u u u u u u u u u u u u u u u u u u u u u u u u u u u u u u u u u u u u u u 4 , < 2 = $ $ $ $ ",
"& # $ # $ , 2 2 < 0 s y u u u u u u u u u u s s s s s s s u s g h h h h h h h h g g g g h h h h h h h h h h h h h h h h s u u u u u u u u u u u y y y y u s g h g h h h h g g g h z h g h h h h g z r 2 2 % # $ $ = < 8 s s s s g g h h g g g g g g g g g g h h g g d g h h h h h h h h h h h h h h h h g g g g d d d d h h h h g g g g g g g g h g g g g g g g h h h h h h h h h h h h h h h h h g s u d s s d h h h h h h h h h h h h h h h h h h h h g g g g h h h h h h h h h h h h h h h h h h h h h h h h h h h h h h h h h h h h h h h h h h h h h h h h h h h h g g g g h h h h h h h h h h h h h h h h h h h h h h h h h h h h h h h h h h h h h h h h h h h h h h h h h h h h h h h h h h h h h h h h h h h h h h h h h h h h h h h h h h h h h h h h h h h h h h h h h h h h h h h h h h h h h h h h s 3 2 2 3 3 : @ = 2 2 r z g g g h h h h h h h h g d u u s z h h h h h h h h h h h h h h h h h h h h h h h h h h h h h h h h h h h h h h h h h h h h h h h h h h h h h h h h h h g d s y u u u u u u u u u u u u u u u u u u u u u u u u u u u u u u u u u u u u u u u u u u u u u u u u u u u u u u u u u u u u h h h g h g d s u u u u u u u u u u u u u u u u u u u u u u u u u u u u u u u u u u u u u u u 4 , < 2 = $ $ $ $ ",
"& # $ # $ , 2 2 < 0 s y u u u u u u u u s s s u s z z s d g h h h h h h h h h h h h h h h h h h h h g g g g g g l g d y u u u u u u u u u u u u y u s s g g g g h h h h g g g g h h h h h h h h h h 8 2 , % $ # $ = 3 5 g g g z h h h h h h h h h h h h h h h h g g g g h h h h h h h h h h h h h h h h h h g g u u u u u g h d g h h g h h h h h h h h h h h h h h h h h h h h h h h h h h h h h d s s s s d h h h h h h h h h h h h h h h h h h d u u y u s s g g h h h h h h h h h h h h h h h h h h h h h h h h h h h h h h h h h h h h h h h g s s s s s d h h h h h h h h h h h h h h h h h h h h h h h h h h h h h h h h h h h h h h h h h h h h h h h h h h h h h h h h h h h h h h h h h h h h h h h h h h h h h h h h h h h h h h h h h h h h g g h h h h z z h h h h h h h h h h h h h h h h h h h h g 3 2 2 3 3 : @ % 2 2 q z h g h h h h h h h h h h g d u g h h h h h h h h h h h h h h h h h h h h h h h h h h h h h h h h h h h h h h h h h h h h h h h h h h h d d d d s s s s s s s u u u u u u u u u u u u u u u u u u u u u u u u u u u u u u u u u u u u u u u u u u u u u u u u u u u u u u u u u u u u d g g g g h g h s u u u u u u u u u u u u u u u u u u u u u u u u u u u u u u u u u u u u u u u 4 , < 2 = $ $ $ $ ",
"& # $ # $ , 2 2 < 0 s y u u u u u u u u s s s s g h h g h h h h h h h h h h h h h h h h h h h h z z h g h h h h g d s y u u u u u u u u u u u u s d g g g g g g h h h h g g g g h h h h h h h h h h 8 2 , % $ # @ * 2 5 d g g h h h h h h h h h h g d s h h h h g g g g h h h h h h h h h h h h h h h h h h g g u u u u s h h g h h h h h h h h h h h h h h h h h h h h z z z z g g g g g g g g d s s s u s g h h h h h h h h h h h h h h h h h h d u u u u s s d g g h h h h h h h h h h h h h h h h h h h h h h h h h h h h h h h h h h h h h h d u y y s d g h h h h h h h h h h h h h h h h h h h h h h h h h h h h h h h h h h h h h h h h h h h h h h h h h h h h h h h h h h h h h h h h h h h h h h h h h h h h h h h h h h h h h h h h h h h h g g g g d g h z h h h h h h h h h h h h h h h h h h h h g 3 2 2 3 3 : @ % 2 2 q z h g h h h h h h h h h z h g s h h h h h h h h h h h h h h h h h h h h h h h h h h h h h h h h h h h h h h h h h h h h h h h h g h h g u u u u u u u u u u u u u u u u u u u u u u u u u u u u u u u u u u u u u u u u u u u u u u u u u u u u u s d g u u u u u u u u u u u u u u s g g g g g h g h s u u u u u u u u u u u u u u u u u u u u u u u u u u u u u u u u u u u u u u u 4 , < 2 = $ $ $ $ ",
"& # $ # $ , 2 2 < 0 s y u u u u u u u u s s d g h g g h h h g g h h h h h h h h h h h h h h h h h h g g g g g g s s u y u u u u u u u u g g g g g g g g g g g g h h h h g g g g h h h h h h h h h h 8 2 , % $ $ + % 2 4 d h h h h h h h h h h h h g d s h h h h g g g g h h h h h h h h h h h h h h h h h h g g s s s s g h h g h g g h h h h h h h h h h h h h h h h h h h h h h h h h g g g g s u u u u s g z h h h h h h h h h h h h h h h h h d u u s s u u s d g g h h h h h h h h h h h h h h h h h h h h h h h h h h h h h h h h h h h h h g s u s d g g h h h h h h h h h h h h h h h h h h h h h h h h h h h h h h h h h h h h h h h h h h h h h h h h h h h h h h h h h h h h h h h h h h h h h h h h h h h h h h h h h h h h h h h h h h h h g d s s s s g h h h h h h h h h h h h h h h h h h h h h g 3 2 2 3 3 : $ % 2 2 q z h g h h h h h h h h h g g d s h h h h h h h h h h h h h h h h h h h h h h h h h h h h h h h h h h h h h h h h h h h h h h h h g h g s u u u u y y u u u u u u u u u u u u u u u u u u u u u u u u u u u u u u u u u u u u u u u u u u u u u u s d g h s u u u u u u u u u u u u u d h g g g g h g h s u u u u u u u u u u u u u u u u u u u u u u u u u u u u u u u u u u u u u u u 4 , < 2 = $ $ $ $ ",
"& # $ # $ , < 2 < q u y u u u u u u u u u s g h g h h g g g g g h h h h h h h h h h h h h h h h g d s s s s s s u u u u u u u u u u u u g g g g h h g h g g g g h h h h g g g g h h h h h h h h h h 8 2 , $ $ $ + % < 3 s z z g h h h h h h h h h h h h h h h h g g g g h h h h h h h h h h h h h h h h h h g g g g g g z h g g g s s g h h h h h h h h h h h h h h h h g g g g d d d d s s s u u y u u u d h z h h h h h h h h h h h h h h h h h d u u s s u y u s d g g h h h h h h h h h h h h h h h h h h h h h h h h h h h h h h h h h h h g g h h h h h h h h h h h h h h h h h h h h h h h h h h h h h h h h h h h h h h h h h h h h h h h h h h h h h h h h h h h h h h h h h h h h h h h h h h h h h h h h h h h h h h h h h h h h h h h h h h d s u y y s g h h h h h h h h h h h h h h h h h h h h h g 4 2 2 3 3 , $ % 2 2 q z h g h h h h h h h h h s s s u h h h h h h h h h h h h h h h h h h h h h h h h h h h h h h h h h h h h h h h h h h h h h h h h g h g u s s s s u u u u u u u u u u u u u u u u u u u u u u u u u u u u u u u u u u u u u u u u u u u u u u u u g g g g d u u u u u u u u u u u u s g h g g g g h g h s u u u u u u u u u u u u u u u u u u u u u u u u u u u u u u u u u u u u u u u 4 , < 2 = $ $ $ $ ",
"& # $ # $ ; < 2 < q u u u u u u s s u u g g g g h h h h h h h h h h h h h h h h h h h h h h h h s s s s u u u u u u u u u u u u y u d h h h h h h h h h h h h h h h h h h h h h h h h h h h h h h d 5 2 ; $ $ $ $ $ < < q g d g h h h h h h h h h h h h h h h h h h h h h h h h h h h h h h h h h h h h h h h h h g g h g h h s s s s d g g g g h h h h h h h h h h h h d s y u u u u u s s u u u u u s d g h h h h h h h h h h h h h h z h h g u u u u u u u u s u s d g h h h h h h h h h h h h h h h h h h h h h h h h h h h h h h h h h h h h h h h h h h h h h h h h h h h h h h h h h h h h h h h h h h h g g g g h h h g h h h h h h h h h h h h h h h h h h h h h h h h h h h h h h h h h h h h h h h h h h h h h h h h g g g g h h h h h h h h g d s u s s d g h h h h h h h h h h h h h h h h h h h h g 9 2 2 3 3 , $ % < 2 9 h g g h h h h h h h h h d u u y h h h h h h h h h h h h h h h h h h h h h h h h h h h h h h h h h h h h h h h h h h h h h h h h g h h s u u u u u u u u u u u u u u u u u u u u u u u u u u u u u u u u u u u u u u u u u u u u u u u u u u u s g g g h s u u u u u u u u u u u u g g h h h h h h g h d u u u u u u u u u u u u u u u u u u u u u u u u u u u u u u u u u u u u u u u 4 , < 2 = $ $ $ $ ",
"& # $ # $ ; < 2 < q u u s s s s s s s d g g g g h h h h h h h h h h h h h h h h h h h h h h h h s s s s u u u u u u u u u u u u u s g h h h h h h h h h h h h h g g g g g g g g h h h h h h h h h s 5 2 ; # $ $ $ $ < < 0 d s d h h h h h h h h h h h h h h h h h h h h h h h h h h h h h h h h h h h h h h h h h g g h g h g s u s s s g g g g h h h h h h h h h h h h g s u u u u u u s s s s u u s d g h h h h h h h h h h h h h h h g g d s u u u u u u u u s u s d g h h h h h h h h h h h h h h h h h h h h h h h h h h h h h h h h h h h h h h h h h h h h h h h h h h h h h h h h h h h h h h h h h h h h h h h h h h g h h h h h h h h h h h h h h h h h h h h h h h h h h h h h h h h h h h h h h h h h h h h h h h h g g g g h h h h h h h h h h g d g g g g h h h h h h h h h h h h h h h h h h h h h 9 2 2 3 3 , $ $ < 2 8 h g g h h h h h h h h h s s u u h h h h h h h h h h h h h h h h h h h h h h h h h h h h h h h h h h h h h h h h h h h h h h h h g g h g s u y u u u u u u u u u u u u u u u u u u u u u u u u u u u u u u u u u u u u u u u u u u u u u u u u s h h h h s u u u u u u u u u u u u g g h h h h h h g h d u u u u u u u u u u u u u u u u u u u u u u u u u u u u u u u u u u u u u u u 4 , < 2 = $ $ $ $ ",
"& # $ # $ ; < 2 < q s u h h h h g h h z g g g g h h h h h h h h h h h h h h h h h h h h h h h h s s s s u u u u u u u u u u u u d g g g h h h h g g g g h h h h h h h h h h h h h h h h h h h h z s 4 3 ; $ $ $ $ $ < < 0 s s d h h h h h h h h h h h h h h h h h h h h h h h h h h h h h h h h h h h h h h h h h g g h h g s u y u s s g g g g h h h h h h h h h h h h g s u s u u u u s s s s u s d g h h h h h h h h h h h h h h h h h g s y u u u u u u u u s u s d g h h h h h h h h h h h h h h h h h h h h h h h h h h h h h h h h h h h h h h h h h h h h h h h h h h h h h h h h h h h h h h h h h h h g g g g g g g g h h h h h h h h h h h h h h h h h h h h h h h h h h h h h h h h h h h h h h h h h h h h h h h h h h h h h h h h h h h h h h h g h h h g h h h h h h h h h h h h h h h h h h h h h 9 2 2 3 3 , % @ , 2 7 g g h h h h h h h h h h h g g g h h h h h h h h h h h h h h h h h h h h h h h h h h h h h h h h h h h h h h h h h h h h h h h h h g h h d s u u u u u u u u u u u u u u u u u u u u u u u u u u u u u u u u u u u u u u u u u u u u u u u u u s z h g g u u u u u u u u u u u u u g g h h h h h h g h d u u u u u u u u u u u u u u u u u u u u u u u u u u u u u u u u u u u u u u u 4 , < 2 - $ $ $ $ ",
"& # $ # @ ; < 2 < q s u s s s s d d s s g g g g h h h h h h h h h h h h h h h h h h h h h h h h s s s s u u u u u u u u u u u u h h g d h h h h u u u u h h h h d d d d s s s s d g h h h h h h z u 3 3 ; $ $ $ # $ < < 8 s u s h h h h h h h h h h h h h h h h h h h h h h h h h h h h h h h h h h h h h h h h h g g h z d s u y y u s g g g g h h h h h h h h h h h h h d s s u u u u s s s s s d g h h h h h h h h h h h h h h h h h z g s u u u u i u u u u s u s d g h h h h h h h h h h h h h h h h h h h h h h h h h h h h h h h h h h h h h h h h h h h h h h h h h h h h h h h h h h h h h h h h h h h d d d d g g g g h h h h h h h h h h h h h h h h h h h h h h h h h h h h h h h h h h h h h h h h h h h h h h h h s s s s h h h h h h h h g g g g h g g d h h h h h h h h h h h h h h h h h h h h h 9 2 2 3 3 , % @ : < 5 g g h h h h h h h h h h g h h h h h h h h h h h h h h h h h h h h h h h h h h h h h h h h h h h h h h h h h h h h h h h h h h h h g g h g d s u u u u u u u u u u u u u u u u u u u u u u u u u u u u u u u u u u u u u u u u u u u u u u u u s h g s s u u u u u u u u u u u u u g g h h h h h h g h d u u u u u u u u u u u u u u u u u u u u u u u u u u u u u u u u u u u u u u u 4 , 1 2 - $ $ $ $ ",
"& # $ # @ ; 2 < < q s u u u u u u u u u u d g g g g g g h h h h h h h h h h h h h h h h h h g u u u u u u u u u u u u u u y s h h h h h g h g d u u u u d d d d s s a s u u u u u d g h h h h h z r < 3 = $ $ $ @ $ < < 5 g g g h h h h h h h h h h h h h h h h h h h h h h h h h g g g g g g g h h h h g g g g g g h h s s u u u u u i s g h h g g g g g g g g h h h h h h g d d d d d g g h h h h h h h h h h h h h h h h h h g g g g g s u u s u s s s s u u s u h h h h h h h h h h h h h h h h h h h h h h h h h h h h h h h h h h h h h h h h h h h h h h h h h h h h h h h h h h h h h h h h h h h h h h u u s g h h h h h h h h h h h h h h h h g g g h h h h h g g g g h h h h h h h h h h h h h h h h h h h h g j g u u u u u s d g h h h h h h h h h h h h h h h h h h h h h h h h h h h h h h h h h z r , 2 3 3 2 % # * 2 4 g h h h h h h h h h h h h h h h h h h h h h h h h h h h h h h h h h h h h h h h h h h h h h h h h h h h h h h h h h h h h h h h h h h h h h h h g h g d u u u u u u u u u u u u u y y y u s s d g d d s u u u u u u u u u u u u u u u u u u u u u u u u u u u u u u u u u u u u s z h d g g h h h h h h s u u u u u u u u u u u u u u u u u u u u u u u u u u u u u u u u u u u u u u 4 , < 2 - $ $ $ $ ",
"& # $ # @ ; 2 < < q s u u u u u u u u u s g h g g g g g h h h h h h h h h h h h h h h h h g d u u u u u u u u u u u u u u y d h h h h h g h g d u u u u s s s s s s s s u u u u s d g h h h h h z r < 3 = $ $ $ @ # < < 5 g g g h h h h h h h h h h h h h h h h h h h h h h h h g h h h g g g g h h h h g g h h h g h g s s u u u u u u s g h h g g g g g g g g h h h h h h h h g g g g h h h h h h h h h h h h h h h h h h h h h g d s s u u u u u u u u u u y d d g g h h h h h h h h h h h h h h h h h h h h h h h h h h h h h h h h h h h h h h h h h h h h h h h h h h h h h h h h h h h h h h h h h h h h s s d g h h h h h h h h h h h h h h h h h h h h h h h h h h h h h h h h h h h h h h h h h h h h h h h h g l h s u u u u s d g h h h h h h h h h h h h h h h h h h h h h h h h h h h h h h h h h z r , 2 3 2 2 % $ * 2 4 g h h h h h h h h h h h h h h h h h h h h h h h h h h h h h h h h h h h h h h h h h h h h h h h h h h h h h h h h h h h h h h h h h h h h h h h h z h g u u u u u u u u u u u u y u u u d g h h h h g g u u u u u u u u u u u u u u u u u u u u u u u u u u u u u u u u u u u u s h h h g g g g h h h h d s u u u u u u u u u u u u u u u u u u u u u u u u u u u u u u u u u u u u u 4 , < 2 = $ $ $ $ ",
"& # $ # @ : 2 < < q s u u u u u u u u u g h h g g g g g h h h h h h h h h h h h h h h h h d s u u u u u u u u u u u u u u u d h h h h h g h g d u u u u s s s s s s s s u u u u g g h h h h h h z r < 3 = $ $ $ @ $ < < 5 g g g h h h h h h h h h h h h h h h h h h h h h h h h h g g g d d d d g g g g g g g g g d d d u u s s s s s s d h h g g g g g g g g g h h h h h h h h h h h h h h h h h h h h h h h h h h h h h h h h g d s u u u u u y u s d d g d u d g g g h h h h h h h h h h h h h h h h h h h h h h h h h h h h h h h h h h h h h h h h h h h h h h h h h h h h h h h h h h h h h h h h h h h h d g g g g g g g h h h h h h h h h h h h z h g d d d d d g g g g h h h h h h h h h h h h h h h h h h h h h h h g s s s s g g g h h h h h h h h h h h h h h h h h h h h h h h h h h h h h h h h h z r , 3 3 2 3 & $ * 2 4 h h h h h h h h h h h h h h h h h h h h h h h h h h h h h h h h h h h h h h h h h h h h h h h h h h h h h h h h h h h h h h h h h h h h h h h h g h g d u u u u u u u u u u u u y u s d h h h h z h h g g g g g g g g g u u u u u u u u u u u u u u u u u u u u u u u u u u u u u d d h h h g g g g h h g s u u u u u u u u u u u u u u u u u u u u u u u u u u u u u u u u u u u u u 4 , < 2 = $ $ $ $ ",
"& # $ # @ : 2 < < q s u u u u u u u u u g h h g g g g g h h h h h h h h h h h h h h h h h s y u u u u u u u u u u u u u u y s g h h h h g h g d u u u u u u u u s s s s u u u u h h h g h h h h z r < 3 = $ $ $ @ $ < < 5 g g g h h h h h h h h h h h h h h h h h h h h h h h h h g s y u u u u s s s s d d d d s s u u u u s s g g g g g h h g g g g g g g g g h h h h h h h h h h h h h h h h h h h h h h h h h h h h h h h h u u u u u u u u s s g h g h g u s h g h h h h h h h h h h h h h h h h h h h h h h h h h h h h h h h h h h h h h h h h h h h h h h h h h h h h h h h h h h h h h h h h h h h h h g z h g g g g g h h h h h h h h h h h h h g s u u u u u u s s d g h h h h h h h h h h h h h h h h h h h h h h l h h h h h h h g h h h h h h h h h h h h h h h h h h h h h h h h h h h h h h h h z r , 2 3 2 3 & # % 2 3 h h g h h h h h h h h h h h h h h h h h h h h h h h h h h h h h h h h h h h h h h h h h h h h h h h h h h h h h h h h h h h h h h h h h h h h h d g d s u u u u u u u u u u u u y u d g g g g g h h g g h h h h h h h h s u u u u u u u u u u u u u u u u u u u u u u u u u u u u s y s d g h h g g g g h d s u u u u u u u u u u u u u u u u u u u u u u u u u u u u u u u u u u u u 4 , < 2 = $ $ $ $ ",
"& # $ # @ : 2 < < q s u u u u u u u u g g g g g g g g g g g h h h h h h h g h h g d s s u u u u u u u u u y y y u u u u u u s h h h h h g g g g s u u u u u u u s s u y y u s h h h h h h h h h z r < 3 = $ $ $ # $ : 2 3 s s s g d d h h h h h h h h h h h h h h h h h h h h h g g d s u u u u u u u u u u u u u u u u s d g h h h h h g g g g h h h h h h h h h h h h h h h h h h h h h h h h h h h h h h h h h h h h h h g g u u u u u u u u d g h h g h h s d g g g h h h h h h h h h h h h h h h h h h h h h h h h h h h h h h h h h h h h h h h h h h h h h h h h h h h h h g g h g g h z g g g g h h h h z h g g s u u s u s g h g g g g h h g g s s u y u u u u u u u u s g z h h h h h h h h h h h h h h h h h h h h h h h g g h h h h h h h h h h h h h h h h h h h h h h h h h h h h h h h h h h h h h u 3 2 3 3 3 = @ % < 3 s z g h h h h h g d s u h h h h h h h h h h h h h h h h h h h h h h h h h h h h h h h h h h h h h h h h h h h h h h h h h h h h g g h h h h g d u u u u u u u u u d g d u s s s s s d g h h h h h h h h h h h h g h z h s u u u u u u u u u u u u u u u u u u u u u u u u u u u u u u u s d h h h h h g h d u y u u u u u u u u u u u u u u u u u u u u u u u u u u u u u u u u s s u 4 , < 2 = $ $ $ $ ",
"& # $ # @ : 2 < < w s u u u u u u u u g g g g g h g d s s s d g h h h h h g g g s s u u u u u u u u u u y u u u u u u u u y s g h h h h g g g g s u u u u u u u s u u u u s g z h h h h h h h h z r < 3 = $ $ $ $ $ ; 2 < y s u u u s g h h h h h h h h h h h h h h h h h h h h g g g d s u u u u u u u u u u u u s s s g g h h h h h h g g g g h h h h h h h h h h h h h h h h h h h h h h h h h h h h h h h h h h h h h h g g u u u u y u s d g h h z h h h g g g h h h h h h h h h h h h h h h h h h h h h h h h h h h h h h h h h h h h h h h h h h h h h h h h h h h h h h h g g h g g g d s d g h h h h h h h h g s u u s y u s d g g g g h h g d s u u u u u u u u u u u u s d z h h h h h h h h h h h h h h h h h h h h h h g g h h h h h h h h h h h h h h h h h h h h h h h h h h h h h h h h h h h h h u 3 2 3 3 3 = @ $ < 3 y z g h h h g g s u u y h h h h h h h h h h h h h h h h h h h h h h h h h h h h h h h h h h h h h h h h h h h h h h h h h h h h h h h h g d s u u u u u u u u u s g g g s u y y s g h z h h h h h h h h h h h h g h h g s u u u u u u u u u u u u u u u u u u u u u u u u u u u u u u u d g z z z h g g d s u u u u u u u u u u u u u u u u u u u u u u u u u u u u u u u u u u s s u 4 , < 2 = $ $ $ $ ",
"& # $ # @ ; 2 < 2 e s u u u u u u u u g g g g g g d s u u u s h h h h h h g d s u u y y y y u u u u u u u s d d s u u u u y s g h h h h g g g g s u u u u u u u u u u s s g h g h h h h h h h h z r < 3 = $ $ $ $ $ ; < , e d s s u s g h h h h h h h h h h h h h h h h h h h h g g g g d s u u u u u u u u u u s s d g h h h g h h h h g g g g h h h h h h h h h h h h h h h h h h h h h h h h h h h h h h h h h h h h h h g g s s s s u s d g h h h h h g h h h h h h h h h h h h h h h h h h h h h h h h h h h h h h h h h h h h h h h h h h h h h h h h h h h h h h h h h h g s u u s u u y s d g h h h h h g g h h g s u s u u u u s d g g h h d s u u u s u u u u u u u u u u d h h h h h h h h h h h h h h h h h h h h h h h h h h h h h h h h h h h h h h h h h h h h h h h h h h h h h h h h h h h h h h u 3 2 3 3 4 = @ $ < 3 q h g g h g d s y u u s h h h h h h h h h h h h h h h h h h h h h h h h h h h h h h h h h h h h h h h h h h h h h h h h h h h h h g d d s u u u u u u u u u u u s g h g y y s g h h h h h h h h h h h h h h h h g h g s u u u u u u u u u u u u u u u u u u u u u u u u u u u u u u u u g h h h g d d d s u s s u u u u u u u u u u u u u u u u u u u u u u u u u u u u u u u u s s u 4 , < 2 = $ $ $ $ ",
"& # $ # @ ; 2 < 2 e s u u u u u u u u g g g g g s s s s s u d z h h h h h g s u y y y y y y u u u u u u y s d g d s u u u y s g h h h h g g g g s u u u u u u u y u s s h h g g h h h h g g h h z r , 2 = # $ % $ $ ; < < e z g g g g z h h h h h h h h h h h h h h h h h h h h g g g g g d s u u u u u u u u u s d g h g g h h h h h h g g g g h h h h h h h h h h h h h h h h h h h h h h h h h h h h h h h h h h h h h h g g g g g g g h h h g g g g h h h h h h h h h h h h h h h h h h h h h h h h h h h h h h h h h h h h h h h h h h h h h h h h h h h h h h h h h h h h g s u u s s d d g g g g h h h h g g h z h d s s s s s s u s g g h g s u y u s s u u u u u u u u s d g h h h h h h h h h h h h h h h h h h h h h h h h h h h h h h h h h h h h h h h h h h h h h h h h h h h h h h h h h h h h h h u 3 2 3 3 4 = @ $ < 3 8 h g g h g s u u s d g h h h h h h h h h h h h h h h h h h h h h h h h h h h h h h h h h h h h h h h h h h h h h h h h h h h h d s u y u u u u u u u u u u u u d h z h d g h z h h h h h h h h h h h h h h h h h h g u u u u u u u u u u u u u u u u u u u u u u u u u u u u u u u u u g g g d s s s s u u s s u u u u u u u u u u u u u u u u u u u u u u u u u u u u u u u u s s u 4 , < 2 = $ $ $ $ ",
"& # $ # # ; 3 < 2 e s y u u u u u u u u s s s s u u u u u d g g g g g h g g h h g g g g d s u u u u u u u u u u u u u u s s s s s s s s s s u y d s s u s s s s s s d g h h h g h g g g g g g g z y < 2 ; @ $ % $ $ ; < 2 r x g d d s s h h h h h h h h h h h h h h h h h h h h h h h h g g d s u u u u u u u u g g g g g g h g h h h h h h h h h h h h h h h h h h h h h h h h h h h h h h h h h h h h h h h h h h h h h h h h g g g g h h h h h h h h h h h h h h h h h h h h h h h h h h h h h h h h h h h h h h h h h h h h h h h h h h h h h h h h h h h h h h h h h h h h h h h h h h h h h h h h h h h h g h h g s u u u s s s s u s g h h d u y y u u y u s s d g g h h h h h h h h h h h h h h h h h h h h h h h h h h h h h h h h h h h h h h h h h h h h h h h h h h h h h h h h h h h h h h h h h h z d 3 3 3 3 4 ; # $ ; 3 7 g g h z d u s y s g h h h h h h h h h h h h h h h h h h h h h h h h h h h h h h h h h h h h h h h h h h h h h h h h h h h h g d s u u u u u u u u u u u u u u s g z h g g g g h h h h h h h h h h h h h h h h h g s u u u u u u u u u u u u u u u u u u u u u u u u u u u u u u u u u s s u y u u u u u u u u u u u u u u u u u u u u u u u u u u u u u u u u u u u u u u u u s s u 4 , < 2 = $ $ $ $ ",
"& # $ # # ; 3 < 2 e s y u u u u u u u u u u u u u u u u s g h h h h h h g g g g g g g h g g d d u u u u u u u u u u u u u u u u u u u u u u y y s d g g g g g g g g h h h h h h h g g g g g g g h u 2 2 : @ $ $ $ $ = < < q h d s s s s s d g h h h h h h h h h h h h h h h h h h h h h h g g d s u u u y s d g g g g g g g g g h h h h h h h h h h h h h h h h h h h h h h h h h h h h h h h h h h h h h h h h h h h h h h h h g g g g h h h h h h h h h h h h h h h h h h h h h h h h h h h h h h h h h h h h h h h h h h h h h h h h h h h h h h h h h h h h h h h h h h h h h h h h h h h h h h h h h h h h g h g s u u u s s s s s s d g h d s y y u u u u s d g g h h h h h h h h h h h h h h h h h h h h h h h h h h h h h h h h h h h h h h h h h h h h h h h h h h h h h h h h h h h h h h h h h h h h z g 4 3 3 3 4 ; # $ ; 3 5 s h h z d u s u d g h h h h h h h h h h h h h h h h h h h h h h h h h h h h h h h h h h h h h h h h h h h h h h h h h h h g g s u u u u u u u u u u u u u u u s g h h g g g g h h h h h h h h h h h h h h h h g d s u u u u u u u u u u u u u u u u u u u u u u u u u u u u u u u u u s s u u u u u u u u u u u u u u u u u u u u u u u u u u u u u u u u u u u u u u u u u u s s u 4 , 1 2 - $ $ $ $ ",
"& # $ # $ ; 3 < 2 r d y u u u u u u u u u u u u u u u u s d g g g g g g s s s s g g h h h h g g u u u u u u u u u u u u u u u u u u u u u u s s g g h z h h h h h h z z h h h h h g g g u u u u d u 3 2 < # # @ $ $ = < , 8 s s s s u u y g g h h h h h h h h h h h h h h h h h h h h h h h g g d s u u y s d g g g g g g g g g h h h h h h h h h h h h h h h h h h h h h h h h h h h h h h h h h h h h h h h h h h h h h h h h g g g g h h h h h h h h h h h h h h h h h h h h h h h h h h h h h h h h h h h h h h h h h h h h h h h h h h h h h h h h h h h h h h h h h h h h h h h h h h h h h h h h h h h h g h g s u s d d s s s s g g g g s u u u u u s d g g g g g g h h h h h h h h h h h h h h h h h h h h h h h h h h h h h h h h h h h h h h h h h h h h h h h h h h h h h h h h h h h h h h h h h h h h 5 2 3 3 4 ; $ $ = 3 3 y h g z d u s s d g h h h h h h h h h h h h h h h h h h h h h h h h h h h h h h h h h h h h h h h h h h h h h h h h h h h g s u u u u u u u u u u u u u u u u u d h g g g g g h h h h h h h h h h h h h h h h g s u u u u u u u u u u u u u u u u u u u u u u u u u u u u u u u u u u u u s s u u u u u u u u u u u u u u u u u u u u u u u u u u u u u u u u u u u u u u u u s s u 4 , < 2 = $ $ $ $ ",
"& # $ # # ; 3 < 2 r s y u u u u u u u u u u u u u u u u y s d d s d d d u u u u s d g g g g d d u u u u u u u u u u u u s s s s s s s s s d g g z z h g g g g g g g h h h h h h h g g g u u u u u s 4 3 2 $ $ + # $ * < : 5 y s u u u u s h h h h h h h h h h h h h h h h h h h h h h h h h h g g d s u u u u u g g g g g g g g h h h h h h h h h h h h h h h h h h h h h h h h h h h h h h h h h h h h h h h h h h h h h h h h g g g g h h h h h h h h h h h h h h h h h h h h h h h h h h h h h h h h h h h h h h h h h h h h h h h h h h h h h h h h h h h h h h h h h h h h h h h h h h h h h h h h h h h h g h h g d g h z h g s s h h g g s u u u y u d g g g g g g g h h h h h h h h h h h h h h h h h h h h h h h h h h h h h h h h h h h h h h h h h h h h h h h h h h h h h h h h h h h h g g h h h h g h 5 2 3 2 4 ; # # = 3 2 w z g z d u s s g g h h h h h h h h h h h h h h h h h h h h h h h h h h h h h h h h h h h h h h h h h h h h h h h h h h g g u u u u u u u u u u u u u u u u u u d g g g g g g h h h h h h h h h h h h h h h h d s u u u u u u u u u u u u u u u u u u u u u u u u u u u u u u u u u u y u s s u u u u u u u u u u u u u u u u u u u u u u u u u u u u u u u u u u u u u u u u s s u 4 , 1 2 = $ $ $ $ ",
"& # $ # # : 2 < 2 y s y u u u u u u u u u u u u u u u u u u u u u u u u u u u u i i u u u u u u u u u u s s s s d d g g h h h h h h h h h h h h h h h h h h h h g g g g h h h h h h h h g g g g h g 5 3 3 % $ @ @ $ * 2 , 3 u u u u u u g h h h h h h h h h h h h h h h h h h h h h h h h h h h g f s s u u u u u s g g h h h h h h h h h h h h h h h h h h h h h h h h h h h h h h h h h h h h h h h h h h h h h h h h h h h h h h h h h h h h h h h h h h h h h h h h h h h h h h h h h h h h h h h h h h h h h h h h h h h h h h h h h h h h h h h h h h h h h h h h h h h h h h h h h h h h h h h h h h h h g h h g d s g h h h h g g h g g s u u u s g h g h h h h h h h h h d s d s d h h h h h h h h h h h h h h h h h h h h h h h h h h h h h h h h h h z x h s g g g g g g g g h h h h g g g g g d s u s s 7 < 3 2 4 , # $ * 3 < 5 s z h d u s d g g h h h h h h h h h h h h h h h h h h h h h h h h h h h h h h h h h h h h h h h h h h h h h g g g g z h s u u u u u u u u u u u u u u u u u u u d h h h h h h h h h h h h h h g h g g g g g g y s s u u u u u u u u u u u u u u u u u u u u u u u u u u u u u u u u u u u u u u u u u u u u u u u u u u u u u u u u u u u u u u u u u u u u u u u u u u u u s s y 3 , < 2 = $ $ $ $ ",
"& # $ # @ : 2 < 2 y s y u u u u u u u u u u u u u u u u u u u u u u u u u u u u u u u u u u u u s s s s g g g g g g h g h h h h h h h h h h h h h h h h h h h h h h h h h h h h h h h h g g g g h h 5 2 4 * $ $ @ $ & 2 < 3 u s u s d g h h h h h h h h h h h h h h h h h h h h h h h h h h h h g g d s u u u u u u u s g g h z h h h h h h h h h h h h h h h h h h h h h h h h h h h h h h h h h h h h h h h h h h h h h h h h h h h h h h h h h h h h g g g g h h h h h h h h h h h h h h h h h h h h h h h h h h h h h h h h h h h h h h h h h h h h h h h h h h h h h h h h h h h h h h h h h h h h h h h h g g g d s u s d h h h g g h g g u u u u g g g g h h h h h h h h g s s s y u s d h h h h h h h h h h h h h h h h h h h h h h h h h h h h h h h h z d u s s s s s g g g g h h h h g g g g s s s s s s 7 < 3 2 4 , @ $ * 3 < < 0 h x g u y d g g h h h h h h h h h h h h h h h h h h h h h h h h h h h h h h h h h h h h h h h h h h h h h g g g g h d s u u u u u u u u u u u u u u u u u u u s h h h h h h h h h h h h h h h h h g g g g g s s s u u u u u u u u u u u u u u u u u u u u u u u u u u u u u u u u u u u u u u u u u u u u u u u u u u u u u u u u u u u u u u u u u u u u u u u u u u u u s s y 3 , < 2 = $ $ $ $ ",
"& # $ # @ : 2 < 2 y s u u u u u u u u u u u u u u u u u u u u u u u u u u u u u d s s s s s s s g g g g h h h h h g g g h h h h h h h h h h h h h h h h h h h h h h h h h h h h h h h h g g g g g z 7 < 3 = @ $ @ $ % 2 2 3 u g s d g h h h h h h h h h h h h h h h h h h h h h h h h h h h h h h g g s s u u u u u u u u s g z h h h h h h h h h h h h h h h h h h h h h h h h h h h h h h h h h h h h h h h h h h h h h h h h h h h h h h h h h h h h g g g g h h h h h h h h h h h h h h h h h h h h h h h h h h h h h h h h h h h h h h h h h h h h h h h h h h h h h h h h h h h h h h h h h h h h h h h h g g d s u u y s h h h g g h g g u u u s h g g g h h h h h h h h g s u s u u u u h h h h h h h h h h h h h h h h h h h h h h h h h h h h h h h h h s y u u u u u g g h h h h h h g g g g u u s s s s 7 < 3 2 4 , # $ & 3 5 2 2 q g d u u s g g h h h h h h h h h h h h h h h h h h h h h h h h h h h h h h h h h h h h h h h h h h h h h g g g g d s u u u u u u u u u u u u u u u u u u u y s h h h h h h h h h g g g g g g g h g g g g h g u u u u u u u u u u u u u u u u u u u u u u u u u u u u u u u u u u u u u u u u u u u u u u u u u u u u u u u u u u u u u u u u u u u u u u u u u u u u u u s s u 4 , < 2 = $ $ $ $ ",
"& # $ # @ : 2 < 2 y u u u u u u u u u u u u u u u u u u u u u u u u u u u u u u h h h h h h h h h h h h g g g g g g g g h h h h h h h h h h h h h h h h h h h h h h h h h h h h h h h h g g g g g z 0 < 3 ; + % @ $ % 2 4 3 u h h h h h h h h h h h h h h h h h h h h h h h h h h h h h h h h h h g g d s u u u u u u u y u d h h h h h h h h h h h h h h h h h h h h h h h h h h h h h h h h h h h h h h h h h h h h h h h h h h h h h h h h h h h h h g g g g h h h h h h h h h h h h h h h h h h h h h h h h h h h h h h h h h h h h h h h h h h h h h h h h h h h h h h h h h h h h h h h h h h h h h h h h h g d u u s u s h h h g g h g g u u u d g g g h h h h h h h h h d u u u s s u u h h h h h h h h h h h h h h h h h h h h h h h h h h h h h h h h g h d y s s s s h h h h h h h h g g g g r y s s s s 7 < 3 2 3 , # $ % 2 2 4 2 2 8 r u d d g g h h h h h h h h h h h h h h h h h h h h h h h h h h h h h h h h h h h h h h h h h h h h h g g g g u y y u u u u u u u u u u u u u u u u u u y u g h h h h h h h h g g g g d d d d g g g g h h u s u u u u u u u u u u u u u u u u u u u u u u u u u u u u u u u u u u u u u u u u u u u u u u u u u u u u u u u u u u u u u u u u u u u u u u u u u u u u s s u 4 , < 2 = $ $ $ $ ",
"& # $ # @ : 2 < 2 r u u u u u u u u u u u u u u s u y s u u u u y y u s u s g h h h h h h h h h g g g g g g g g g g g g h h h h h h h h h h h h h h h h h h h h h h h h h h h h h h h h h h h h g z q < 3 < @ % @ $ % 2 4 3 s h h h h h h h h h h h h h h h h h h h h h h h g g g g d s g g g h h h h h s u u s h g s u u s d g h h h h h h h h h h h h h h h h h h h h h h h h h h h h h h h h h h h h h h h h h h h h h h h h h h h h h h h h h h h h d u u s g g h z h h h h h h h h h h h h h h h h h h h h h h h h h h h h h h h h h h h h h h h h h h h h h h h h h h h h h h h h h h h h h h h h h h h h h g g d y u s d h h h h h h g d s u u s s d g g h h h h g d s s u u u u u y s g h h h h h h h h h h h h h h h h h h h h h h h h z g s 7 y g z g g h s u s s s s h h h h h h h h h g g g s s s s s s 0 , < 2 3 , $ $ % 2 2 2 2 2 , 2 r d d d g g g g g g h h h h h h h h h h h h h h h h h h h h h h h h h h h h h h h h h h h h h h h h h h d y u u u u u u u u u u u u u u u u u u u u u u s g h h h h h g g d s s u u u u u u s d g g h d s u u u u u u u u u u u u u u u u u u u u u u u u u u u u u u u u u u u u u u u u u u u u u u u u u u u u u u u u u u u u u u u u u u u u u u u u u u u u u s s u 4 , < 2 = $ $ $ $ ",
"& # $ # @ : 2 < 2 r u u u u u u u u u u u u u u s u u s u u u u y y u u s d g h h h h h h h h h g g g g g g g g g g g g h h h h h h h h h h h h h h h h h h h h h h h h h h h h h h h h h h h h h z w < 3 < $ $ @ # $ 2 3 3 y h h h h h h h h h h h h h h h h h h h h h h h g g s u y y u g g g h h h h u u u s h g d s d g g g h h h h h h h h h h h h h h h h h h h h h h h h h h h h h h h h h h h h h h h h h h h h h h h h h h h h h h h h h h h h d s u s g g h z h h h h h h h h h h h h h h h h h h h h h h h h h h h h h h h h h h h h h h h h h h h h h h h h h h h h h h h h h h h h h h h h h h h h h h g g d d g h h h h h h g s u s s u s s s s d d d d d s s u u u u u u u y s g h h h h h h h h h h h h h h h h h h h h h h h h z z s < 2 5 r g z g x g g g g g h h h h h h h h h h g g s s s s s s 0 , < 2 3 , $ $ % 2 2 2 2 2 2 < 2 r z z h g g g g g h h h h h h h h h h h h h h h h h h h h h h h h h h h h h h h h h h h h h h h h h d s s u u u u u u u u u u u u u u u u u u u u u s d z g g h h d s u u u u u u u u u u u s s d d s s u u u u u u u u u u u u u u u u u u u u u u u u u u u u u u u u u u u u u u u u u u u u u u u u u u u u u u u u u u u u u u u u u u u u u u u u u u u u u s s u 4 , < 2 - $ $ $ $ ",
"& # $ # @ : 2 < 2 r u u u u u a u u u u u u u u s u s g d d d d u s s d g g g h h h h h h h h h g g g g g g g g g g g g h h h h h h h h h h h h h h h h h h h h h h h h h h h h h h h h h h h h h z w < 2 2 % @ @ # $ 2 3 2 0 z h h h h h h h h h h h h h h h h h h h h h h h h s s u u y d h g h h h h u u u s h g g g g g h h h h h h h h h h h h h h h h h h h h h h h h h h h h h h h h h h h h h h h h h h h h h h h h h h h h h h h h h h h h h h s u y u g g h z h h h h h h h h h h h h h h h h h h h h h h h h h h h h h h h h h h h h h h h h h h h h h h h h h h h h h h h h h h h h h h h h h h h h h h h g h g g h h h h h d s u u s s s s s s s s u u u u u u u u u u u u u y s g h h h h h h h h h h h h h h h h h h h h h h h h s h g 8 2 < < 8 g x d g h h h h h h h h h h h h h h h g s s s s s s 0 , 2 2 3 , $ $ % 2 2 2 2 2 , 4 < 2 d z z g g g g g h h h h h h h h h h h h h h h h h h h h h h h h h h h h h h h h h h h h h h h h g s u s u u u u u u u u u u u u u u u u u u u u u s d h d d d d u u y y u u s s u u u u u u u s u u s s u u u u u u u u u u u u u u u u u u u u u u u u u u u u u u u u u u u u u u u u u u u u u u u u u u u u u u u u u u u u u u u u u u u u u u u u u u u u s s u 4 , < 2 = $ $ $ $ ",
"& # $ # @ : 2 < 2 r u u u u u a u u u u u u u u s u d h h h h j g g h h h h h h h h h h h h h h g g g g g g g g g g g g h h h h h h h h h h h h h h h h h h h h h h h h h h h h h h h h h h h h h z w < < 4 * @ # $ $ < 2 2 7 z h h h h h h h h h h h h h h h h h h h h h h h h s s u u u g h g h h h h u u u s h h h h h h h h h h h h h h h h h h h h h h h h h h h h h h h h h h h h h h h h h h h h h h h h h h h h h h h h h h h h h h h h h h h h h g d g g g h z h h h h h h h h h h h h h h h h h h h h h h h h h h h h h h h h h h h h h h h h h h h h h h h h h h h h h h h h h h h h h h h h h h h h h h h h h h h h h h h h u y u s s s s s s s s s u u u u u u u u u u u u u y s g h h h h h h h h h h h h h h h h h h h h h h h h g h z u 3 3 3 2 5 r h z g g g g g h h h h h h h h h h h s s s s s s 0 , 2 2 2 , $ $ % < 2 2 2 2 < , 2 , 5 g z g g g g g h h h h h h h h h h h h h h h h h h h h h h h h h h h h h h h h h h h h h h h h s s s u u u u u u u u u u u u u u u u u u u u u u s s s s s s s s s s s s s s s u u u u u u u u y u s s u u u u u u u u u u u u u u u u u u u u u u u u u u u u u u u u u u u u u u u u u u u u u u u u u u u u u u u u u u u u u u u u u u u u u u u u u u u u s s u 4 , 1 2 = $ $ $ $ ",
"& # $ # @ : 2 < 3 s g g g h g s u u u u u u u u u u u u g g g g g g g g h h h h h h h h h h h h h h h h h h h h h h h h h h h h h h h h h h h h h h h h h h h h h h h h h h h h 0 e s h h d s g z z y < 2 5 ; $ $ $ $ < 2 2 4 h h h h h h h h h h h h h h h h h h h h h h h h h h g d s g g h h h h h h y y s d g g g g g g g g h h h h h h h h h h h h h h h h h h h h h h h h z g h z g g g g h h h h h h h h h h h h h h h h h h h h h h h h h h h h h h h h h h h h h h h h h h h h h h h h h h h h h h h h h h h h h h h h h h h h h h h h h h h h h h h h g h g d d d d d s g h h h h h h h h h h h h h h h h h h h h h h z h g g u u u s u u u u s s s s s s s s s s s s s s s s u u u d z h h h h h h h h h h h h h h h h h h h h h h h h h h h e 3 2 2 2 3 0 g h g x h g h h h h h h h h h h h h g d s u s q , 2 2 2 , $ $ $ < 2 2 2 2 < < < < 2 4 z z g h h g h h h h h h h h h h h h h h h h h h h h h h h h h h h h h h h h h h h h h h h d u u u u u u u u u u u u u u u u u u u u u u u u u u s s u u u u u u u u s s s s s s s s s s s s s s s s u u u u u u u u u u u u u u u u u u u u u u u u u u u u u u u u u u u u u u u u u u u u u u u u u u u u u u u u u u u u u u u u u u u u u u u u u u u u s s y 3 , < 2 = $ $ $ $ ",
"& # $ # @ : 2 < 3 s g g g h g s u u u u u u u u u u u u g g g g g g g g h h h h h h h h h h h h h h h h h h h h h h h h h h h h h h h h h h h h h h h h h h h h h h h h h h h h s 7 2 5 r y d g g x q 4 2 4 : $ $ $ # , 2 2 3 d h h h h h h h h h h h h h h h h h h h h h h h h h h h g h h h h h h h h s u u s h h h h h g g g h h h h h h h h h h h h h h h h h h h h h h h h g d d g g g g g h h h h h h h h h h h h h h h h h h h h h h h h h h h h h h h h h h h h h h h h h h h h h h h h h h h h h h h h h h h h h h h h h h h h h h h h h h h h h h h h g h g d u u u u s g h h h h h h h h h h h h h h h h h h h h h h h h g g s s s u u u u u s s s s s s s s s s s s s s s s u u u s h h h h h h h h h h h h h h h h h h h h h h h h h h h h s 3 3 2 4 < 2 0 g z d h h h h h h h h h h h h h h h h g g g q 2 2 2 2 , $ $ $ < 2 2 2 2 < < < < < 2 5 y g s d g h h h h h h h h h h h h h h h h h h h h h h h h h h h h h h h h h h h h h h g d u u u u u u u u u u u u u u u u u u u u u u u u u u u s u u u u u u u u s s s s s s s s s s s s s s s s u u u u u u u u u u u u u u u u u u u u u u u u u u u u u u u u u u u u u u u u u u u u u u u u u u u u u u u u u u u u u u u u u u u u u u u u u u u u s s y 3 , < 2 = $ $ $ $ ",
"& # $ # # : 2 2 3 s h g g h g s u u u u u u u u u u u u g g g g g g g g h h h h h h h h h h h h h h h h h h h h h h h h h h h h h h h h h h h h h h h h h h h h h h h h h h h h h z s 5 ; < 7 y g h 7 2 2 3 , $ # @ @ , 3 2 2 s h h h h h h h h h h h h h h h h h h h h h h h h g g g g h h h h h h h h g s u u g g g g g g g g h h h h h h h h h h h h h h h h h h h h h h h h g s u s g g g g h h h h h h h h h h h h h h h h h h h h h h h h h h h h h h h h h h h h h h h h h h h h h h h h h h h h h h h h h h h h h h h h h h h h h h h h h h h h h h h h g h g d u u u u u d g g h h h h h h h h h h h h h h h h h h h g g g h h g d s u u u u u s s s s s s s s s s s s s s s s s u u u d g h z h h h h h h h h h h h h h h h h h h h h h h h h z 8 3 3 2 2 3 3 7 g h g h h h h h h h h h h h h h h h h z h 8 2 2 2 2 < % $ $ , 2 2 2 2 < < < < < 2 : 5 u u s g h h h h h h h h h h h h h h h h h h h h h h h h h h h h h h h h h h h h h h d s u u u u u u u u u u u u u u u u u u u u u u u u u u u u u u u u u u u u s s s s s s s s s s s s s s s s u u u u u u u u u u u u u u u u u u u u u u u u u u u u u u u u u u u u u u u u u u u u u u u u u u u u u u u u u u u u u u u u u u u u u u u u u u u u s s u 4 , < 2 = $ $ $ $ ",
"& # $ # # : 2 2 3 s h g g h g s u u u u u u u u u u u u g g g g g g g g h h h h h h h h h h h h h h h h h h h h h h h h h h h h h h h h h h h h h h h h h h h h h h h h h h h h d g z x e 4 : 2 4 5 3 2 3 2 < # @ @ @ : 3 2 < y h g h h h h h h h h h h h h h h h h h h h h h h g g g g h h h h h h h h g d s y s s d d s s d d h h h h h h h h h h h h h h h h h h h h h h h h g s u u g g g g h h h h h h h h h h h h h h h h h h h h h h h h h h h h h h h h h h h h h h h h h h h h h h h h h h h h h h h h h h h h h h h h h h h h h h h h h h h h h h h h g h g g u u u u u d g g h h h h h h h h h h h h h h h h h h h h g g h z h g s u u u u u s s s s s s s s s s s s s s s s s i u u s d h z h h h h h h h h h h h h h h h h h h h h h h h h z i 2 4 5 < < 3 < 5 d v h h h h h h h h h h h h h h h h z h 4 2 2 2 2 < % $ % , 2 2 2 2 < < < < < 2 2 4 5 u s s h h h h h h h h h h h h h h h h h h h h h h h h h h h h h h h h h h h h h g d s u u u u u u u u u u u u u u u u u u u u u u u u u u u u u u u u u u u u s s s s s s s s s s s s s s s s u u u u u u u u u u u u u u u u u u u u u u u u u u u u u u u u u u u u u u u u u u u u u u u u u u u u u u u u u u u u u u u u u u u u u u u u u u u u s s u 4 , < 2 = $ $ $ $ ",
"& # $ # $ < 2 2 4 s h g g g d y u u u u u u u u u u s g g g g g g g g g h h h h h h h h h h h h h h h h h h h h h h h h h h h h h h h h h h h h h h h h h h h h h h h h h h h h h h h h x h r 3 < 3 4 3 3 2 2 % @ @ $ * 3 2 < 9 g g h g d d g g g g g g h h h h h h h h h h h h h h h h h h h h h h h h h g s u u u u u s s u u d h h h h h h h h h h h h h h h h h h h h h h h g g g g g g g g h h h h h h h h h h h h h h h h h h h h h h h h h h h h h h h h h h h h h h h h h h h h h h h h h h h h h h h h h h h h h h h h h h h h h h h h h h h h h h h h h g g f u u u u s d g g h h h h h h h h h h h h h h h h h h h h g g h h h h h h u u u u s s s s s s s s s s s s s s s u u s s s s s s d g g g g h h h h h h h h h h h h h h h h h h h h h z 0 3 3 3 3 3 2 3 7 h h h h h h h h h h h h h h h h h h s < 3 2 2 3 < $ $ % 2 2 2 2 2 2 < 2 < 2 1 2 2 , 2 e h h h h h g g g g g g h h h h h h h h h h h h h h h h h h h h h h h h h h h h g d u u s s s u u u u u i u u u u u u u u u u u u u u u u u u u u u u u u u u u u u u u u u u u u u u u u u u u u u u u u u u u u u u u u u u u u u u u u u u u u u u u u u u u u u u u u u u u u u u u u u u u u u u u u u u u u u u u u u u u u u u u u u u u u u u u u 5 , < 2 = $ $ $ $ ",
"& # $ # $ < 2 2 4 s h g g g d s u y y y y y y y u s g g g g g g g g g g h h h h z h d s s s s s g h h h h h h h h h h h h h h h h h h h h h h h h h h h h h h h h h h h h h h h h h h h g g d u 2 3 4 3 3 2 3 = @ # $ * 3 3 2 5 g g g s u s s d g g g g h h h h h h h h h h h h h h h h h h h h h h h h h g d s u u u u u u u u s g h g h h h h h h g g g g g h h h h h h h h h g g g g g g g g h h h h h h h h h h h h h h h h h h h h h h h h h h h h h h h h h h h h h h h h h h h h h h h h h h h h h h h h h h h h h h h h h h h h h h h h h h g g s s s d d f g g s s s s g g g h h h h h h h h h h h h h h h h h h h h h h h h h h h h h s u u u s s s s s s s s s s s s s s s u y u u s s d g g g g g g h h h h h h h h h h h h h h h h h h h h z g s 7 3 3 3 3 3 3 < e h h h h h h h h h h h h h h h h g e < 3 2 2 3 < $ $ % 2 2 2 2 2 2 < 2 2 2 2 2 2 , < 4 w d g z z h h h h g g g g g h h h h h h h h h h h h h h h h h h h h h h h h h h g s u u u s s u u u u u u u u u u u u u u u u u u u u u u u u u u u u u u u u u u u u u u u u u u u u u u u u u u u u u u u u u u u u u u u u u u u u u u u u u u u u u u u u u u u u u u u u u u u u u u u u u u u u u u u u u u u u u u u u u u u u u u u u u u u u u 5 , < 2 = $ $ $ $ ",
"& # $ # $ < 2 2 4 d h h g h g f s s s s s u u u s g g g g g g g g g g g h h h h g d s u u u u u s g h h h h h h h h h h h h h h h h h h h h h h h h h h h h h h h h h h h h h h h h h h h h g g 5 3 4 2 3 2 4 : @ # $ * 3 4 3 2 u h d s u s s d g g g g h h h h h h h h h h h h h h h h h h h h h h h h h h g s u u u u u u u u s g h g h h h h h g d s s d g h h h h h h h h h g g g g g g g g h h h h h h h h h h h h h h h h h h h h h h h h h h h h h h h h h h h h h h h h h h h h h h h h h h h h h h h h h h h h h h h h h h h h h h h h h g d s u u u u u s d g g g g g g g h h h h h h h h h h h h h h h h h h h h h h h h h h h h h h g u u u s s s s s s s s s s s s s s s u u s s d g g h h h g g g h h h h h h h h h h h h h h h h h h h h h g z e 3 3 3 3 3 3 < 5 h h h h h h h h h h h h h g h g g 7 2 3 2 3 3 < $ % % 2 2 2 2 2 2 < 2 2 1 1 2 2 2 2 2 2 2 5 q w u s d g z h h h g g h h h h h h h h h h h h h h h h h h h h h h h h h h d s s s s s s u u u u u u u u u u u u u u u u u u u u u u u u u u u u u u u u u u u u u u u u u u u u u u u u u u u u u u u u u u u u u u u u u u u u u u u u u u u u u u u u u u u u u u u u u u u u u u u u u u u u u u u u u u u u u u u u u u u u u u u u u u u u 5 , < 2 = $ $ $ $ ",
"& # $ # $ < 2 2 4 d z h g h h h h g g g d d d d g g g g g g g g g g g g h h h h s s s s s s s s u s g h h h h h h h h h h h h h h h h h h h h h h h h h h h h h h h h h h h h h h h h h h h g g y 3 2 2 3 2 3 , @ # $ * 3 3 2 2 0 g g g d d g g g g g g h h h h h h h h h h h h h h h h h h h h h h h h h h g d u u u u u u u u s g h g h h h h h g s u y s g h h h h h h h h h g g g g g g g g h h h h h h h h h h h h h h h h h h h h h h h h h h h h h h h h h h h h h h h h h h h h h h h h h h h h h h h h h h h h h h h h h h h h h h h h h g s u u u u u y u d g h h h h g h h h h h h h h h h h h h h g g h h h h h h h h h h h h h h h h s u u s s s s s s s s s s s s s s s s d g g h h h h h h g g g h h h h h h h h h h h h h h h h h h h h g h g g 3 3 3 3 3 3 2 5 h h h h h h h h h h h h h h g g d 5 2 3 2 3 3 < $ % & 2 2 2 2 2 2 < 2 2 1 1 2 2 3 4 3 2 2 2 < 2 2 4 7 8 q y s s g g g h h h h h h h h h h h h h h h h h h h h h h h h h h h h g s s s s u u u u u u u u u u u u u u u u u u u u u u u u u u u u u u u u u u u u u u u u u u u u u u u u u u u u u u u u u u u u u u u u u u u u u u u u u u u u u u u u u u u u u u u u u u u u u u u u u u u u u u u u u u u u u u u u u u u u u u u u u u u 5 , < 2 = $ $ $ $ ",
"& # $ # & 2 2 2 4 d z h h h h h h h h h h h h h g g g g g g g g g g g g z h g s s s s s s u y y d g g h h h h h h h h h h h h h h h h h h h h h h h h h h h h h h h h h h h h h h h h h h h h h g q 3 2 3 2 2 2 % # $ & 2 2 2 2 5 g h h h h h h h h h h h h h h g g g g g g h h x z h g g g h z z h h h h z z z s s u u u s g g l g g h h h h h h g g s s s s s g g g g h h h h h h h h h h h h h h h h h h h h h h h h h h h h h h h h h h h h h h h h h h h h h h h h h h h h h h h h h h h h h h h h h h h h h h h h h g g g h h z h h g g g g d s s u s s s s s s s g g g g h h h h g g g g h g g d z h g g g g g g h h h h h h h h h h h h h s u u s s s s s s s s s s s s s s s s g h h h g g g g h h h g h h h h h h h h h h h h h h h h h h h h g h h h y 3 5 2 3 3 3 4 s g h h h h h h h h h h h z g v e 3 2 2 2 3 3 , $ $ 2 2 3 2 3 7 e 0 7 4 1 2 2 2 2 2 2 2 5 4 4 3 3 3 2 2 < 2 3 3 4 7 q e s d g z x z h g g h h h h h h h h h h h h h h h h h h h h h h h s s s s u u s s s s u u u u u u u u u u u u u u u u u u u u u u u u u u u u u u u u u u u u u u u u u u u u u u u u u u u u u u u u u u u u u u u u u u u u u u u u u u u u u u u u u u u u u u u u u u u u u u u u u u u u u u u u u u u u u u u u u 5 , < 2 - $ $ $ $ ",
"& # $ # * 2 2 2 4 d z h h h h h h h h h h h h h g g g g g g g g g g g g h g s u s s s s s u u s g h h h h h h h h h h h h h h h h h h h h h h h h h h h h h h h h h h h h h h h h h h h h h h h g y 7 2 2 2 2 2 % # # % 2 2 2 2 3 u h g h h h h h h h h h h h h h h h h h g g g g h h h z z h g g g g g s s d s s s s s z z h h h g g g g g h h h h h g g g g g g g g g h h h h h h h h h h h h h h h h h h h h h h h h h h h h h h h h h h h h h h h h h h h h h h h h h h h h h h h h h h h h h h h h h h h h h h h g g g h h h h g g x z g d h g g d u u u u u u u u g g g h h z z z g g g h h h g g z z h h g g g g h h h h h h h h h h h h h s u u s s s s s s s s s s s s s s s s u d g z h h h h h h h h h h h h h h h h h h h h h h h h h h h h h h h h z 5 < 5 2 3 3 3 q z z h h h h h h h h h h z h g 8 3 2 2 2 3 2 , @ = 2 2 2 < 7 u s s s u f s r q 7 5 3 2 2 2 < < 4 3 2 2 2 3 4 4 4 3 < , < 3 5 8 w y g z h g h h h h h h h h h h h h h h h h h h h h h h g g g g g d s u s s s s u u u u u u u u u u u u u u u u u u u u u u u u u u u u u u u u u u u u u u u u u u u u u u u u u u u u u u u u u u u u u u u u u u u u u u u u u u u u u u u u u u u u u u u u u u u u u u u u u u u u u u u u u u u u u u u 4 , < 2 - $ $ $ $ ",
"& # $ # = 3 3 3 5 d z l h h h h h h h h h h h h g g g g g g g g g g g g h g s u s s s s s s s g g h h h h h h h h h h h h h h h h h h h h h h h h h h h h h h h h h h h h h h h h h h h h h h h h g w < 2 2 2 2 & # $ % 2 2 2 2 3 8 g g h h h h h h h h h h h h h h h h z z g d d u y e 8 8 7 5 5 5 5 5 3 3 4 3 3 5 8 0 u s g z z z z z h h g g h h h h h h h h g g g g h h h h h h h h h h h h h h h h h h h h h h h h h h h h h h h h h h h h h h h h h h h h h h h h h h h h h h h h h h h h h h h h h h h h h h h h h h h h h g d s u r e 0 8 7 5 4 3 3 3 3 3 3 3 3 0 0 0 0 r r r r s d g h z z x x g g h h h g g g h h h h h h h h h h h h h s u u s s s s s s s s s s s s s s s s y s d h g g g g g g h h h h h h h h h h h h h h h h h h h h h h h h h h z y 3 2 3 3 3 3 2 s h z h h h h h h h h h h z q 3 2 2 3 2 3 2 , @ , 3 3 3 2 y g u u s s z z h h h g s u y w 8 5 5 4 3 3 2 2 2 2 2 2 2 2 2 < < , < 2 4 5 s h g h h h h h h h h h h h h h h h h h h h h h h h h h h g d s s s s s u u u u u u u u u u u u u u u u u u u u u u u u u u u u u u u u u u u u u u u u u u u u u u u u u u u u u u u u u u u u u u u u u u u u u u u u u u u u u u u u u u u u u u u u u u u u u u u u u u u u u u u u u u u u u u u 5 , < 2 = $ $ $ $ ",
"& # $ # ; 4 4 3 5 f z l h h h h h h h h h h h h g g g g g g g g g g g g z h g s s s s s u s d g h h h h h h h h h h h h h h h h h h h h h h h h h h h h h h h h h h h h h h h h h h h h h h h h h z u 3 2 3 2 2 * # $ % 2 2 2 2 5 3 r g h h h h h h h h h h h h y y y y q 0 7 5 2 2 2 < < < 2 2 2 2 2 2 2 2 3 2 2 2 , : 4 4 5 5 q y s u d g h h h h h h h h h h h h g g h h h h h h h h h h h h h h h h h h h h h h h h h h h h h h h h h h h h h h h h h h h h h h h h h h h h h h h h h h h h h h h h h h h h h h h h d u e 0 8 5 4 2 < < < < 2 < , : 2 2 2 2 2 2 2 2 2 2 2 2 2 2 2 2 < 2 4 5 0 q e r u s d g g g g g h h h h h h h h h h h h h s u u s s s s s s s s s s s s s s s s s u u s s s s s d g g g h h h h h h h h h h h h h h h h h h h h h h h h g h 8 2 3 2 3 3 < 3 u h h h h h h h h h g h h 4 3 2 2 2 2 3 2 , % 2 2 3 3 7 g d u u y y g g g g g g g g g h h h h g d d y r e q 8 8 7 5 5 4 5 5 4 4 4 3 0 s h g h h h h h h h h h h h h h h h h h h h h g g g g g g h h g s s s u u u u u u u u u u u u u u u u u u u u u u u u u u u u u u u u u u u u u u u u u u u u u u u u u u u u u u u u u u u u u u u u u u u u u u u u u u u u u u u u u u u u u u u u u u u u u u u u u u u u u u u u u u u u u u u 5 , < 2 = $ $ $ $ ",
"& # $ # : 4 3 3 4 h g z h h h h h h h h h h h h h h h h h h h h h h h h g g g g g g g g g g g g g g g h h f j z u 0 e g h h h h h h h h h h h h h h h h h h h h h h h h h h h h h h h h h h h h h g h 9 < 4 2 3 * # $ $ ; 3 3 3 3 2 2 5 9 9 9 9 9 9 9 9 5 5 5 5 3 2 2 < 2 2 2 2 2 2 2 2 2 2 2 2 2 2 2 2 2 2 2 2 2 2 2 2 2 2 2 2 2 2 2 2 4 5 5 7 8 0 q e u u s d h h h h h h z z z z h h h h g g h h h g g g g g g g g g g g g g g g g g h h h h g g g g g g g g g g g g g g h z g g h z z z z z g g g g s y r q 8 5 3 4 3 2 2 2 < < < < < < < < < < < < < < 2 2 2 2 2 2 2 2 3 2 2 2 2 2 2 2 2 2 2 2 2 2 2 2 3 3 0 0 0 0 y y u s z h h h h z z z g d s s u u u u u u u u u u u u u u u u u u u u u u u u y s g h h h h h h h h h h h h h h h h h h h h h h h h h x g d 4 3 3 3 2 3 < 4 y h h h h l l l l z g 0 2 2 2 2 2 < 3 3 ; @ < 3 3 , e z g g s u s g h h h g g g g h g g g h h h h h h z z h h g g g g h h h h h h h h h h g g h h h h h g g g g g h h h h h h h h h h h h h g g g z g s u u u u u u u u u u u u u u u u u u u u u u u u u u u u u u u u u u u u u u u u u u u u u u u u u u u u u u u u u u u u u u u u u u u u u u u u u u u u u u u u u u u u u u u u u u u u u u u u u u u u u u u u u u u u u u u s 5 , < 2 = $ $ $ $ ",
"& # $ # : 4 3 3 5 g g d h h h h h h h h h h h h h h h h h h h h h h h h g g g g g g g g g g g g g h z z h h s 8 < < 3 h h h h h h h h h h h h h h h h h h h h h h h h h h h h h h h h h h h h h h g h y , 3 2 3 * # % $ ; 3 3 3 3 2 < 2 2 2 2 2 2 2 2 2 2 2 2 2 2 2 2 2 2 2 3 3 3 2 2 2 2 2 2 2 2 2 2 2 2 2 2 2 2 2 2 2 2 2 2 2 2 2 2 2 3 2 2 < : , , < 2 2 3 4 4 5 5 5 q q w w w e r y s s d g g g g g h h h h x x x x z z z z z z h h d d d d z z z z z z z z z z h h h h g d s s u y q q q q 3 3 3 3 3 2 < , , 2 2 2 2 2 2 2 2 2 2 < < < < < < < < < 2 2 2 2 2 2 2 2 2 2 2 2 2 2 2 2 2 2 2 2 2 2 2 2 2 2 2 2 2 2 < < 2 3 4 4 3 4 5 7 w w w e e r y u y u d g d d d d u u s s s s s s s s s s s s s s d g h z z z z z z z z z z z z z z z z z z z z z z z z z z h z y 3 3 3 2 2 3 3 4 5 y h h h h h h g 8 2 3 3 2 2 2 < 2 , & $ 2 3 2 < y z g g s u s g h h h h h h h h h h h g g g g g g g g g g g g h h h h h h h h h h h h h h h h d s s u s d g h h h h h h h h h h h h h h h h z h d s u u u u u u u u u u u u u u u u u u u u u u u u u u u u u u u u u u u u u u u u u u u u u u u u u u u u u u u u u u u u u u u u u u u u u u u u u u u u u u u u u u u u u u u u u u u u u u u u u u u u u u u u u u u u u u u s 5 , < 2 = $ $ $ $ ",
"& # $ # : 4 3 3 4 s h d h h h h h h h h h h h h h h h h h h h h h h h h g g g g g g g g g g g g s h z g y 0 4 4 4 3 < y g h h h h h h h h h h h h h h h h h h h h h h h h h h h h h h h h h h h h h h g 2 2 2 3 = # % # ; 3 3 3 3 2 2 3 3 4 4 4 4 4 4 3 3 3 3 3 3 3 2 2 3 3 3 3 3 2 2 2 2 2 2 2 2 2 2 2 2 2 2 2 2 2 2 2 2 2 2 2 2 2 2 2 3 2 2 2 < < < < < 2 2 3 3 2 2 2 3 2 2 2 2 2 3 4 3 4 5 5 5 5 5 5 5 5 5 5 8 8 8 8 9 9 9 9 w w w w 9 9 9 9 0 0 0 0 q q 0 0 0 0 0 9 8 7 5 5 4 4 3 2 2 2 2 2 2 2 2 2 3 2 2 2 < 2 2 2 2 2 3 3 2 2 2 2 2 2 2 2 2 2 2 2 2 2 2 2 2 2 2 2 2 2 2 2 2 2 2 2 2 2 2 2 2 2 2 2 2 2 3 3 2 2 2 2 2 2 3 4 3 2 2 < < 2 2 < < < 2 3 2 3 5 7 8 8 8 8 9 9 9 9 e e e e e e e e e w w w r y y y y y y y y y y y y y y y y y y y y y y y y y y y y y u y 3 3 3 2 2 3 3 < 3 2 3 9 e e e e 8 2 2 3 2 2 < < 2 2 ; @ % 2 2 < 3 s h g g d u s g h h h h g g g g g g g g g g g g g g g g g h h h h h h h h h h h h h h h g d d u y y u u s g h h h h h h h h h h h h h h h g g g s s u u u u u u u u u u u u u u u u u u u u u u u u u u u u u u u u u u u u u u u u u u u u u u u u u u u u u u u u u u u u u u u u u u u u u u u u u u u u u u u u u u u u u u u u u u u u u u u u u u u u u u u u u u u u u u u s 5 , < 2 = $ $ $ $ ",
"& # $ # , 4 3 4 < r z h h h h h h h h h h h h h h h h h h h h h h h h h g g g g g g g g g g g g x x u 7 3 2 2 2 3 2 2 4 y g h h h h h h h h h h h h h h h h h h h h h h h h h h h h h h h h h h g z g h 5 2 2 4 * @ % # ; 3 3 3 3 3 3 3 3 3 3 3 3 3 3 2 2 2 2 2 2 3 3 3 3 3 3 3 3 2 2 2 2 2 2 2 2 2 2 2 2 2 2 2 2 2 2 2 2 2 2 2 2 2 2 2 < 2 3 4 4 3 2 2 2 3 4 4 3 2 2 2 , , , , , : ; ; ; = * * % % % % % $ $ $ + + + + + + + + + @ @ @ $ $ $ # @ @ @ @ # # $ $ $ $ $ $ * = ; ; ; : , < 2 2 2 2 2 2 3 3 2 2 3 3 3 3 3 3 3 3 3 3 3 3 3 3 3 2 2 2 2 2 2 2 2 2 2 2 2 2 2 2 2 2 2 2 2 2 2 2 2 2 2 2 2 2 2 2 2 2 3 2 2 2 2 2 2 2 3 3 2 2 2 3 3 3 3 3 5 4 3 3 2 2 2 2 2 2 2 < < < < , , , , , , , , , 2 2 2 2 2 2 2 < < < < < < < < < < < < < < < < < < < < < < < < 2 2 2 2 2 3 3 3 3 2 2 2 3 5 4 < 2 < 1 1 1 , 2 3 2 < < < < 2 < * $ & 2 2 , 4 g g g g d u s g h h h s s s s s s d d d d d d h h h h g g h h h h h h h h h h h h h h d s u y y u s s y s g h h h h h h h h h h h h h h g s u d s u u u u u u u u u u u u u u u u u u u u u u u u u u u u u u u u u u u u u u u u u u u u u u u u u u u u u u u u u u u u u u u u u u u u u u u u u u u u u u u u u u u u u u u u u u u u u u u u u u u u u u u u u u u u u u u u s 5 , < 2 = $ $ $ $ ",
"& # $ # , 4 4 3 2 4 r h z h d s h h h h h h h h h h h h h h h h h h h h h h h h h h h h h h z g q 7 2 2 2 2 2 2 3 3 3 3 2 3 7 q w w e e e e e e e e e e u u u u s s s s s u y y y y u s s s s s r 0 7 7 3 2 4 2 % @ % # % < 3 < 2 2 2 2 2 2 2 2 2 2 3 3 3 3 3 3 3 3 2 2 2 2 2 2 2 2 2 2 2 3 3 3 3 3 3 3 3 3 4 4 4 4 4 4 2 2 < < < < < < : : , : * * * * & % % % % $ $ $ $ $ $ $ $ $ $ $ $ $ $ $ $ $ $ $ $ $ $ $ $ $ $ # # # $ $ $ $ $ $ $ $ # # # # # $ $ $ $ $ $ $ $ $ $ $ $ $ $ $ $ $ $ $ $ $ $ $ $ $ * * = = = = ; ; ; : : : < < < < 3 3 3 3 3 3 3 3 3 3 3 3 4 4 4 3 3 3 3 3 2 2 2 2 2 2 2 2 2 2 < < < < < < < < < < 2 2 2 2 2 2 2 2 3 3 3 3 3 2 3 2 2 2 2 2 2 2 2 2 2 2 2 2 , , , < < < < < 2 2 2 2 2 2 2 2 2 3 3 3 3 3 3 3 2 2 2 2 2 2 2 2 3 3 3 3 3 3 2 2 2 2 2 2 2 2 2 2 2 < < 2 < < < < < < < < < < < < 2 2 < , 2 ; $ @ * 2 2 2 e z g h h d u u u u i i u u u u s s s s s s s s d g h h g g h h h h h h h h h h h h h h d s u y u u u u u s g h h h h h h h h h h h h h g s u y u u u u u u u u u u u u u u u u u u u u u u u u u u u u u u u u u u u u u u u u u u u u u u u u u u u u u u u u u u u u u u u u u u u u u u u u u u u u u u u u u u u u u u u u u u u u u u u u u u u u u u u u u u u u u u u u s u s 0 , < 2 = $ $ $ $ ",
"& # $ # : 3 3 3 5 3 < 5 d h z h g g g g h h h h h h h h h h h h h h h h z z z z h h h h g y 9 7 3 2 2 2 2 2 2 2 3 3 3 3 2 2 < 2 2 < 2 2 2 2 2 2 2 2 2 2 2 2 2 2 2 2 2 2 2 < , , , , < 2 2 2 2 2 2 2 2 2 3 3 3 , $ # % $ $ : 4 3 3 3 3 3 3 3 3 3 2 2 2 2 2 2 3 3 3 3 3 3 3 2 2 2 2 2 3 2 2 2 2 2 : : : ; ; ; ; = = = * * & % % $ $ $ $ @ @ + @ @ % % % % % % $ $ $ $ $ $ $ $ $ $ $ $ $ $ $ $ $ $ $ $ $ $ $ $ $ $ $ $ $ $ $ # $ $ $ $ $ $ $ $ # # # # # $ $ $ $ $ $ $ $ $ $ $ $ $ $ $ $ $ $ $ $ $ $ $ $ $ $ $ $ $ $ $ $ # # @ @ @ @ @ # # $ $ $ $ = = = = = = = = : : : : , , , , 3 3 3 2 2 2 2 2 2 2 2 2 2 2 2 2 2 < < < 2 2 2 2 2 2 3 2 2 2 2 2 3 3 3 3 3 3 3 3 2 2 2 2 3 3 3 3 2 2 2 2 2 < < 2 2 3 3 3 3 3 3 2 2 2 2 2 2 2 2 2 3 3 3 3 3 3 3 3 3 2 2 2 3 3 2 2 2 2 2 2 2 2 2 2 2 2 2 2 < < < < < < < < < < < < < < < : * $ $ $ * 2 2 3 y h g h h d u u u u u i u u u u u u u u u u u u s d g h g g h h h h h h h h h h h h h h h g d d d d d d d g h z h h h h h h h h h h h h s u u u u u u u u u u u u u u u u u u u u u u u u u u u u u u u u u u u u u u u u u u u u u u u u u u u u u u u u u u u u u u u u u u u u u u u u u u u u u u u u u u u u u u u u u u u u u u u u u u u u u u u u u u u u u u u u u u u s u s 0 < < 2 = $ $ $ $ ",
"& # $ # : 2 3 2 2 2 < 2 2 5 8 q 8 8 8 8 7 7 7 7 7 7 7 7 7 7 7 7 7 7 7 7 7 7 7 7 9 9 9 9 4 3 2 2 3 3 3 3 3 2 2 2 3 3 3 3 2 2 2 2 2 2 2 2 3 3 3 3 3 2 2 2 2 2 2 2 2 2 2 3 3 2 2 < < 2 2 3 3 3 3 3 3 3 3 3 2 3 < * $ % # $ @ = < < , , , < < , , , , , , , : : : : ; ; ; ; * * * * % % $ $ $ # # # $ $ $ $ # @ # # # # $ # # # # $ $ $ $ % $ $ % % % % % % $ $ $ $ $ $ $ $ $ $ $ $ $ $ $ $ $ $ $ $ $ $ $ $ $ # # $ $ $ $ $ $ $ $ $ $ $ $ $ $ $ $ $ $ $ $ $ $ $ $ $ $ $ $ $ $ $ $ $ $ $ $ $ $ $ $ $ $ $ $ $ $ $ $ $ $ $ $ $ $ $ $ $ $ $ $ $ $ $ $ $ $ # # # # # # # @ @ # # # # $ $ $ $ % % % & * * * * * = = = = = = = ; ; ; : : : : , , , < < < < 2 2 2 2 2 2 2 2 2 2 2 2 2 2 2 2 , , , : : ; ; : : , , , , , , : < < < < < 2 2 2 2 2 2 3 3 4 4 3 3 3 3 2 2 2 2 2 2 2 2 2 2 2 2 2 2 2 2 2 < < < < < 1 < < < < < < 2 2 < ; # @ # % * 2 2 3 s h g h h d u u u u u u u u u u u u u u u u u u s s d g g g g g s s s s g g h h h h h h h h h h g g g g h h h h h h h h h h h h h h h g u u s u u u u u u u u u u u u u u u u u u u u u u u u u u u u u u u u u u u u u u u u u u u u u u u u u u u u u u u u u u u u u u u u u u u u u u u u u u u u u u u u u u u u u u u u u u u u u u u u u u u u u u u u u u u u u u u u u s u s 0 < < 2 = $ $ $ $ ",
"& # $ # ; 2 2 2 3 3 3 2 3 3 2 5 2 2 2 2 2 2 2 2 2 2 2 2 2 2 2 2 2 2 2 2 2 2 2 2 2 2 2 2 3 3 3 3 4 4 4 3 3 2 2 2 3 3 3 3 , < 2 2 2 2 2 3 3 4 4 3 3 3 3 3 3 2 2 2 2 2 2 2 2 2 < , , < 2 2 2 2 2 2 2 2 2 2 : : * # # & @ % $ $ $ $ $ # # # # @ # # $ $ $ $ $ $ $ $ $ $ $ $ $ $ $ $ $ $ $ $ $ # # # # # $ $ $ $ $ $ $ # # # # # $ $ $ $ $ $ $ % % $ $ $ $ $ $ $ $ $ $ $ $ $ $ $ $ $ $ $ $ $ $ $ $ $ $ $ $ $ $ # # # $ $ $ $ $ $ $ $ $ $ $ $ $ $ $ $ $ $ $ $ $ $ $ $ $ $ $ $ $ $ $ $ $ $ $ $ $ $ $ $ $ $ $ $ $ $ $ $ % % % % $ $ $ $ $ $ $ $ $ $ $ $ $ $ $ $ $ $ % % % % % % $ $ $ $ $ $ $ $ $ $ $ $ $ $ $ $ % % % $ $ $ $ $ # $ $ $ $ % % % % % % % % $ % $ $ $ $ $ $ $ $ $ $ $ $ $ # @ @ # $ $ $ $ $ $ $ $ $ % $ $ $ $ $ $ $ % % % % & * * ; ; ; ; ; : : : , , < < < 2 2 2 2 2 2 2 2 2 2 2 < < < < < 1 < < < < < < ; = $ @ % # # % * 2 2 3 s g g g h d u u u s u u u u u u u u u u u u u u u s s d g g g g s s s s s s g g h h h h g h h h h h h h z h h g h h h h h h h h h h h s y u u u u u u u u u u u u u u u u u u u u u u u u u u u u u u u u u u u u u u u u u u u u u u u u u u u u u u u u u u u u u u u u u u u u u u u u u u u u u u u u u u u u u u u u u u u u u u u u u u u u u u u u u u u u u u u u u u u s u s 0 < < 2 = $ $ $ $ ",
"& # $ $ $ $ $ $ $ * % = $ & % & $ $ $ % % % % $ $ $ $ $ $ $ % % $ $ $ $ % % % % % % % % @ @ @ @ @ @ # $ $ $ $ $ $ # # # @ @ # $ $ $ @ @ @ @ @ @ @ @ @ @ + + + + + + + + + + + + + + + + + + @ @ @ @ @ @ + + + + + + @ + + + + + + + + + + + + + @ @ @ @ @ @ @ @ # # # # # # $ $ $ $ $ $ % % $ $ $ $ $ $ $ $ % $ $ $ $ $ $ $ $ $ % % * * $ % % % % % % % % % $ # $ % % % % $ $ @ @ @ @ # $ $ $ $ # $ $ $ $ $ $ $ $ $ $ $ % $ # + @ % $ $ @ @ # # $ $ $ $ + + + + @ @ @ + + + + + + @ @ @ @ + + + o + @ $ @ @ @ + + + + + + + + + + + + + + + + + + + + + + o o o o o o o o o o o + + + + o o o o + + + + + + + + + + + + + o o o + + + + + + + + @ + @ @ @ @ @ @ + @ @ @ @ @ @ @ $ $ # # # $ $ $ $ $ $ $ $ $ $ # $ % % $ $ $ $ $ $ $ % % @ @ $ % % $ $ $ $ $ $ $ $ $ % % % % & % % % % % & % $ $ % % % % $ $ $ $ $ $ $ $ $ $ $ $ = 3 2 4 z z h g d s u u u s g h g d s y u u u u u u u u y u s g s s u s u u u u u u u u s s s s d d d d d g g g g h h h h h h h h h h h h g g g u u u u u u u u u u u u u u u u u u u u u u u u u u u u u u u u u u u u u u u u u u u u u u u u u u u u u u u u u u u u u u u u u u u u u u u u u u u u u u u u u u u u u u u u u u u u u u u u u u u u u u u u u u u u u u u u u u u u u u s r < < 2 = $ $ $ $ ",
"& # $ $ $ $ $ $ # o + @ % = * = = = = = : ; = * ; ; ; ; ; ; : : > > , , , < < < , , , , , < < < 2 2 2 2 2 2 2 2 2 2 2 2 , , < < < 2 2 3 4 4 4 4 2 5 5 2 3 3 3 3 3 3 3 3 3 3 3 3 3 3 3 3 2 2 2 2 2 2 2 2 3 3 3 2 2 2 2 2 2 < < < < < < 2 1 < < < < < < < ; ; ; ; ; ; ; ; = = = * * * & % % % $ $ $ $ $ @ @ @ @ + + + + + + o o + + o o o o + + + X o + @ @ + o o # @ @ @ @ $ % * % % $ % % % $ $ % $ # @ # $ $ $ $ $ $ $ * # # & o o * $ = = = = ; ; ; ; ; ; ; ; ; ; : : : : : : , , , , < < , , , , , , 2 2 2 2 2 2 2 2 2 2 2 2 2 2 2 2 2 2 3 3 3 3 3 3 4 4 4 4 4 4 4 4 4 4 4 4 4 4 4 4 4 4 4 3 3 3 3 3 2 2 < < , , , , , < 2 4 3 3 3 2 2 2 2 2 < < < , , , , , : : : : ; ; ; ; ; = = = = = * * & & & % % % $ # @ @ @ @ o o o o o + + o o o o o o o o o + + + + + + + o @ @ @ # # # @ @ # $ % % % $ # @ $ $ $ $ $ $ $ $ $ $ $ $ ; 3 2 5 g g d u u u u u u s d g g d s y u u u u u u u u u u u u s u u u u u u u u u u u u u u u s s s s s s d g h h h g h h h h h h h h h g g d u u u u u u u u u u u u u u u u u u u u u u u u u u u u u u u u u u u u u u u u u u u u u u u u u u u u u u u u u u u u u u u u u u u u u u u u u u u u u u u u u u u u u u u u u u u u u u u u u u u u u u u u u u u u u u u u u u u u u u s r 2 < 2 = $ $ $ $ ",
"& # $ $ $ $ $ $ @ 4 z R ] o.| o.o.o.o.o.o.] R G R R R R R ) ] | >.>.;.;.;.&.&.&.;.;.;.;.;.;.;.;.>.>.>.>.;.;.>.>.>.>.>.>.} | | | | o.%.%.4.4.4.>.4.4.4.4.4.4.4.4.4.4.4.4.4.4.4.4.4.4.4.4.1.>.>.>.>.>.1.1.4.4.4.1.>.>.>.>.>.;.;.;.;.;.;.>.;.;.;.;.;.;.;.&.%.%.%.%.%.%.%.%.o.o.o.| | | | ] ] ] ) ) ) ) ) ) G G G G v v v v h h h h y y u u e e e e 0 9 7 5 3 2 < < : ; = * % $ @ @ + + o X X o o o + @ $ % $ $ $ $ $ $ $ $ $ @ @ % e C ) } | | | | o.o.o.o.%.%.%.%.&.&.;.;.;.;.;.;.;.;.;.;.4.;.o.] ] | %.>.;.;.>.>.>.>.>.>.>.>.>.>.>.>.>.>.>.>.>.>.>.>.4.4.4.4.4.4.4.4.4.4.4.4.4.4.8.8.8.8.4.4.4.4.4.1.1.>.q.1.%.| ) ) ) ) ] | %.;.>.>.>.>.;.;.;.;.>.>.>.>.;.;.;.;.%.%.%.%.%.o.o.o.o.] P C D P ] o.] ] ] ] ) ) ! R C C C C v v v v g g g g s u u u 0 0 0 0 5 5 5 5 2 2 , : % % % % % $ @ + + + O O + @ # $ $ $ $ $ $ $ $ $ $ $ $ $ : 2 < 7 s s u u u u s u u u s s d s u u u u u u u u u u s s s s g g d s u u u u u u u u u u u u u u u u u u s s g g g g h h h h h h h g d d s s u u u u u u u u u u u u u u u u u u u u u u u u u u u u u u u u u u u u u u u u u u u u u u u u u u u u u u u u u u u u u u u u u u u u u u u u u u u u u u u u u u u u u u u u u u u u u u u u u u u u u u u u u u u u u u u u u u u u u u s r 2 < 2 = $ $ $ $ ",
"& # $ $ $ $ $ $ m 4.q.8.;.1.>.1.;.;.;.;.>.%.] R R R R R R ] o.%.;.;.;.;.;.;.;.&.&.%.&.&.&.&.;.;.;.;.;.;.;.;.;.%.%.%.%.%.%.&.;.;.;.;.%.o.o.o.o.o.;.] ] ;.&.&.&.&.%.%.%.%.%.%.%.%.%.%.&.&.&.&.;.;.;.;.;.;.&.%.&.&.&.&.;.&.&.%.%.%.%.%.%.&.&.%.&.&.;.;.;.;.;.&.&.&.;.;.;.&.;.;.;.;.;.;.>.>.>.>.>.>.>.>.>.>.>.1.4.4.4.4.4.4.4.4.8.8.] o.>.8.4.8.8.8.>.1.4.4.4.>.;.;.] ) P C G G J P m x h g y w 7 4 ; & @ @ @ @ @ @ @ # # $ % @ 7 ! e.>.;.%.&.&.;.&.;.;.;.;.>.>.>.>.>.>.>.>.;.;.;.;.&.%.%.%.%.&.;.;.&.&.;.;.;.;.&.%.%.%.%.%.%.%.%.%.%.%.%.%.%.%.%.%.%.%.%.%.%.o.o.o.o.o.o.o.o.o.o.o.%.%.%.%.o.o.o.o.%.%.%.o.o.%.%.&.o.o.o.o.%.%.%.%.%.%.%.%.%.%.&.&.%.%.%.%.&.&.&.&.%.%.%.%.&.&.&.&.P R R ! ) ] | %.>.>.>.>.>.1.>.;.8.8.8.4.4.4.4.4.4.4.4.8.8.8.4.>.| | | o.o.o.%.%.%.| ) R C C C C v x h d s y w 8 5 3 : * $ $ $ $ $ $ $ $ $ $ $ $ , 2 , 8 s s s s s s s s u u u u s u u y u u u u u u u u s s g g h h h h u u u u u u u u u u u u u u u u u u u u u d g h h h h h h h g d u u u u u u u u u u u u u u u u u u u u u u u u u u u u u u u u u u u u u u u u u u u u u u u u u u u u u u u u u u u u u u u u u u u u u u u u u u u u u u u u u u u u u u u u u u u u u u u u u u u u u u u u u u u u u u u u u u u u u u u u u u s r 2 < 2 = $ $ $ $ ",
"& # $ # $ + ; ) >.%.%.;.;.&.&.&.;.;.;.;.;.;.| J ) ) ) ) %.%.;.>.;.;.;.;.;.;.;.;.;.;.&.&.&.&.;.;.;.;.;.;.;.;.;.;.;.;.;.;.;.;.;.;.;.;.;.&.&.&.&.&.&.| | &.;.;.;.;.&.&.;.&.;.;.;.;.;.;.&.&.&.&.;.;.;.;.;.;.;.;.;.;.;.;.;.;.;.;.&.;.;.;.&.&.&.&.;.;.&.&.&.&.;.;.;.;.&.&.;.&.;.;.;.;.;.;.;.&.;.;.;.;.;.;.;.;.;.;.;.;.;.;.;.%.%.%.%.%.| G P | %.%.%.o.;.;.;.;.;.;.;.;.R P R ) | | &.8.8.8.4.4.4.1.>.>.%.| P C e & @ @ @ % @ $ X 8 >.>.;.;.;.;.;.;.&.&.;.;.;.;.;.;.;.;.;.;.;.;.;.;.;.;.;.&.&.&.&.&.;.;.;.;.;.;.&.&.&.&.;.;.;.;.;.;.;.;.&.;.o.) ) ) ) ) o.%.;.;.;.;.;.;.;.;.;.;.&.;.&.&.&.&.&.&.&.&.&.&.;.;.;.;.&.%.%.%.;.;.;.;.;.&.&.&.;.;.;.&.&.&.;.;.;.;.;.;.;.;.;.;.;.;.;.&.&.&.&.| ! ! ! ! R R ! ! %.;.;.&.%.%.%.%.&.&.&.&.;.;.&.&.o.;.;.o.| ) R ! P P P P P P P P P P R R R R R R R ) ] | ] ] ] ] ] ! P G C h e : # $ $ $ $ $ $ $ , 2 , e s s s s s s s s u u u u s s s s d d d d g g h h h h g d h h h h u u u u u u u u u u u u u u u u u u u u u u s d d d d d s s s u u u u u u u u u u u u u u u u u u u u u u u u u u u u u u u u u u u u u u u u u u u u u u u u u u u u u u u u u u u u u u u u u u u u u u u u u u u u u u u u u u u u u u u u u u u u u u u u u u u u u u u u u u u u u u u u u u u u u u u u u u u u u 4 < 2 = $ $ $ $ ",
"& # $ # $ o v o.%.>.>.%.%.&.&.&.;.;.;.o.&.o.] R ) ) ) ) %.%.&.&.&.&.;.;.;.;.;.;.;.;.&.&.&.&.;.;.;.;.;.;.;.;.;.;.;.;.;.;.;.;.;.;.;.;.;.;.;.;.&.&.&.%.%.&.;.;.;.;.&.&.;.&.;.;.;.;.;.;.;.;.&.&.;.;.;.;.;.;.;.;.;.;.;.;.;.;.;.;.&.;.;.;.;.;.&.&.;.;.&.&.;.&.;.;.=.;.&.&.&.&.;.;.;.;.;.;.;.;.&.&.&.&.&.&.;.;.&.&.;.;.;.;.;.&.&.%.%.%.>.] P ! %.&.;.;.;.;.;.;.;.;.;.;.] ! R P P ] o.| %.%.o.o.| | o.o.%.;.>.>.4.x o $ $ @ % @ : o.%.>.;.;.;.;.;.;.&.&.;.;.;.;.;.;.;.;.;.;.;.;.;.;.;.;.;.;.&.&.&.&.;.;.;.;.;.;.&.&.&.&.;.;.;.;.;.;.;.;.;.%.| ) ! ! ! ! | %.;.;.;.;.;.;.;.;.;.;.;.>.>.;.;.;.;.;.;.;.;.;.;.;.;.;.;.;.&.%.;.;.;.;.;.;.;.;.;.;.;.;.;.;.;.;.;.;.;.;.;.;.;.;.;.;.&.&.&.&.o.) ! ! ! ! R R ! ! ) | %.%.%.%.%.%.&.&.&.&.;.;.&.&.o.o.] R P R ! ) R R R R R R ! ! R R R R ) R J C P R R ! R R ! ! ! R R R R ) o.v * @ $ $ $ $ $ $ , 3 , e s s s s s s s s u u u u s s s s g g g g h h h h h d s u s s s d u u u u u u u u u u u u u u u u u u u u u u u u s s s s s u u u u u u u u u u u u u u u u u u u u u u u u u u u u u u u u u u u u u u u u u u u u u u u u u u u u u u u u u u u u u u u u u u u u u u u u u u u u u u u u u u u u u u u u u u u u u u u u u u u u u u u u u u u u u u u u u u u u u u u u u u u u u u u 7 < 2 = $ $ $ $ ",
"& # $ # o 0 4.;.%.>.>.%.%.&.&.&.;.;.o.] ) R J P ) ) ) ) | o.%.%.&.&.&.&.&.&.;.;.;.;.;.;.;.;.;.;.;.;.;.;.;.;.;.;.;.;.;.;.;.;.;.;.;.;.;.;.;.;.;.&.;.;.;.&.&.;.;.;.;.;.;.;.;.;.;.;.;.;.;.;.;.;.;.;.;.;.;.;.;.;.;.;.>.>.>.;.;.;.;.;.;.;.;.;.;.;.;.;.;.;.;.;.;.;.;.;.;.;.;.;.;.;.;.;.;.;.;.;.;.;.&.&.&.;.;.;.&.&.;.;.&.;.;.;.;.;.;.;.>.&.) R | o.&.;.;.;.;.;.&.&.;.&.%.| ] ] | %.;.%.;.&.%.%.&.;.;.;.;.;.&.%.%.;.5 o $ @ % @ v 8.o.&.;.;.;.;.;.&.&.&.;.;.;.;.&.&.;.;.;.;.;.;.;.;.;.;.;.;.;.;.&.&.&.;.&.&.;.;.&.&.;.;.;.;.;.;.;.;.;.;.>.o.] ) ! ! ! ! ) %.;.;.;.;.;.;.;.;.;.;.;.;.>.;.;.;.;.;.;.;.;.;.;.;.;.;.;.;.;.;.;.>.>.>.>.>.;.;.;.;.;.;.;.&.;.;.;.;.;.;.;.;.;.;.;.;.;.;.&.&.| R ! ! ) ! R R R R P R ] | %.%.%.%.&.&.&.&.;.;.;.;.| ) R P R R ) ) ) ! ! ! ! ! ) ) %.%.%.%.;.%.| ] ! R R R R ! ! R P J P P G ) G | 5 o $ $ $ $ $ $ < 3 , e s s s s s s s s u u u u u s s d h h h h h h g g g s y y u u u u u u u u u u u u u u u u u u u u u u u u u u u u u u u u u u u u u u u u u u u u u u u u u u u u u u u u u u u u u u u u u u u u u u u u u u u u u u u u u u u u u u u u u u u u u u u u u u u u u u u u u u u u u u u u u u u u u u u u u u u u u u u u u u u u u u u u u u u u u u u u u u u u u u u u u u u u u u u u q < < ; $ $ $ $ ",
"& # $ # o d 4.&.>.%.%.;.;.&.&.&.;.o.] R ) P R ] ) ) ) ) R ] &.1.;.;.;.;.;.;.;.;.;.;.;.;.;.;.;.;.;.;.;.;.;.;.;.;.;.;.;.;.;.;.;.;.;.;.;.;.;.;.;.;.;.4.4.&.;.;.;.;.;.;.;.;.;.;.;.;.;.;.;.;.;.;.;.;.;.;.;.;.;.;.;.;.>.>.>.;.;.;.;.;.;.;.;.;.;.;.;.;.;.;.;.;.;.;.;.;.;.;.;.;.;.;.;.;.;.;.;.;.;.;.&.&.&.;.;.;.&.&.;.;.&.;.;.;.;.;.>.>.%.1.%.] R ] o.%.;.;.;.;.&.;.;.;.;.;.>.>.>.%.;.>.&.%.%.%.&.;.;.;.;.;.;.&.%.q.z + $ % @ $ G %.%.%.;.;.;.;.;.=.&.&.;.;.;.;.&.&.;.;.;.;.;.;.;.;.;.;.;.&.;.;.&.&.;.;.&.&.;.;.&.;.;.;.;.;.;.;.;.;.;.;.>.| ) ) ) ) ) ) R o.;.;.;.;.;.;.;.;.;.;.;.;.;.;.;.;.;.;.;.;.;.;.;.;.;.;.;.;.>.;.>.>.>.>.>.>.>.>.;.;.;.;.&.&.;.;.;.;.;.;.;.;.;.;.;.;.;.;.&.o.) R ! ! ! ! R R R R P G J ! %.%.%.%.&.&.&.&.;.;.;.;.] R R ] ! ! ! ! ) ) ) ) o.#.o.%.%.%.%.%.;.;.;.;.| ] ) R R R R ! ) ] | o.| | R P v o $ $ $ $ $ $ < 2 , e s s s s s s s s u u u u y u d g g g g g g g g g s u u y u u u u u u u u u u u u u u u u u u u u u u u u u u u u u u u u u u u u u u u u u u u u u u u u u u u u u u u u u u u u u u u u u u u u u u u u u u u u u u u u u u u u u u u u u u u u u u u u u u u u u u u u u u u u u u u u u u u u u u u u u u u u u u u u u u u u u u u u u u u u u u u u u u u u u u u u u u u u u u u u r 2 < ; $ $ $ $ ",
"& # $ # % 3 ) >.;.;.%.o.o.o.o.o.R C m C z z z z x x x x z v C G G G G G G G D G G G G D G G G G C C G G G G G G G G G G G G D G G G G G C C C C G C v z z x m C C C C C C C C C C C C C C C C C G G G G D G G G G G G G G C G G G G G G G G G G m m m m v v x x x x x z z h h g g g g g g g g g g g h h x x x x x x x x v v v v m C G P G C J ] ;.;.;.;.;.;.;.&.&.%.;.;.;.;.&.%.%.;.;.>.%.%.%.%.;.o.%.>.8.o.8 % % % + ; q %.>.o.;.>.| o.] ] ] ] ) ) ) ) ! R R R R R R P P P G G G C C C C C C C C C C C C C C C C C C C C C C C G v z z z z z z g z v m C C C C C C C C C C C C C C C C C C C C C C C C C G G G G G G G G G G G G G G G G G G G G C C C C C m m m m m v x h d s u u u u u u s s y u s g g g g g x x x x m m m m z h g g z x m C G P ) | ;.;.;.;.;.;.>.>.>.;.&.%.4.>.o.| ] ] | o.%.;.;.;.;.;.%.4.r = # $ $ $ $ $ < 2 2 y s u y y s s s s s s s s u u u u s s s s d d f f u u u u u u u u u u u u u u u u u u u u u u u u u u u u u u u u u u u u u u u u u u u u u u u u u u u u u u u u u u u u u u u u u u u u u u u u u u u u u u u u u u u u u u u u u u u u u u u u u u u u u u u u u u u u u u u u u u u u u u u u u u u u u u u u u u u u u u u u u u u u u u u u u u u u u u u u u u u u u u u u u u u u d 7 2 ; # # $ $ ",
"& # $ # = 2 e o.e.%.C g d d d d g s u r u u u u u u s s s s d g g g g g g g g g g g g g g g g g g g g g g g g g g g g g g g g g g g g g g g g g g d s u y s d g g g g g g g g g g g g g g g g g g g g g g g g g g g g g g g g g d d d d d d d d d d d d g g g g g g g g h g g g g g g g g g g g g g h h h h h g g g g g g g h h d d g g g s s s g h x v R R R R | | o.%.%.%.;.>.;.;.>.1.;.;.;.;.%.o.| | ) e ; $ % % @ : 3 s ;.q.] x h g g g g g g g g g g d d d d d d d g g g g g g g g g g g g d d g g g g g g g g g g g d d d h s y y y y y y r y s s g g h h h h h h h h h h h h h h h h h h h h h h h l l l z z z h h h g g g g g d d d g g g g g g g g g g g g g g z g d s u u u u u u s s y u s g g g g g g g g g g g g g g s s u u y y y s d h z m m m m R R R R | | o.%.>.>.>.>.>.>.&.%.%.%.%.&.;.4.4.g 2 : * $ $ $ $ $ < 2 3 s d s s i u s s s s s s s u u u u u u u u u s s s u u u u u u u u u u u u u u u u u u u u u u u u u u u u u u u u u u u u u u u u u u u u u u u u u u u u u u u u u u u u u u u u u u u u u u u u u u u u u u u u u u u u u u u u u u u u u u u u u u u u u u u u u u u u u u u u u u u u u u u u u u u u u u u u u u u u u u u u u u u u u u u u u u u u u u u u u u u u u u u u u u u u u r 2 ; # # $ $ ",
"& # $ # , 3 , q m J z s g g g g g g h h h g g g g g g h h h h h h h h h h h h h h h h h h h h h h h h h h h h h h h h h h h h h h h h h h h h h h h h g g g h h h h h h h h h h h h h h h h h h z z z z h l z z z z z z z h h h h h g g g g h h h h h h h g h g g g h h g g g g g g g g g g g g g g g g g g g g g g h h h h z z h h h g g g s y u s g h d g g g g g h z v v C C J P P R o.o.o.o.| ) G v 8 , < ; $ $ @ , 3 , e J v d g h z z z z h h h h z z z z h h h h h h h h h h h h h h h h h h h h h h h h z z z h h h h h z d u u s s s s s s s s s d g h h h h h h h h h h h h h h h h h h h h h h h h h h h h h h g g g g g g g g g h h h h h h h h g g g g g g h h g d u u u u u u s s y u s g g g h h h h h h h g g g g s s s s s s s g g h h g g g g g g g g h z z x v m C G R ) ] | o.%.%.%.| ] s , 3 < @ @ $ $ $ $ < 2 4 g h g f d s s s s s s s s u u u u u u u u u u u u d d d d u u y u u u u u u u u u u u u u u u u u u u u u u u u u u u u u u u u u u u u u u u u u u u u u u u u u u u u u u u u u u u u u u u u u u u u u u u u u u u u u u u u u u u u u u u u u u u u u u u u u u u u u u u u u u u u u u u u u u u u u u u u u u u u u u u u u u u u u u u u u u u u u u u u u u u u u u u u u u u u u u s 5 = # # $ $ ",
"& # $ # 2 3 3 2 2 s z z g g g g g g g h h h h h h h h h h h h g g g g g g g g g g g g g g g g g g g g g g g g g g g g g g g g g g g g g g g g g g g g g g g g g g g g g g g g g g g g g g g g g g g g g g g g g g g g g g g g g g g h h h h h h h h h h h h h h g g g g g g g g g g g g g g g g g g g g h h h g g g g g h h h z z z g g g h g s s s s s g g g g g g h z h g g d d d g g h h h h d s w 4 , < 3 ; @ $ $ 2 3 2 , < g z d h h h h h g g h h h h h h h h h g g g g g g g h h h h h h g g h h h h h h h h h h h g g g z d u u u u u u u u u u u s g h h l h h l l h h j l h l h h h h h h h h h g g g h h h g g g g g h h h h h h h h g g g g g g g g g h h h d g h z u u u u u u s s y u s g g g h h h h z h h h h h s u u y y u d g h h g g g g g g g g g g h h g g g g g g g g g d d d d g s 4 , 5 2 2 & # $ $ $ $ < 2 5 h z h h g s s s s s s s s u u u u u u u u y u d g h h h h d u u y u u u u u u u u u u u u u u u u u u u u u u u u u u u u u u u u u u u u u u u u u u u u u u u u u u u u u u u u u u u u u u u u u u u u u u u u u u u u u u u u u u u u u u u u u u u u u u u u u u u u u u u u u u u u u u u u u u u u u u u u u u u u u u u u u u u u u u u u u u u u u u u u u u u u u u u u u u u u y y q ; $ # $ $ ",
"& # $ # 2 3 3 2 3 d h h g g g g g g g g h h h h h h h h h h h h h h h h h h h h h h h h h h h h h g d d s u u u u u s s g g g g h h h g g g g g g g h h g g g g h h h h h h h h h h h h h h h h h h h h h h h h g g g g y s g h h h h h h h h h h h h h h h h h h h h h g g g g g g g g g g g g h h h h h h h h g g g g h h h h h h h h g g g g u u u u s s g g g g h h h g h h h h h h h h h h u u u u 3 2 3 , # # $ 2 3 4 2 7 h g g h h h h h h h h h h h h h h h h h h h h h g g g g h h h h h h h h h h h h z z h g g g g g h h d u s s s s s s u y u u s g h h h h h h h h h h h h h h h h h h h h h h h h h h h h g g g g h h h h h h h h g g g g g g g g g g g g g h g s u u u u s s s s u u u d h h h h h h h h g d s s s u u u s u d z h h h h h h h h g g g g z z h g h z z h g d s s u u s s s r 8 , 4 2 * % $ $ $ $ 3 2 0 h h h h h g s s s u u u u s s s s y y u u d d g h h h h h h g s s s s s s u u u u u u u u s s s s s u u u u u u u u u u u u u u u u u u u u u u u u u u u u u u u u u u u u u u u u u u u u u u u u u u u u u u u u u u u u u u u u u u u u u u u u u u u u u u u u u u u u u u u u u u u u u u u u u u u u u u u u u u u u u u u u u u u u u u u u u u u u u u u u u u u u u u u u u u u y s r , $ $ $ $ ",
"& # $ # < 3 3 2 3 d h h g g g g g g g g h h h h h h h h h h h h h h h h h h h h h h h h h h h g g d s u u u u u u u u u s g g g h h h h h h h h h h h h g g g g h h h h h h h h h h h h h h h h h h h h h h h h g g g g s d g h h h h h h h h h h h h h h h h h h h h h g g g g g g g g g g g g h h h h h h h h g g g g h h h h h h h h h h g g s u u u u s s s g g g h h g h h h h h h h h h h h h h h s 4 3 , $ # $ 2 3 4 2 7 g g h h h h h h h h h h h h h h h h h h h h h h h h h h h h h h h h h h h h h h h g g d h h h h g h h d d d d d g d s s u u u s g h h h h h h h h h h h h h h h h h h h h h h h h h h h g g g g h h h h h h h h g g g g g g g g g g g g h g s u u u u u s s s s u u u s d d d d d d d s s s s s u u u u u s g z h h h h h h h h g g g g d d g h d d d d s s s u u u u s u s u 3 3 3 = % $ $ $ $ 3 < 0 h h h h h h g s s u u u u y u u u u u s d g g h h h h h g h h g s u u u u u u u u u u u u s s s s s s u u u u u u u u u u u u u u u u u u u u u u u u u u u u u u u u u u u u u u u u u u u u u u u u u u u u u u u u u u u u u u u u u u u u u u u u u u u u u u u u u u u u u u u u u u u u u u u u u u u u u u u u u u u u u u u u u u u u u u u u u u u u u u u u u u u u u u u u u u y s r , $ $ $ $ ",
"& # $ # < 3 3 2 3 f h h g g g g g g g g h h h h h h h h h h h h h h h h h h h h h h h h h h h h s s u u u u u u u u u u u s g g h h h h g g g g g g h h g g g g h h h h h h h h h h h h h h h h h h h h h h h h g g g g g g g h h h h h h h h h h h h h h h h h h h h h g g g g g g g g g g g g h h h h h h h h g g g g h h h h h h h h h h h h d u u u u u u s g g g g g g h h h h h h h h g g g g g g z q 2 : $ $ $ 2 3 4 2 7 g h h h h h h h h h h h h h h h h h h h h h h h h h h h h h h h h h h h h h h g g d s s u u u u g g h h g g g g g d s s s u u u s g h h h h h h h h h h h h h h h h h h h h h h h h h h g g g g h h h h h h h h g g g g g g g g g g g g g s u u u u u u s s s s s u u u u u u u s s s s u u u u u u u u y d g h h h h h h h h h g g g g u s d d u u u u s s s u u u u s y u g e 2 4 ; $ $ $ $ $ 3 < 0 h h h h h h h g s s s s s u u y u s d g g g g h h h g g g h h h g g g g g s s s s s s s s d d d d s s s u u u u u u u u u u u u u u u u u u u u u u u u u u u u u u u u u u u u u u u u u u u u u u u u u u u u u u u u u u u u u u u u u u u u u u u u u u u u u u u u u u u u u u u u u u u u u u u u u u u u u u u u u u u u u u u u u u u u u u u u u u u u u u u u u u u u u u u u u y s r , $ $ $ $ ",
"& # $ # < 3 3 2 2 f h h g g g g g g g g h h h h h h h h h h h h h h h h h h h h h h h h h h h g g d s u u u u u u u u u u u s g h h h h s s s s h h h h g g g g h h h h h h h h h h h h h h h h h h h h h h h h g g g h h h h g h h h h h h h h h h h h h h h h h h h h g g g g g g g g g g g g h h h h h h h h g g g g h h h h h h h h h h h h g s u u u u u u d g g g g g h h h h h h h h h h h h h h h y , 2 % $ $ 2 3 3 2 7 h h h h h h h h h h h h h h h h h h h h h h h h h h h h h h h h h h h h h h h h s s u u u s s s s g g h h h h h s s u y u s u u u s g h h h h h h h h h h h h h h h h h h h h h h h h h g g g g h h h h h h h h g g g g g g g g g g g g s u u u u u u u s s s s s u u u u u u u d d d d u u u u u u u u y d h g h h h h h h h h g g g g s u u y s s s s s s s u u u u s y u d u 2 4 : $ $ $ $ $ 3 < 0 h h h h h h h h g g h h h g d s s g g h h g g g g g g g g h h h h g g g g g g g g g g g g h h h h d s s u u u u u u u u u u u u u u u u u u u u u u u u u u u u u u u u u u u u u u u u u u u u u u u u u u u u u u u u u u u u u u u u u u u u u u u u u u u u u u u u u u u u u u u u u u u u u u u u u u u u u u u u u u u u u u u u u u u u u u u u u u u u u u u u u u u u u u u u u u s r < $ $ $ $ ",
"& # $ # < 3 3 2 2 g z h g g g g g g g g h h h h h h h h h h h h h h h h h h h h h h h h h h h h g g s u d f g g g g s u s d h h h h h h s u u u s d g g h h h h h h h h h h h h h h h h h h h h h h h h h h h h h h h h h h h h h h h h h h h h h h h h h h h h h h h h h h h h h h h h h h h h h h h h h h h h h h h h h h h h h h h h h h h h h h h h u u s s u d g h g g g g h h h h h h h h h h h h h s 3 3 % $ % 2 3 3 2 5 z z g h h h h h h h h h h h h h h h h h h h h h h h h h h h h h h h h h h h h g s u u u s s s s s d g h h h h g u u u u u u u s s g h h h h h h h h h h h h h h h h h h h h h h h h h h h h h h h h h h g g g h g g g g g g g g h g s u u u u u s s s s u u y u u s d g g h h h g h h h s u u u y u d h d s s d d h h h h h h h h h h h g d s u u s s s u u u u u u s s d d g d 3 3 , $ $ $ $ $ 3 2 r h h h h h h h h h h h h h h h g g h h g g d s d g g g g g h h h h g g g g h h h h h h h h h h h h z g s u u u u u u u u u u u u u u u u u s s u y u u u u d d u u u u u u u u u u u u u u u u u u u u u u u u u u u u u u u u u u u u u u u u u u u u u u u u u u u u u u u u u u u u u u u u u u u u u u u u u u u u u u u u u u u u u u u u u u u u u u u u u u u u u u u u u u u u u u s s y < $ $ $ $ ",
"& # $ # , 3 3 2 2 s h g g g g g g g g g h h h h h h h h h h h h h h h h h h h h h h h h h h h h h h g d g g h g g g d s s g h z h h h h d s u u y s g h h h h h h h h h h h h h h h h h h h h h h h h h h h h h h h h h h h h h h h h h h h h h h h h h h h h h h h h h h h h h h h h h h h h h h h h h h h h h h h h h h h h h h h h h h h h h h h h h d s s u s d g g g g g g h h h h h h h h h h h h h s 3 3 % $ % 2 3 2 2 5 h z h h h h h h h h h h h h h h h h h h h h h h h h h h h h h h h h h h h h h g u u u s s s s s s d g h h h g d u u u u u u s s g h h h h h h h h h h h h h h h h h h h h h h h h h h h h h h h h h g g h h h h h h h h g g g g d s s u u u u u s u y y u s d d g h h h h h h g g g g d s u u u u s d d s u u s d h h g z z z z h h g g h g d s u u s s y u d g g g g h h g g g 3 3 , % $ $ $ $ 3 2 r h h h h h h h h h h h h h h h g g h g d s s g h g g g g g h h h h h h h h h h h h h h h h h h h h h d s u u u u u u u u u u u u u u u u u s s d d d d d d g g u s u u u u u u u u u u u u u u u u u u u u u u u u u u u u u u u u u u u u u u u u u u u u u u u u u u u u u u u u u u u u u u u u u u u u u u u u u u u u u u u u u u u u u u u u u u u u u u u u u u u u u u u u u u u u u s e 2 $ $ $ $ ",
"& # $ # , 3 3 2 3 r h g g g g g g g g g h h h h h h h h h h h h h h h h h h h h h h h h h h h h h h h h h g g g g g d s s d g h h h h h g d s s u d g z h h h h h h h h h h h h h h h h h h h h h h h h h h h h h h h h h h h h h h h h h h h h h h h h h h h h h h h h h h h h h h h h h h h h h h h h h h h h h h h h h h h h h h h h h h h h h h h h d d s s g g h g g g g g h h h h h h h h h h h h z s 3 3 % % % 2 3 2 2 4 s z h g h h h h h h h h h h h h h h h h h h h h h h h h h h h h h h h h h h h g u u s s s s s s s d g h h h g s u u u u u s s g h h h h h h h h h h h h h h h h h h h h h h h h h h h h h h h h h g g d s s s s s s s s g g g g d s s u u u u u u u u y g g h h h h h h h g g g g g d u s u u u u s d d d u u d g h h d h h h h g g g g h h g d u u s s s d g h h z z z z h g d 3 3 , % % % % % 3 2 r h h h h h h h h h h h h h h h h h s d g h h g g h g g g g h h h h g g g g g g g g h h h h h h h h g s s s u u u u u u u u u u u u u u u u g g h h g g g g z h s s u u u u u u u u u u u u u u u u u u u u u u u u u u u u u u u u u u u u u u u u u u u u u u u u u u u u u u u u u u u u u u u u u u u u u u u u u u u u u u u u u u u u u u u u u u u u u u u u u u u u u u u u u u u u y s 0 < $ $ $ $ ",
"& # $ # , 3 3 2 4 q g g g g g h h g g g h h h h h h h h h h h h h h h h h h h h h h h h h h h h g g g g g g g g g g d s u d g h h h h h h g d s g h h z h h h h h h h h h h h h h h h h h h h h h h h h h h h h h h h h h h h h h h h h h h h h h h h h h h h h h h h h h h h h h h h h h h h h h h h h h h h h h h h h h h h h h h h h h h h h h h h h s d d g g h h g g g g g h h h h h h h h h h h h z s 2 3 & $ % 2 3 2 2 4 u h z g h h h h h h h h h h h h h h h h h h h h h h h h h h h h h h h h h h h g u s s s s s s s s d g h h g d u u s u u s s g h h h h h h h h h h h h h h h h h h h h h h h h h h h h h h h h h h g d s s s s s u i i u d g g g h g s u u u u u y u s g h h h h g g g g g g g g g d s y s u u u y u d h h d d h h z h d d d d d s d g g h h h g s u u s h h g h h h h z h g g d 3 2 , $ % $ $ $ 3 2 r h h h h h h h h h h h h h h h h h g g h h g h h g g g g g h h h h d d d d d d d d h h h h h h h h s s s s u u u u u u u u u u u u u u u u z z h h h h h h h h s u u u u u u u u u u u u u u u u u u u u u u u u u u u u u u u u u u u u u u u u u u u u u u u u u u u u u u u u u u u u u u u u u u u u u u u u u u u u u u u u u u u u u u u u u u u u u u u u u u u u u u u u u u u u u r s 8 < $ $ $ $ ",
"& # $ # ; 4 2 2 3 , e z g g h h h g g g h h h h h h h h h h h h h h h h h h h h h h h h h h h h g g g g g g g g g g g d s g g g h h h h h h h h h h h h h h h h h h h h h h h h h h h h h h h h h h h h h h h h h h h h h h h h h h h h h h h h h h h h h h h h h h h h h h h h h h h h h h h h h h h h h h h h h h h h h h h h h h h h h h h h h h h h h h h h h h h h h h h h h h h h h h h h h h h h z s 2 3 % $ @ , 4 2 3 < r h g g g g g g h h h h h h h h h h h h h h h h h h h h h h h h h h h h h h h h d s u y u u u u u s g h g h d y s s u y s d g h h h h h h h h h h h h h h h h h h h h h h h h h h h h h h h h h g d s u u u u u y y y y s d g h h h h h s s s s d g h h h h h g g g g g g g g g d s u s u u s s d d g g h h h h d s u u u u u s s s s u h h h h h h g g g g g g g g g g g g h l 5 2 3 $ % $ $ $ 3 < r h h h h h h h h h h h h h h h h h h h h h h h h h h h h h h h h h h g g d d s d h h h g g s s u u u u u u u u u u u u u u u u u u u u u g h h h h h h h h g g g s u u u u u u u u u u u u u u u u u u u u u u u u u u u u u u u u u u u u u u u u u u u u u u u u u u u u u u u u u u u u u u u u u u u u u u u u u u u u u u u u u u u u u u u u u u u u u u u u u u u u u u u u u u u u s r 2 < & $ $ $ ",
"& # $ # ; 4 2 2 < 3 < u x g s h g g g g h h h h h h h h h h h h h h h h h h h h h h h h h h h h g g g g g g g g g g g g g g g g h h h h h h h h h h h h h h h h h h h h h h h h h h h h h h h g h h h h h h h h h h h h h h h h h h h h h h h h h h h h h h h h h h h h h h h h h h h h h h h h h h h h h h h h h h h h h h h h h h h h h h h h h h h h h h h h h h h h h h h h h h h h h h h h h h h h z s 2 3 % # @ , 4 2 3 < q h h g g g g g h h h h h h h h h h h h h h h h h h h h h h h h h h h h h h h h g g d s s s s s g g g g h g s y s s u u d g h z h h h h h h h h h h h h h h h h h h h h h h h h h h h h h h h h h d u u u u u u u u u s d g g h h h h h g g g g h h h h h g g g g g g g g g g g d s u s y u s s g g h z h g d s u u u u u u u u s s s s h h h h h g d d u u u u s s s s d g g h 7 < 2 $ $ $ $ $ 2 1 r z h h h h h h h h h h h h h h h h h h h h h h h h h h h h h h h h h h h g g g g g d s s u u u u s u u u u u u u u u u u u u u u u u u s h h h h h h h h h g g g g s u u u u u u u u u u u u u u u u u u u u u u u u u u u u u u u u u u u u u u u u u u u u u u u u u u u u u u u u u u u u u u u u u u u u u u u u u u u u u u u u u u u u u u u u u u u u u u u u u u u u u u u u u u u s 0 < < & $ $ $ ",
"& # $ # ; 4 2 2 2 2 3 5 s g g g g g g g h h h h h h h h h h h h h h h h h h h h h h h h h h h h g g g g g g g g g g g g g g g g h h h h h h h h h h h h h h h h h h h h h h h h h h h h h h h h h h h h h h h h h h h h h h h h h h h h h h h h h h h h h h h h h h h h h h h h h h h h h h h h h h h h h h h h h h h h h h h h h h h h h h h h h h h h h h h h h h h h h h h h h h h h h h h h h h h h z s 2 4 % $ @ , 4 2 3 2 5 g h g g g g g h h h h h h h h h h h h h h h h h h h h h h h h h h h h h h h h h h g g g g g g h h g g h s y u u u s d g h h h h h h h h h h h h h h h h h h h h h h h h h h h h h h h h h h h h g d s u u u u u s d g g g h h h h h h h h h h h h g g g g g g g h h g g g g g g d s d g g g g g g h z g d s y u u u u u u u u s s d g h h h h d d s s u u u u u u u u y u s s 8 , 2 % $ $ $ $ 2 1 r z h h h h h h h h h h h h h h h h h h h h h h h h h h h h h h h h h h h h h h g d s u u u u s s s s u u u u u u u u u u u u u u u u u g z h h h h h h h h g g g g s u u u u u u u u u u u u u u u u u u u u u u u u u u u u u u u u u u u u u u u u u u u u u u u u u u u u u u u u u u u u u u u u u u u u u u u u u u u u u u u u u u u u u u u u u u u u u u u u u u u u u u u u u u u s 5 < 2 & $ $ $ ",
"& # $ # ; 4 2 3 3 2 3 2 3 s x g g g g g g h h h h h h h h h h h h h h h h h h h h h h h h h h h g g g g g g g g g g g g g g g g h h h h h h h h h h h h h h h h h h h h h h h h h h h h h h h h h h h h h h h h h h h h h h h h h h h h h h h h h h h h h h h h h h h h h h h h h h h h h h h h h h h h h h h h h h h h h h h h h h h h h h h h h h h h h h h h h h h h h h h h h h h h h h h h h h h h z s 2 3 % $ @ , 4 2 3 2 3 g z h g g g g h h h h h h h h h h h h h h h h h h h h h h h h h h h h h h h h g g g h h h h g g g h z g u y u y u s h h h h h h h h h h h h h h h h h h h h h h h h h h h h h h h h h h h h h g g g g u u u u s s g h h h h h h h h h g g g g g g g g g g g g g h g g g g g g z h g h h g d s d d g g u u u u u u u u u u u u u s g h h h h h s s u y y u u u u s s s s d g g 9 , < & $ $ $ $ 2 2 y z h h h h h h h h h h h h h h h h h h h h h h h h h h h h h h h h h h h h g g g u s s s s s s s s s u u u u u u u u u u u u u u u u s h h h h h h h h h h g g g g d s u u u u u u u u u u u u u u u u u u u u u u u u u u u u u u u u u u u u u u u u u u u u u u u u u u u u u u u u u u u u u u u u u u u u u u u u u u u u u u u u u u u u u u u u u u u u u u u u u u u u u u u u u u r < 2 3 & $ $ $ ",
"& # $ # = 3 2 3 3 3 3 3 2 4 r z g g g g g g g g h h h h h h h h h h h h h h h h h h h h h h h h h h h h h h h h h h h h h h h h h h h h h h h h h h h h h h h h h h h h h h h h g s u u u u s g h h h h h h h h h h h h h h h h h h h h h h h h g h h g d g h z h h h h h h h h h h h h h h h h h h h h h h h h h h h h h h h h h h h h h h h h h h h h h h h h g g g g h g g h g g g g g g g g h h h h z y 2 3 % $ @ ; 2 2 3 2 3 s g h h h h h h h h h h h h h h h h h h h h h h h h h h h h h h h h h h h h h h h h h h h h h h h h h g s u y u d g h h h h h h h h h h h h h h h h h g g g g g g g g g g g g h h g g g h h h h g g h h s u s u s g z h h h h h h h h h h h h h h h h h h h h h h h h h h h h g g g g g d u y u u u u u u u u u u s s s s s s g g g g h g g h h g d s d g g h h h h h h h h h e 2 4 ; $ $ $ * 2 2 y z d d d d d d d d h h h h h h h h g g g g h h h h d h z h d d g z h h h g g g g d u u u u u s s s s s s s y y y y s d g g h h g g d g h h h h g g h g g g g g g g g d s u u u u u u u u u u u u u u u u u u u u u u u u u u u u u u u u u u u u u u u u u u u u u u u u u u u u u u u u u u u u u u u u u u u u u u u u u u u u u u u u u u u u u u u u u u u u u u u u u u u u u u s u s 0 2 2 , = # $ # ",
"& # $ # & 3 2 2 3 3 3 3 2 < 5 u z z g g g g g g h h h h h h h h h h h h h h h h h h h h h h h h h h h h h h h h h h h h h h h h h h h h h h h h h h h h h h h h h h h h h h h h g s u u u u s g h h h h h h h h h h h h h h h h h h h h h h h h g g d u u s d g h h g g h h h h h h h h h h h h h h h h h h h h h h h h h h h h h h h h h h h h h h h h h h h h h h h h g h h g g g g g g g g g h h h h z y 2 2 % $ @ ; 2 2 2 2 3 s g h h h h h h h h h h h h h h h h h h h h h h h h h h h h h h h h h h h h h h h h h h h h h h h h h g d s u d g h h h h h h h h h h h h h h h g h h g g h h h h h h h h h h g h h z h h g h g g h h d s u u u s g z h h h h h h h h h h h h h h h h h h h h g g g g d d d d g g g g h g s u u u u u u u u u u u u u u s g h g g g g h h g h h h h g g h h h h h h h h h h h e 2 4 ; $ # # * 2 2 y h s s s s s s s s s s d d g g g g g g g g h h h h g h g s s u u s h h h g g g g d u u u u u u u u y u u u d d d d g g h g h h g g g h h h h h g g s s s s g g g g g g d s u u u u u u u u u u u u u u u u u u u u u u u u u u u u u u u u u u u u u u u u u u u u u u u u u u u u u u u u u u u u u u u u u u u u u u u u u u u u u u u u u u u u u u u u u u u u u u u u u u u u u u s y 5 2 2 , = # % # ",
"& # $ # % 2 < 2 2 2 3 3 4 3 < 2 u h h g g g g g h h h h h h h h h h h h h h h h h h h h h h h h h h h h h h h h h h h h h h h h h h h h h h h h h h h h h h h h h h h h h h h h g s u u u u s g h h h h h h h h h h h h h h h h h h h h h h h h g g s r u s d g h g g d g h h h h h h h h h h h h h h h h h h h h h h h h h h h h h h h h h h h h h h h h h h h g g g g g h h g g g g g g g g g h h h h z y 2 2 % $ @ ; 2 2 2 2 3 s g h h h h h h h h h h h h h h h h h h h h h h h h h h h h h h h h h h h h h h h h h h h h h h h h h g g g g g h h h h h h h h h h h h h h h h g h g f f f f s s s s s s s s i s s d g g h h g g g g s s s u y s g h h h h h h h h h h h h h h h h h h h h h g g d s s s s s g g g g h h g d u u u u u u u u u u u u u s g h g g g g h h h h h h h h h h h h h h h h h h h h e 2 4 ; $ # $ * 2 2 r d u u u u u u u u u u u u d d d d g g g g h h h h h h g u u y y u h h h g g g g g u u u u u u u u y u s d g g g g g g g g d s s d h h h h g g g g y u s d g g g g g g g d s u u u u u u u u u u u u u u u u u u u u u u u u u u u u u u u u u u u u u u u u u u u u u u u u u u u u u u u u u u u u u u u u u u u u u u u u u u u u u u u u u u u u u u u u u u u u u u u u u u u u u s e < 2 2 , = # % # ",
"& # $ # $ < < < < 2 2 2 : 2 4 2 2 w g z g g g g g g h h h h h h h h h h h h h h h h h h h h h h h h h h h h h h h h h h h h h h h h h h h h h h h h h h h h h h h h h h h h h h g s u u u u s g h h h h h h h h h h h h h h h h h h h h h h h h g g d u s s g g h g d s d g h h h h h h h h h h h h h h h h h h h h h h h h h h h h h h h h h h h h h h h h h h d d d d h g g h g g g g g g g g h h h h z y 2 2 % $ @ = 2 2 2 2 3 s g g h h h h h h h h h h h h h h h h h h h h h h h h h h h h h h h h h h h h h h h h h h h h h h h h h h h h h h h h h h h h h h h h h h h h h g g g u u u u u u u u u u u u s s u u s d g g h g d s y s s u y s g h h h h h h h h h h h h h h h h h h h h h g d s u s s s s g g g g z h h h u u u u u u u u u u s s s s s s g g g g h h h h h h h h h h h h h h h h h h h h e 2 4 ; $ # $ * 2 2 w u u u u u u u u u u u u u y y y y g g g g h h h h h z h d u u s g h h h g g g g g u u u u u u u u s d g z g g g g g g g g d s s g h h h h g g g g s d g h g g g g g g g g s u u u u u u u u u u u u u u u u u u u u u u u u u u u u u u u u u u u u u u u u u u u u u u u u u u u u u u u u u u u u u u u u u u u u u u u u u u u u u u u u u u u u u u u u u u u u u u u u u u u u y s q , < < 2 = # % # ",
"& # $ # % 2 < 2 < < r y 8 3 < 3 2 2 7 d h h g g g g g g h h h h h h h h h h h h h h h h h h h h h h h h h h h h h h h h h h h h h h h h h h h h h h h h h h h h h h h h h h h h h h g s g g h h h h h h h h h h h h h h h h h h h h h h h h h h h h h h h h h h h h h h g g g g h h h h h h h h h h h h h h h h h h h h h h h h h h h h h h h h h h h h g h g d u u u u d d d d h g d s u u d h h h h h z y 2 2 & $ # = 3 3 3 3 5 g g g g g g g h h h h h h h h h h h h h h h h h h h h h h h h h h h h h h h h h h h h h h h h h h h h h h h h h g g g h h h h h h h h h h h g z h d u u u u u u u u u u u u u u u u u u u s d s s u u u u u u u u d h g g g g h h h h h h h h h h h h g h h z h g d s s s d g g g g g z g h g u u u u u u u u u u u u s s s s u u u u g g g g d d d d g g g g g g g g g g g g y 2 4 , # # $ & 2 2 9 s u u u u u u u u u u u u u u y u g g h h g g g g g g g g h h h h h h g g d s s s u u u u u u u s h h h h g g g g h g g g h h h h h h h h g g g g h h h h h h h h g g h g s u u u u u u u u u u u u u u u u u u u u u u u u u u u u u u u u u u u u u u u u u u u u u u u u u u u u u u u u u u u u u u u u u u u u u u u u u u u u u u u u u u u u u u u u u u u u u u u u u u u u s s 5 2 2 < 1 : @ $ $ ",
"& # $ # % 2 < 2 < 3 h x d s e 5 2 2 3 5 s h g h g g g g h h h h h h h h h h h h h h h h h h h h h h h h h h h h h h h h h h h h h h h h h h h h h h h h h h h h h h h h h h h h h h h h h h h h h h h h h h h h h h h h h h h h h h h h h h h h h h h h h h h h h h h h g g g g h h h h h h h h h h h h h h h h h h h h h h h h h h h h h h h h h h h h g h g d u u u u h h h h g d s s d s d h h h h h z r 2 2 & # # = 3 3 3 3 7 h g g g g g g h h h h h h h h h h h h h h h h h h h h h h h h h h h h h h h h h h h h h h h h h h h h h h h h h g g g h h h h h h h h h h g g h g s y u u u u u u u u u u u u u u u u u u u u u u u u u u u u u u d h g g g g h h h h h h h h h h h h h h g g g g h g g g g h g g g g h g g d u u u u u u u u u u u u s s s s u u u u u u u u s s s s s s s s g g g g g d d d y 2 3 : # # $ % 2 2 9 s s s s s u u u u u u u u u u s d h h g g g g g g h h h h h h h h g g s s s s u u u u u u u u s d h h h h g g g g h h g g h h h h h h h h g g g g h h h h h h h h h h h g s u u u u u u u u u u u u u u u u u u u u u u u u u u u u u u u u u u u u u u u u u u u u u u u u u u u u u u u u u u u u u u u u u u u u u u u u u u u u u u u u u u u u u u u u u u u u u u u u u u u u u u 4 2 1 2 2 : @ $ $ ",
"& # $ # % 2 2 2 2 4 s g g d z z u q 4 < 2 y h h g g g g h h h h h h h h h h h h h h h h h h h h h h h h h h h h h h h h h h h h h h h h h h h h h h h h h h h h h h h h h h h h h h h h h h h h h h h h h h h h h h h h h h h h h h h h h h h h h h h h h h h h h h h h g g g g h h h h h h h h h h h h h h h h h h h h h h h h h h h h h h h h h h h h g h g d u u u u g g g h h h h h h g g h h h h h z r 2 2 * # $ * 3 3 3 3 9 z g g h h h h h h h h h h h h h h h h h h h h h h h h h h h h h h h h h h h h h h h h h h h h h h h h h h h h h g g g h h h h h h h h h h h g d s u s u u u u u u u u u u u u u u u u u u u u u u u u u u u u u u d h g g g g h h h h h h h h h h h h g g g g g g g g h h h g g g g g g h g s u u u u u u u u u u u u s s s s u u u u s s s s u u u u u u u u u u u u s s s s y 2 2 : $ # $ % 2 2 9 s s s s s u u u u u u u u u u s d h h g g g g g g g g g g d d d d s s u u u u u u u u u u u s d g h h h h g g g g g g g g h h h h h h h h g g g g h h h h h h h h h h h d u u u u u u u u u u u u u u u u u u u u u u u u u u u u u u u u u u u u u u u u u u u u u u u u u u u u u u u u u u u u u u u u u u u u u u u u u u u u u u u u u u u u u u u u u u u u u u u u u u u u s u y 2 2 2 2 2 : @ $ $ ",
"& # $ # $ 2 2 2 3 4 d g g h z d g g d e 5 , 5 s g g g g h h h h h h h h h h h h h h h h h h h h h h h h h h h h h h h h h h h h h h h h h h h h h h h h h h h h h h h h h h h h h h h h h h h h h h h h h h h h h h h h h h h h h h h h h h h h h h h h h h h h h h h h g g g g h h h h h h h h h h h h h h h h h h h h h h h h h h h h h h h h h h h h g h g d u u u u g g h h g g g h z h h z h h h h z r < 2 & # $ * 3 3 3 3 q x g g h h h h h h h h h h h h h h h h h h h h h h h h h h h h h h h h h h h h h h h h h h h h h h h h h h h h h g g g h h h h h h h h h h g g u y s s u u u u u u u u u u u u u u u u u u u u u u u u u u u u u s d h g g g g h h h h h h h h h h h h u d g z h g g g z h g g g g g g g g d u u u u u u u u u u u u u s s s s u u u u u u u u u u u u y u u u u s s s s s s s y 2 2 : $ # $ % 2 2 9 s s s s s u u u u u u u u u u y u g g h h g g g g d d d d u u u u u u u u u u u u u u u u s d g h h h h h g g g g g g g g h h h h h h h h g g g g h h h h h h h h g g d s u u u u u u u u u u u u u u u u u u u u u u u u u u u u u u u u u u u u u u u u u u u u u u u u u u u u u u u u u u u u u u u u u u u u u u u u u u u u u u u u u u u u u u u u u u u u u u u u u u u u s u y 2 2 2 2 2 : @ $ $ ",
"& # $ # $ 2 2 2 2 5 h h h h h h g g g g g y 5 3 g h z g g g g g h h h h h h h h h h h h h h h h h h h h h h h h h h h h h h h h h h h h h h h h h h h h h h h h h h h h h h h h h h h h h h h h h h h h h h h h h h h h h h h h h h h h h h h h h h h h h h h h h h h h h h h h h h h h h h h h h h h h h h h h h h h h h h h h h h h h h h h h h h h h h z h g s u u s g h h h g g g g g g g g h h h h z r < 2 % $ $ * 2 2 2 2 e h h h h h h h h h h h h h h h h h h h h h h h h h h h h h h h h h h h h h h h h h h h h h h h h h h h h h h h h h h h g g g g h h h h g d s u u u u u u u u u u u u u u u u u u u u u u u u u u u u u u u u u u s g h h h h h h h h g g g g g h h h h f f g g h h h h h h h h h h h g h s u u u u u u u u u u u u u u u u u u u u u u u u u u u u u u u u u u s s s s s s s s y < 2 : $ # $ % 2 2 5 u s s s s s s s s s s s s u u u u u u u u u u u u u u u u u u u u u u u u u u u u u u u u d g h h z z h h z h h g h h h h h g g d g g g g g g g g g g g g h h h h h d s y u u u s u u u u u u u u u u u u u u u u u u u u u u u u u u u u u u u u u u u u u u u u u u u u u u u u u u u u u u u u u u u u u u u u u u u u u u u u u u u u u u u u u u u u u u u u u u u u u u u u u u w , 2 2 2 2 , $ % $ ",
"& # $ # $ 2 2 3 2 5 h h h h h h h h h h g g g r 5 y g g g g g g h h h h h h h h h h h h h h h h h h h h h h h h h h h h h h h h h h h h h h h h h h h h h h h h h h h h h h h h h h h h h h h h h h h h h h h h h h h h h h h h h h h h h h h h h h h h h h h h h h h h h h h h h h h h h h h h h h h h h h h h h h h h h h h h h h h h h h h h h h h h h z h g s u u s g h h h g g g g g g g g h h h h z r < 2 % $ $ * 2 2 2 2 e h h l h h h h h h h h h h h h h h h h h h h h h h h h h h h h h h h h h h h h h h h h h h h h h h h h h h h g u s d g g g g g h h h h d s s u u u u u u u u u u u u u u u u u u u u u u u u u u u u u u u u u u s d g h g d s u u s s g g g g h h h h g g g g h h h h h h h h h h g g g u y u u u u u u u u u u u u u u u u u u u u u u u u u u u u u u u u u s s s s s s s s y < 2 : $ # $ % 2 2 5 y s s s s s s s s s s s s u u u u u u u u u u u u u u u u u u u u u u u u u u u u u u u s g h h h h h h z g g g d h h h h d d s s s s s s d g g g g g g g h h h h g d d d s s s s u u u u u u u u u u u u u u u u u u u u u u u u u u u u u u u u u u u u u u u u u u u u u u u u u u u u u u u u u u u u u u u u u u u u u u u u u u u u u u u u u u u u u u u u u u u u u u u u u s q , 2 2 2 2 , $ % $ ",
"& # $ # $ 2 2 3 2 5 h h h h h h h h h h h g g h h i y d g g g g h h h h h h h h h h h h h h h h h h h h h h h h h h h h h h h h h h h h h h h h h h h h h h h h h h h h h h h h h h h h h h h h h h h h h h h h h h h h h h h h h h h h h h h h h h h h h h h h h h h h h h h h h h h h h h h h h h h h h h h h h h h h h h h h h h h h h h h h h h h h h z h g s u u s g h h h g g g g g g g g h h h h z r < 2 % $ $ & 2 2 2 2 e j h l h h h h h h h h h h h h h h h h h h h h h h h h h h h h h h h h h h h h h h h h h h h h h h h h h h g g u s d g g g g g h h h h s s u u u u u u u u u u u u u u u u u u u u u u u u u u u u u u u u u u u u s s g d s y s s d g g g g g h h h h g g g g h h h h h h h h h g g d d u y u u u u u u u u u u u u u u u u u u u u u u u u u u u u u u u u u s s s s s s s s y 2 2 : $ # # % < < 4 r s s s s s s s s s s s s u u u u u u u u u u u u u u u u u u u u u u u u u u u u u u u s h h h h h h g g d s s u s s s s s s a s u u u u u s d g g g g g h h h h h h z z h g d d u u u u u u u u u u u u u u u u u u u u u u u u u u u u u u u u u u u u u u u u u u u u u u u u u u u u u u u u u u u u u u u u u u u u u u u u u u u u u u u u u u u u u u u u u u u u u u u u u s 0 , 2 2 2 2 , $ % $ ",
"& # $ # $ < 2 3 2 5 h h h h h h h h h h h h g d h g f g g g g g h h h h h h h h h h h h h h h h h h h h h h h h h h h h h h h h h h h h h h h h h h h h h h h h h h h h h h h h h h h h h h h h h h h h h h h h h h h h h h h h h h h h h h h h h h h h h h h h h h h h h h h h h h h h h h h h h h h h h h h h h h h h h h h h h h h h h h h h h h h h h z h g s u u s g h h h g g g g g g g g h h h h z e < 2 % # $ % 2 2 2 2 e h h j h h h h h h h h h h h h h h h h h h h h h h h h h h h h h h h h h h h h h h h h h h h h h h h h h g g g g g g g g g g g h h h h u u u u u u u u u u u u u u u u u u u u u u u u u u u u u u u u u u u u u u u u u u u u s d h z g g g g h h h h h h h h h h h h h h h h g g d s s u y u u u u u u u u u u u u u u u u u u u u u u u u u u u u u u u u u s s s s s u u u u 2 2 : $ # # $ < , 3 r s s s s s s s s s s s s u u u u u u u u u u u u u u u u u u u u u u u u u u u u y u s g h h h h x h d s s u u y s s s s s s a a s s s s u u u s g g g g h h h h g g g d g d u y u u u u u u u u u u u u u u u u u u u u u u u u u u u u u u u u u u u u u u u u u u u u u u u u u u u u u u u u u u u u u u u u u u u u u u u u u u u u u u u u u u u u u u u u u u u u u u u u y d 8 < 1 1 2 2 , $ % $ ",
"& # $ # $ < 2 3 < 7 h g h h h h h h h h h h h h g g g g g g g g h h h h h h h h h h h h h h h h h h h h h h h h h h h h h h h h h h h h h h h h h h h h h h h h h h h h h h h h h h h h h h h h h h h h h h h h h h h h h h h h h h h h h h h h h h h h h h h h h h h h h h h h h h h h h h h h h h g g h h h h h h h h h h h h h h h h h h h h h h h h h h h h d s u u g h h h g g g g g g g g h h h h z 9 2 2 $ # $ % 2 2 2 2 r z g g h h h h h h h h h h h h h h h h h h g g z h h g h h h h h h h h h h h h h h h h h h h h g d g h g g h h h h h h h h h h h h h h s s s s u u u u u u u u u u u u u u u u u u u u u u u u u u u u u u u u u u u u u u u u u s s g g g g g d d d d g g g g d d d d d d d d u u u u u u u u u u u u u u u u u u u u u u u u u u u u u u u u u u u u u u u u s s s u u u u u u 2 2 : $ $ $ $ < 3 < 0 u u u u s s s s s s s s u u u u u u u u u u u u u u u u u u u u u u u u u u u u u u u s g g g g d s u u u u u u u u u u s s s s u u u u s u y u s d g h h h g s s s s s u u u u u u u u u u u u u u u u u u u u u u u u u u u u u u u u u u u u u u u u u u u u u u u u u u u u u u u u u u u u u u u u u u u u u u u u u u u u u u u u u u u u u u u u u u u u u u u u u u u u y s 7 < < < < < < % $ $ ",
"& # $ # $ < 3 3 < 7 z g h h h h h h h h h h h h g g g g g g g g h h h h h h h h h h h h h h h h h h h h h h h h h h h h h h h h h h h h h h h h h h h h h h h h h h h h h h h h h h h h h h h h h h h h h h h h h h h h h h h h h h h h h h h h h h h h h h h h h h h h h h h h h h h h h h h h h h h h h h h h h h h h h h h h h h h h h h h h h h h h h h h h g d s u s g h h g g g g g g g g h h h h z 9 2 2 $ @ # % 2 2 2 2 r z g g h h h h h h h h h h h h h h h h h g g d s s d g h h h h h h h h h h h h h h h h h h h h d s s d g g h h h h h h h h h h h h h h u u u u u u u u u u u u u u u u u u u u u u u u u u u u u u u u u u u u u u u u u u u u u u u s s s s s u u u u s s s s u u u u u u u u u u u u u u u u u u u u u u u u u u u u u u u u u u u u u u u u u u u u u u u u s s s u u u u u s 2 2 : $ $ $ $ < 2 < 7 u u u u s s s s s s s s u u u u u u u u u u u u u u u u u u u u u u u u u u u u u u u u s s s s u u u u u u u u u u u u s s s s s s s s s s u s d g g g h h g s s s s s u u u u u u u u u u u u u u u u u u u u u u u u u u u u u u u u u u u u u u u u u u u u u u u u u u u u u u u u u u u u u u u u u u u u u u u u u u u u u u u u u u u u u u u u u u u u y y y y u u u u y s 7 < < < < < < % $ $ ",
"& # $ # $ < 3 3 < 7 z g h h h h h h h h h h h h g g g g g g g g h h h h h h h h h h h h h h h h h h h h h h h h h h h h h h h h h h h h h h h h h h h h h h h h h h h h h h h h h h h h h h h h h h h h h h h h h h h h h h h h h h h h h h h h h h h h h h h h h h h h h h h h h h h h h h h h g g h h h h h h h h h h h h h h h h h h h h h h h h h h h h h h h g d s i d g g g g g g g g g g h h h h z 9 2 < $ @ # % 2 2 2 2 r z g g h h h h h h h h h h h h h h h h h g d s y y u s g h h h h h h h h h h h h h h h h h h h g s u u g g h h h h h h h h h h h h h h d d d d u u u u u u u u u u u u u u u u u u u u u u u u u u u u u u u u u u u u u u u u u u u u u u u u u u u u u u u u u u u u u u u u u u u u u u u u u u u u u u u u u u u u u u u u u u u u u u u u u u u u u u u u s s s u u u u u s 2 2 , $ $ $ $ , 2 < 4 u u u u s s s s s s s s u u u u u u u u u u u u u u u u u u u u u u u u u u u u u u u u u u u u u u u u u u u u u u u u s s s s s s s s u u s s h h h g h h g s s s s s u u u u u u u u u u u u u u u u u u u u u u u u u u u u u u u u u u u u u u u u u u u u u u u u u u u u u u u u u u u u u u u u u u u u u u u u u u u u u u u u u u u u u u u u u u u u u u u u u u u u y s 7 < < < < < < % $ $ ",
"& # $ # $ , 3 2 < 8 z g h h h h h h h h h h h h g g g g g g g g h h h h h h h h h h h h h h h h h h h h h h h h h h h h h h h h h h h h h h h h h h h h h h h h h h h h h h h h h h h h h h h h h h h h h h h h h h h h h h h h h h h h h h h h h h h h h h h h h h h h h h h h h h h h h h h h s d d g h h h h h h h h h h h h h h h h h h h h h h h h h h h h h h g d u s d g g g g g g g g g h h h h z 9 2 < $ @ # % 2 2 2 2 r z g g h h h h h h h h h h h h h h h h h g s u u u y y d h h h h h h h h h h h h h h h h h h h h d u s g g h h h h h h h h h h h h h h g g g g u u u u u u u u u u u u u u u u u u u u u u u u u u u u u u u u u u u u u u u u u u u u u u u u u u u u u u u u u u u u s s s s u u u u u u u u u u u u u u u u u u u u u u u u u u u u u u u u u u u u u u u u s s s u u u u u s 2 2 , $ $ $ $ , < , 4 u u u u s s s s s s s s u u u u u u u u u u u u u u u u u u u u u u u u u u u u u u u u s s s s u u u u u u u u u u u u s s s s g g g g d g g z z z h g h h g s s s s s u u u u u u u u u u u u u u u u u u u u u u u u u u u u u u u u u u u u u u u u u u u u u u u u u u u u u u u u u u u u u u u u u u u u u u u u u u u u u u u u u u u u u u u u u u u u d d d d u u u u y s 7 < < < < < < % $ $ ",
"& # $ # $ , 3 2 < 9 h z g g g g g g g g h h h h h h g g g g g g h h h h h h h h h h h h h h h h h h h h h h h h h h h h h h h h h h h h h h h h h h h h h h h h h h h h h h h h h h h h h h h h h h h h h h h h h h h h h h h h h h h h h h h h h h h h h h h h h h h h h h h h h h h h g d u y u u u u h h h g h h h h h h h h h h h h h h h h h h h h h h h h g g g g d u y u d g h h h h h h h h h h z 7 2 , $ # $ % 2 2 2 2 e s d g g g g g h h h h h h h h h h h h h h g s u s s s g h h h h h h h h h h h h h h h h h h h h h h h h h h h g h g d u u u u g g g g h h h h u u u u u u u u u u u u u u u u s s s s s s s s u u u u u u u u u u u u u u u u u u u u u u u u u u u u u u u u u u u u s s s s s s s s s s s s u u u u u u u u u u u u u u u u u u u u u u u u u u u u u u u u s s s s u u u u u 2 2 : # # # # , < 2 , y u u s s s s s s s s s u u u u u u u u u u u u u u u u u u u u u u u u u u u u u u u u s s s s u u u u u u u u u u u u u u s s g g g g g g g g g g g h g g g g y u u s s s u u u u u u u u u u u u u u u u u u u u u u u u u u u u u u u u u u u u u u u u u u u u u u u u u u u u u u u u u u u u u u u u u u u u u u u u u u u u u u u u u u s s u y u s g h g g g g d s u u y s 7 < 2 2 2 1 < * # $ ",
"& # $ # @ , 2 2 < 9 g g g g g g h h h h h h z h h g g g g g g g h h h h h h h h h h h h h h h h h h h h h h h h h h h h h h h h h h h h h h h h h h h h g d d d g g g h h h h h h h h h h h h h h h h h h h h h h h h h h h h h h h h h h h h h d d d d h h h h h h h h h h h h h h h h s s u u u u u u g h h h h h h h h h h h h h h h h h h h h h h h h h h h g g g g h d s s d g h h h h h h h h h h z 7 2 , $ # $ % 2 2 2 2 y g h z h h h h z z z z h h h h h h h h h h h g g g g g g h h h h h h h h h h h h h h h h h h h h h h h h h h h h h d u u u u u s s s s d d d d u u u u u u u u u u u u u u u u u u u u u u u u u u u u u u u u u u u u u u u u u u u u u u u u u u u u u u u u u u u u s s s s s s s s s s s s u u u u u u u u u u u u u u u u u u u u u u u u u u u u u u u u s s s s u u u u u 2 2 : # # # # , 2 2 , w s u u s s s s s s s s u u u u u u u u u u u u u u u u u u u u u u u u u u u u u u u u s s s s u u u u u u u u u u u u u u u u g g g g h h h h h h h h g g g g s u u y u u s s u u u u u u u u u u u u u u u u u u u u u u u u u u u u u u u u u u u u u u u u u u u u u u u u u u u u u u u u u u u u u u u u u u u u u u u u u u u u u u u u s s u u s d g h g g g g g d s u y s 7 , 2 2 2 2 < * $ $ ",
"& # $ # @ , 2 2 2 8 d s g g g g g g g g g g h h g g g g g g g g h h h h h h h h h h h h h h h h h h h h h h h h h h h h h h h h h h h h h h h h h h h h d s s u d d g h h h h h h h h h h h h h h h h h h h h h h h h h h h h h h h h h h h h h u u u u h h h h h h h h h h h h h h h h g d u y u u u u d d g h h h h h h h h h h h h h h h h h h h h h h h h h g g g g h h g d d h h h h h h h h h h h z 7 2 , $ # $ % 2 2 2 2 s h h h g g g g h h h h h h h h h h h h h h h h h h h h h h h h h h h h h h h h h h h h h h h h h h h h h h h h h h d u u u u u u u u u u u u u u u u u u u u u u u u u s s s s s a a a s s s s u u u s u u u u u u u u u u u u u u u u u u u u u u u u u u u u u u u u s s s s s s s s s s s s u u u u u u u u u u u u u u u u u u u u u u u u u u u u u u u u s s s s u u u u u 2 2 : # # # # , 2 2 , 7 s y u s s s s s s s s u u u u u u u u u u u u u u u u u u u u u u u u u u u u u u u u s s s s u u u u u u u u u u u u u u u u g g g g l g g d g g h h g g g g g d d s u u u u u u u u u u u u u u u u u u u u u u u u u u u u u u u u u u u u u u u u u u u u u u u u u u u u u u u u u u u u u u u u u u u u u u u u u u u u u u u u u u u u u u s s g g h h g g g g g g d s y s 7 , 2 2 2 2 2 * $ $ ",
"& # $ # @ , 2 2 < 8 s u s s s s s s s s s s s s g g h g g g g g h h h h h h h h h h h h h h h h h h h h h h h h h h h h h h h h h h h h h h h h h h h h g d s u s d g h h h h h h h h h h h h h h h h h h h h h h h h h h h h h h h h h h h h h g g g g h h h h h h h h h h h h h h h h g g d s u u u u y u s g h h h h h h h h h h h h h h h h h h h h h h h h g g g g g g h g g h h h h h h h h h h h z 7 2 , $ # $ $ 2 2 2 2 s g g g d d d d d d d d h h h h h h h h h h h h g g g g h h h h h h h h h h h h h h h h h h h h h h h h h h h h g h g d u u u u u u u u u u u u u u u u u u u u u u u u g g g g d d d d d d d d u u u s u u u u u u u u u u u u u u u u u u u u u u u u u u u u u u u u s s s s a s s s s s s s u u u u u u u u u u u u u u u u u u u u u u u u u u u u u u u u s s s s u u u u u 2 2 : # # # # , 2 2 < 4 d y u s s s s s s s s u u u u u u u u u u u u u u u u u u u u u u u u u u u u u u u u s s s s u u u u u u u u u u u u u u u u g g g g g d s u u s g h g g g g g h z z g d u u u u u u u u u u u u u u u u u u u u u u u u u u u u u u u u u u u u u u u u u u u u u u u u u u u u u u u u u u u u u u u u u u u u u u u u u u u u u u u u u u y u s s h h h h g g g g g g g d u s 7 < 2 2 2 2 2 * $ $ ",
"& # $ # @ , 2 2 < 7 s y u u u u u u u u u u u u s g h z h h h h h h h h h h h h h h h h h h h h h h h h h h h h h h h h h h h h h h h h z h g d h h h h x z h g g g g g h h h h h h h h h h h h h h h h h h h h h h h h h h h h h h h h h h h h g g g g h h h h h h h h h h h h h h h h h h h h s s u u y y y y g g g g h h h h h h h h h h h h h h h h h h h h h h h h g g g g h h z z h h g g g g h h g 4 3 ; $ $ $ $ 2 2 2 2 d h g d s s s s s s s u s d g g g g g g h h h h g g g g h h h h h h h h g h z g h g g d s s s s g h h h g g g g h h h h s s s s s s s s u u u u u u u u u u u u u u u u g z h h h h h h d g h h g s u s u u u u u u u u u u u u u u u u u u u u u u u u u u u u u u u u s s s s s s s s s s s s u u u u u u u u u u u u u u u u u u u u u u u u u u u u u u u u s s s s s s s s w < , : $ $ $ $ : < < < 3 u y u u u u u s s s s u u u u u u u u u u u u u u u u u u u u u u u u u u u u u u u u s s s s s s s s s s s s s s u u u s d g h h h h g u y u u u s d h h h h g g g g h g s u u u u u u u u u u u u u u u u u u u u u u u u u u u u u u u u u u u u u u u u u u u u u u u u u u u u u u u u u u u u u u u u u u u u u u u u u s s u y u u y u s d g h h h h h h h h h g g g g d s 7 2 1 2 2 2 2 ; $ $ ",
"& # $ # @ , 2 2 < 7 s y u u u u u u u u u u u u u s g z h h h h h h h h h h h h h h h h h h h h h h h h h h h h h h h h h h h h h h h h h h h h h h h h h h h h h h h h h h h h h h h h h h h h h h h h h h h h h h h h h h h h h h h h h h h h g g g g h h h h h h h h h h h h h h h h h h h h g g d d s s s s g g g g h h h h h h h h h h h h h h h h h h h h h h h h g g g g g g g g g g h h h h h h g 4 3 ; $ $ $ $ 2 2 2 2 g z g g s s s s y u u u y u s s g g g g h h h h g g g g h h h h h h h h g g g d s s u u u u u u s d g g h h h h g g g g s s s s s s s s u u u u u u u u u u u u u u u u g z h h h h h h g h h h g s u s u u u u u u u u u u u u u u u u u u u u u u u u u u u u u u u u s s s s s s s s s s s s u u u u u u u u u u u u u u u u u u u u u u u u u u u u u u u u s s s s s s s s q < < : $ $ $ $ : < < < 2 r u u u u u u s s s s u u u u u u u u u u u u u u u u u u u u u u u u u u u u u u u u s s s s s s s s s s s s u u s s g g g g h h h h g s y u u u s d h h h h g g g g h g d s u u u u u u u u u u u u u u u u u u u u u u u u u u u u u u u u u u u u u u u u u u u u u u u u u u u u u u u u u u u u u u u u u u u u u u u u u u y y s s d d g h z z h h h h h h h h g g g g d d 8 2 1 2 2 1 2 ; $ $ ",
"& # $ # @ , 2 2 < 7 s y u u u u u u u u u u u u y s g h h h h h h h h h h h h h h h h h h h h h h h h h h h h h h h h h h h h h h h h h g g g g h h h h g g g g g g g g g h h h h h h h h h h h h h h h h h h h h h h h h h h h h h h h h h h h g g g g h h h h h h h h h h h h h h h h h h h h g g h h g g g g g g g g h h h h h h h h h h h h h h h h h h h h h h h h g g g g g g d s s d h z h h h h g 4 3 ; $ $ $ $ 2 2 2 2 d h g d s s s s y u s d d g g h g g g g h h h h g g g g h h h h h h h h g d s s u y y y u u u u u u s s d d d d d d d d s s s s s s s s u u u u u u u u u u u u u u u u s h g h h h h h h g g g g s u s u u u u u u u u u u u u u u u u u u u u u u u u u u u u u u u u s s s s s s s s s s s s u u u u u u u u u u u u u u u u u u u u u u u u u u u u u u u u s s s s s s s s 9 , < , $ $ $ $ : < < 1 < q s u u u u u s s s s u u u u u u u u u u u u u u u u u u u u u u u u u u u u u u u u s s s s s s s s s s s s g g h h h h g g h h h h g d s u u u s g h h h h g g g g h h g s u u u u u u u u u u u u u u u u u u u u u u u u u u u u u u u u u u u u u u u u u u u u u u u u u u u u u u u u u u u u u u u u u u u u u u u u u u u s d g h h h h h h h h h h h h h h g g g g d g 0 2 2 2 2 2 2 ; $ $ ",
"& # $ # @ , 2 2 < 7 s y u u u u u u u u u u u u y u d g h h h h h h h h h h h h h h h h h h h h h h h h h h h h h h h h h h h h h h h h g g s s h h h h h g d s s s s s d g h h h h h h h h h h h h h h h h h h h h h h h h h h h h h h h h h h g g g g h h h h h h h h h h h h h h h h h h h h g g h h g g g g g g g g h h h h h h h h h h h h h h h h h h h h h h h h g g g g z h g s y s g h h h h h g 4 3 ; $ $ $ $ 2 2 2 2 u d s u s s s s u s g z g g h h g g g g h h h h g g g g h h h h h h h h g s y u u u u u s s s s u u y u u u u u u u u u s s s s s s s s u u u u u u u u u u u u u u u u u g g h h h h h g d d s g s u s u u u u u u u u u u u u u u u u u u u u u u u u u u u u u u u u s s s s s s s s s s s s u u u u u u u u u u u u u u u u u u u u u u u u u u u u u u u u s s s s s s s s 8 , 2 < $ $ $ $ : < < 1 , 8 s u u u u u s s s s u u u u u u u u u u u u u u u u u u u u u u u u u u u u u u u u s s s s s s s s s s s s z h h g h h h h h h h h g g s u u u d g h h h h g g g g g h g d u u u u u u u u u u u u u u u u u u u u u u u u u u u u u u u u u u u u u u u u u u u u u u u u u u u u u u u u u u u u u u u u u u u u u u u u s s d g g g h z h h h h h h h h h h h h g g g g d l q 2 2 2 2 2 2 ; $ $ ",
"& # $ # @ , 2 2 ; 8 u y y u u u u u u u u u u u u u u d g h h h h h h h h h h h h h h h h h h h h h h h h h h h h h h h h h h h h h h h d d d d g g g g z g s u u u u u u s g z g g g g h h h h h h h h h h h h h h h h h h h h h h h h h h h h h h h h h h h h h h h h h h h h h h h h h g h g h h h g h h h h h h h h h h h h h h h h h h h h h h h h h h h h h h h h h h h h g g g g s u s g h h h h s 4 3 = $ $ $ $ 2 2 2 2 r s u u s s s s u d h h h h h h h h h h h h h h h h h h h h h h h h h h h d u u u u u u s s s s u u u u u u u u u u u u u u u u u u u u u u u u u u u u u u u u u u u u s s g h h g g d u u u u u u u u u u u u u u u u u u u u u u u u u u u u u u u u u u u u u u u u s s s s s s s s s s s s u u u u u u u u u u u u u u u u u u u u u u u u u u u u u u u u s s s s s s s s 4 < 2 : $ $ $ $ : < < 2 < 3 d u u u u u s s s s u u u u u u u u u u u u u u u u u u u u u u u u u u u u u u u u u u u u u u u u s s s g h h h h h h h h h h h h g g g g g g g g h h h h h h h h g h h g u y u s u u u u u u u u u u u u u u u u u u u u u u u u u u u u u u u u u u u u u u u u u u u u u u u u u u u u u u u u u u u u s s s s s s s d g g g h h h h h h h h h h h h h h h h h h h h h g z r 2 2 2 2 2 3 , # $ ",
"& # $ @ @ , 2 2 : 0 d s u u u u u u u u u u u u u u u u d g g h h h h h h h h h h h h h h h h h h h h h h h h h h h h h h h h h h h h h h h h h g g g g g g g g s s s s u s f g g g g g h h h h h h h h h h h h h h h h h h h h h h h h h h h h h h h h h h h h h h h h h h h h h h g g g g s s g g h h h h h h h h h h h h h h h h h h h h h h h h h h h h h h h h h h h h h h g g g g h d u y d h h h u 3 3 = $ $ $ $ 2 2 2 2 y s s s s s s s g h h z h h h h h h h h h h h h h h h h h h h h h h h h h g s u u u u u s s s s u u u u u u u u u u u u u u u u u u u u u u u u u u u u u u u u u u u u u u s d d s s u u u u u u u u u u u u u u u u u u u u u u u u u u u u u u u u u u u u u u u u u s s s s s s s s s s s s u u u u u u u u u u u u u u u u u u u u u u u u u u u u u u u u s s s s s s s s 4 < 2 : # # # # : < < 2 < 2 u u u u u u s s s s u u u u u u u u u u u u u u u u u u u u u u u u u u u u u u u u u u u u u u u u s s d g h h h h h h h h h h h h g g g g g g g g h h h h h h h h g h h g s u u u u u u u u u u u u u u u u u u u u u u u u u u u u u u u u u u u u u u u u u u u u u u u u u u u u u u u u u u u u u u u u u u u s d g g g h h h h h h h h h h h h h h h h h h h h h h h g z r 2 2 2 2 2 3 , # $ ",
"& # $ @ @ > 2 2 < e g d s s u u u u u u u u u u u u u u s s d g g h h h h h h h h h h h h h h h h h h h h h h h h h h h h h h h h h h h h h h h g g g g g g h h g g g g s d g g g g g g h h h h h h h h h h h h h h h h h h h h h h h h h h h h h h h h h h h h h h h h h h h h h g g d d s u u u s g z h h h h h h h h h h h h h h h h h h h h h h h h h h h h h h h h h h h h g g g g z g s y u d h h y 2 2 * $ $ $ $ 2 2 2 3 s g g g s s s s g g g z h h h h h h h h h h h h h h h h h h h h h h h h h h d u u u u u s s s s u u u u u u u u u u u u u u u u u u u u u u u u u u u u u u u u u u u u u u u s s u u y u u u u u u u u u u u u u u u u u u u u u u u u u u u u u u u u u u u u u u u u s s s s s s s s s s s s u u u u u u u u u u u u u u u u u u u u u u u u u u u u u u u u s s s s s s s s 4 < 2 : # # # # : 2 < 2 < 2 e s u u u u s s s s u u u u u u u u u u u u u u u u u u u u u u u u u u u u u u u u u u u u u u u u s s g h h h h h h h h h h h h h g g g g g g g g h h h h h h h h h g h h g s u y u u u u u u u u u u u u u u u u u u u u u u u u u u u u u u u u u u u u u u u u u u u u u u u u u u u u u u u u u u u u y u s d g g h h h h h h h h h h h h h h h h h h h h h h h h h h g z r 2 2 2 2 2 3 , # $ ",
"& # $ @ @ > 2 2 2 r l h g d d s u u u u u u u u u u u u u s s s d g g h h h h h h h h h h h h h h h h h h h h h h h h h h h h h h h h h g g g g g g g g h h h g h h h h g h h h g g g g h h h h h h h h h h h h h h h h h h h h h h h h h h h h h h h h h h h h h h h h h h h h h g d s y u s s y u d g h h h h h h h h h h h h h h h h h h h h h h h h h h h h h h h h h h h h g g g g g g g s u u d h y 2 2 % $ $ $ $ 2 2 2 3 s h h h s s s s u s d g h h h h h h h h h h h h h h h h h h h h h h h h h z g u u u u u s s s s u u u u u u u u u u u u u u u u u u u u u u u u u u u u u u u u u u u u s s s s s s u y u u u u u u u u u u u u u u u u u u u u u u u u u u u u u u u u u u u u u u u u s s s s s s s s s s s s u u u u u u u u u u u u u u u u u u u u u u u u u u u u u u u u s s s s s s s s 4 < 2 : # # # # : 2 < < , 2 0 s u u u u s s s s u u u u u u u u u u u u u u u u u u u u u u u u u u u u u u u u u u u u u u u u s d g h h h h h h h h h h h h h g g g g g g g g h h h h h h h h h g h h h d u y u u u u u u u u u u u u u u u u u u u u u u u u u u u u u u u u u u u u u u u u u u u u u u u u u u u u u u u u u u u u s s g h h h h h h h h h h h h h h h h h h h h h h h h h h h h h g z r 2 2 2 2 2 3 , # $ ",
"& # $ # # : 4 2 2 y z h h h h h g s s u u u u u u u u u s s s s u u s g h h h h h h h h h h h h h h h h h h h h h h h h h h h h h h h h h h h h h h h h h h h h h h h h h h h h h h h h h h h h h h h h h h h h h h h h h h h h h h h h h h h h h h h h h h h h h h h h h h h h g u y y u u u u u u s g g g g g h g g d d d g g h h h h h g d s d s s d h h h h h h h h h h h h h h h h h g g g s u s g u < 2 % $ $ $ $ < 2 2 3 u u u u u u u u y s d g h h h h z h g d h h h h g g g g h h h h h h h h g d s s u u u u s s s s u u u u u u u u u u u u u u u u u u u u u u u u u u u u u u u u u u u u u u u u u u u u u u u u u u u u u u u u u u u u u u u u u u u u u u u u u u u u u u u u u u u u s s s s s s s s s s s s u u u u u u u u u u u u u u u u u u u u u u u u u u u u u u u u s s s s s s s r 2 < 2 : $ $ $ $ = 2 < < , < 5 d s u u u s s s s u u u u u u u u u u u u u u u u u u u u u u u u s s u y u s g g g g g g g g g g d g h h h h h h h h h h h h h h h h h h h h h h h h h h h h h h h h h h h g d u y u u s u u u u s s s d d d d d d d d d g s u u u u u u u u u u u u u u i i i u u u u u u u u u y u s s d d d d s s s s g g h h h h h h h h h h h h h h h h h h h h h h h h h h h h h h z z d 2 3 3 3 3 3 < $ $ ",
"& # $ # $ : 4 2 2 y z h h h h h h g g s s u u u u u u u s s s s u u s g h h h h h h h h h h h h h h h h h h h h h h h h h h h h h h h h h h h h h h h h h h h h h h h h h h h h h h h h h h h h h h h h h h h h h h h h h h h h h h h h h h h h h h h h h h h h h h h h h h h h g s u u u u u u u u s d g g g g h g s u u s s s g g g g s u u u y y u d h h h h h h h h h h h h h h h h h h h g s u s d e , 2 $ $ $ $ $ < 2 < 3 u u u u u u u u s d g g h h h h d d s u h h h h g d s u d d d d d d d d s s u u u u u u s s s s u u u u u u u u u u u u u u u u u u u u u u u u u u u u u u u u u u u u u u u u u u u u u u u u u u u u u u u u u u u u u u u u u u u u u u u u u u u u u u u u u u u u s s s s s s s s s s s s u u u u u u u u u u u u u u u u u u u u u u u u u u u u u u u u s s s s s s s r 2 < 2 : $ $ $ $ = 2 < < , < 3 y s u u u s s s s u u u u u u u u u u u u u u u u u u u u u u u u u s d d g g h g g g g g g g g g g h h h h h h h h h h h h h h h h h h h h h h h h h h h h h h h h h h h h h g d s s u u y y y y s d g g g g g g g g g g g h g s s u u u u s s s g g g g g g g g g g g g d d d d d d g g h h h h g g g g h h h h h h h h h h h h h h h h h h h h h h h h h h h h h h h h h z d 2 3 3 3 3 3 < $ $ ",
"& # $ # $ : 4 2 2 y z h h h h h h h h g d s u u u u u u y y y y s s s g h h h h h h h h h h h h h h h h h h h h h h h h h h h h h h h h h h h h h h h h h h h h h h h h h h h h h h h h h h h h h h h h h h h h h h h h h h h h h h h h h h h h h h h h h h h h h h h h h h h h h g d s s u u u u u u s g g g g d s s u u u s s u u u u u u u u s s d h h h h h h h h h h h h h h h h h h h h h g s u s 8 < < $ $ $ $ $ < 2 < 3 u u u u u u u u d g h h h h h h s u u u g g g g d s u y u u u u u u u u u u u u u u u u s s s s u u u u u u u u u u u u u u u u u u u u u u u u u u u u u u u u u u u u u u u u u u u u u u u u u u u u u u u u u u u u u u u u u u u u u u u u u u u u u u u u u u u u s s s s s s s s s s s s u u u u u u u u u u u u u u u u u u u u u u u u u u u u u u u u s s s s s s s r 2 < 2 : $ $ $ $ = 2 < < , < < q s u u u s s s s u u u u u u u u u u u u u u u u u u u u u u u u s d g h h g g g g g g g g g g g h h h h h h h h h h h h h h h h h h h h h h h h h h h h h h h h h h h h h h h g h g g d d d d d g g h h h h h h h h h h g h h g d s s u s s d g h h h h h h h h h h h h g g g g h h h g h h h h g g g g h h h h h h h h h h h h h h h h h h h h h h h h h h h h h h h h g h d 3 3 3 3 3 3 < $ $ ",
"& # $ # $ : 4 2 2 y h h h h h h h h h h g d s u u u u u s s s s g g g h h h h h h h h h h h h h h h h h h h h h h h h h h h h h h h h h h h h h h h h h h h h h h h h h h h h h h h h h h h h h h h h h h h h h h h h h h h h h h h h h h h h h h h h h h h h h h h h h h h h h h h g g d s s u u u u s g g g g y u s s s s d d s s s s s s s s g s s g h h h h h h h h h h h h h h h h h h h h g s u u 5 < < $ $ $ $ $ < 2 < 3 u u u u u u u u g h l z h h h h u u s s s s s s s s s s u u u u u u u u u u u u u u u u s s s s u u u u u u u u u u u u u u u u u u u u u u u u u u u u u u u u u u u u u u u u u u u u u u u u u u u u u u u u u u u u u u u u u u u u u u u u u u u u u u u u u u u u s s s s s s s s s s s s u u u u u u u u u u u u u u u u u u u u u u u u u u u u u u u u s s s s s u s r 2 < 2 : $ $ $ $ * 2 < < , < < 8 s u s u s s s s u u u u u u u u u u u u u u u u u u u u u u u u d g h h g g g g g g g g g g g g h h h h h h h h h h h h h h h h h h h h h h h h h h h h h h h h h h h h h h h h d g g h g g g g h h h h h h h h h h h h h g g z h g d s d d g h h h h h h h h h h h h h g g g g z h h g g g g g g g g g h h h h h h h h h h h h h h h h h h h h h h h h h h h h h h h h d h g 4 3 3 3 3 3 < $ # ",
"& # $ # $ : 4 2 2 y h h h h h h h h h h h h d u u u u s u g h g g g g g h h h h h h h h h h h h h h h h h h h h h h h h h h h h h h h h h h h h h h h h h h h h h h h h h h h h h h h h h h h h h h h h h h h h h h h h h h h h h h h h h h h h h h h h h h h h h h h h h h h h h h h h g g g g s s u u h h h h d d d d h h h h s s u u s g h h g d s u d g h g h h h h h h h h h h h h h h h h z d u u 2 < , $ $ $ $ $ < 2 2 4 u u u u d d g h h h h h h h h h s u u s u u u u s s s s u u u u s s s s u u u u u u u u s s s s u u u u u u u u u u u u u u u u u u u u u u u u u u u u u u u u u u u u u u u u u u u u u u u u u u u u u u u u u u u u u u u u u u u u u u u u u u u u u u u u u u u u s s u u u u u u u u u u u u u u u u u u u u u u u u u u u u u u u u u u u u u u u u u u s s s s s u s q 2 < 2 : $ $ $ $ * 2 < < , < < 4 g u s s s s s s u u u u u u u u u u u u u u u u u u u u y y s d g g g g g g g g g g g g g g g g h h h h h h h h h h h h h h h h h h h h h h h h h h h h h h h h h h h h h h h h g g g g g g g g h h h h h h h h h h h h h h h h h h h h g g g g h h h h h h h h h h h h h h h h h h h h h h h h g g g g h h h h h h h h h h h h h h h h h h h h h h h h h h h h h h h h g h g 7 2 3 3 2 3 2 % # ",
"& # $ # $ : 4 2 2 y h h h h h h h h h h h h d u u u u s u g h g g g g g h h h h h h h h h h h h h h h h h h h h h h h h h h h h h h h h h h h h h h h h h h h h h h h h h h h h h h h h h h h h h h h h h h h h h h h h h h h h h h h h h h h h h h h h h h h h h h h h h h h h h h h h h h h h h g g d h h h h h h h h h h h h h g s u g z h g d s s u d g h g h h h h h h h h h h h h h h h h z d u u 2 , , $ $ $ $ $ < 2 2 4 s s s s g g h h h h h h h h g g s u u s s s s s u u u u u u u u s s s s s u u u u u u u s s s s u u u u u u u u u u u u u u u u u u u u u u u u u u u u u u u u u u u u u u u u u u u u u u u u u u u u u u u u u u u u u u u u u u u u u u u u u u u u u u u u u u u u u s s s d d d d s u u u u u u u u u u u u u u u u u u u u u u u u u u u u u u u u u u u s s s s s u s q 2 < 2 ; $ $ $ $ * 2 < < < < < 2 u u s u s s s s u u u u u u u u u u u u u u u u u u u u y u d g g g g g g g g g g g g g g g g g h h h h h h h h h h h h h h h h h h h h h h h h h h h h h h h h h h h h h h h h g g g g g g g g h h h h h h h h h h h h h h h h h h h h h h h h h h h h h h h h h h h h h h h h h h h h h h h h h h h h h h h h h h h h h h h h h h h h h h h h h h h h h h h h h h h h g h g 7 2 3 3 2 2 2 % @ ",
"& # $ # $ : 4 2 2 u h z h h h h h h h h h g d u u u u s u s g h g g g g h h h h h h h h h h h h h h h h h h h h h h h h h h h h h h h h h h h h h h h h h h h h h h h h h h h h h h h h h h h h h h h h h h h h h h h h h h h h h h h h h h h h h h h h h h h h h h h h h h h h h h h h h h h h h h h g h h h h h h h h h h h h g d u y u d g g s u u u d g h g h h h h h h h h h h h h h h h h z d u u 2 < , $ $ $ $ $ < 2 2 4 g g g g g g h h h h h h h g d s s u u s u u u u s s s s g g g g h h h h d s u u u u u u s s s s u u u u u u u u u u u u u u u u u u u u u u u u u u u u u u u u u u u u u u u u u u u u u u u u u u u u u u u u u u u u u u u u u u u u u u u u u u u u u u u u u u u u u s d g h h h h g d s u u u u u u u u u u u u u u u u u u u u u u u u u u u u u u u u u s s s s s u s q 2 < 2 ; $ $ $ $ & 2 < 2 2 < < < e s u u s s s s u u u u u u u u u u u u u u u u u u u u u s g h g g g g g g g g g g g g g g g g h h h h h h h h h h h h h h h h h h h h h h h h h h h h h h h h h h h h h h h h g g g g g g g g h h h h h h h h h h h h h h h h h h h h h h h h h h h h h h h h h h h h h h h h h h h h h h h h h h h h h h h h h h h h h h h h h h h h h h h h h h h h h h h h h h h h h h g 7 2 3 3 2 2 2 % @ ",
"& # $ # $ : 4 2 2 u h z h h h h h h h h h g d u u u u s u s g h g g g g h h h h h h h h h h h h h h h h h h h h h h h h h h h h h h h h h h h h h h h h h h h h h h h h h h h h h h h h h h h h h h h h h h h h h h h h h h h h h h h h h h h h h h h h h h h h h h h h h h h h h h h h h h h h g g g g h h h h h h h h h h h h g g d d d g g d u u u u d g h g h h h h h h h h h h h h h h h h h d u y 2 < , $ $ $ $ $ < 3 2 4 h h h h g g g g g g h h h g s u s u u s g g g g g g g g h h h h h h h h g d s u u u u u s s s s u u u u u u u u u u u u u u u u u u u u u u u u u u u u u u u u u u u u u u u u u u u u u u u u u u u u u u u u u u u u u u u u u u u u u u u u u u u u u u u u u u u u u s g g g g g g g g g d u u u u u u u u u u u u u u u u u u u u u u u u u u u u u u u u u s s s s u s q < < 2 ; $ $ $ $ & 2 < < < < < < 0 s y s s s s s u u u u u u u u u u u u u u u u u u u u s d g h g g g g g g g g g g g g g g g g h h h h h h h h h h h h h h h h h h h h h h h h h h h h h h h h h h h h h h h h g g g g g g g g h h h h h h h h h h h h h h h h h h h h h h h h h h h h h h h h h h h h h h h h h h h h h h h h h h h h h h h h h h h h h h h h h h h h h h h h h h h h h h h h h h h h h h g 7 2 2 3 2 2 2 % @ ",
"& # $ # $ : 4 2 2 u h g g g g g h h h h h g d u u u u u u u s g h h h h h h h h h h h h h h h h h h h h h h h h h h h h h h h h h h h h h h h h h h h h h h h h h h h h h h h h h h g g h h h h h h h h h h h h h h h h h h h h h h h h h h h h h h h h h h h h h h h h h h h h h h h h h h h h h h h h h h h h h h h h h h h h h h h h h h h h u u u u g g g g h h h h h h h h h h h h h h h h g d s y 2 < , $ $ $ $ $ 2 3 2 4 g g g g g g g g g g g g d s u u u u u u g h h h g g g g g g g g h h h h z g s u u u u u s s s s u u u u u u u u u u u u u u u u u u u u u u u u u u u u u u u u u u u u u u u u u u u u u u u u u u u u u u u u u u u u u u u u u u u u u u u u u u u u u u u u u u u u s g g g g g g g h h h h g s u s u u u u u u u u u u u u u u u u u u u u u u u u u u u u u s s d g g g q < 2 2 < $ $ $ $ @ < < < < < < < 3 y y s s s s s u u u u u u u u u u u u u u u u u u u u s d h z h h h h h h h h h h h h h h h h g g g g h h h h h h h h z z z z h h h h h h h h h h h h h h h h h h h h d g h h h h h h h g g g h h h h h h h h h h h h h h h h h h h h h h h h h h h h h h h h h h h h h h h h h h h h h h h h h h h h h h h h h h h h h h h h h h h h h h h h h h h h h h h h h h h h h h z 0 < 2 3 2 3 2 & # ",
"& # $ # $ : 4 2 2 s h g g g g g h h h h h g d u u u u u u u u s g h h h h h h h h h h h h h h h h h h h h h h h h h h h h h h h h h h h h h h h h h h h h h h h h h h h h h h h h h g g h h g g h h h h h h h h h h h h h h h h h h h h h h h h h h h h h h h h h h h h h h h h h h h h h h h h h h h h h h h h h h h h h h h h h h h h h h h h d d d d g g g g h h h h h h h h h h h h h h h h h g d y 2 2 , # $ $ $ $ < 2 2 4 g g g g d d d d u u u u u u u u u u u u d g h h g g g g h h g g h h h h g s s u u u u u s s s s u u u u u u u u u u u u u u u u u u u u u u u u u u u u u u u u u u u u u u u u u u u u u u u u u u u u u u u u u u u u u u u u u u u u u u u u u u u u u u u u u u u u g g g g g g g g h h h h h d u u u u u u u u u u u u u u u u u u u u u u u u u u u u u u s s d g h h z r < 2 2 < $ $ $ $ @ < < < < < < < 2 r y s s s s s u u u u u u u u u u u u u u u u u u u u s d g h z z h h h h h h h h h h h h h h h h h h g g g g g g g g h h h h h h h h h h h h h h h h h h h h h h h h h h h z h h h g h h h g h h h h h h h h h h h h h h h h h h h h h h h h h h h h h h h h h h h h h h h h h h h h h h h h h h h h h h h h h h h h h h h h h h h h h h h h h h h h h h h h h h h h h h z 0 < 2 3 2 3 2 & # ",
"& # $ # $ : 4 2 2 s h g g g g g h h h h g g s u u u u u u u u u s d g g g g g g h h h h h h h h h h h h h h h h h h h h h h h h h h h h h h h h h h h h h h h h h h h h h h h h h h g g i u u u d g h h h h h h h h h h h h h h h h h h h h h h h h h h h h h h h h h h h h h h h h h h h h h h h h h h h h h h h h h h h h h h h h h h h h h h h h h h g g g g h h h h h h h h h h h h h h h h z g g u 2 2 , # $ $ $ $ , 2 < 3 u u u u s s s s s s s s u u u u u u u u s d g g g g g g d s s u i i u u s s u u u u u u s s s s u u u u u u u u u u u u u u u u u u u u u u u u u u u u u u u u u u u u u u u u u u u u u u u u u u u u u u u u u u u u u u u u u u u u u u u u u u u u u u u u u u u u g g g g g g g g h h h h h g d u u u u u u u u u u u u u u u u u u u u u u u u u u u u s s d g g h h z r < 2 2 < $ $ $ $ @ < 2 < < < < < < 0 u u s s s s u u u u u u u u u u u u u u u u u u u u u s s d g h h h h h h h h h h h h h h h g g g g g g g g h h h h h h h h h h h h h h h h h h h h h h h h h h h h h h g g g g h g g g h h h h h h h h h h h h h h h h h h h h h h h h h h h h h h h h h h h h h h h h h h h h h h h h h h h h h h h h h h h h h h h h h h h h h h h h h h h h h h h h h h h h h h h h z 9 < 2 3 2 3 2 & # ",
"& # $ # $ : 4 2 2 s h g g g g g h h h h g g s u u u u u u u u u u s d g g g g g h h h h h h h h h h h h h h h h h h h h h h h h h h h h h h h h h h h h h h h h h h h h h h h h h h g g u u u u u s d g h h h h h h h h h h h h h h h h h h h h h h h h h h h h h h h h h h h h h h h h h h h h h h h h h h h h h h h h h h h h h h h h h h h h h h h h g g g g h h h h h h h h h h h h h h h h z h g s 2 2 , # $ $ $ $ , 2 < 3 s s s u u u u u u u u u u u u u u u u u u s d g g g g g g d s y u u u u u u u u u u u u s s s s u u u u u u u u u u u u u u u u u u u u u u u u u u u u u u u u u u u u u u u u u u u u u u u u u u u u u u u u u u u u u u u u u u u u u u u u u u u u u u u u u u u u g g g g g g g g h h h h g g g s u u u u u u u u u u u u u u u u u u u u u u u u u u u s d g g h g g g q < 2 2 < $ $ $ $ @ , 2 < < < < < , 8 s u s s s s u u u u u u u u u u u u u u u u u u u u u u u u s d g h h h h h h h h h h h h h d d d d s s s s d d d d s s s s h h h h h h h h h h h h h h h h h h h h g d d s s d g g g g g g h h h h h h h h h h h h h h h h h h h h h h h h h h h h h h h h h h h h h h h h h h h h h h h h h h h h h h h h h h h h h h h h h h h h h h h h h h h h h h h h h h h h h h z 8 < 2 3 2 3 2 & # ",
"& # $ # $ : 4 2 2 s h g g g g g h h h h g g s u u u u u u u u u s u y u u u s s s s s s g g g g h h h h g g g g h h h h h h h h h h h h h h h h h h h h h h h h h h h h h h h h h h h h d s u y u s g g h h h h h h h h h h h h h h h h h h h h h h h h h h h h h h h h h h h h h h h h h h h h h h h h h h h h h h h h h h h h h h h h h h h h h h h h h h h h h h h h h h h h h h h h h h h h h h h g 3 < , % $ $ $ $ , 2 < 3 u u u u u u u u u u u u u u u u u u u u y u d g g g g g z d u u u u u u u u u u u u u u u u s s u u u u u u u u u u u u u u u u u u u u u u u u u u u u u u u u u u u u u u u u u u u u u u u u u u u u u u u u u u u u u u u u u u u u u u u u u u u u u u u u u u u s g g g g g g g g h h h h h h h h d s s u u u u u u u u u u u u u u u u u u u u u u u s d h h h h g g z 8 < 2 2 < $ $ $ $ @ , 2 < < < < < < 2 r u u u u u u u u u u u u u u u u u u u u u s y y u s s s s s s s s h h h h h h h h h h h h g s u u u u u u u u u u u u u u d g h h g g g g h h h h h h h h g h g d u u u u u u u u g g g g h h h h h h h h g g g g h h h h h h h h h h h h h h h h h h h h h h h h h h h h h h h h h h h h h h h h h h h h h h h h h h h h h h h h h h h h h h g d h h h h h h h h h g z 8 < 2 3 2 3 2 & # ",
"& # $ # $ : 4 2 2 s h g g g g g h h h h g g s u u u u u u u u u u u u u s s u u u u s s s s s s d d g g g g g g h h h h h h h h h h h h h h h h h h h h h h h h h h h h h h h h h h h h g g d s g g h h h h h h h h h h h h h h h h h h h h h h h h h h h h h h h h h h h h h h h h h h h h h h h h h h h h h h h h h h h h h h h h h h h h h h h h h h h h h h h h h h h h h h h h h h h h h h h h z h 4 < < * $ $ # $ < 2 < 3 u u u u u u u u u u u u u u u u u u u u u u s g g g g g h d u u y s d g s s u u u u u u u u u u u u u u u u u u u u u u u u u u u u u u u u u u u u u u u u u u u u u u u u u u u u u u u u u u u u u u u u u u u u u u u u u u u u u u u u u u u u u u u u u u u u u s g g g g g g g g h h h h h h h h g g s u u u u u u u u u u u u u u u u u u u u u u u s g h h h h g g z 8 < 2 2 < $ $ $ $ @ , 2 < < < < < 2 2 q u u u u u u u u u u u u u u u u u u u u u y u s g g h h h g g g g h h h h h h h h h h h h g s u u u u u u u u u u u u u u s d g h g g g g h h h h h h h h g h g s u u u u u u u u y s d g g g g g s s s s s s s s h h h h h h h h h h h h h h h h h h h h h h h h h h h h h h h h g g g g h h h h h h h g h h h h h h h h h h h h h h h h z z h g h h h h h h h h h g z 8 < 2 3 2 3 2 & # ",
"& # $ # $ : 4 2 2 s h g g g g g h h h h g g s u u u u u u u u u u s s s g d s u u u u u u u u u u s d d g g g g h h h h h h h h h h h h h h h h h h h h h h h h h h h h h h h h h h h h h h g g h h h h h h h h h h h h h h h h h h h h h h h h h h h h h h h h h h h h h h h h h h h h h h h h h h h h h h h h h h h h h h h h h h h h h h h h h h h h h h h h h h h h h h h h h h h h h h h h h h h z 7 < < ; $ $ $ $ < 2 < 3 u u u u u u u u u u u u u u u u u u u u s s s s g g g g g s u u y s g h h g s s u u u u u u u u u u u u u u u u u u u u u u u u u u u u u u u u u u u u u u u u u u u u u u u u u u u u u u u u u u u u u u u u u u u u u u u u u u u u u u u u u u u u u u u u u u u s g g g g g g g g h h h h h h h h h g g d s u u u u u u u u u u u u u u u u u u u u u s g h h h h g g z 8 < 2 2 < $ $ $ $ # , 2 2 2 2 2 2 < < 7 u u u u u u u u u u u u u u u u u u u u u y s g h h h h h g g g g h h h h h h h h h h h h g s u u u u u u u u u u u u u u u s d g g g g g h h h h h h h h g h g s u u u u u u u u u u u u u u u u u u u u s s s s h h h h h h h h h h h h h h h h h h h h h h h h h h h h h h h h h h h h d d d d d d d d g h h h h h h h h h h h h h h h h h g f d g g g g g h h h g z 8 < 2 3 2 3 2 & # ",
"& # $ # $ : 4 2 2 s h g g g g g h h h h g g s u u u u u u u u u u s d d z g d s s s a a u u u u u s d g g g g g h h h h h h h h h h h h h h h h h h h h h h h h h h h h h h h h h h h h g g g h h h h h h h h h h h h h h h h h h h h h h h h h h h h h h h h h h h h h h h h h h h h h h h h h h h h h h h h h h h h h h h h h h h h h h h h h h h h h h h h h h h h h h h h h h h h h h h h h h h h h 9 < < : $ $ $ $ < 2 < 3 u u u u u u u u u u u u u u u u u u u u s s u u g g g g d u u u u s d g h h h g s u u u u u u u u u u u u u u u u u u u u u u u u u u u u u u u u u u u u u u u u u u u u u u u u u u u u u u u u u u u u u u u u u u u u u u u u u u u u u u u u u u u u u u u u u u s g g g g g g g g h h h h h h h h g g h z d s u u u u u u u u u u u u u u u u u u u s d h h h h h g g z 8 < 2 2 < $ $ $ $ @ , 3 2 2 2 2 2 < , 4 s u u u u u u u u u u u u u u u u u u u u s g h h g g g g g g g g h h h h h h h h h h h h g s u u u u u u u u u u u u u u u u s d g g g g h h h h h h h h g h g u u u u u u u u u y u s s u u u u y y y y u u u u h h h h h h h h h h h h h h h h h h h h h h h h h h h h h h h h d d d d u u u u u u y y d g h h h h h h h h h h h h h g g d s u u u u u h h h h h g h 7 < 2 3 2 3 2 * $ ",
"& # $ # $ : 4 2 2 s h g g g g g h h h h g g s u u u u u u u u u u s s d h h h h s s s s u u u u u u d h g g g g h h h h h h h h h h h h h h h h h h h h h h h h h h h h h h g g h h h h h h h h h h h h h h h h h h h h h h h h h h h h h h h h h h h h h h h h h h h h h h h h h h h h h h h h h h h h h h h h h h h h h h h h h h h h h h h h h h h h h h h h h h h h h h h h h h h h h h h h h h h h r < 2 : $ $ $ $ < 2 < 5 u u u u u u u u u u s s g g g g h z h d u u s s g g g g y y u u u u u u g d s s s s u u u u u u u u u u u u u u u u u u u u u u u u u u u u u u u u u u u u u u u u u u u u u u u u u u u u u u u u u u u u u u u u u u u u u u u u u u u u u u u u u u u u u u u u u u s s g g z g g h h h h g g s s g g g g g g s u u u u u u u u u u u u u u u u u u u s g h l l h h d s s 3 2 2 2 2 * $ $ $ @ ; 3 2 2 2 2 2 < , 2 q g u y u u u u u s s s s u u u u u u u u s g h h h h h h h h h h h h h h h h h h h h h h d u s u u u u u u u u u u u u u u u u s g h h h h h h h g g g g h g s s u u u u u u u u u u u u u u u u u u u u y s g h h h g g h h h h h h h h h h h h h h h h z z h h g g g g d s s s u u u u u u u u u u u u s s d h g g g h h h h h h g g d s s u u u u u u u s g h h h g 5 3 2 3 2 3 2 * $ ",
"& # $ # $ : 4 2 2 s h g g g g g h h h h g g d s u u u u u u u u u u s d h h h h g s s s u u u u u s d h g g g g h h h h h h h h h h h h h h h h h h h h h h h h h h h h h g s u s d g h h h h h h h h h h h h h h h h h h h h h h h h h h h h h h h h h h h h h h h h h h h h h h h h h h h h h h h h h h h h h h h h h h h h h h h h h h h h h h h h h h h h h h h h h h h h h h h h h h h h h h h h h r < 2 , $ $ $ $ < < < 5 u u u u u u u u s d g g h h h h h g g g g d d g g g g g s s u u u u u u s u u u s u y y u u s s u u u u u u u u u u u u u u u u u u u u u u u u u u u u u u u u u u u u u u u u u u u u u u u u u u u u u u u u u u u u u u u u u u u u u u u u u u u u u u u u u u u u u s s s s u s d h h h g g d d g g g g g g s u u u u u u u u u u u u u u u u u u u s d g z h d s s u s 3 2 2 2 2 * $ $ $ @ ; 3 2 2 2 2 2 2 < 2 7 d s s s u u u u u u u u u u u u u u u u s g h h h h h h h h h h h h h h h h h h h h h h d u s u u u u u u u u u u u u u u u u u s d g h h h h h h h h h g s s s u u u u u u u u u u u u u u u u u u u u u s g h h z h h h h h h h h h h h h h h h h h h g d d s s s s s s s s u u u u u u u u u u u u u s s s s h h h g h h h h h g d s u u u u u u u u u u u s s d y 2 2 2 2 2 3 2 * $ ",
"& # $ # $ : 4 2 3 s j g g g g g h h h h g g g g d s u u u u u u u u s s h h h h h g s s u u u u u d g g g g g g h h h h h h h h h h h h h h h h h h h h h h h h h h h h g d s y u d g h h h h h h h h h h h h h h h h h h h h h h h h h h h h h h h h h h h h h h h h h h h h h h h h h h h h h h h h h h h h h h h h h h h h h h h h h h h h h h h h h h h h h h h h h h h h h h h h h h h h h h h h h y 2 3 , $ $ $ $ < < < 5 u u u u u u u u d g h h z h g d s u s d h g g g g g g g g d s s u u u u y y u u s s u u u u u s u u u u u u u u u u u u u u u u u u u u u u u u u u u u u u u u u u u u u u u u u u u u u u u u u u u u u u u u u u u u u u u u u u u u u u u u u u u u u u u u u u u u u u u s u u s g h h h g g g g g g g g g g s u u u u u u u u u u u u u u u u u u u s s s h f s y u u d 5 2 2 2 2 * $ $ $ $ = 2 3 2 2 2 2 3 2 2 4 s d g d s s s s s s s s u u u u u u u u s g h h h h h h h h h h h h h h h h h h h h h h d u s u u u u u u u u u u u u u u u u u u s d g g g g g g g g g s s s s u u u u u u u u u u u u u u u u u u u u s s d g g h h h h h h h h h h h h h h h h h h h s s u u s s s s s u u u u u u u u u u u u u u u s s s s s d g z g g g g g d s s u u u u u u u u u u u u y d e 2 2 2 2 2 2 2 % @ ",
"& # $ # $ : 4 2 3 s j g g g g g h h h g g g h h g g d s u u u u u u u s h h h h h h g s u u u u u g h g g g g g h h h h h h h h h h h h h h h h h h h h h h h h h h h h g d d s s g h h h h h h h h h h h h h h h h h h h h h h h h h h h h h h h h h h h h h h h h h h h h h h h h h h h h h h h h h h h h h h h h h h h h h h h h h h h h h h h h h h h h h h h h h h h h h h h h h h h h h h h h h h u 2 4 < $ $ $ $ < < < 5 u u u s u u u u s d g g g d s y s g h g g h g g g g g g h g d s u u u u y u s s u s g g g d s s u u u u u u u u u u u u u u u u u u u u u u u u u u u u u u u u u u u u u u u u u u u u u u u u u u u u u u u u u u u u u u u u u u u u u u u u u u u u u u u u u u u u u u u u s s d h h h h g g h h g g g g g g s u u u u u u u u u u u u u u u u u u s u s u u u u u y u d 5 2 2 2 2 * $ $ $ $ * 2 4 2 2 2 2 4 3 3 3 s g h g g g g g d d d d u u u u u u u u s g h h h h h h h h h h h h h h h h h h h h h h d u s u u u u u u u u u u u u u u u u u u u u s g g g g d d d d s s s s u u u u u u u u u u u u u u u u u u u u u u u s s d g g h h h h h h h h h h h h h h h h s s u y u u u u u u u u u u u u u u u u u u u u s s s s s u u s d d d d d s s s u u u u u u u u u u u u y g q 2 < < < < 2 < % @ ",
"& # $ # $ : 4 2 3 s z g d d d d d f g g h h h h g h g s s u u u u u u u s s g h h h g d g d s u y d g h g g g g h h h h h h h h h h h h h h h h h h h h h h h h h h h h g g g g h h h h h h h h h h h h h h h h h h h h h h h h h h h h h h h h h h h h h h h h h h h h h h h h h h h h h h h h h h h h h h h h h h h h h h h h h h h h h h h h h h h h h h h h h h h h h h h h h h h h h h g g g g g g g 2 2 , = # $ $ , < < 5 s y y s s s s s s s s d d g g h g g g g g g g g h h h d g g d s u u u u u u u u u u g g g g h h s u u u u u u u u u u u u u u u u u u u u u u u u u u u u u u u u u u u u u u u u u u u u u u u u u u u u u u u u u u u u u u u u u u u u u u u u u u u u u u u u u u u s s d h h h h h h h h h h h h h g g g g d s u u u u u u u u u u u u u u u u s d s s u s u u u u d s g 4 3 3 3 3 * $ $ $ $ $ , 4 2 2 2 2 3 3 3 3 q z z d h g g h g g h h d s u y u u u u s d g h h h h h h h h h h h h h g g g g h h h g g d s u u u u u u u u u u u u u u u u u u u u u u u u u u u u u s s s s s s s s u u u u u u u u u u u u u u u u u u u u u u u u s d d h h h h h h h h h h h h h s u y y u u u u u u u u u u u u u u u u u u u u u u u u u u u u u u u u s s s s u u u u u u u u u u u u u u 7 < < < < < < 2 * @ ",
"& # $ # $ : 4 2 3 s z g s s s s s d d g h h h h g h h d s u u u u u u u u s s s h h g g g g d s u s d g g g g g h h h h h h h h h h h h h h h h h h h h h h h h h h h h g g g g h h h h h h h h h h h h h h h h h h h h h h h h h h h h h h h h h h h h h h h h h h h h h h h h h h h h h h h h h h h h h h h h h h h h h h h h h h h h h h h h h h h h h h h h h h h h h h h h h h h h h h h h h h h h d 2 2 < = @ $ $ , < < 5 h d u s s s s s s s s s d g g h g g g g g g g g h h h d s s s u u u u u u u u u u u g g g g h h s u u u u u u u u u u u u u u u u u u u u u u u u u u u u u u u u u u u u u u u u u u u u u u u u u u u u u u u u u u u u u u u u u u u u u u u u u u u u u u u u u u u s s d g h h h h h h h h h h h h g g g g d s u y u u u u u u u u u u u u y u u u u u s s s s s s g g h 5 3 3 3 3 * $ $ $ $ $ , 4 2 2 2 2 3 3 3 3 5 g g g g d d g g h h z h g d d u u u u u s g h h h h h h h h h h h g g g g g g h h h g g g d s u u u u u u u u u u u u u u u u u u u u u u u u u u u u s s s s s s s s u u u u u u u u u u u u u u u u u u u u u u u u u s g h h h h h h h h h h h h h s u y u u u u u u u u u u u u u u u u u u u u u u u u u u u u u u u u u u u u u u u u u u u u u u u u u u y 4 < < < < < < 2 * # ",
"& # $ # $ , 4 2 3 d z h s s s s u s s d g h h h h z h g s u u u u u u u u u u s g h h g g g g g h h h h g g g g h h h h h h h h h h h h h h h h h h h h h h h h h h h h g g g g h h h h h h h h h h h h h h h h h h h h h h h h h h h h h h h h h h h h h h h h h h h h h h h h h h h h h h h h h h h h h h h h h h h h h h h h h h h h h h h h h h h h h h h h h h h h h h h h h h h h h h h h g g g g u 2 < 3 = @ $ $ , < < 5 h d u s s s s s s s s s d g g h g g g g g g g g h h h d u u u u u u u u u u u u u u g g h h h h g s u u u u u u u u u u u u u u u u u u u u u u u u u u u u u u u u u u u u u u u u u u u u u u u u u u u u u u u u u u u u u u u u u u u u u u u u u u u u u u u u u u u s g g h h h h h h h h h h h h g g g g s u u u u u u u u u u u u u u u s s s u g g g h g g g g g g h 5 3 3 3 3 * $ $ $ $ $ , 4 2 2 3 3 3 3 3 3 < r h h d s s d d g g g h h g g s u u u u s d g h h h h h h h h h g g d d g g g h h h g g g g d s u u u u u u u u u u u u u u u u u u u u u u u u u u u s s s s s s s s u u u u u u u u u u u u u u u u u u u u u u u u u u g z h h h h h h h h h h h h u y y u u u u u u u u u u u u u u u u u u u u u u u u u u u u u u u u u u u u u u u u u u u u u u u u u u e 3 < < < < < < 2 * $ ",
"& # $ # $ , 3 2 3 d z h u u u u u u u s d g h h h h h g s u u u u u u u u u u u d h h g g h h h h g g g g g g g h h h h h h h h h h h h h h h h h h h h h h h h h h h h g g g g h h h h h h h h h h h h h h h h h h h h h h h h h h h h h h h h h h h h h h h h h h h h h h h h h h h h h h h h h h h h h h h h h h h h h h h h h h h h h h h h h h h h h h h h h h h h h h h h h h h h h h h h s s s s y 3 < 4 = @ $ $ < < < 5 s y y s s s s s s s s s d g g h g g g g g g g g h h h d s s u s u u u u u u u u u u g g h h h h h s u u u u u u u u u u u u u u u u u u u u u u u u u u u u u u u u u u u u u u u u u u u u u u u u u u u u u u u u u u u u u u u u u u u u u u u u u u u u u u u u u u u d g g h h h h h h h h h h h h g g g g y u s d s u u u u u u u u u u u g d d s g g h h g g g g h g z 7 3 3 3 3 * $ $ $ % # , 3 2 2 3 3 3 3 3 3 2 5 h d s u u s u s s d g g h g g s u u u u s g h h h h h h h h h g d s s s d g h h h g g g g g s u u u u u u u u u u u u u u u u u u u u u u u u u u u s s s s s s s s u u u u u u u u u u u u u u u u u u u u u u u u u u s h h h h h h h h h h h h h u y u u u u u u u u u u u u u u u u u u u u u u u u u u u u u u u u u u u u u u u u u u u u u u u u u u u q < < < < < < < 2 * $ ",
"& # $ # $ , 3 2 3 d z h g s u u u u u u g h h h h h h h g s s s u u u u u u u u d h h g h h h h h h h h h h h h h h h h h h h h h h h h h h h h g g g h g g g h h h h h h h h h h h h h h h h h h h h h h h h h h h h h h h h h h h h h h h h h h h h h h h h h h h h h h h h h h h h h h h h h h h h h h h h h h h h h h h h h h h h h h h h h h h h h h h g g h h h h h h h h h h h h g h g s y y u s s 2 < 2 , % $ * < 2 2 7 u u s s s s s s y y u s d h h g g g g d h h h h h h h h h g d s u u u u u u u u u s g z g g g g d s u u u u u u u u u u u u u u u u u u u u u u u u u u u u u u u u u u u u u u u u u u u u u u u u u u u u u u u u u u u u u u u u u u u u u u u u u u u u u u u u u u u g h g g g g g h h h h h h h h h h h h g g h h g g d d s u y y s s d g z h d u s d g h h g g g h g h 5 3 3 3 3 = $ $ # % @ ; 3 2 2 2 2 3 3 3 3 4 2 y g d s u u u u u u s d g g g d s s u u s d g h h h h h h h h d u s s d g g h h h h h h h h g g s u u u u u u u u u u u u u u u u u u u u u u u u u s s s s s s s s u u u u u u u u u u u u u u u u u u u u u u u u u d g h h h h h h h h h h h g f u u u u u u u u u u u u u u u u u u u u s u y y s d g g s u u s u u u u u u u u u u u u u u u u u u u u d 4 < 2 < < < < < 2 * $ ",
"& # $ # $ , 2 2 4 d z h h g s u s s s s g h h h h h h h d s u u s u u u u u u u d h h g h h h h h h h h h h h h h h h h h h h h h h h h h h h h h h h h h h h h h h h h h h h h h h h h h h h h h h h h h h h h h h h h h h h h h h h h h h h h h h h h h h h h h h h h h h h h h h h h h h h h h h h h h h h h h h h h h h h h h h h h h h h h h h h h h h g g g g g g g g g g h h h h g g d s y y u s y 2 2 < , % # & < 2 2 7 u s s s s s s u u s s d h z h g h g g d g g g g g g g g h g d s u u u u u u u u u s s s s s s s s u u u u u u u u u u u u u u u u u u u u u u u u u u u u u u u u u u u u u u u u u u u u u u u u u u u u u u u u u u u u u u u u u u u u u u u u u u u u u u u u u u u u g h g g g g g h h h h h h h h h h h h z h g h g g h z g g d d d g g g h g g g s d g g g g g g h g h 7 3 3 3 3 = $ $ @ $ @ = 2 2 2 2 2 3 3 3 3 2 < 0 g d s u u u u u u u s s d s s u u u u s s g h h h h h h h g s s d g g g h h h h h h h h h g g d u u u u u u u u u u u u u u u u u u u u u u u u u s s s s s s s s u u u u u u u u u u u u u u u u u u u u u u s s d g h h h h h h h h h h z h h g u u u u u u u u u u u u u u u u u u u u u u s d g g h h h d s u u u u u u u u u u u u u u u u u u u u u y 2 < 2 < < < < < < * $ ",
"& # $ # $ , 2 2 4 d z g h h g s d d d d h h h h h h h h g d s d s s u u u u u u d h h g h h h h h h h h h h h h h h h h h h h h h h h h h h h h z h g d g g h h h h h h h h h h h h h h h h h h h h h h h h h h h h h h h h h h h h h h h h h h h h h h h h h h h h h h h h h h h h h h h h h h h h h h h h h h h h h h h h h h h h h h h h h h h h h h z z h g h h h h z z z z z z z z z h g d y u s s w 2 2 < 2 & @ $ < < < 5 s s s s s u u u g h z z z g d d s u y y u u u u s s s s g d s u u u u u u u u u s u u u u u u u u u u u u u u u u u u u u u u u u u u u u u u u u u u u u u u u u u u u u u u u u u u u u u u u u u u u u u u u u u u u u u u u u u u u u u u u u u u u u u u u u u u u u g h g g g g g h h h h h h h h h h h h z g d h g g h z z z z h z z h h h h h z h z z z z z z z h z g 8 3 3 3 3 = $ $ @ @ @ & 2 2 2 2 2 3 3 3 3 < < 3 s d s u u u u u u u u u s u u u u s u u s g h h h h h h h s u s g g h h h h h h h h h h h g h d u u u u u u u u u u u u u u u u u u u u u u u u u s s s s s s s s u u u u u u u u u u u u u u u u u u u u u s d d g h h h h h h h h h h h h h g g u u u u u u u u u u u u u u u u u u u u u s g h h h h h h g g s s u u u u u u u u u u u u u u u u u u u 0 < 2 2 2 2 2 2 2 < & $ ",
"& # $ # $ , 2 2 4 d z g h h h g h h h h h h h h h h h h h h h z d s s u u u u u s h h g h h h h h h h h h h h h h h h h h h h h h h h h h h h h h g s u u s g h h h h h h h h h h h h h h h h h h h h h h h h h h h h h h h h h h h h h h h h h h h h h h h h h h h h h h h h h h h h h h h h h h h h h h h h h h h h h h h h h h h h h h h h h h g h h d d s s y y y y e e e e q q q q q 8 7 7 8 0 q q 9 < 2 < 3 * @ # , < < 5 s s s s s u u u d d g g h s u u u u u u s s s s u u u u s u u y u u u u u u u u u s s s u u u u u u u u u u u u u u u u u u u u u u u u u u u u u u u u u u u u u u u u u u u u u u u u u u u u u u u u u u u u u u u u u u u u u u u u u u u u u u u u u u u u u u u u u g h g g g g g h h h h h h h h h h h h g s s h h g g d u s s y y r e w e e w q q q 0 0 q q q q r s e 2 3 3 3 3 = $ $ @ @ # $ 2 2 2 2 2 3 3 3 3 3 3 < q d s u u u u u u u u u u u u u u u u u s g h h h h h h h u s d h h h h h h h h h h h h h h h d u u u u u u u u u u u u u u u u u u u u u u u u u s s s s s s s s u u u u u u u u u u u u u u u u u u u u u s d g h h h h h h h h h h h h g d d s u u u u u u u u u u u u u u u u u s u u d g g h h h h h g g g h d s u u u u u u u u u u u u u u u u u u 5 < 2 2 1 1 2 2 2 < & $ ",
"& # $ # $ , 2 2 4 d z g h h g g h h h h h h h h h h h h h h h h g d s u u u u u s d g h h h h h h h h h h h h h h h h h h h h h h h h h h h h h h g s u u s g h h h h h h h h h h h h h h h h h h h h h h h h h h h h h h h h h h h h h h h h h h h h h h h h h h h h h h h h h h h h h h h h h h h h h h h h h h h h h h h h h h h h h h h h h h g u r 7 7 5 5 2 2 2 2 , , , , < < < < 2 , , < 2 2 2 2 2 2 3 2 4 = # * < < < 7 s s s u u u u u d s s d s u u y u u u u s d g h g d s s u u u u u u u u u u u u s s s s s s s s u u u u u u u u u u u u u u u u u u u u u u u u u u u u u u u u u u u u u u u u u u u u u u u u u u u u u u u u u u u u u u u u u u u u u u u u u u u u u u u u u u u u f g g g g g g g h h g g g g g g g g g g d s s s s y q 8 5 5 3 < , , , < 2 2 < < < 2 < < 2 2 2 2 2 2 3 2 2 3 3 3 : $ $ # @ $ $ 2 2 2 2 2 3 3 3 3 3 3 3 3 u s r d u u u u u u u u s u s s s d g g h h h h h h h h u y d g h h h h h h h h h h h h h d s u u u u u u u u u u u u u u u u u u u u u u u u u s s s s s s s s u u u u u u u u u u u u u u u u u u u u u s d g g g g g h h h h h h h h h h h h g h g s u u u u u u u u u u u u u s g h h g h h h h h h g g g g g d s u s s s s s s u u u u u u u u y y < < 2 < < < < < 2 < % $ ",
"& # $ # $ , 2 2 4 d z g h h g g h h h h h h h h h h h h h h h h g g d s u u u u u s d g g g h h h h h h h h h h h h h h h h h h h h h h h h h h h g d s s d g h h h h h h h h h h h h h h h h h h h h h h h h h h h h h h h h h h h h h h h h h h h h h h h h h h h h h h h h h h h h h h h h h h h h h h h h h h h h h h h h h h h h h h h h h h g g g h h g g s s s s r r r r 9 9 9 9 7 3 < < , < 2 2 < 3 3 < 3 : $ * < < < 7 s s s u u u u u y s s y s u y y u u u u u s g g h h g d s u u u u u u u u u u u s s s s s s s s u u u u u u u u u u u u u u u u u u u u u u u u u u u u u u u u u u u u u u u u u u u u u u u u u u u u u u u u u u u u u u u u u u u u u u u u u u u u u u u u u u u s g g g g g g g g h h h h h h h h g g d s s s s s d g g h s s s y e e e e 0 9 8 8 5 5 4 3 3 2 2 2 2 2 2 2 2 2 3 3 : # $ # $ $ @ , 2 2 2 2 3 3 3 3 3 3 3 3 7 g s s s u u u u u u u u s s s d g h h h h h h h h h h g d d h h h h h h h h h h h h h d s u u u u u u u u u u u u u u u u u u u u u u u u u u s s s s s s s s u u u u u u u u u u u u u u u u u u u u u u s d g g g g g g g h h h h h h h h h g h g s u u u u u u u u u u u u u s d g h h h h h h h h g g g g h g d s u u u u u s s s u u u u y u u 7 < < < < < < < < 2 < % $ ",
"& # $ # $ , 2 3 4 d z g h h g g h h h h h h h h h h h h h h h h g g g d s u u u u u s d g g g g h h h h h h h h h h h h h h h h h h h h h h h h h g g g g g g g h h h h h h h h h h h h h h h h h h h h h h h h h h h h h h h h h h h h h h h h h h h h h h h h h h h h h h h h h h h h h h h h h h h h h h h h h h h h h h h h h h h h h h h h h h z z h g g g g h h h h h h h h h h h d y e e 0 7 4 2 : < < 2 2 , $ & < < < 7 s s s u u u u u y s s y d d s u u u u u u u s d g h h h g d s u u u u u u u u u s s s s s s s s u u u u u u u u u u u u u u u u u u u u u u u u u u u u u u u u u u u u u u u u u u u u u u u u u u u u u u u u u u u u u u u u u u u u u u u u u u u u u u u u u u u d g g g g g g g g h h h h g g g g d s s s s s s s s u y y y u u y y y y y d s s s s s u u s u y e 7 5 2 , 3 3 3 3 : # $ # $ $ @ ; 2 2 2 2 3 3 3 3 3 3 3 3 3 e h s s u u u u u u u y u s d h h h h h h h h h h h h z g g z h h h h h h h h h h h h s u u u u u u u u u u u u u u u u u u u u u u u u u u u s s s s s s s s u u u u u u u u u u u u u u u u u u u u u u s d d d d d s d g h h h h h h h h h g h g s s s s s u u u u u u u u u u s s h h h h h h h h g g g g g h g d s s s s u u u s u u u u s u r < < < < < < < < < 2 , % $ ",
"& # $ # $ , 2 3 5 d h g h h g g h h h h h h h h h h h h h h h h g g g g d s u u u u u s s d g g h h h h h h h h h h h h h h h h h h h h h h h h g h h h h h g g g h h g g h h h h h h h h h h h h h h h h h h h h h h h h h h h h h h h h h h h h h h h h h h h h h h h h h h h h h h h h h h h h h h h h h h h h h h h h h h h h h h h h h h h h g g g g h g g g g g g h h h h g g g g g s u s g d u y 7 2 , 2 < 2 # & < < < 7 s s s u u u u u d s s d z h g g u u u u y u s s d g g h g g g d u u u u u u u u s s s s s s s s u u u u u u u u u u u u u u u u u u u u u u u u u u u u u u u u u u u u u u u u u u u u u u u u u u u u u u u u u u u u u u u u u u u u u u u u u u u u u u u u u u s g g g g g g g g g g h h h s s s s s s s s s s s s u u u u y u s s y y y y s s s u u u u y u s h z z h y 7 3 2 3 3 : @ $ # $ $ @ = 2 3 2 3 3 3 3 3 3 3 3 3 4 4 y v s s u u u u u u r u s g h h h h h h h h h h h h h g g g g g h h h h h h g h h h u u u u u u u u u u u u u u u u u u u u u u u u u u u u s s s s s s s s u u u u u u u u u u u u u u u u u u u u u u u s u u u u y s g h h h h h h h h h g h g s s s s s u u u u u u u u u u u u h h h h h h h h g g g g g g h h h h g g d s u u u u u u d y 4 2 < < < < < < < < 2 , % $ ",
"& # $ # * 3 2 3 4 g h g g h g g h h h g g g g g h h g g d d d d h h h h s s s s s s s s s s s s h h g g h h h h h h h h h h h h h h h h g g g g g g g g g g g g h h g g g g g g h h h h h h h h h h h h h h h h h h h h h h h h h h h h h h h h h h h h h h h h h h h h h h h h h h h h h h h h h h h h h h h h h h h h h h h h h h h h h h h h g g g g g g h h h h g g g g g g g g d d s s s s u u u u u 0 < 2 , < & * 2 < < 7 u u u u y u s d g g g g h h h h u u u u u u u u g g h h h g g g d s s s s u u u s s s s s s s s u u u u u u u u u u u u u u u u u u u u u u u u u u u u u u u u u u u u u u u u u u u u u u u u u u u u u u u u u u u u u u u u u u u u u u u u u u u u u u u u s s g g g g g g g g g g g h g s s s s u u u u u u u u u u u u u u u u u u u s s s s d s s s s s d g g g g z g r 3 2 3 3 : # $ $ $ $ # % 5 3 2 3 3 3 3 3 3 3 3 3 5 2 2 q h d u u u u u y s u s g h h h h y s g h g g g g h h g g h h h h h h h h g h g s u u u u u u u u u u u u u u u u u u u u u u u u u u u u s s s s s s s s s s s s s s s s d d d d d g g g g g g g s s u s s u u u s d h z z g d u s d g g h h g d y y y y y y u u u u s s s u u u u s s s d g h h g g g g g h h h h h h z g g d y y s s y d 8 < < < < < < < < < < 2 : $ $ ",
"& # $ # * 3 2 3 4 g h g g h g g h h h h g g g g z h g g s s s s s s s s s s s s s s s s s s s s d g g g h h h h h h h h h h h h h h h h h h h h h h h h h h h h z z h h g g g g h h h h h h h h h h h h h h h h h h h h h h h h h h h h h h h h h h h h h h h h h h h h h h h h h h h h h h h h h h h h h h h h h h h h h h h h h h h h h h h h g g g g h g s s g g h h g g g g g d d s s s s s u u u u u e 3 < < 2 * * 2 < < 5 u u u u u s g h h h h h h h h h g d s y u u u u g g h h h g g g h d s s s s u u s s s s s s s s u u u u u u u u u u u u u u u u u u u u u u u u u u u u u u u u u u u u u u u u u u u u u u u u u u u u u u u u u u u u u u u u u u u u u u u u u u u u u u u u s g g g g g g g g g g g g h g s s s s u u u u u u u u u u u u u u u u u y u d g g g g g g g g g g g g h h g g g 4 2 2 3 , $ % $ $ $ $ $ 2 3 2 3 3 3 3 3 3 3 3 2 3 3 3 2 7 s h s y u s s u u d h h h h h y u s g g g g g g h g g h h h h h h h h g h g s u u u u u u u u u u u u u u u u u u u u u u u u u u u u s s s s s s s s s s s s u u u u h h h h h h h h h h h h h g s s u u u u s s d g h g s u s s d g g g d s s u u u u u u y u y u u u y y y y u u u d d g g g g g g g g h g g g h h h z g s y y u s 9 2 , < < < < < < < < < 2 : $ $ ",
"& # $ # * 3 2 3 4 g h g g h g g h h h h u u u u g g d s u u u u u u u u u u s s s s s s s s s s u s g h h h h h h h h h h h h h g g g g g g g g g g g g g g g g g g h h h g g g h h h h h h h h h h h h h h h h h h h h h h h h h h h h h h h h h h h h h h h h h h h h h h h h h h h h h h h h h h h h h h h h h h h h h h h h h h h h h h h h g g g g h g s s s d g g g g g g d d s s s s s s u u u u s u 4 : 2 2 = = 2 2 < 7 u u u u u s g h h h h h h h h h z g d s s s s s g g h h h g g g h h d s s s s u s s s s s s s s u u u u u u u u u u u u u u u u u u u u u u u u u u u u u u u u u u u u u u u u u u u u u u u u u u u u u u u u u u u u u u u u u u u u u u u u u u u u u u u u g g g g g g g g g g g g g l g s s s s u u u u u u u u u u u u u u u u u u s g h h h h h h g g g g g g g d u s g 8 < 2 4 , $ % $ $ $ $ $ , 2 3 2 3 3 3 3 3 3 3 2 2 3 3 2 < 4 0 s z u t s s d g h h h h g g g h h h g g g g g g g h h h h h h h h g h g s u u u u u u u u u u u u u u u u u u u u u u u u u u u u s s s s s s u u u u u u u s s s h h h h h h h h g g h h h h h z z z z z z z z z h d s y d g h h h g g d u u u u s s s s s s s s s u u u u s s s s s d g g g g g g g g g g g g h g g d y u d y 8 3 , < < < < < < < < < < 2 : $ $ ",
"& # $ # * 3 2 3 4 g g g g h g g h h h h s s s s s u y y s s s s u u u u s s s s s s s s s u u u y u d h h h h h h h h h h h g g g g g g d d d d s s s s s s s s u s d g g g h g h h h h h h h h h h h h h h h h h h h h h h h h h h h h h h h h h h h h h h h h h h h g h h h h h h h h h h h h h h h h h h h h h h h h h h h h h h h h h h h h g g g g g g h h g d s d g g g g d s s u u s s s u u u u u s 8 : 2 3 ; ; 2 2 < 7 u u u u y u s d g g g g h h h h h h h g g g g g g g h h h g g g h h h d s s s s s s s s s s s s u u u u u u u u u u u u u u u u u u u u u u u u u u u u u u u u u u u u u u u u u u u u u u u u u u u u u u u u u u u u u u u u u u u u u u u u u u u u u u u u g g g g g g g g g g g g g h g s s s s u u u u u u u u u u u u u u u u u g g g g g g h h g g g g g g g g g z z h q 2 2 3 , $ % $ $ $ $ $ ; 2 3 2 3 3 3 3 3 3 3 3 4 2 2 5 4 2 2 4 9 y g s h h g g g h h g g g g g g g g g g g g g h h h h h h h h g h g s u u u u u u u u u u u u u u u u u u u u u u u u u u u u s s s s s s s s g g g g g g g g g d d d d d d d d d s s s s y y y y y y r r e q e 0 8 5 5 7 8 8 8 7 5 5 5 5 5 5 5 5 4 4 4 3 3 3 3 3 3 3 3 3 3 3 < 2 2 3 4 4 4 4 3 3 3 3 3 3 3 4 5 5 4 < 4 3 2 , 3 2 2 < < < < < < < < < 2 : $ $ ",
"& # $ # , 3 2 3 4 g g g g h g h h g g d u u u u r u s u u u u u u u u u u u u u s s s u u u u u s g h g g g g g h h h h h h h h d s u y u u u u u u u u u u u u y y u s g h h z h g g g g g h h h h h h h h h h h h h h h g g g h h h h h h h h h h h h h h h h h h h g g g g h h h h h h g g h h h h h h h h h h h z z g g h g g d d d s d h z h h h h g h h h g g g g h h g s s s s s u u u u u u u u d u 9 < 2 < , : 3 2 2 7 u u u u u u u u r y s d h h h h h h h h g g g g g g h g g g g g g g g g h h g g u u u u u u s s u u u u u u u u u u u u u u u u u u u u u u u u s s s s d g h h h h h h h h h h h h h h h g g g g g g g g g g g g g g d d d s s s s s s s s s s s s s s g g g g g g g g g g g g h h h h h h h h h g d d d d d d d d d d f g g g g g g g g g h h h h h h h h h h h h h h g h z z y 2 2 2 < @ @ $ $ $ $ $ $ 3 2 2 2 2 2 2 3 3 3 3 2 2 2 2 3 3 3 3 2 3 7 e s g h z h h h h h h g g h h h h h h h h h h z z z z z z z h d s u u u y y y y y e e e w q q q 0 0 0 0 0 0 0 9 8 8 8 7 7 7 7 7 7 7 5 7 7 7 7 7 7 5 5 5 5 3 3 3 3 3 3 3 3 3 3 3 2 2 2 2 2 < < < < < < < 2 2 2 < , , , , , , , , , < < < < < < < < < < 2 2 2 < < < < 2 2 2 2 2 2 2 2 2 2 2 3 3 3 3 3 3 3 3 3 3 3 2 2 2 2 2 2 < < < < < < < < < < < 3 & $ $ ",
"& # $ # , 3 2 2 3 d g g g h g h h g g d u u u u s g g g g d u y u u u u u u u u s s s u u u u u s g h g g g g g h h h h h h h h u i u i u u u u u u u u u u u u u u s d g g h h h h h g g h h h h h h h h h h h g g g g g g g g h h h h h h h h h h h h h h h h h h h h h h h h h h h h h h g g g g g g g g h h h h g g g d d s u u u u y s d g h h h h h h h h g g g g g d s u u u u u u u u u u u s s s s 0 , 2 < < , 3 2 2 7 s s s s d d d d s d g h h h h h h h h h g g g g g g g g g g g g g g g g h h h g d d d d s s s s u u u u u u u u u u u u u u u u d d d d d d d d g g g g g g h g g g g g g g g g g g g g g g g g g g g g g g g g g g g g h h h h h h g g g g h h h h h h h h h h h h h h h g g g h h h h z h g d h h h g g g g g g g g g g h g g g g g g h h h h h h h h h h h h h h h h h g h z u 2 2 2 < @ @ $ $ $ $ $ $ < 2 2 2 2 2 2 3 3 3 3 2 2 2 2 3 3 3 2 2 2 2 3 2 5 9 q u s g h z z z z z z z z h h h h s s s s w w w w 8 8 5 4 3 3 3 3 < < < < , , , , < < < < < < < < < < < < 2 2 2 2 2 < < < 2 2 2 2 2 2 2 2 2 2 2 2 2 2 2 2 2 2 2 2 < < 2 2 2 2 2 2 2 2 2 2 2 2 2 3 3 3 2 2 < 1 2 2 2 2 2 2 < < < < < < < < < < 2 2 2 < < < < 2 2 2 2 2 2 2 2 2 2 2 3 3 3 3 3 3 3 3 3 3 3 2 2 2 2 2 2 < < < < < < < < < < < < $ $ # ",
"& # $ # , 3 2 2 3 d g g g h g h h g g d u u u u d h z h h g d s u u u u u u u u s s s u u u u u s g h g g g g g h h h h h h h h u u u u u u u u u u u u u u u s s d g g g g g d g g h h h h h h h h h h h h h g g g g g g g g g h h h h h h h h h h h h h h h h h h h h g g h h h h h h z h d s h h h h h h h h z z h g s s u u u u u u y s g h h h h h h h h h g g g g d s s s s s s s s s s s d d d d d g e < 3 2 2 < 3 2 2 7 h h h h g g g g h h h h h h h h h h h h g g h g g g g g g g g g g g g g h h h g h h h h h h h h g g g g g g g g g g g g g g g g g g g g g g h h h h h h h g g g g g g g g g g g g g g g g g g g g g h h h h h h h h h h h h h h h h h h h h h h h h h h z z z z z z z z z z z z z z z z z h h h h h h h h h h h h h h h h h h h h h h h h h h h h h h h h h h h h h h h h h g h u 2 2 2 < @ @ $ $ $ $ $ # ; 2 2 2 2 2 2 3 3 3 3 2 2 2 2 3 3 3 3 2 2 2 3 3 3 3 2 < 3 5 7 8 8 7 7 8 8 8 7 7 7 6 6 3 3 3 2 2 2 2 2 2 2 < , , , , , , , < < , , < < < < 2 2 2 2 2 2 2 2 2 2 2 2 2 2 2 2 3 3 3 3 3 3 3 3 3 3 3 3 3 3 3 3 3 3 3 3 3 2 2 2 2 2 2 2 3 3 3 3 3 3 3 3 3 4 4 4 3 2 2 2 2 2 2 2 2 2 < < < < < < < < < < 2 2 2 < < < < 2 2 2 2 2 2 2 2 2 2 2 3 3 3 3 3 3 3 3 3 3 3 2 2 2 2 2 2 < < < < < < < < < < < : @ $ # ",
"& # $ # , 3 2 2 3 d g g g h g h h g g d u u u u d h z h g g g g u u u u u u u u s s s u u u u u s g h g g g g g h h h h h h h h d s u y u u u u u u u u u u u u g g h h h g d s s d g g h h h h h h h h h h h h d d d g g g g g h h h h h h h h h h h h h h h h h h h h s s s s u u u u y e q 8 q q q q 8 8 8 8 0 q e r y u s s d d d d u d g z h h h h h h h h g g g g g d g g g g g g h h h h h h g g g z u 2 4 3 2 2 3 2 2 7 g g g g g g g g h h h g h h h h h h h h g g g g g g g g g g g g g g g g g g g g g g g g g g g g g g g g g g g g g g g g g g g g g g g g g g g g g g g g g g g g g g g g g g g g g g g g g g g h h h h h h h h h h h h h h g g g g g g g g g g g u u u u u y y y y y y r 0 0 0 0 0 9 9 9 q e y s h h h h h h h h h h h h h g g g g g g g h h h h h h h h h h h h h h h h h h h g u 2 3 3 2 @ $ $ $ $ $ $ @ % 2 3 2 2 2 2 3 3 3 3 2 2 2 2 3 3 3 3 3 3 3 3 2 3 3 3 3 2 2 2 2 2 2 2 2 2 2 2 2 2 2 2 2 2 3 2 2 2 2 2 2 2 2 2 2 < < < < < < < 2 2 2 < < < < < < 2 2 2 2 2 2 2 2 3 3 3 2 2 2 2 2 < < < , , , , : : : : : : : : : : : : : : : : : : : : : , , , , , , , < , , : : : , , , , , , < < < < < < < < < < 2 2 2 < < < < 1 2 2 2 2 2 2 2 2 2 2 3 3 3 3 3 3 3 3 3 3 3 2 2 2 2 2 2 < < < < < < < < < < < = @ $ # ",
"& # $ # , 3 2 2 2 0 g x h h h z d s s u u u u u s d g z h g d d u u u u u y y r u u u u u y y y d g g h g g g g g g g g g g g g d d s u u u u u u u u u y u d g h h h h g s s u u s s s h h h h h h h h h h h h s u r e y y r r r r e e e w q q 9 9 9 9 7 5 3 4 4 4 4 4 3 3 2 2 2 2 2 2 2 2 2 3 2 2 2 2 2 2 2 2 2 2 2 2 2 4 8 q y s g h h z z h h h h h h h h h h h z z z z z z z z z z z z z z h h h h g s 9 2 2 4 < < 3 3 2 3 r z h h h h h h h h h h h h h h h h h h g g g g g g g g g g g g g g g g g g g g h h h h g g g g h h h h h h h h h g g g g g g g g g g g z z z z z z z z z z z z z z z h h h h h h h h h d d d d u u u u y y y y q q q q 8 8 8 8 7 5 4 4 4 3 3 3 3 3 3 3 3 3 3 3 2 2 2 2 2 2 2 2 2 2 2 2 2 2 2 2 4 8 e y g g g g h h z z z z z z z z z z z z z z z z z z z z z z z z z z x z g d 9 4 2 3 2 @ $ % $ $ $ $ @ $ * , 2 2 3 2 2 2 3 3 2 2 2 2 3 3 3 3 3 3 3 3 3 2 2 2 2 2 3 3 3 3 3 3 3 3 3 3 2 2 2 2 3 3 3 3 2 2 2 2 3 2 2 < < < 2 2 2 2 2 2 2 2 2 2 3 3 3 3 < < < < < < < < < : = = % $ $ $ $ $ $ # $ $ $ $ # # $ $ $ $ $ $ $ $ # # $ $ $ $ $ $ # # $ $ $ $ $ $ $ $ $ $ $ $ $ $ $ $ $ $ $ $ $ $ $ $ * * * * * * * * * * * * * * * * ; ; ; ; ; ; : : : , , , , , , < < < < < < < < < < < < , , , , , < , ; = $ $ $ $ ",
"& # $ # , 3 2 2 2 < 5 s z z z h s s u u s s s s s d g h z h h g s s s s s s u u s s s s s s s s d g g h z z z z z z z z z h h h h h g g u u u u y y y y r y u s s s s s w q q 0 8 8 9 9 8 8 8 8 5 5 5 5 5 4 4 4 4 3 2 < < 2 2 2 2 2 2 2 2 2 2 < < < < < < 2 2 3 3 3 3 3 2 2 3 3 2 3 2 2 2 2 2 3 2 2 2 2 2 2 2 2 2 2 2 2 2 2 2 2 2 3 4 5 5 5 5 5 0 0 0 0 0 0 0 0 0 0 0 0 0 0 0 q q 0 0 0 q q q 0 0 0 0 9 7 4 2 < 3 3 , 2 3 3 3 3 2 y h z h h h h h h h h h h h h h h h h h h z z z z z z h h h h h h h h h h h h h h h h z z z z h h h h z z z z h h h h h h h h d d d d u u u u y y y y w w w w 8 8 8 8 7 7 7 7 4 4 4 4 3 3 3 3 2 2 2 2 2 2 2 2 2 2 2 < < < < < < 2 3 3 3 3 3 3 3 3 3 3 3 3 3 2 2 2 2 3 2 2 2 2 3 3 2 2 2 2 2 2 2 2 2 < 3 3 3 3 7 7 7 7 0 0 0 0 0 0 0 0 q q q q q q q q q q q q 0 0 0 0 q 8 5 2 2 2 2 2 : @ $ $ $ $ $ $ $ # $ * , 2 3 3 2 2 2 2 2 2 3 3 3 3 3 3 3 3 3 3 3 2 2 2 2 2 3 3 3 3 3 3 3 3 3 3 2 2 2 2 3 3 3 2 2 2 2 2 3 3 2 2 2 3 3 3 3 3 3 3 3 3 3 3 , , , , = = = = % % % $ $ # # # # # $ $ $ # # # $ $ $ $ $ # $ $ $ $ $ $ $ $ # # $ $ $ $ $ $ # # $ $ $ $ $ $ $ $ $ $ $ $ $ $ $ $ $ $ $ $ $ $ $ $ $ $ $ $ $ $ $ $ $ $ $ $ $ $ $ $ $ $ $ # @ @ @ @ @ @ # # $ $ $ $ # # # # # # # @ @ @ @ @ # # $ $ % $ @ + $ $ $ $ ",
"& # $ # , 3 2 2 3 4 < < e y s u r r e w r r r r e e e r y y r r r r r r y y y y y y y y y y y y y y u s y y y y e e e e e w w w 0 9 8 7 4 4 4 4 3 3 3 3 < < < 2 < < < < , , , , , , < < 2 2 2 2 2 2 2 2 2 2 2 2 2 2 2 < 2 2 2 2 2 2 2 2 2 2 2 2 2 2 2 2 2 2 2 2 2 2 2 2 2 2 3 3 3 3 2 2 2 2 3 3 2 2 2 2 2 3 2 2 2 2 2 3 3 3 3 2 2 3 3 4 < 2 2 2 2 2 2 2 2 2 2 2 2 < < < , , , < < , , , < < < < < < < < 2 2 2 2 2 < ; < 3 3 3 3 3 2 7 e s s s s u u u u u u u u u u u u s s s s s s s s d d d d d d d d s s s s u u u u y y y y q q q q 9 9 9 9 5 5 5 5 5 5 5 5 3 3 3 3 3 3 3 3 < < < < < < < < < < < < 2 2 2 2 2 2 2 2 2 2 2 2 2 2 2 2 2 2 3 3 3 3 3 3 3 3 3 3 2 2 2 2 2 2 3 3 3 3 3 3 3 2 2 2 2 2 3 2 2 2 2 2 2 3 2 2 2 2 2 2 2 3 3 3 3 2 3 2 2 2 2 2 < < < < < < < < , , , , , , , , 2 2 2 2 2 2 < < < 2 2 3 3 4 4 3 & @ $ @ # # $ $ $ $ # $ @ * , 3 4 3 3 3 2 2 2 2 3 3 3 3 3 3 3 3 3 2 2 2 2 2 3 3 3 3 3 3 3 3 3 3 2 2 2 2 3 3 3 3 3 3 3 3 3 3 3 2 2 2 2 2 , , , , = = = = $ $ $ $ $ # $ $ $ $ $ $ $ $ $ $ $ $ # # # # # # $ $ $ $ $ $ $ $ $ $ $ $ $ $ $ $ $ $ $ $ $ $ $ # $ $ $ $ # # # $ $ $ $ $ # # # # $ $ $ $ $ $ $ $ $ $ $ $ $ $ $ $ $ $ $ $ $ $ $ $ # # # # $ $ $ $ $ $ $ $ $ $ $ $ $ $ $ $ $ $ $ $ $ # $ $ $ $ $ % % % % $ $ $ $ $ ",
"& # $ # , 3 2 2 2 1 2 3 3 3 2 3 2 2 < < , , , , 2 2 2 2 2 2 < < < < < < < 2 3 4 2 2 2 2 2 2 2 < < < 2 2 2 2 2 2 < < < < < < 2 2 2 < , , < < < < < < < < < 2 < 2 2 2 2 2 < 2 3 3 2 2 2 2 2 3 3 3 3 4 4 4 4 3 3 3 3 3 3 3 3 3 3 4 4 4 4 4 3 3 3 3 3 3 3 3 3 3 3 3 3 3 3 3 3 3 3 3 3 2 2 2 2 2 2 2 2 2 3 3 2 2 2 2 2 2 2 2 2 2 3 3 3 2 2 2 2 3 3 3 3 3 3 3 3 3 3 3 5 5 5 5 4 3 4 4 4 4 4 3 3 3 3 3 3 3 3 3 < 5 5 2 , ; % : 3 3 3 3 3 2 3 2 4 4 4 4 3 2 2 2 2 2 2 2 2 2 3 3 3 3 3 3 3 3 3 3 3 3 3 3 3 3 3 3 3 3 3 2 2 2 2 2 2 2 2 2 2 2 2 2 3 3 3 3 3 3 3 3 3 3 3 3 2 2 2 2 3 3 3 3 3 3 3 3 3 3 3 3 3 3 4 4 4 4 4 4 3 3 3 3 3 3 3 3 3 3 3 3 4 4 4 3 3 3 3 3 3 3 3 3 3 3 3 3 3 3 3 3 3 3 3 3 3 2 2 2 2 2 2 2 2 2 2 2 2 2 2 2 2 2 2 2 2 2 3 3 3 3 3 3 3 3 3 3 3 3 3 3 3 3 4 4 4 4 4 4 4 4 4 4 3 3 3 3 4 4 4 4 4 4 4 3 2 3 2 ; % @ $ $ # # # # $ $ $ # # @ @ @ % ; , , 2 2 2 2 3 3 3 3 3 3 3 3 3 2 2 2 2 2 3 3 3 3 3 3 3 3 3 3 2 2 2 2 3 3 3 3 , , , , ; ; = * $ $ $ $ # @ @ @ @ # $ $ $ $ $ $ $ $ $ $ # # # # # # # # # # # # # # # # $ $ $ $ $ $ $ $ $ $ $ $ $ $ $ $ $ $ $ $ $ $ $ $ $ $ $ $ # # $ $ # $ $ $ # # # # $ $ $ $ # $ $ $ $ $ $ $ $ $ $ $ $ $ $ $ $ $ $ $ $ $ $ $ $ # # @ @ @ @ @ @ # # $ $ $ $ $ $ $ $ $ $ $ $ # @ @ @ @ # $ $ $ $ $ $ $ ",
"& # $ # * * ; , , , , , , , : , , , , , , , , , , , , , , , , , , , , , , , < < , , , , , , , , , , , , , , , , , , , , , , , , , , , , , , , , , , , , , , , , , , , , , , , , : : : : , , , , , , , , , , , , , , , , , , , , , , , , , , , , , , , , , , , , , , , , , , , , , , , , , , , , , , , , , , , , , , , , , , , , , : : ; : : : : : : : : : : : : : : : : : : : : : : : : : ; ; ; ; ; ; ; ; ; ; ; $ $ $ $ ; ; ; ; , , , , , , , , < < < < < < < < < < < < < < < < < < < < < < < < < < < < < < < < < < < < < < < < < < < < < < < < < < < < < < < < < < < < < < < < < < < < < < < < < < < < < < < < < < < < < < < < < < < < < < < < < < < < < < < < , , , , , , , , , , , , , , , , : : : : : : : : : : : : : : : : : : : : : : : : : : : : : : : : : : : : : : : : : : : : ; ; ; ; ; ; ; ; ; ; ; ; : = $ + # @ # # # # # # # # # # $ $ $ $ # # # # % % % % ; ; ; ; , , , , , , , , , , , , , , , , ; ; ; ; * & % % % % $ % $ $ $ $ $ $ $ $ $ $ $ $ $ $ $ $ $ $ $ $ $ $ $ $ $ $ $ $ $ $ $ $ $ $ # # # $ $ $ $ $ $ $ $ $ $ $ $ $ $ $ $ $ $ $ $ $ $ $ $ $ $ $ $ $ $ $ $ $ $ $ $ $ $ $ $ $ $ $ $ $ $ $ $ $ # # # $ $ $ $ $ $ $ $ $ # # # $ $ $ $ $ $ $ $ $ $ $ $ $ $ $ $ $ $ $ $ $ $ $ $ $ $ $ $ $ $ $ # $ $ $ $ $ $ $ $ $ $ $ # # # # ",
"& # $ # % $ @ # $ # # # # # + # # # # # # # # # # # # # # # # # # # # # @ $ $ $ @ @ @ @ @ @ @ @ # $ $ $ $ $ $ $ # # # # # # # # # # # # # # # # # # # # @ @ @ @ # # # # @ @ @ @ $ $ $ $ # # # # # # # # # # # # # # # # # # # # # # # # # # # $ # # # # # # # # # # # # # # # # # # # # # # # # # # # # # # # # # # # # # # @ @ @ @ @ + @ @ @ @ @ @ @ @ @ @ @ @ @ @ @ @ @ @ @ @ @ @ @ @ @ @ # # @ @ @ @ $ $ $ $ $ $ $ $ $ # # # $ $ $ $ $ $ $ $ @ @ @ @ @ @ @ @ @ @ @ @ @ @ @ @ @ @ @ @ @ @ @ @ @ @ @ @ @ @ @ @ $ $ $ $ @ @ @ @ @ @ @ @ # # # # # # # # # # # # # # # # # # # $ # # # # # # # # # # # # # # # # # # # # # # # # # # # # # # # # # # # # # # # # $ $ $ $ $ $ $ $ $ $ $ $ $ $ $ $ # # $ $ $ $ $ $ $ $ $ $ $ $ # # $ $ $ $ $ $ # # $ $ $ $ $ $ $ $ $ # $ $ $ $ $ $ $ $ $ $ # # # # @ @ @ @ @ @ @ @ + + @ @ $ $ $ $ $ $ $ $ $ $ $ $ $ $ $ $ $ $ $ $ $ $ $ $ # # # # # # # # $ $ $ $ $ $ # # # # # $ # # # # # # $ # $ $ $ % $ $ $ $ $ $ $ $ $ $ $ $ $ $ $ $ $ $ $ $ $ $ $ $ $ $ $ $ $ $ $ $ $ $ # $ # # $ $ $ $ $ $ $ $ $ $ $ $ $ $ $ $ $ $ $ $ $ $ $ $ $ $ $ $ $ $ $ $ $ $ $ $ $ $ $ $ $ $ $ $ $ $ $ $ # $ # # $ $ $ $ $ $ $ $ # $ # # $ $ $ $ $ $ $ $ $ $ $ $ $ $ $ $ $ $ $ $ $ $ $ $ $ $ $ $ $ $ # $ $ $ $ $ $ $ $ $ $ $ # # # # ",
"* $ $ $ $ $ @ @ # $ $ $ $ $ + $ $ $ $ $ $ $ $ $ $ $ $ $ $ $ $ $ $ $ $ $ # $ $ $ # # # # # # # # $ $ $ $ $ $ $ $ $ $ $ $ $ $ $ $ $ $ $ $ $ $ $ $ $ $ $ $ $ $ $ $ $ $ $ $ $ $ $ $ % % % % $ $ $ $ $ $ $ $ $ $ $ $ $ $ $ $ $ $ $ $ $ $ $ $ $ $ $ $ $ $ $ $ $ $ $ $ $ $ $ $ $ $ $ $ $ $ $ $ $ $ $ $ $ $ $ $ $ $ $ $ $ $ $ $ $ $ $ $ $ $ $ # $ $ $ $ $ $ $ $ % $ $ $ $ $ $ $ $ $ $ $ $ $ $ $ $ $ % % $ $ $ $ # # $ $ $ $ $ $ $ $ $ $ $ $ $ $ $ $ $ $ $ $ $ $ $ $ $ $ $ $ $ $ $ $ $ $ $ $ $ $ $ $ $ $ $ $ $ $ $ $ $ $ @ @ @ @ $ $ $ $ $ $ $ $ $ $ $ $ $ $ $ $ $ $ $ $ $ $ $ $ $ $ $ $ $ $ $ $ $ $ $ $ $ $ $ $ $ $ $ $ $ $ $ $ $ $ $ $ $ $ $ $ $ $ $ $ $ $ $ $ $ $ $ $ $ $ $ $ $ $ $ $ $ $ $ $ $ $ $ $ # # $ $ $ $ $ $ $ $ $ $ $ $ $ $ $ $ $ $ $ $ $ $ $ $ $ $ $ $ $ $ # # $ $ $ $ $ $ $ $ $ $ $ $ $ $ $ $ $ $ $ $ $ $ $ $ # @ $ $ $ $ $ $ $ $ $ $ $ $ $ $ $ $ $ $ $ $ $ $ $ $ $ $ $ $ # # # # $ $ $ $ $ $ # # # # $ $ $ $ $ $ $ # # # $ $ $ $ $ $ $ $ $ $ $ $ $ $ $ $ $ $ $ $ $ $ $ $ $ $ $ $ $ $ $ $ $ $ $ $ $ $ $ $ $ $ $ $ $ $ $ $ $ # $ $ $ $ $ $ $ # $ $ $ $ $ $ $ # $ $ $ $ $ $ $ # $ $ $ $ $ $ $ $ # $ $ $ $ $ $ $ $ $ $ $ $ $ $ $ $ $ $ $ $ $ $ $ $ $ $ $ $ $ $ # $ $ $ $ $ $ $ # $ $ $ $ $ $ $ # $ $ $ $ $ $ # # $ $ $ $ $ $ $ $ $ $ # # # # ",
"* $ $ $ # # $ $ $ $ $ $ $ $ + $ $ $ $ $ $ $ $ $ $ $ $ $ $ $ $ $ $ $ $ $ # $ $ $ # # # # # # # # $ $ $ $ $ $ $ $ $ $ $ $ $ $ $ $ $ $ $ $ $ $ $ $ $ $ $ $ % % % % $ $ $ $ % % % % $ $ $ $ $ $ $ $ $ $ $ $ $ $ $ $ $ $ $ $ $ $ $ $ $ $ $ $ $ $ $ $ $ $ $ $ $ $ $ $ $ $ $ $ $ $ $ $ $ $ $ $ $ $ $ $ $ $ $ $ $ $ $ $ $ $ $ $ $ $ % $ $ $ $ $ $ % % % % % % % % % % % % % % % % % % % % % % $ $ $ $ $ $ $ $ $ # # $ $ $ $ $ $ $ $ $ $ $ $ $ $ $ $ $ $ # # $ # # # # # # # # # # # # $ # # # # # # $ $ # # # # $ $ $ # $ $ $ $ # # # # # # $ $ $ $ $ $ $ $ $ $ $ $ $ $ $ $ $ $ $ $ $ $ $ $ $ $ $ $ $ $ $ $ $ $ $ $ $ $ $ $ $ $ $ $ $ $ $ $ $ $ $ $ $ $ $ $ $ $ $ $ $ $ $ $ $ $ $ $ $ $ $ $ $ $ $ $ $ $ $ $ $ $ $ $ $ $ $ $ $ $ $ $ $ $ $ $ $ $ $ $ $ $ $ $ $ $ $ $ $ $ $ $ $ $ $ $ $ $ $ $ $ $ % % % % $ $ $ $ $ $ $ % $ # $ $ $ $ $ $ $ $ $ $ $ $ $ $ # # # # $ $ $ $ $ $ $ $ $ $ $ $ $ $ $ $ % % % $ $ $ $ $ $ $ $ $ $ $ $ $ $ $ $ $ $ $ $ $ $ $ $ $ $ $ $ $ $ $ $ $ $ $ $ $ $ $ $ $ $ $ $ $ $ $ $ $ $ $ $ $ $ $ $ $ $ $ $ $ $ $ $ $ # # $ $ $ $ $ $ # # $ $ $ $ $ $ # # $ $ $ $ $ $ # # $ $ $ $ $ $ $ $ $ $ $ $ $ $ $ $ $ $ $ $ $ $ $ $ $ $ $ $ $ $ $ $ $ $ $ $ $ $ # # $ $ $ $ $ $ # # $ $ $ $ $ $ # # $ $ $ $ $ $ # # $ $ $ $ $ $ $ $ $ $ # # # # ",
"* $ $ $ $ $ # # $ $ $ $ $ $ $ $ $ $ $ $ $ $ $ $ $ $ $ $ $ $ $ $ $ $ $ $ $ $ $ $ $ $ $ $ $ $ $ $ $ $ $ $ $ $ $ $ $ $ $ $ $ $ $ $ $ $ $ $ $ $ $ $ $ $ $ $ $ $ $ $ $ $ $ $ $ $ $ $ $ $ $ $ $ $ $ $ $ $ $ $ $ $ $ $ $ $ $ $ $ $ $ $ $ $ $ $ $ $ $ $ $ $ $ $ $ $ $ $ $ $ $ $ $ $ $ $ $ $ $ $ $ $ $ $ $ $ $ $ $ $ $ $ $ $ $ $ $ $ $ $ $ $ $ $ $ $ $ $ % % $ % $ % $ $ $ $ $ $ $ $ $ $ $ $ $ $ $ $ $ $ $ $ $ $ $ $ $ $ $ $ $ $ $ $ $ $ $ $ $ $ $ $ $ $ $ $ $ $ $ $ $ $ $ $ $ $ $ $ $ $ $ $ $ $ $ $ $ $ $ $ $ $ $ $ $ $ $ $ $ $ $ $ $ $ $ $ $ $ $ $ $ $ $ $ $ $ $ $ $ $ $ $ $ $ $ $ $ $ $ $ $ $ $ $ $ $ $ $ $ $ $ $ $ $ $ $ $ $ $ $ $ $ $ $ $ $ $ $ $ $ $ $ $ $ $ $ $ $ $ $ $ $ $ $ $ $ $ $ $ $ $ $ $ $ $ $ $ $ $ $ $ $ $ $ $ $ $ $ $ $ $ $ $ $ $ $ $ $ $ $ $ $ $ $ $ $ $ $ $ $ $ $ $ $ $ $ $ $ $ $ $ $ $ $ $ $ $ $ $ $ $ $ $ $ $ $ $ $ $ $ $ $ $ $ $ $ $ $ $ $ $ $ $ $ $ $ $ $ $ $ $ $ $ $ $ $ $ $ $ $ $ $ $ $ $ $ $ $ $ $ $ $ % % % % $ $ $ $ $ $ $ $ $ $ $ $ $ $ $ $ $ $ $ $ $ $ $ $ $ $ $ $ $ $ $ $ $ $ $ $ $ $ $ $ $ $ $ $ $ $ $ $ $ $ $ $ $ $ $ $ $ $ $ $ $ $ $ $ $ $ $ $ $ $ $ $ $ $ $ $ $ $ $ $ $ $ $ $ $ $ $ $ $ $ $ $ $ $ $ $ $ $ $ $ $ $ $ $ $ $ $ $ $ $ $ $ $ $ $ $ $ $ $ $ $ $ $ $ $ $ $ $ $ $ $ $ $ $ $ $ $ $ $ $ $ $ $ $ # # # # # # $ $ ",
"* $ $ $ $ $ $ $ $ $ $ $ $ $ $ $ $ $ $ $ $ $ $ $ $ $ $ $ $ $ $ $ $ $ $ $ $ $ $ $ $ $ $ $ $ $ $ $ $ $ $ $ $ $ $ $ $ $ $ $ $ $ $ $ $ $ $ $ $ $ $ $ $ $ $ $ $ $ $ $ $ $ $ $ $ $ $ $ $ $ $ $ $ $ $ $ $ $ $ $ $ $ $ $ $ $ $ $ $ $ $ $ $ $ $ $ $ $ $ $ $ $ $ $ $ $ $ $ $ $ $ $ $ $ $ $ $ $ $ $ $ $ $ $ $ $ $ $ $ $ $ $ $ $ $ $ $ $ $ $ $ $ $ $ $ $ $ $ $ $ $ $ $ $ $ $ $ $ $ $ $ $ $ $ $ $ $ $ $ $ $ $ $ $ $ $ $ $ $ $ $ $ $ $ $ $ $ $ $ $ $ $ $ $ $ $ $ $ $ $ $ $ $ $ $ $ $ $ $ $ $ $ $ $ $ $ $ $ $ $ $ $ $ $ $ $ $ $ $ $ $ $ $ $ $ $ $ $ $ $ $ $ $ $ $ $ $ $ $ $ $ $ $ $ $ $ $ $ $ $ $ $ $ $ $ $ $ $ $ $ $ $ $ $ $ $ $ $ $ $ $ $ $ $ $ $ $ $ $ $ $ $ $ $ $ $ $ $ $ $ $ $ $ $ $ $ $ $ $ $ $ $ $ $ $ $ $ $ $ $ $ $ $ $ $ $ $ $ $ $ $ # $ $ $ $ $ $ $ $ $ $ $ $ $ $ $ # $ $ $ $ $ $ $ $ $ $ $ $ $ $ $ # $ $ $ $ $ $ $ $ $ $ $ $ $ $ $ $ $ $ $ $ $ $ $ $ $ $ $ $ $ $ $ $ $ $ $ $ $ $ $ $ $ $ $ $ $ $ $ $ $ $ $ $ $ $ $ $ $ $ $ $ $ $ $ $ $ $ $ $ $ $ $ $ $ $ $ $ $ $ $ $ $ $ $ $ $ $ $ $ $ $ $ $ $ $ $ $ $ $ $ $ $ $ $ $ $ $ $ $ $ $ $ $ $ $ $ $ $ $ $ $ $ $ $ $ $ $ $ $ $ $ $ $ $ $ $ $ $ $ $ $ $ $ $ $ $ $ $ $ $ $ $ $ $ $ $ $ $ $ $ $ $ $ $ $ $ $ $ $ $ $ $ $ $ $ $ $ $ $ $ $ $ $ $ $ $ $ $ $ $ $ $ $ $ $ $ $ $ $ $ $ $ $ $ $ $ $ $ $ $ $ # # # # $ $ ",
"= % % % % % % $ $ $ $ $ $ $ $ $ $ $ $ $ $ $ $ $ $ $ $ $ $ $ $ $ $ $ $ $ $ $ $ $ $ $ $ $ $ $ $ $ $ $ $ $ $ $ $ $ $ $ $ $ $ $ $ $ $ $ $ $ $ $ $ $ $ $ $ $ $ $ $ $ $ $ $ $ $ $ $ $ $ $ $ $ $ $ $ $ $ $ $ $ $ $ $ $ $ $ $ $ $ $ $ $ $ $ $ $ $ $ $ $ $ $ $ $ $ $ $ $ $ $ $ $ $ $ $ $ $ $ $ $ $ $ $ $ $ $ $ $ $ $ $ $ $ $ $ $ $ $ $ $ $ $ $ $ $ $ $ $ $ $ $ $ $ $ $ $ $ $ $ $ $ $ $ $ $ $ $ $ $ $ $ $ $ $ $ $ $ $ $ $ $ $ $ $ $ $ $ $ $ $ $ $ $ $ $ $ $ $ $ $ $ $ $ $ $ $ $ $ $ $ $ $ $ $ $ $ $ $ $ $ $ $ $ $ $ $ $ $ $ $ $ $ $ $ $ $ $ $ $ $ $ $ $ $ $ $ $ $ $ $ $ $ $ $ $ $ $ $ $ $ $ $ $ $ $ $ $ $ $ $ $ $ $ $ $ $ $ $ $ $ $ $ $ $ $ $ $ $ $ $ $ $ $ $ $ $ $ $ $ $ $ $ $ $ $ $ $ $ $ $ $ $ $ $ $ $ $ $ $ $ $ $ # $ $ $ $ $ $ $ $ # $ $ $ $ $ $ $ # $ $ $ $ $ $ $ $ $ $ $ $ $ $ $ $ $ $ $ $ $ $ $ # $ $ $ $ $ $ $ $ $ $ $ $ $ $ $ $ $ $ $ $ $ $ $ $ $ $ $ $ $ $ $ $ $ $ $ $ $ $ $ $ $ $ $ $ $ $ $ $ $ $ $ $ $ $ $ $ $ $ $ $ $ $ $ $ $ $ $ $ $ $ $ $ $ $ $ $ $ $ $ $ $ $ $ $ $ $ $ $ $ $ $ $ $ $ $ $ $ $ $ $ $ $ $ $ $ $ $ $ $ $ $ $ $ $ $ $ $ $ $ $ $ $ $ $ $ $ $ $ $ $ $ $ $ $ $ $ $ $ $ $ $ $ $ $ $ $ $ $ $ $ $ $ $ $ $ $ $ $ $ $ $ $ $ $ $ $ $ $ $ $ $ $ $ $ $ $ $ $ $ $ $ $ $ $ $ $ $ $ $ $ $ $ $ $ $ $ $ $ $ $ $ $ $ $ $ $ $ $ % % % % # # # $ ",
"= % % % % % % % % % % % $ $ $ $ $ $ $ $ $ $ $ $ $ $ $ $ $ $ $ $ $ $ $ $ $ $ $ $ $ $ $ $ $ $ $ $ $ $ $ $ $ $ $ $ $ $ $ $ $ $ $ $ $ $ $ $ $ $ $ $ $ $ $ $ $ $ $ $ $ $ $ $ $ $ $ $ % $ $ $ $ $ $ $ $ $ $ $ % % $ $ $ $ $ $ $ $ $ $ $ $ $ $ $ $ $ $ $ $ $ $ $ $ $ $ $ $ $ $ $ $ $ $ % % $ $ $ $ $ $ $ $ $ $ $ $ $ $ $ $ $ $ $ $ $ $ $ $ $ $ % $ % $ % $ $ $ $ $ $ $ $ $ $ $ $ $ $ $ $ $ $ $ $ $ $ $ $ $ $ $ $ $ $ $ $ $ $ $ $ $ $ $ % $ $ $ $ $ $ $ $ $ $ % $ $ $ $ $ $ $ $ $ $ $ $ $ $ $ $ $ $ $ $ $ $ $ $ $ $ $ $ % $ $ $ $ $ $ $ $ $ $ $ % % $ $ $ $ $ $ $ $ $ $ $ $ $ $ $ $ $ $ $ $ $ $ $ $ $ $ % % $ $ $ $ $ $ $ $ $ % $ $ $ $ % % $ $ $ $ $ $ $ $ $ % $ $ $ $ $ $ $ $ % $ $ $ % % $ $ $ $ $ $ $ $ $ $ $ $ $ $ $ $ $ $ $ $ $ $ $ $ $ $ $ $ $ $ $ $ $ $ $ $ $ $ $ $ $ $ $ $ $ $ $ $ $ $ $ $ $ $ $ $ $ $ $ $ $ $ $ $ $ $ $ $ $ $ $ $ $ $ $ $ $ $ % % $ $ $ $ $ $ $ $ $ % % % $ $ $ $ $ $ $ $ $ $ $ $ $ $ $ $ $ % $ % $ $ $ $ $ $ $ $ $ $ $ $ $ $ $ $ $ $ $ $ $ % $ $ $ $ % $ $ $ % % $ $ $ $ $ $ $ $ $ $ % $ $ $ $ $ $ $ $ $ $ $ $ $ $ $ $ $ $ $ $ $ $ $ $ $ $ $ $ $ $ $ $ $ $ $ $ $ $ $ $ $ $ $ $ $ $ $ $ $ $ $ $ $ $ $ $ $ $ $ $ $ $ $ % $ $ $ $ $ $ $ $ $ $ $ $ $ $ $ $ $ $ $ $ $ $ $ $ $ $ $ $ $ $ $ $ $ $ $ $ $ $ $ $ $ % % & & & & $ $ $ $ "
};
