/* XPM */
static char *_d8dcfd302b24146bfefc061e1c5f844FaqqAhP49sdZuFP5[] = {
/* columns rows colors chars-per-pixel */
"100 100 229 2 ",
"   c #00CC01",
".  c #00D400",
"X  c #00DC00",
"o  c #00DF1D",
"O  c #02E300",
"+  c #0BE601",
"@  c #0CE801",
"#  c #02E40A",
"$  c #0AE50F",
"%  c #13E601",
"&  c #1AE701",
"*  c #15E801",
"=  c #1CE901",
"-  c #1CE70A",
";  c #02E215",
":  c #08E51B",
">  c #17E618",
",  c #24EA01",
"<  c #2CEC01",
"1  c #27E90A",
"2  c #34ED01",
"3  c #3BEE01",
"4  c #3EEE0A",
"5  c #3DF001",
"6  c #27EA1B",
"7  c #34EA1D",
"8  c #3DEE1A",
"9  c #37EC16",
"0  c #00DE26",
"q  c #00DD2C",
"w  c #02E122",
"e  c #03E12B",
"r  c #0CE429",
"t  c #14E624",
"y  c #1AE528",
"u  c #08E232",
"i  c #1EE533",
"p  c #14E333",
"a  c #29E828",
"s  c #33EA26",
"d  c #3CEC2A",
"f  c #39EB26",
"g  c #27E635",
"h  c #2DE737",
"j  c #35E934",
"k  c #34E93C",
"l  c #3BEA3A",
"z  c #3CEB33",
"x  c #45E201",
"c  c #4CE501",
"v  c #42EF01",
"b  c #4AEE01",
"n  c #42EE0C",
"m  c #51E701",
"M  c #54EA01",
"N  c #5BEC00",
"B  c #44F001",
"V  c #4CF201",
"C  c #53F401",
"Z  c #5CF501",
"A  c #5CF40A",
"S  c #45EF10",
"D  c #46EF1D",
"F  c #4CF111",
"G  c #4AF11F",
"H  c #52F215",
"J  c #5DF419",
"K  c #58F415",
"L  c #63EE01",
"P  c #68EE01",
"I  c #63F600",
"U  c #6BF601",
"Y  c #65F801",
"T  c #6CF901",
"R  c #63F50A",
"E  c #6AF70D",
"W  c #6CF80F",
"Q  c #73F501",
"!  c #7BF600",
"~  c #74FA00",
"^  c #7CFB00",
"/  c #64F51B",
"(  c #6AF61D",
")  c #6FF812",
"_  c #73F912",
"`  c #7AFA15",
"'  c #7DFA18",
"]  c #44EE24",
"[  c #45EE2E",
"{  c #4FEF2B",
"}  c #4BF124",
"|  c #4BF02A",
" . c #54F122",
".. c #5BF425",
"X. c #5AF32E",
"o. c #54F12B",
"O. c #4BEF31",
"+. c #4AEE3B",
"@. c #43EC38",
"#. c #51EF3D",
"$. c #4CF03A",
"%. c #54F135",
"&. c #5CF435",
"*. c #5CF33B",
"=. c #54F13C",
"-. c #7FEA28",
";. c #6CF720",
":. c #6EF822",
">. c #64F528",
",. c #6BF72C",
"<. c #68F72B",
"1. c #74F924",
"2. c #7AF926",
"3. c #73F92E",
"4. c #7EFA28",
"5. c #7FE836",
"6. c #63F532",
"7. c #6AF734",
"8. c #65F43B",
"9. c #6CF73C",
"0. c #7BF933",
"q. c #70F738",
"w. c #74F93A",
"e. c #7AF93D",
"r. c #76F931",
"t. c #3EEA40",
"y. c #4DED45",
"u. c #45EB43",
"i. c #53EF49",
"p. c #51EF42",
"a. c #5BF344",
"s. c #5BF04E",
"d. c #54F044",
"f. c #64F443",
"g. c #6BF644",
"h. c #63F34B",
"j. c #6BF64B",
"k. c #72F743",
"l. c #75F844",
"z. c #7BF947",
"x. c #73F74B",
"c. c #7CF94C",
"v. c #64F252",
"b. c #6CF554",
"n. c #6FF558",
"m. c #74F653",
"M. c #79F756",
"N. c #7EF854",
"B. c #74F55B",
"V. c #7AF75F",
"C. c #7EF858",
"Z. c #7CF760",
"A. c #83F401",
"S. c #8CF601",
"D. c #83FB00",
"F. c #8CFC00",
"G. c #8CFC0B",
"H. c #85F70B",
"J. c #94FC01",
"K. c #98FB00",
"L. c #99FC01",
"P. c #98FD01",
"I. c #99FD03",
"U. c #99FD01",
"Y. c #90F70A",
"T. c #93FB0C",
"R. c #9AFC0C",
"E. c #84EE18",
"W. c #83FB1A",
"Q. c #8BFB1E",
"!. c #8AF31A",
"~. c #9BFC15",
"^. c #93F91E",
"/. c #9BFC1E",
"(. c #95F913",
"). c #84ED2E",
"_. c #8EF524",
"`. c #8EF32D",
"'. c #83FB2A",
"]. c #8BFB2C",
"[. c #8CFB20",
"{. c #94FC21",
"}. c #9BFC23",
"|. c #94FB2E",
" X c #9BFB2D",
".X c #91F72A",
"XX c #85ED3C",
"oX c #86EF32",
"OX c #82FA36",
"+X c #8BFB37",
"@X c #8DF23B",
"#X c #83FA3C",
"$X c #8CFC39",
"%X c #8BF136",
"&X c #96F833",
"*X c #9CFC34",
"=X c #93F63A",
"-X c #94FC3B",
";X c #9BFB3A",
":X c #90F633",
">X c #8BEE43",
",X c #84FB41",
"<X c #8BFB44",
"1X c #84FB4B",
"2X c #8CFB4E",
"3X c #8DF047",
"4X c #92F543",
"5X c #94FC45",
"6X c #9BFB44",
"7X c #94F54C",
"8X c #93FB4F",
"9X c #9BFB4D",
"0X c #84FA53",
"qX c #8BFA56",
"wX c #84F95B",
"eX c #8CFA5D",
"rX c #96F554",
"tX c #93FB54",
"yX c #9BFA54",
"uX c #99F759",
"iX c #94FB59",
"pX c #9CFA5C",
"aX c #84F863",
"sX c #8AF966",
"dX c #8EFA68",
"fX c #93FB61",
"gX c #9BFA64",
"hX c #94FA68",
"jX c #9AFA68",
/* pixels */
"x x c m m N L L P P Q Q Q Q ! Q ! ! ! ! ! A.D.D.D.D.D.S.D.S.S.F.F.F.F.F.F.F.F.F.F.F.F.F.F.F.J.J.J.J.J.J.J.J.J.J.J.J.J.J.J.J.J.J.J.J.J.J.J.J.J.J.J.J.J.J.J.J.J.J.J.J.J.J.J.F.F.S.S.S.S.S.A.A.A.A.A.E.-.5.",
"x x c m N N L P P P Q Q Q ! Q ! ! ! ! ! A.D.D.D.D.D.D.F.F.F.F.F.F.F.F.F.F.F.F.J.F.F.F.F.J.J.J.J.J.J.J.J.J.J.J.J.J.J.J.J.J.J.J.J.J.J.J.J.J.J.J.J.J.J.J.J.J.J.J.J.J.J.J.J.J.J.F.F.S.S.S.S.S.D.A.A.A.E.).XX",
"x c c M N N L P P U Q Q Q Q ! ! ! ! ! A.D.D.D.D.D.D.F.F.F.F.F.F.F.F.F.F.F.F.F.J.F.J.J.J.J.J.J.J.J.J.J.J.J.J.J.J.J.J.J.J.J.J.J.J.J.J.J.J.J.J.J.J.J.J.J.J.J.J.J.J.J.J.J.J.J.J.J.J.J.S.S.S.S.S.S.S.H.!.oXXX",
"x c m M N N L P P U Q Q Q ! ! ! ! ! A.A.D.D.D.D.D.D.D.F.F.F.F.F.F.F.F.F.F.F.J.J.J.J.J.J.J.J.J.J.J.J.J.J.J.J.J.J.J.J.J.J.J.J.J.J.J.J.J.J.J.J.J.J.J.J.J.J.J.J.J.J.J.J.J.J.J.J.J.J.J.J.J.J.S.S.S.S.!._.%X>X",
"c c m M N N L P U U Q Q Q ! ! ! ! ! ! A.D.A.A.D.D.D.F.F.F.F.F.F.F.F.F.F.F.J.J.J.J.J.J.J.J.J.J.J.J.J.J.J.J.J.J.J.J.J.J.J.J.J.J.J.J.J.J.J.J.J.J.J.J.J.J.J.J.J.J.J.J.J.J.J.J.J.J.J.J.J.J.J.J.S.S.S.!.`.@X>X",
"c c m M N N L U U U Q Q Q ! ! ! ! ! ! A.D.D.A.D.D.D.F.F.F.F.F.F.F.F.F.F.J.J.J.J.J.J.J.J.J.J.J.J.J.J.J.J.J.J.J.J.J.J.J.J.J.J.J.J.J.J.J.J.J.J.J.J.J.J.J.P.P.P.P.J.J.K.J.J.J.J.J.J.J.J.J.J.J.J.S.Y._.`.@X>X",
"c c M N N L L U U Q Q Q Q ! ! ! ! ! ! D.A.D.A.D.D.D.D.F.F.F.F.F.F.F.F.F.J.J.J.J.J.J.J.J.J.J.J.J.J.J.J.J.J.J.J.J.J.J.J.J.J.J.J.J.J.J.J.J.J.J.J.P.J.J.J.P.P.J.J.J.J.J.K.K.K.J.J.J.J.J.J.J.J.J.J.(._.:X4X7X",
"c m M N N L L U U Q Q ! ! ! ! ! ! ! ! D.D.D.D.D.D.D.D.F.F.F.F.F.F.J.F.J.J.F.J.J.J.J.J.J.J.J.J.J.J.J.J.J.J.J.J.J.J.J.J.J.J.J.J.J.J.J.J.J.J.P.P.P.J.K.K.K.P.K.K.J.J.J.K.K.K.K.J.J.J.J.J.J.J.J.K.^..X=X4X7X",
"c m M N N L L U U Q Q ! ! ! ! ! ! ! D.D.D.D.D.D.D.D.D.D.F.F.F.F.F.F.F.F.F.F.J.J.J.J.J.J.J.J.J.J.J.J.J.J.J.J.J.J.J.J.J.J.J.J.J.P.J.J.J.J.J.P.P.J.J.J.P.P.J.J.J.J.K.P.K.P.P.J.J.P.K.J.J.J.J.J.T.^.|.=X4X7X",
"c m M N N L L U U Q Q ! ! ! ! ! ! ! D.D.D.D.D.D.D.D.D.D.F.F.F.F.F.F.F.F.F.F.J.J.J.J.J.J.J.J.J.J.J.J.J.J.J.J.J.J.J.J.J.J.J.J.J.J.J.J.J.J.J.P.P.P.J.P.P.P.P.J.J.J.J.P.P.P.P.P.P.P.K.K.P.K.K.K.(.{.&X=X4XrX",
"c m M N N L L I U Q Q ! ! ! ! ! ! ! D.D.D.D.D.A.D.D.D.D.D.F.F.F.F.F.F.F.F.F.J.J.J.J.J.J.J.J.J.J.J.J.J.J.J.J.J.J.J.J.J.J.J.J.J.J.J.J.J.J.J.P.P.P.P.P.P.P.P.P.J.J.P.P.P.P.P.P.P.P.P.K.K.K.K.T.~. X&X-X7XrX",
"m m M N N L L U U Q Q ! ! ! ! ! ! ! D.D.D.D.D.D.D.D.D.D.D.F.F.F.F.F.F.F.F.F.F.J.J.J.J.J.J.J.J.J.J.J.J.J.J.J.J.J.J.J.J.J.J.J.J.J.J.J.J.J.J.P.P.P.P.P.P.P.P.P.J.J.J.P.P.K.P.P.P.P.P.P.K.K.K.R./. X&X5X7XrX",
"m M N N N L L U U Q Q ! ! ! ! ! ! ! ! D.A.D.D.D.D.D.D.D.F.D.F.F.F.F.F.F.F.F.J.J.J.J.J.J.J.J.J.J.J.J.J.J.J.J.J.J.J.J.J.J.J.J.J.J.J.J.J.J.J.P.P.P.P.P.P.P.P.P.P.J.J.J.P.K.P.P.P.P.U.P.P.P.P.R./. X;X5X7XuX",
"m M N N N L L U U Q Q ! ! ! ! ! ! ! ! D.D.D.D.D.D.D.D.D.D.F.F.F.F.F.F.F.F.F.J.J.J.J.J.J.J.J.J.J.J.J.J.J.J.J.J.J.J.J.J.J.J.J.J.J.J.J.J.J.J.P.P.P.J.P.P.P.P.P.P.P.P.J.P.K.P.P.P.P.U.U.P.P.I.~.}. X;X6XyXuX",
"m N N Z L L I I U Q Q ! ! ! ! ! ! ! ! ! ! D.D.D.D.D.D.D.D.F.F.F.F.F.F.F.F.J.J.J.F.J.J.J.J.J.J.J.J.J.J.J.J.J.J.J.J.J.J.J.J.J.J.J.J.J.J.J.J.P.P.P.J.J.P.P.P.P.P.P.P.J.J.K.P.P.P.P.U.P.P.U.I.~.}.*X;X6XyXuX",
"m N N Z Z I I I U U Q Q ~ ! ! ! ! ! ! ! ! D.D.D.D.D.D.D.D.F.F.F.F.F.F.F.F.F.J.J.F.J.J.J.J.J.J.J.J.J.J.J.J.J.J.J.J.J.J.J.J.J.J.J.J.J.J.J.J.P.P.P.J.J.J.P.P.P.P.P.P.P.P.P.P.P.P.P.P.U.U.U.R./.}.;X6X9XyXpX",
"M N N Z I I I U U Q Q ! ~ ! ! ! ! ! ! D.! D.D.D.D.D.D.D.D.D.F.F.F.F.F.F.F.F.F.F.F.J.J.J.J.J.J.J.J.J.J.J.J.J.J.J.J.J.J.J.J.J.J.J.J.J.J.J.J.J.J.P.P.P.P.P.P.P.P.P.P.P.P.P.P.P.U.U.U.U.U.U.R./.}.*X6X9XyXpX",
"M N N Z I I I U U Q Q ! ! ! ! ! ! ! ! ! ! D.D.D.D.D.D.D.D.D.D.F.F.F.F.F.F.F.F.F.J.F.J.J.F.F.F.J.J.J.J.J.J.J.J.J.J.J.J.J.J.J.J.J.J.J.J.J.J.J.J.P.P.P.P.P.P.P.P.J.P.P.P.P.P.P.P.P.U.U.U.U.R./. X;X6X9XyXpX",
"M N N Z L L I U U U Q ! ! ~ ! ! ! ! ! ! ! D.D.D.D.D.D.D.D.D.D.F.F.F.F.F.F.F.F.F.J.F.F.F.F.F.F.J.J.J.J.J.J.J.J.J.J.J.J.J.J.J.J.J.J.J.J.J.J.J.J.P.P.P.P.P.P.P.P.P.P.P.P.P.P.P.P.P.U.U.U.I.~.}.*X;X6X9XyXpX",
"M N N Z L I I U U U Q Q ! ~ ! ! ! ! ! ! ! ! D.D.D.D.D.D.D.D.D.D.F.F.F.F.F.F.F.F.F.F.F.J.F.F.J.J.F.J.J.J.J.J.J.J.J.J.J.J.J.J.J.J.J.J.J.J.J.J.J.J.J.P.P.P.P.P.P.P.P.P.P.P.P.P.P.P.P.U.U.I.~.}.*X;X6X9XpXpX",
"M N N I L I I U U U U Q ! ! ~ ! ! ! ! ! ! D.D.D.D.D.D.D.D.D.D.D.F.F.F.F.F.F.F.F.F.F.F.J.J.J.J.J.F.F.J.J.J.J.J.J.J.J.J.J.J.J.J.J.J.J.J.J.J.J.J.J.J.J.P.P.P.P.J.P.P.P.P.P.P.P.P.P.P.P.U.I.~.}.*X;X6X9XpXgX",
"M N N I I I U U U U U Q Q ! ~ ! ! ! ! ! ! ! D.D.D.D.D.D.D.D.D.D.D.D.D.F.F.F.F.F.F.F.F.J.J.J.J.J.F.F.F.J.J.J.J.J.J.J.J.J.J.J.J.J.J.J.J.J.J.J.J.J.J.J.J.J.J.J.P.P.J.P.P.P.P.P.P.P.P.P.P.R./. X*X;X6XyXpXgX",
"M N I I I I U U U U U Q Q ! ~ ~ ! ! ! ! ! ! ! D.D.D.D.D.D.D.D.D.D.D.D.D.F.F.F.F.F.F.F.F.F.F.J.J.F.J.J.J.F.F.J.J.J.J.J.J.J.J.J.J.J.J.J.J.J.J.J.J.J.J.J.J.J.J.J.P.J.J.J.P.P.P.P.P.P.P.P.R./. X*X6X6XyXpXgX",
"N Z I I I I U U U U U Q Q ! ~ ~ ! ! ! ! ! ! ! D.D.D.D.D.D.D.D.D.D.D.D.D.F.F.F.F.F.F.F.F.F.F.F.F.J.J.J.J.F.F.F.J.J.J.J.J.J.J.J.J.J.J.J.J.J.J.J.J.J.J.J.J.J.J.J.J.J.J.J.P.P.P.P.P.P.P.P.R./. X*X;X9XyXpXgX",
"N Z I I I U U U U U U U Q Q ~ ~ ~ ! ! ! ! ^ ^ D.D.D.D.D.D.D.D.D.D.D.D.D.F.F.F.F.F.F.F.F.F.F.F.F.F.F.F.F.J.J.J.J.J.J.J.J.J.J.J.J.J.J.J.J.J.J.J.J.J.J.J.J.J.J.J.J.J.J.P.P.P.P.P.P.P.P.P.R./. X;X6X9XyXyXgX",
"N N I I I U U U U U U U Q Q ! ~ ~ ! ! ! ! ! ! D.D.D.D.D.D.D.D.D.D.D.D.F.F.F.F.F.F.F.F.F.F.F.J.J.F.F.F.F.J.J.J.J.J.J.F.J.J.J.J.J.J.J.J.J.J.J.J.J.J.J.J.J.J.J.J.J.J.J.J.P.P.P.P.P.P.P.P.R./. X;X6X9XyXpXgX",
"Z Z I I I U U U U U U U Q Q ~ ~ ~ ! ! ! ^ ^ ! ^ ! ! D.D.D.D.D.D.D.D.D.D.D.F.F.F.D.F.F.F.F.F.F.F.F.F.F.F.J.J.J.J.J.F.F.F.F.J.J.J.J.J.J.J.J.J.J.J.J.J.J.J.J.J.J.J.J.J.J.J.P.P.P.P.P.P.P.R./. X;X6X9XyXpXgX",
"Z Z I I I U U U U U U U Q Q ~ ~ ~ ! ! ! ^ ^ ! ! ! D.D.D.D.D.D.D.D.D.D.D.D.D.F.F.F.F.F.F.F.F.F.F.F.J.F.F.F.F.J.J.J.J.F.F.F.J.J.J.J.J.J.J.J.J.J.J.J.J.J.J.J.J.J.J.J.J.J.J.J.J.P.P.P.P.P.R./. X;X6X9XyXpXgX",
"Z Z I I I U U U U U U Q Q Q ~ ~ ~ ~ ! ! ! ! ! ! ! ! D.D.D.D.D.D.D.D.D.D.D.D.D.D.F.F.F.F.F.F.F.F.F.F.J.J.F.F.F.J.F.F.F.F.F.J.J.J.J.J.J.J.J.J.J.J.J.J.J.J.J.J.J.J.J.J.J.J.J.J.P.P.P.P.P.R./. X;X6X9XyXpXgX",
"N Z I I I U U U U U U Q Q Q ~ ~ ~ ~ ! ! ! ! ! ! ! ! D.D.D.D.D.D.D.D.D.D.D.D.D.D.F.F.F.F.F.F.F.F.F.F.F.F.J.J.F.F.F.F.F.F.F.J.J.J.J.J.J.J.J.J.J.J.J.J.J.J.J.J.J.J.J.J.J.J.J.J.J.J.P.P.P.R./.*X;X6X9XyXpXgX",
"Z Z I I I U U U U U U Q Q Q ~ ~ ~ ~ ~ ! ! ! ! ! ! ! ! ^ ^ ^ D.D.D.D.D.D.D.D.D.D.D.F.F.F.F.F.F.F.F.F.F.F.F.F.J.J.F.J.F.F.F.J.J.J.J.J.F.F.F.F.J.J.J.J.J.J.J.J.J.J.J.J.J.J.J.J.J.J.P.P.J.R.}. X;X6X9XyXpXjX",
"Z Z I I I U U U U U U Q U Q ~ ~ ~ ~ ~ ! ! ! ! ! ! ! ! ^ ^ ^ D.D.D.D.D.D.D.D.D.D.D.F.F.F.F.F.F.F.F.F.F.F.F.F.F.J.F.F.F.F.F.J.J.J.J.J.J.F.F.F.J.J.J.J.J.J.J.J.J.J.J.J.J.J.J.J.J.J.J.J.J.R.}. X;X6X9XyXpXjX",
"Z Z I I I U U U U U U U U U Q ~ ~ ~ ~ ~ ! ! ! ! ^ ! ! ! ! ^ D.D.D.D.D.D.D.D.D.D.D.D.F.F.F.F.F.F.F.F.F.F.F.F.F.F.F.F.F.F.F.F.J.J.F.J.J.J.J.J.J.J.J.J.J.J.J.J.J.J.F.F.J.J.J.J.J.J.J.P.J.R.}. X;X6X9XyXgXjX",
"Z Z I I I U U U U U U U U U Q Q ~ ~ ~ ~ ~ ! ! ! ^ ! ! ! ! ^ ^ D.D.D.D.D.D.D.D.D.D.D.D.F.D.F.F.F.F.F.F.F.F.F.F.F.F.F.F.F.F.F.J.J.F.J.J.J.F.F.J.F.J.J.J.J.J.J.J.J.F.F.J.J.J.J.J.J.J.J.J.R.{. X;X6X9XyXgXjX",
"Z Z I I I U U U U U T U U U Q Q ~ ~ ~ ~ ~ ~ ! ! ! ! ! ^ ! ! ^ ^ ^ D.D.D.D.D.D.D.D.D.D.D.D.F.F.F.F.F.F.F.F.F.F.F.F.F.F.F.F.F.F.J.F.F.F.F.F.F.F.F.F.F.F.J.J.J.J.J.F.F.J.J.J.J.J.J.J.J.J.R.{. X;X6X9XyXgXjX",
"Z Z I I I U U U U U T U U U Q ~ ~ ~ ~ ~ ~ ~ ! ! ! ! ! ! ^ ! ^ ^ ^ D.D.D.D.D.D.D.D.D.D.D.D.D.D.F.F.F.F.F.F.F.F.F.F.F.F.F.F.F.F.F.F.F.F.F.F.F.F.F.F.F.F.F.F.J.J.J.F.F.J.J.J.J.J.J.J.J.J.R.{.|.;X6X9XyXgXjX",
"Z Z Z I I I U U U U U U U U U ~ Q ~ ~ ~ ~ ~ ~ ^ ! ^ ^ ! ^ ^ ^ ^ ! D.D.D.D.D.D.D.D.D.D.D.D.D.D.D.F.F.F.F.F.F.F.F.F.F.F.F.F.F.F.F.F.F.F.F.F.F.F.F.F.F.F.F.F.F.F.F.J.F.F.F.J.J.J.J.J.J.J.T.{.|.-X5X9XyXgXhX",
"Z Z I I I I U U U U U U U U U T ~ Q ~ ~ ~ ~ ~ ^ ^ ! ! ! ! ^ ^ ^ ^ ! D.D.D.D.D.D.D.D.D.D.D.D.D.D.D.F.F.F.F.F.F.F.F.F.F.F.F.F.F.F.F.F.F.F.F.F.F.F.F.F.F.F.F.F.F.F.F.J.F.F.F.F.J.J.J.J.J.T.{.|.-X5XyXiXgXhX",
"Z Z I I I I U U U U U U U U U T ~ Q ~ ~ ~ ~ ~ ~ ~ ^ ! ! ! ^ ^ ^ ^ ^ ! ^ D.D.D.D.D.D.D.D.D.D.D.D.D.D.D.D.F.F.F.F.F.F.F.F.F.F.F.F.F.F.F.F.F.F.F.F.F.F.F.F.F.F.F.F.F.F.F.F.F.F.F.J.J.J.J.T.{.|.-X5XtXiXfXhX",
"Z Z I I I I U U U U U U U U U T ~ ~ ~ ~ ~ ~ ~ ~ ! ~ ! ! ^ ^ ! ! ^ ^ ! ! ! D.D.D.D.D.D.D.D.D.D.D.D.D.D.D.F.F.F.F.F.F.F.F.F.F.F.F.F.F.F.F.F.F.F.F.F.F.F.F.F.F.F.F.F.F.F.F.F.F.F.F.F.J.J.T.{.|.-X5X8XiXfXhX",
"Z Z Z I I I U U U U U U U U U T T ~ ~ ~ ~ ~ ~ ~ ! ! ! ! ! ^ ^ ! ^ ! ! ^ ! D.D.D.D.D.D.D.D.D.D.D.D.D.D.D.D.F.F.F.F.F.F.F.F.F.F.F.F.F.F.F.F.F.F.F.F.F.F.F.F.F.F.F.F.F.F.F.F.F.F.F.J.F.J.T.{.|.-X5X8XiXfXhX",
"Z Z Z I I I U U U U U U U U U U T ~ T ~ ~ ~ ~ ~ ~ ! ! ! ! ^ ^ ! ! ^ ^ ^ ^ ^ D.D.D.D.D.D.D.D.D.D.D.D.D.D.D.D.F.F.F.F.F.F.F.F.F.F.F.F.F.F.F.F.F.F.F.F.F.F.F.F.F.F.F.F.F.F.F.F.F.F.F.F.J.T.{.|.-X5X8XiXfXhX",
"Z Z Z I I I U I U U U U U U U U U T T ~ ~ ~ ~ ~ ~ ~ ~ ! ! ^ ^ ^ ! ! ^ ^ ^ ^ ^ D.^ D.D.D.D.D.D.D.D.D.D.D.D.D.D.D.D.D.D.D.D.D.F.F.F.F.F.F.F.F.F.F.F.F.F.F.F.F.F.F.F.F.F.F.F.F.F.F.F.F.F.T.{.|.-X5X8XiXfXhX",
"C Z Z Z I I I I U U U U U U U T U T U ~ ~ ~ ~ ~ ~ ~ ~ ! ^ ^ ^ ^ ^ ^ ! ^ ^ ^ ^ ^ ! ^ D.D.D.D.D.D.D.D.D.D.D.D.D.D.D.D.D.D.D.D.D.F.F.F.F.F.D.D.D.D.D.D.D.F.F.F.F.F.F.F.F.F.F.F.F.F.F.F.F.T.^.|.-X5XtXiXfXhX",
"C Z Z I I I I I U U U U U U T T U T U ~ ~ ~ ~ ~ ~ ~ ~ ! ! ^ ^ ^ ^ ^ ! ! ^ ^ ^ ^ ! ! D.D.D.D.D.D.D.D.D.D.D.D.D.D.D.D.D.F.D.D.D.D.F.F.F.F.F.F.F.D.F.F.F.F.F.F.F.F.F.F.F.F.F.F.F.F.F.F.F.G.Q.].-X5XtXiXfXhX",
"C Z Z I I I I I I U U U T T T T T T T T ~ ~ ~ ~ ~ ~ ~ ~ ! ! ! ^ ^ ^ ^ ! ! ^ ^ ^ ! ! ^ ^ D.D.D.D.D.D.D.D.D.D.D.D.D.D.D.D.D.D.D.D.D.D.D.D.F.F.F.D.D.D.D.D.D.D.F.F.F.F.F.F.F.F.F.F.F.F.F.G.Q.].-X5X8XiXfXhX",
"C Z Z Z I I I I I U U U T T T T T T T T T ~ ~ ~ ~ ~ ~ ~ ~ ~ ~ ! ^ ^ ^ ^ ^ ! ^ ^ ! ! ^ ^ ^ ^ ^ ^ ^ ^ D.D.D.D.D.D.D.D.D.D.D.D.D.D.D.D.D.D.D.D.D.D.D.D.D.D.D.D.D.D.D.D.D.D.F.F.F.F.F.F.F.G.Q.].$X<X2XqXfXdX",
"C C Z Z I I I I I I U U U T T T T T T T T ~ ~ ~ ~ ~ ~ ~ ~ ~ ~ ~ ~ ^ ^ ^ ^ ^ ! ^ ! ! ^ ^ ^ ^ ! ! ^ ^ ^ ^ D.D.D.D.D.D.D.D.D.D.D.D.D.D.D.D.D.D.D.D.D.D.D.D.D.D.D.D.D.D.D.D.F.F.F.F.F.F.F.G.Q.].$X<X2XqXeXdX",
"C C Z Z Z I I I I I I U U T T T T T T U T ~ ~ ~ ~ ~ ~ ~ ~ ~ ~ ~ ^ ^ ^ ^ ^ ^ ^ ^ ! ^ ^ ^ ^ ^ ^ ^ ! ^ ^ ^ ^ D.D.D.D.D.D.D.D.D.D.D.D.D.D.D.D.D.D.D.D.D.D.D.D.D.D.D.D.D.D.D.D.F.F.F.D.F.F.G.[.].$X<X2XqXeXsX",
"C C Z Z Z I I I I I I U U U T T T T T T T T ~ ~ ~ ~ ~ ~ ~ ~ ~ ~ ~ ~ ^ ^ ~ ^ ^ ^ ! ! ^ ^ ^ ^ ^ ^ ! ! ^ ^ ^ ^ D.D.^ D.D.D.D.D.D.D.D.D.D.D.D.D.D.D.D.D.D.D.D.D.D.D.D.D.D.D.D.D.D.D.D.F.F.G.Q.].+X<X2XqXeXsX",
"V C Z Z Z I I I I I Y I U U U T T T T T T T T ~ ~ ~ ~ ~ ~ ~ ~ ~ ~ ^ ~ ~ ~ ~ ^ ! ^ ^ ! ! ! ^ ^ ^ ^ ^ ^ ^ ^ ^ ^ ^ ^ ^ ^ ^ ^ D.D.D.D.D.D.D.D.D.D.D.D.D.D.D.D.D.D.D.D.D.D.D.D.D.D.D.D.F.F.G.Q.].+X<X2XqXeXsX",
"V C C Z Z Z I I I I I I I I U T T T T T T T T T T T ~ ~ ~ ~ ~ ~ ~ ~ ~ ~ ~ ~ ^ ! ^ ^ ! ! ^ ^ ^ ^ ^ ^ ^ ^ ^ ^ ^ ^ ^ ^ ^ ^ ^ ^ ^ ^ D.D.D.D.D.D.D.D.D.D.D.D.D.D.D.D.D.D.D.D.D.D.D.D.D.D.D.G.Q.].+X<X2XqXeXsX",
"b C C Z Z Z Z I I I I I I I U U T T T T T T T T T ~ ~ ~ ~ ~ ~ ~ ~ ~ ~ ~ ^ ! ! ^ ^ ^ ^ ^ ^ ^ ^ ! ^ ^ ! ^ ^ ^ ^ ^ ^ ^ ^ D.^ ^ ^ ^ D.D.D.^ ^ ^ ^ ^ D.D.D.D.D.D.D.D.D.D.D.D.D.D.D.D.D.D.D.H.Q.].+X<X2XqXeXsX",
"V V C Z Z Z Z I I I I I I I I U T T T T T T T T T T ~ ~ ~ ~ ~ ~ ~ ~ ~ ~ ~ ~ ! ! ^ ^ ^ ^ ^ ^ ^ ^ ^ ^ ^ ! ! ! ^ ^ ! ^ ^ ^ ^ ^ ! ! D.D.D.D.^ ^ ^ ^ ! ! ^ ^ D.D.D.D.^ D.D.D.D.D.D.D.D.D.D.H.W.].+X<X1X0XwXaX",
"b V C C Z Z Z Z Z I I I I Y I I I T U U T T T T T T T T T ~ ~ ~ ~ ~ ~ ~ ~ ~ ~ ~ ~ ~ ~ ~ ! ! ! ! ^ ^ ! ! ! ^ ^ ^ ! ! ! ! ^ ^ ! ^ ^ ^ ^ ^ ^ ^ ^ ^ ! ! ! ^ ^ ^ ^ ! ! ! ^ D.D.D.D.D.D.D.D.D.W.'.OX<X1X0XwXaX",
"V V C C Z Z Z Z Z I I I I I I T I U U U T T T T T T T T T T ~ ~ ~ ~ ~ ~ ~ ~ ~ ~ ~ ~ ~ ~ ~ ~ ~ ~ ^ ^ ^ ^ ^ ^ ^ ^ ^ ^ ^ ^ ^ ^ ^ ^ ^ ^ ^ ^ ^ ^ ^ ^ ! ! ! ^ ^ ^ ^ ! ! ! ! ! ^ D.D.D.D.D.D.D.W.'.OX,X1X0XwXaX",
"b V C C C Z Z Z Z Z I I I I I I I I T U U T T T T T T T T T ~ ~ ~ ~ ~ ~ ~ ~ ~ ~ ~ ~ ~ ~ ~ ! ~ ~ ~ ~ ^ ^ ! ^ ^ ^ ^ ^ ^ ^ ^ ^ ^ ! ^ ^ ^ ^ ^ ^ ! ! ^ ^ ! ! ! ! ! ! ! ! ^ ^ ^ ^ ^ D.^ D.D.H.W.'.OX,X1X0XwXaX",
"b V V C C C Z Z Z Z Z I I I I I T I I T U T T T T T T T T T T ~ ~ ~ ~ ~ ~ ~ ~ ~ ~ ~ ~ ~ ~ ~ ~ ~ ~ ~ ^ ~ ~ ~ ! ! ^ ^ ^ ^ ^ ^ ^ ^ ! ! ^ ^ ^ ^ ^ ! ^ ^ ^ ! ! ! ! ! ! ! ^ ^ ! ^ ^ ^ ^ D.D.H.W.'.OX,X1X0XwXaX",
"B V V C C C Z Z Z Z Z Z I I I I I I Y I I U T T T T T T T T T T T T ~ ~ ~ ~ ~ ~ ~ ~ ~ ~ ~ ~ ~ ~ ~ ~ ~ ~ ~ ~ ~ ! ~ ~ ^ ^ ~ ~ ~ ^ ^ ^ ^ ^ ^ ^ ^ ^ ^ ^ ^ ^ ^ ! ! ! ! ! ! ^ ! ! ! ! ^ ^ ! ^ W.'.OX#X1X0XwXaX",
"v b V C C C C Z Z Z Z Z Z I I I I I I Y I I T T T T T T T T T T T T T T ~ ~ ~ ~ ~ ~ ~ ~ ~ ~ ~ ~ ~ ~ ~ ~ ~ ~ ~ ~ ^ ^ ^ ~ ~ ~ ~ ~ ! ! ! ! ~ ~ ~ ~ ^ ~ ^ ~ ^ ^ ! ! ^ ! ! ^ ! ! ! ! ! ! ! ^ W.4.OX,Xz.N.C.Z.",
"v B V V C C C C Z Z Z Z Z Z I I I Y I I I I I T U T T T T T T T T T T T T ~ ~ ~ ~ ~ ~ ~ ~ ~ ~ ~ ~ ~ ~ ~ ~ ~ ~ ~ ~ ~ ~ ~ ~ ~ ~ ~ ~ ~ ~ ~ ~ ~ ~ ~ ~ ~ ~ ~ ! ~ ~ ~ ~ ^ ^ ! ! ! ! ! ! ! ! ^ ' 4.OX#Xz.N.C.Z.",
"v v V V C C C C C Z Z Z Z Z I I I I I I I I I U T T T T T T T T T T T T T T T T T T T ~ ~ ~ ~ ~ ~ ~ ~ ~ ~ ~ ~ ~ ~ ~ ~ ~ ~ ~ ~ ~ ~ ~ ~ ~ ~ ~ ~ ~ ~ ~ ~ ~ ~ ~ ~ ~ ~ ~ ~ ~ ~ ! ! ! ! ! ! ^ ' 4.0.#Xz.c.M.V.",
"3 v B V V C C C C C Z Z Z Z Z Z I I I I Y I I Y Y Y T T T T T T T T T T T T T T T T T T T ~ T T T T T ~ ~ ~ ~ ~ ~ ~ ~ ~ ~ ~ ~ ~ ~ ~ ~ ~ ~ ~ ~ ~ ~ ~ ~ ~ ~ ~ ~ ~ ~ ~ ~ ~ ~ ^ ^ ^ ! ! ! ^ ` 4.0.e.z.c.M.V.",
"3 v v V V V V C C C Z Z Z Z Z Z Z I I I I Y I I Y I I T T T T T T T T T T T T T T T T T T T T T T T T T T T ~ ~ ~ ~ ~ ~ ~ ~ ~ ~ ~ ~ ~ ~ ~ ~ ~ ~ ~ ~ ~ ~ ~ ~ ~ ~ ~ ~ ~ ~ ~ ~ ~ ~ ! ! ! ^ ` 2.0.e.z.c.M.B.",
"3 3 v v b V C C C C C C C Z Z Z Z Z Z I I I Y Y I Y T T T T T T T T T T T T T T T T T T T T T T T T T T T T T ~ T T T T ~ ~ ~ T ~ ~ ~ ~ ~ ~ ~ ~ ~ ~ ~ ~ ~ ~ ~ ~ ~ ~ ~ ~ ~ ~ ~ ~ ~ ~ ~ ^ ` 2.0.e.l.c.m.B.",
"2 3 v v b V V C C C C C C Z Z Z Z Z Z I I I I I I Y Y Y Y Y T T U T T T T T T T T T T T T T T T T T T T T T T T T T T T ~ ~ ~ ~ ~ ~ ~ ~ ~ ~ T T T T T T ~ ~ ~ ~ ~ ~ ~ ~ ~ ~ ~ ~ ~ ~ ~ ~ ` 2.0.e.l.x.m.B.",
"2 2 3 v B V V V V C C C C C C Z Z Z Z Z I I I I I I I Y I I I Y T T T T U T T T T T T T T T T T T T T T T T T T T T T T T T T T T T T T T T T T T T T T T T T T ~ ~ ~ ~ ~ ~ ~ ~ ~ ~ ~ ~ _ 1.r.w.l.x.m.B.",
"< 2 3 v v V V V V V V C C C C C Z Z Z Z Z Z Z I I I I I Y Y I Y I I I T T Y Y U U U U U T T T T T T T T T T T T T T T T T T T T T T T T T T T T T T T T T T T T T T ~ ~ ~ ~ ~ ~ ~ ~ ~ ~ _ 1.3.w.k.x.m.n.",
"< 2 3 v v v V V V V C C C C C C C Z Z Z Z Z Z Z I I I I I Y Y Y I I I I Y Y Y Y T Y T T T T Y T T T T U U T T T T T T T T T T T T T T T T T T T T T T T T T T T U T T T ~ ~ ~ ~ Q ~ ~ Q _ 1.3.w.k.x.b.n.",
", < 2 3 v v B V V V V V C C C C C C Z Z Z Z Z Z Z I I I I I Y Y I Y Y Y Y Y Y Y Y Y Y Y Y I I I I I I I I T U U U U U U U U U T U U U U U U U U U U U U U T T T U T T T T T T T ~ ~ Q Q _ 1.3.q.k.j.b.b.",
", < 2 3 3 v v V V V V V V V C C C C C Z Z Z Z Z Z Z Z Z I I Y Y Y Y Y Y Y Y Y Y Y Y Y Y Y Y I I Y Y Y Y Y Y T T T T Y U U T T T T T T T T I I T Y Y I Y T U U T U U T T T T T T U T ~ ~ ) :.3.9.g.j.j.b.",
", < 2 2 3 v v v B V V V V V V C C C C C C C Z Z Z Z Z Z Z I I Y I I Y Y Y Y Y I I Y Y Y Y Y Y Y Y Y Y Y Y Y Y Y Y Y I I I I I I I Y Y I I I I I I I I I I I U U U I I U U U T T T T T U W :.,.7.g.g.j.v.",
"& , < 2 3 3 v v v v b V V V V V C C C C C C C Z Z Z Z Z Z Z I I I I Y Y I I I I Y Y Y Y Y Y Y Y I I I Y I I I I Y Y Y Y I I I I Y Y I I I I I I I I I Y I I I I I I I U U U U U U U U U W ;.,.7.9.g.h.v.",
"& , < 2 3 3 v v v v B B V V V V V C C C C C C C Z Z Z Z Z Z I I I Y Y Y Y Y I I Y I I I I I Y Y I I I I I Y Y I I I I I I I I I Y I I I Y Y Y I Y Y Y I I I I I I I I I I U U U I U U U E ( ,.7.8.f.h.v.",
"% & < < 2 3 3 v v v B B B V V V V V C C C C C C Z Z Z Z Z Z Z Z Z Z Z Z Y I I I Y Y I I I I Y Y Y Y I I I I I I I I I I I Z I I I I I I I I I I I I I I I I I I I I I I I I I I I I U U W ( <.7.8.f.h.v.",
"+ & , < 2 2 3 3 v v v B B B V V V V C C C C C C C C C Z Z Z Z Z Z Z Z Z Z Z Z Z Z Z Z Z Z Z Z Z Z Z Z Z I I I I I I I I I Z Z I I I I I I I I I I I I I I I I I I I I I I I I I I I I I R ( >.6.8.f.h.s.",
"+ % , < < 2 3 3 v v v v B B B V V V V V C C C C C C C C C Z Z Z Z Z Z Z Z Z Z Z Z Z Z Z Z Z Z Z Z Z Z Z Z I I I I Z I I Z Z Z I I I Z Z Z Z Z Z I Z Z Z Z Z Z Z Z I I I I I I I I I I I R ( >.6.8.f.a.s.",
"O % & , < 2 2 3 3 v v v B v B B B V V V V C C C C C C C C C Z Z Z Z Z Z Z Z Z Z Z Z Z Z Z Z Z Z Z Z Z Z Z Z Z Z Z I I Z Z Z Z Z Z Z Z Z Z Z Z Z Z Z Z Z Z Z Z Z Z Z I I I I I I I I I I R / >.6.&.a.a.s.",
"O + % = , < 2 2 3 3 v v v v B B B B V V V V C C C C C C C C C C Z Z Z Z Z Z Z Z Z Z Z Z Z Z Z Z Z Z Z Z Z Z Z Z Z Z Z Z Z Z Z Z Z Z Z Z Z Z Z Z Z Z Z Z Z Z Z Z Z Z Z Z Z Z Z I I I I I R / >.&.&.a.a.i.",
"O O + & , < 2 2 3 3 3 3 v v v B B B B V V V V V C C C C C C C C C C Z C Z Z Z Z Z Z Z Z Z Z Z Z Z Z Z Z Z Z Z Z Z Z C Z Z Z Z Z Z Z Z Z Z Z Z Z C Z Z Z Z Z Z Z Z Z Z Z Z Z Z Z Z Z I Z R J ..X.&.=.d.i.",
"O O O % = , < 2 2 3 3 3 3 3 v v B B B V V V V V V C C C C C C C C C C C C C Z Z C Z C C C C C Z C Z Z Z C C Z C C Z Z Z Z C C C C C Z C C C C Z C C C C C C Z Z Z Z Z Z Z Z Z Z Z Z Z Z A J ..X.%.=.p.y.",
"O O O + & , < 2 2 2 3 3 3 3 v v B v B v B V V V V V V C C C C C C C C C C C C C C C C C C C C C C Z Z Z C C C C C C C Z C C C C C C C C C C C C C C C C C C C C C Z Z Z Z Z Z Z Z Z Z Z A J ..X.%.=.#.y.",
"X O O + % & < < 2 2 2 3 3 3 3 3 3 B v B B B V V V V V V V C C C C C C C C C C C C C C C C C C C C C C C C C C C C C C C C C C C C C C C C C C C C C C C C C C C C C C C Z Z Z Z Z Z Z Z A K  .o.%.#.y.y.",
"O O O O + % , < < 2 2 2 3 3 3 3 3 3 v v B B B V V V V V V V V C V C C C C C C C C C C C C C C C C C C C C C C C C C C C C C C C C C C C C C C C C C C C C C C C C C C C C C C C Z Z Z Z C H  .o.%.$.+.u.",
"X O O O + % = , < 2 2 2 2 3 3 3 3 3 v v v B B B B B V V V V V V V V C C C C C C C C C C C C C C C C C C C C C C C C C C C C C C C C C C C C C V C C C C C C C V C C C C C C C C C C C C C H  .{ O.+.@.u.",
"X O O O O + % = , < < 2 2 2 2 3 3 3 3 3 3 5 B B B B V V V V V V V V C C V V V V C C C C C V V V V V V C V V V V C V V C C C V C C C C V V V V V V V V V V V V V C V C C C C C C C C C C C H } | O.@.@.t.",
"X X O O O O + & , < < < 2 2 2 2 2 3 3 3 3 5 3 B B B B V V V V V V V V V V V V V V V V V V V V V V V V V V V V V V V V V V V V V V V V V V V V V V V V V V V V V V V V V V V C C C C C C V F G | [ @.l l ",
"X X O O O O + % & , , < 2 2 2 2 2 2 2 3 3 3 3 3 B B B B B V V V V V V V V V V V V V V V V V V V V V V V V V V V V V V V V V V V V V V V V V V V V V V V V V V V V V V V V V V V V V V V V F D ] [ z l k ",
"X X O O O O O + & = , , < < < 2 2 2 2 2 3 3 3 3 v B B B B B B B B V B B V V V V V V V V V V V V V B V V V V V V B V V V V V V v B V B V V V V V B B B B V V B V V V V V V V V V V V V V b S D ] d z l k ",
"X X X O O O O + % * = = , < < < < 2 2 2 2 2 3 3 3 3 3 B B B B B B B B B B B B B B B B B B B B B B B B B V V B B B B V V V V B B B B B B B B B B B B B B B B B B B B B B B V V V V V V V v n 8 f f j j h ",
"X X X X O O O O + + * = = , , , < < 2 2 2 2 2 2 3 3 5 3 5 B B B B B B B B B B B B B B B B B B B B B B B B B B B B B B B B B B B B B B B B B B B B B B B B B B B v B v v B B B B B B v v v 4 8 f s j h g ",
". X X X X O O O O + + % = , , , < < < < 2 2 2 2 2 2 3 3 5 3 5 5 B 5 B B B B B B B B B B B B B B B B B B B B B B B B B B B B B B B B B B B B B v B 3 3 v v v B B v v v v B v B B v B v v 3 4 9 7 s a g i ",
". . X X X O O O O O + + % = = , , < < < < < < 2 2 2 2 3 3 3 5 5 5 5 5 5 5 5 5 5 5 5 5 5 5 5 5 5 5 5 5 5 5 5 3 5 5 5 B 5 B B B 3 5 5 5 3 3 5 5 5 5 3 5 5 5 3 3 3 3 3 v B B v B B v v 3 3 3 2 9 7 a a i p ",
". . X X X X O O O O O + + % * = = , , , < < < < 2 2 2 2 2 3 3 3 3 3 3 3 3 3 5 5 5 5 5 5 5 5 5 5 5 5 5 5 5 5 3 3 3 5 5 5 5 5 5 5 3 3 3 3 3 3 3 3 3 3 3 3 3 3 3 3 3 3 3 3 3 v 3 3 3 3 3 2 2 2 1 6 a y p u ",
". . X X X X X O O O O O O + @ * = = = , , , < < < 2 2 2 2 2 2 3 3 3 3 3 3 3 3 3 3 3 3 3 3 3 3 3 3 2 3 3 3 3 3 3 3 3 3 3 3 3 3 3 3 3 3 3 3 3 2 2 2 2 2 2 2 3 3 3 3 3 3 3 3 3 3 3 3 2 2 2 < < 1 6 y t r u ",
". . . X X X X O O O O O O O + % % * = = = , , , < < < 2 2 2 2 2 2 2 2 2 2 2 2 2 2 2 2 2 2 2 2 2 2 2 2 2 2 2 2 2 3 2 2 3 2 2 2 2 2 2 2 2 2 2 2 2 2 2 2 2 2 2 2 2 2 2 2 2 2 2 2 2 2 2 2 < < , - > t r e e ",
". . . . X X X X X O O O O O O + + % * * = = = , , , < < < 2 2 2 2 2 2 2 2 2 2 2 2 2 2 2 2 2 2 2 2 2 2 2 2 2 2 2 2 2 2 2 2 2 2 2 2 2 2 2 2 2 2 2 2 2 < < 2 2 < 2 2 2 2 2 2 2 2 2 2 < < , , = - > : w e q ",
". . . . X X X X X X O O O O O O + + + * * = = = = , , < < < < < 2 2 2 2 2 2 2 2 < < < < < < < < < < 2 < 2 2 2 2 2 2 2 2 2 2 2 2 2 < < < < < < < < < < < < < < < < 2 2 2 2 < < < < < , = & % % $ : w e q ",
"  . . . . X X X X X O O O O O O O + + + + * * * = = = , , < < < < < < < < < < < < < < < < < < < < < < < < < < < < < < < < < < < < < , , , , , , < , < < < < < < < < < < < < , , = = = * + + + # ; w 0 q ",
"    . . . X X X X X O O O O O O O O O O + + * * * * = = , , , < < < < < < < < < , , , , , , , , , < < < < < < < < < , , < , , , , , , , , , , , , , , , , , , , , , , , , = = = * * @ + + O O # ; o 0 q "
};
