/* XPM */
static char *_731ca1505904d1fbf226f701916078b2CcE7RLpF7phQQQ1[] = {
/* columns rows colors chars-per-pixel */
"128 128 114 2 ",
"   c #343D5F",
".  c #353E61",
"X  c #374064",
"o  c #384266",
"O  c #3D4867",
"+  c #374168",
"@  c #3A446B",
"#  c #3E496C",
"$  c #3D4771",
"%  c #3E4974",
"&  c #3F4A78",
"*  c #424D6D",
"=  c #45516F",
"-  c #414C75",
";  c #424C7B",
":  c #465273",
">  c #495674",
",  c #4C5A76",
"<  c #46517C",
"1  c #49557C",
"2  c #4D5B7C",
"3  c #505D77",
"4  c #505E7B",
"5  c #54627D",
"6  c #58677F",
"7  c #57687F",
"8  c #58687F",
"9  c #444F81",
"0  c #465184",
"q  c #495584",
"w  c #4E5B84",
"e  c #475288",
"r  c #4A558C",
"t  c #4E5A8C",
"y  c #515E85",
"u  c #515E8B",
"i  c #4C5790",
"p  c #4E5A94",
"a  c #515D94",
"s  c #505C98",
"d  c #536283",
"f  c #586784",
"g  c #576883",
"h  c #5B6B85",
"j  c #54638B",
"k  c #58678C",
"l  c #5C6C8B",
"z  c #5F7089",
"x  c #556293",
"c  c #586693",
"v  c #5D6C93",
"b  c #566398",
"n  c #596699",
"m  c #5D6C9A",
"M  c #5F7091",
"N  c #606F87",
"B  c #606F8C",
"V  c #607187",
"C  c #62748B",
"Z  c #66798D",
"A  c #687B8F",
"S  c #606F94",
"D  c #606F9B",
"F  c #637493",
"G  c #677993",
"H  c #6A7D92",
"J  c #64749B",
"K  c #68779F",
"L  c #67789B",
"P  c #6B7C9B",
"I  c #6675A1",
"U  c #6877A2",
"Y  c #6778A1",
"T  c #6B7CA2",
"R  c #6E8194",
"E  c #6E819B",
"W  c #718596",
"Q  c #72859A",
"!  c #758A9B",
"~  c #798E9E",
"^  c #7B909F",
"/  c #6F81A3",
"(  c #6F81A8",
")  c #7284A3",
"_  c #7689A3",
"`  c #798DA3",
"'  c #7385A9",
"]  c #7689AA",
"[  c #7A8DAB",
"{  c #7D92A2",
"}  c #7E92AB",
"|  c #7F93B0",
" . c #8196A5",
".. c #8399A6",
"X. c #8196AB",
"o. c #859BAA",
"O. c #889FAC",
"+. c #8196B0",
"@. c #859BB1",
"#. c #899EB2",
"$. c #8BA2AE",
"%. c #8DA4B2",
"&. c #8FA8B2",
"*. c #8FA6B8",
"=. c #90A7B3",
"-. c #92ABB5",
";. c #90A7B9",
":. c #95ADB9",
">. c #96B0B7",
",. c #97B0B9",
"<. c #9BB4BD",
"1. c #9EB8BF",
"2. c #9EB7C0",
"3. c #A0BAC2",
/* pixels */
"y a q ; & @ + - = N P ] h v Z ] K * r : G E l - x k A W C k y l l 2 = ; ; @ + ; - * 5 N F k y l ) _ Z _ H N j j H Z R 4 ; @ . . . . @ ; 4 R N H u j A E _ B _ E l d v P V 3 > ; ; + + ; - = 2 j c w k A W Z j a : B _ F : r * T ' V v z ] H h = ; @ + & 9 r u y ",
"t i 9 $ o   + ; = h E ] h v Z ] P - e * v P S * p u A W C j y j 5 > - ; $   . $ e r 1 5 h B u u C [ ! H ) B f u F W A G > 0 + . . @ ; > N N H v j F R | Z P ) l j k G Z 5 1 r ; X   X $ ; * = 5 c y k Z W C u p > G E v : 9 : P ) V k C | ) 8 = ; . . @ $ e s u ",
"q 9 @       + % = f ( _ V F R [ F 1 ; - x F D = p u V ! V j u d 3 > < e $ $ ; 0 9 r p u k h 5 u j H } R E K N c d ` R W 6 : & . . % * 3 V l T y F W ` Q Z ' l j j Z H l u a ; ; ; ; % ; e 1 = > w u f Z R h u t , E R j 0 % y J P B l Z | ] h = ; X       $ 9 q ",
"; $ .       + - : l ( E V P R ` F t ; ; j l J > 0 a h R V t u 4 3 1 t e - ; p i q ; 1 j j S h , a y ] X.A / N B j F } R R , < 9 ; - = h l T l l Q ! X.C T J u y N H F u a * - r p p 0 0 i t - = 1 a d V R d a 1 d / Z d ; % u S F B C R } | z : ; +       . $ ; ",
"& @       . $ ; q J / E A E Q Q C u & @ u f F y * a 6 A V u u , 3 w p ; # q t u u y : 2 j d D f > a l +.` C U f S 5 } } { G w u p 1 l J I L d Q ~ +.R H T w u 6 Q P y u * - u u u u w < r a q = - p y V Z d a > B R B t @ ; u v l S C R { } J 2 < +       . @ $ ",
"@ .     . @ 9 r j F E W W _ ` R l t 9 X a d l c o p d V V y t , 2 t p $ # i u y d d u 1 < u f D 4 1 u H o.R K f B l C o.X.@.F d t c Y Y P h H {  .` C T d a d Q ) d u * ; p y y y u w : 1 p t : # i y C Z y p > G Z f s   e u c 4 v F ! X.} G j r 9 .       . @ ",
"@ @ + $ % 0 p u j C Q ^ ^ ` ` G f y 0   p d h v * 0 y h N y p 1 2 u p # - a w y y y y p w < y k D > r d } o.C I 6 D h  .o.o.{ z h F L F H C }  .#.A F S t d H [ h a # q a y d d d d y 1 1 u x < @ p y V h j q 4 H N y r   i y x 3 S G ! O.{ H d u i ; @ @ + + $ ",
"< < & ; 0 t u w h A ^ ....} ! V k u 9 . r y d v - $ u d N y r 1 5 u p X : a d d 5 y u a p e r y k D * p l @.! F f k v H $...$.^ W R H R A ` o.o.` C I 2 t N X.C u % 9 a u d y y 4 y u 1 1 u x < # r d h f a < f G h u $ + r y x = c F ! $...W h w a q ; % - - ; ",
"= = = , w j h h R { $.$...{ E 8 y a - @ r u d j w + p y f y r q y t p # ; a y w y a t r 0 e 0 i y k c # u ! o.C m 4 I C $.&.-.<.&.~ ^ ^ { @.O.@.Z F j p 5 { E y ; ; t w w y u y y y y w 1 u a 0 @ e u f d a 1 l B y p @ ; q y t = c C ! &.=.^ Z g j u 1 : = = = ",
"V C C G P E R ~ ..=.>.&...Q C 5 t t * $ r w y j a # 0 u d y r q y u t O < a y y u a r - # O ; ; p y v 1 0 d @.^ l y c v ! >.<.1.1.-.%.o.@.%.#.! z m t w W ` d r @ r 1 4 w u a t t u t 1 < u p 0 @ r y h y i 2 B h u ; @ r w y t O u l W $.,.$.! A C J J v l N C ",
"E _ | | } } o.$.=.>.&...! C d 2 p 0 o $ i w y d a # $ a 4 y p r w t p @ < u y y t s ; @ o o o @ & a d n o a H %.C m 2 I C =.1.1.3.3.,.;.:.%.@.C v t a V X.z s . t 1 1 w r i i r p x t w w u a 0 + e y d u r 2 l 5 p @ ; t 2 w r o w j Z ..-.-...~ W Q ) ( / E H ",
"] [ } { {  ...$.$.O.^ R V h y w p % X ; a q y y a < + p u y p 9 t t p + ; u y y t e @ . + $ # o . 9 u k a * d o.{ j w n l ! <.1.3.3.<.<.*.%.W f b p 5 { W u + e 2 2 t i 9 $ $ ; e a x w r a x 0 X t y y p r d d y r X i q 2 w i X 0 u h ! $.-.$.{ ! Q Q Q ' ] ' ",
"g h V C A R W W W H C h y y u i ; o o q a w w y t 0 X ; a u a & p u p X ; p u w t 0 . . ; i r 0 @   r u j * p G %.V b 1 n C ..3.3.3.<.:.&.{ V c r w H  .d 9 & w w t i %     X + < i p w t u a 9 X i u y p t d d x # @ p y 2 w e + 9 u d C ! .. .{ ~ R A C h h h ",
"v v F D J K J F F v j u a s 9 $ X   $ p a y w u u p + + p u p $ p u p X ; p y w t 9   @ e a p a r @ . a d x o d o.{ d 0 b d A -.1.<.2.:.o.A h a p 8 ..C p   t w t i @ . . . X   + r p t t a s ; X p u u e y d y i   ; u y 4 w e . & i y k G _ { { { _ / K F S v ",
"C N N 8 h f f d w 1 : - $ @     X $ r a u w w y u p $ . 0 x a ; e a p + + p u w p 0   ; p u w u j p o @ a y ; r C %.h a 0 x h ! $.-.-.O.W h j p d ! ~ y o p d y p o . $ & & +   X e a t i a p $ . p u s e y y a ;   i u y y t i . + e r 2 g C H Q ` ~ Q W H A C ",
"] ' ( P D k y 1 * # o @ + + + $ 0 p a a y y y y p s ;   $ p p 9 @ s s + + p u t t 9   9 p w d d d t i . e y a   y ..~ y 9 s d V ! ....W V y s a V ..h r % d y a @   9 i p i ; X X 9 a p a a p @ X p a 9 p y u p   @ p u y y u i +   & i q 2 4 8 C H E ) [ [ [ ] ",
"v J v v k j j u u a a i p r p s a a u u y y u u u s e X X e s e X p s $ X p u u x 0   e a w g g g d x 9 . a d 9 i C &.V p e u d C R R V 5 a p 5 ^ W u . p d a @ . 0 s a p s e +   9 s a s s i X @ p s $ x y p 9   9 a u t w u s ; X X 9 p a y y d d l l S F J M ",
"= * - w a u y y u y w w 2 w y y y u u y y u u a p p e @   $ i e   e s ;   e a p x e   e u d h g V h d p @ ; w a   y ..! y e i y 7 V V g y i t V ..d $ t d u 9 . r p u y u a p #   9 s p s s e   $ i 0 + x x p X X e a y t t u a r @   X % e p a u u u u 2 : = - ",
"0 r ; @ @ $ 9 r q q 2 2 y 4 y y y d y u u u u u a s i $   o 9 e   @ i e   0 p a t i   e x d h V V V h d s . s y 0 i A $.h p i a w d d y a p d ^ R p o w y p   9 p w w d y a p @   e a s s s ;   ; i @ ; b s ;   $ s a y u y y a p r % o X o @ - ; ; $ $ $ ; 0 q ",
", > < 0 ; @ . . $ r r t u u d d d y y y u u u a a s i ;   X $ 9 X   e e   ; p a x i   0 u d 8 h V V V h y ; % y a . d o.W w r s u y y a s t A ~ d @ p d a o % x w d d d d u s # . i s i s i @   9 ;   e s i o   9 s u u y y u u a a p r ; & $ @ + . @ $ ; - < 2 ",
"H F l j u u p e - @ @ 9 i a u j u u y u u a u a p s i ; o   o $ @   ; e X @ s a a p . ; a 5 f 6 f V V V d a . p y ; p R ..g s i s a a s a h ^ Z a @ w y e o p w d f y y y u p + . i s e s i o X ; o   e i ;   + e s a t u u y u y t a a t r r r p s a u j l F P ",
"/ / E H C h 5 d u t ; o X @ 0 p s s a a a a a p s s e ; o     $ #   o e @ . i s s s + $ a y y d 5 f h V V d 9 & w a o d ..A t s i s p s d A ~ d . s d a   i w d f d d y y a i X $ i s e s 9   o $   X e 9 o   $ i p a p t t w y w d y w w w j w w d f l C P P P ",
"d B J P E H A l d d j a q @ X X $ 9 i s s s s s i i e ; o     o @     ; $   e s s p $ + a w d y t u y h V h a   a d @ a W ^ h a p p s u 8 ! V p % w y $ ; j d f 5 y y y u a e   & s i e i %   @ o X @ ; #   . & i s a a p t u u t w w y d d d d g k v J J S k 5 ",
"1 : > 4 d C F F F z d d u a e $ .   X $ 9 r r r e e 9 $ o     O @     @ $   ; s i s 9 X p y y u s s a y h C d ; 0 d p % h ..A d t x t d R ! d . a w p   s d h d u p a u u a 9   9 i ; i i o   o     @ $ X   @ 9 r s s a a a u u y u y y y j j x c v j 2 = * : < ",
"a a p q 1 : > 2 d l l l d y u a r $ .     o $ $ ; ; ; $ o       X   X X ;   @ i i s i   i u u s i i p s y V h p   j y . u ! ! 8 d d d Z ! V p % w u @ e d d y a s i i s a s $ X i i & i ;     o o   @ o     @ 9 e s s s a a u u u u t j a a t < # O # - r p a a ",
"l u u t a p t r q 1 2 w d d y w u p i $ .       o o O O X       O O X   $ o X i s i i X 9 a a i e i s s a d V d % p w r r V ..R N h V W R y . a d p o a d d p e 9 ; ; s s i X + i e 9 i %   X   @   O       @ & e i s s s s p s p p e < # o o @ ; r p a u j k k ",
"H C V h 7 d d t t p i i i t t j u a a s 9 $ .                   X     o o o   9 i e s $ @ a a e e a u u s a h h p @ w a . y ! ! A Z R ! h p $ d u + p d d a e r r ; @ e s e   & s $ e e o     X o         X @ ; 9 e e e e e e 9 % @ X X + ; r p t w 5 7 V C H H ",
"W W W R R V V h h d d u i e 9 9 i s s s s e & @ X                     @   @   $ i 9 i 9 . i a ; i a u d y s t V d . a d @ a V ! ! R ! Z y o a d s o t d u e p s s 9 @ 9 s & . e i @ r ;       % X         X o @ % ; ; % # # X     + % e a j d d g V Z A R W W W ",
"C C C h V V g h 7 g d d y u p p ; @ o % 9 9 ; ; @ X X                 $   o X o e e i i . e s ; i u y w d t p 5 d e r d p & d R ! ! R g a @ y u @ p d y e a u p a e . 9 r @ + i ; ; r #       ;     O     O X X O o X X     . + 9 p a u y d g g h V V V V V C C ",
"j j u u w u u j u u u u u u a a s i ; .       o o o o X X             @ o   X   9 i $ i + $ s % e a u y y d a a 8 a . w u   a V R A V u @ p d a . j d i s u u x s 0   9 9   & i @ e 9 X     + #                       X X $ 9 i x a u y y y y y y u u u t u j x ",
"y u u t t r 0 0 ; ; ; ; 9 e e p p p r e $ .   o .                     @ @   X   $ i & s 9 . i ; 9 a u u u w d p 5 d + a y ; r d V h d p . u y & r d a i u u a a s 9   ; $ . e 9 $ i %       ;                       X + ; e i s p p p p i r r r p p t u u j y y ",
"v k 2 > # * @ O @ @ @ + . .     . @ @ % ; $ @ .   @ $ @ .             + %   X   X e e 9 i   e e $ a a a a u d u p g p e y p . u 5 5 u @ e d a   t d e u u a s s s ; . 9 X + i @ 9 e O     X ;     X   X     X X X @ $ ; 0 e e 9 ; $ $ ; 0 r q 2 > , , , 4 d l k ",
"k , = = = : 1 q t t r r r e 9 % + + .     . . @ .     o % ; + @ . . + $ %   X X   9 i & i X 9 s @ a a s i a y d p g j   y u . i u u i   a y 0 r 5 p p y a s s s p @ + 9   9 e + e ;       + $           X X o o @ @ @ X     . + 9 i a u w u y d d d 2 3 4 3 d k ",
"> = * ; r t u p u u u a a a a s p p e ; $ . .     . o       @ ; ; & ; ; #   X X   @ i e i ; + a @ a u s e i u 5 y u g & a d $ 9 a s ; $ w u . d d p w u s i i s s X 9 ; . i ; e e X       $ ; X           X             + ; i s a a p u u u u u u u t w 1 : = 2 ",
": - < i s p u u t u t u t a a s a s s s i r e & + .               o # @ X   X @ X   0 s i p   a 9 a u s ; ; s y g a V u ; w r X i i . i y i r g p d y s 9 9 i a a X s $ $ i $ i ;     X   % $ X             X X   X $ e i i s s i i i i r r r r t t a s i 1 - : ",
"; ; 9 r 0 < 1 1 2 2 1 q r p t i s p i i s p p i e & $ + .                   + & +   $ s i p X a a p y s % o ; a h d 7 g . w a   ; - . u y   d d p g u r @ $ i a s ; s . i i i i X   X X   $ ; $ $ + $ % @   . + % 9 e 0 9 ; $ @ + X X X X o o O O @ * ; e 9 ; < ",
"% + ; < < < 1 q w y q u u u u p a a s s i e 9 e i i e e % + .     X   X X @ $ ; & X   e s a ; r u r w a $     r 5 C p A r a y @ o   ; w a 0 V a h d i o X $ p u i a i X s e p ;   + @ X   o @ @ $ @     X @ $ % % @ X     . . @ $ ; 9 0 e q 0 0 < : # * ; @ @ ; ",
"+   $ e q d r t y y u u a s a s s s i s s s i e & $ 9 e e e 9 @ X     X @ $ & 9 9 $   % s s a + w i d d %     X a A u A y ; d e   . a d $ y C t V a @     $ t y ; u ; 0 s s i X X $ $ @             + o @ + .     X + ; 9 r p s a a a a u u u t p p t r 9 @   $ ",
"@ X ; p u w d w y u a a r r 9 ; % $ ; 9 e i s s s s 9 $ + ; e r 9 $ .   . @ ; 9 e ; X X p a a . u t d d e . $ . 9 h N d C . y a + $ t u @ Z y V d ; . .   0 w y p u . s p s %   + & ; $ @ X X X X X .     . + & e i p s a p a u u u y w u y y w w w d a i $ . $ ",
"; $ ; t u w d w y a p q - o X             . o % 0 e i i e % X $ e i e $ .   X $ ; 9 @   ; a a r r d p g p . 9 9   y W s ^ r a u 9 i d r u W a A a . & $   p 7 p d i ; a a r   . & 9 9 ; @ # X       . + & e i p s s s s s a a u y w q w y w y d d d w u r ; $ ; ",
"- e - < u w d d y a p ; @ X . + $ & & & % @ @ .     @ ; r i p 9 + $ i i e $     @ % $   o s u a . d p h j   i s ; q W u W y 9 y s a y . V d N d @ ; s ; . u d p d . a a s %   $ 9 9 ; % +       + & e i p s i i p s a a a a a a a i t t t t u y y d w w < 9 e * ",
"> q r # r u y w w a s $ o . $ ; i i s a a s p i 9 % . .   @ ; e i e ; 9 s s e +     o X   9 u y ; u g d d @ i a a . d A d A . u a u a r  .a ~ a @ a a $ 0 7 j d a % u a r   X $ ; ; @     + $ e i i e 9 9 e s a s s s i r 0 9 ; ; ; 9 9 e p a u y y t 2 > p 1 > ",
"6 2 a < * t u d y t i &   . $ r a a u u u t a a a s s e $ X   . @ e p p i i s s 9 +       @ p u a ; z a A i e u d r a  .p ..; a u y % d A d C . a y a . u C a h @ a u s @   @ $ @ .   X ; i i i 9 $ 9 i p s i e ; @ .         . . .     + ; t a u u w < r u 1 6 ",
"B N j a - * a u w q r 9 + . $ i a u j d d d y u a s s s i e 9 $ X   . % i s s a a s 9 @ . @ i u w @ d d V y @ y w u . ! a  .u r u a @ ~ u ~ u e d w a X h d g t % y u r X       . + 9 p s p ; 9 i i i r % X   . X $ 9 e e p i e 9 & + X X + ; t u u 1 q u j 6 F ",
"G A G j u - - s w 2 2 t ; + + e a u d d d d d u s i 9 ; @ @ % ; 0 e e %   + i a a a a s 9 & e p d a p A u C o y w d r d h V h . a r a O.a ^ . u d d r a H a V @ u u i $     . $ e s a s i i p i e $ . . + ; i i a p p u t j u u p i e ; # o # r a < w u c h B D ",
"k B A E k u ; $ i 2 2 w s ;   $ i u w d g 4 t p s ; $ + + . .     + e a a i $ . i a u u u s p s d w . V u ! p p y u u r ..u ..@ 9   h h h d i y w u . h d V u ; w u i $ @ & i a a s a a s 9 @   . + 9 i a a u u w d d d g d d d t u s r # X $ i q q y c S f v j ",
"j j h R _ l u q @ r 2 2 y a %   - s u d d 5 d t i 9 9 i i i e e e ; $ @ e a u a 0 . r u y y t a u w a a W d N % u s u o =.0 <.p . ; $.a $.$ y a y a i ~ x A + t d a i i p a y u u a r @ . @ 9 e s s s s a a a u y d d g g h h 5 w t a 0 # @ ; q t y c F 6 y y k ",
"B j u 6 R [ G d p . 9 q w w a ;   % s u 5 g d w s e r s a a a s s s a a a r e u d w i . p y y w w d w   R a ..- y $ ; a C a $.y @ t -.i ~ r a e y $ V d R a r d d a a u t u u a $ . 9 p a a s r ; $ $ $ & e i s u d 7 g V V g d w u a ; X $ e a y v D 3 y u k S ",
"] l y t 4 Z [ E d a @ $ p d w x r   @ p u d g d u p e s a j a s s s s a u y 4 y p u h d p . p y d d d r u W d h a $ . p r l l C p V C h t u   $ y i ^ d Z . w d d w w w u i   ; a d y a r $ @ % 9 r i s p r e s a d 7 h C V V 5 y a 9 + + e u y v m , q u d E ] ",
"Q ] F 2 a y N ` ` h t 9   p d d t p @ . i u d g d t i i a u a a i i e e i s a y h 7 a u C h p . a y y s o ~ a $.. 0 i . @ -.u =.y -.a >.@ . ; 0 ; W a  .a i w d d y u 9 o a 5 5 d p r a u u a a x p u u u a i s a w g V C V h y a e . . i u d S j * r u h _ } Q ",
"Z R ' T 4 w u 5 Q { R d p . ; t d d a 9   ; a y d 5 t p p a u u a i 9 $ @ @ @ 9 a y h V w d W h r @ a a $ u ! d j a p p a ,.% 3.N 3.$ ! i a r a a A h h . u d y a % $ u V V y p t d d y u a a a a u d d u u s p j 5 V Z C h y a 9   $ a u k m 1 % a y G } { R H ",
"] R Z E ( c 1 a 4 V { { C t 0   p y d d a @ . i u d 7 d p r a u u a i $ .     . . . r u Z A u d ~ d ; @ @ $ ^ a -.; r V @ k $ 3.$.$.u 9 - 5 $ ; =.p O.r 9 s p @ 9 d A C a d h h 5 y a s s i s s a u d y y a s x 5 V Z z d u s @ . 9 a y k c O 0 u h [ +.~ A E ] ",
"R ] } G H K I y q u 5 Q X.! h p @ @ a d d t i . @ a y 5 d p 0 a y y j p $   o $ 9 r ; . $ u H H a C ~ y @ @ w o.t u . { h @ t -.3.f $.r h C 9 d u ^ y   @ . r h { h s h R h y a r - @ @ $ 9 i s x j d y a p a d C Z h d p 0   $ p y d x : # a d P @. .W G ) P G ",
"N R _ | ` H Z G m q a w h ` ..A d s . ; a y w u r . $ a y d w p p y d d x 9   @ i a u t x < . u ~ V a ^ W u a  .u -.r ~ 1.; ! R <.9 %.0 1.j @ o.d ^ i @ p N ..f a C ! d p % .   . .   . @ 9 s u d d y a s w g Z V d u i . . i j y j p o r w C o.#.~ C P T Z Z f ",
"u l R ! X.+.! A C S x q a w C .. .C w r . e u y w a e . $ a u d t p a 5 g d p o @ s u d d d w a . u $.u d >.V V <.& l j 3.t 1.j <.. ; &.3.@ $.; <.d u V =.d a W ! y % . 9 i i i 9 @   o r s t d d y s x d h V d u p @ . r u w u a o - p l [ %. .H C T B N h j u ",
"k y k H ~ ` #.@.W C l v a r t 5 R ..^ V t 0 . r u y d u r . @ p y g y a y z V d r   r u w y u a u u . h ^ 9 { -.:.V Q - 1.<.Q r -.u # 3.o.; t ..~ A -.l i W ~ p X p t w d y a i $   % s j 5 g y p p d h h d u i . . p u y y s o $ p g _ %.o.H l J S f f k j d k ",
"Z S d d F _ X.o.*.X.R V l x p p u g W { ! h u 0   r u w w u p @ @ p d V d a d A A y r . p y u e o . 9 a @ %.u j 3.3.% Q -.>.% @ C <.$.<.@ o.d 3.1.! ; A ` 0 r y y u w y y u i . o p y h V d a p d 5 g y a e   @ a w d y a o $ a f ! %.O.R l n v 5 d v c d k P R ",
"V V P v 5 l _ @.O.#.%.{ A d d a i s y h W  .R 8 u 9 . 9 a y y y a $ o a d A h a y R ~ h p . u u @ $ a p @ p r o.% :.$.q $ Z < . u d $.<...9 3.<.r d $.$ a r X X ; p y y s @ @ p 5 V A f a a 5 h d u p @ . 0 p w d u i . % u d ! $.$.R h c c 4 d m v d h ) _ Z Z ",
"H N h J T z h W #.*.%.%.o.Q V d y a s a y h W ^ Z 8 u e . & a u y d u q   p d W R d a h ..! u . p i % d W W u 0 ..; Z d ,.>.<.- $ ; h @ o -.l ; 3.@ ; 0 a a e . i y a o 9 d C ~ A d a d N N 5 a ; . ; p y d y a 0   0 u h ^ $...R d x u 1 y n D k V ! +.! R R H ",
", h V N J T C A ! $.:.;.:.%.~ A h d j s i u 5 Z W ! Z 5 u r . + i a y d w p o 9 y R ..V p a C =.H r q ; a %.3.1.C $ E j @ - u _ @ O.$.j z % $.% ; R =. .f r $ u 0 $ u A o.W d a y V W C d i . % a u d y u i @ o p y h ^ $. .Z d a r < w n m l Z ~ o.@.) W W l > ",
"; - , 8 F I F H ! ..=.:.:.:.%.~ Z g d u s s a d h R ! W N d a r X   ; s u y d u 9 . p h ..O.h p r l <.W % 9 j 3.,.>.P $.; w c _ ) r o.u < < C <.3.3. .r ; r & d O.=.Z u p y A { W d a X @ a t y y y a 9 . ; a d V { O.~ Z y a i ; t b v z R ..=.O.X.+.` A 4 < ; ",
"+ ; - * y I P A ! $.>.<.<.<.-...! V g d u s i a d h Z W W Z 7 w a r $ . X 9 p u y y s @ @ u C -.>.C t @ u $.o.& ; ,.h G # . 5 k f k 0 o...A R >.H @ @ u $.<.A u 9 a h ~ $.~ 6 a @ @ p y y d d p r . X i u 6 A ^ ..! V y a r 9 p x j h Z ..,.<.&.o.#.} h : < ; . ",
". + % - q x F H ^ -.1.3.1.<.>...R V d y a s i a t g Z W ! R V f y a s 9 X   X 9 s u y u s $   r y A >.3.&.l r   q $.l d L F > - # @ o.r o.P o F 3.{ u $ $ p h ..<.-.A y i . ; p y y y u p 9 .   ; p y 6 R ^ { W V 5 a i r p p u d V ! &.3.1.>.-.$.Q v 2 ; % . . ",
"+     ; p u h W $.3.1.3.3.<.$.! V g y u s i s t d N A W W A h 5 t a i ; . . @ e p u y u s 9   @ p y h ..3.1.<.3.$.C w r @ : H > 3 H ! P ;   $ t d R -.3.3.<.W d p ; . ; s u y u s r %   X $ r a y 5 V R ! ! Z g y s i i a j d h A  .,.3.1.1.3.-.W h u p ;   X X ",
"X . + 9 t d C  .>.1.3.3.2.$.W h 5 u a s r p u d V W ~ ~ A f y p e @   . ; p a y y u p @ . r u N O.3.3.O.l t &   & F &.) , ) E W > @ d &.- o q h O.3.<.3. .h j i . @ i a u u a i & .   @ e p a y d C R W R A g t a i s a t d h A { :.3.3.3.3.<...H k u r $ . . X ",
"  @ ; > d G o.$.&.>.3.>.^ A f y a s e r x d h R ^  .R h y p %   + r a y y y u p X @ a d ~ -.$.l u ; ; u { 3.P & - $. .a -.o.h B - o l i o.2 : 1.F $ $ u ^ 3.>.A y 9 . r a y y a i $ . X ; p a y 5 N R ! R V d y s i s u d g V ! $.,.<.<.3.<.$.W H J c < % % @   ",
"$ 9 : 4 Q @.o...-.<...R l j c p 9 r a d V ! ..^ H h u r X X t a y d y u r . ; u N ^ ..C u i a h %.:.l ; r $ R <.%.$.%.w o @ F E C 1 i o.&.h -.$.@ $  .>.j ; i l =.$.V a + $ a y d u s ; X . ; s u d N R ! R V d u s s a d d V W o.:.:.:.2.-.$.W G H I d = = ; @ ",
"- , N ! } } o.=...W C c n u ; e a d V ^ $. .Z d p % . q a y d w j i X % u 6 W ! N a a f ! %.H u . p ; i A 3.3.3.l % _ t @ - z . H j _ w P o <.3.1.$.q i ; H <.C p p h ..~ f p   r u y y u p %   @ s y f Z W W Z 5 u s p a w g Z ! $.:.<.:.&...! H F Y F h 3 : - ",
"f R W Q } o.~ A C c n u < r a d A ..$.{ V y i o $ p y y y j p + X p y N A h u p h ~ ~ V a . r u 0 $ u h A f $ @ 1.o Z t ` R P & o.d < . C @ ! $ { 3.>.h @ a % t R $.V a u C  .Z u $ @ a d d d a r . @ p d N W ! R h d p s a y d V W o.%.:.*.%.~ A F P K B V B 4 ",
"R Z Q +.) N k D D y 3 u k 5 H ..-.~ h u 0 . 0 u 4 d u p %   0 a d h h j a y Z W N w ; + p y a $ . ; 9 . r @ $.u t 3.l { R V : u k >.-.o.t -.$ =.- + u h y i @ u r $ d ~ ~ f a 5 R Z y 0 X i u y y u p @ X p y V ! ~ A h d a i a d h A { %.%.%.#.` C h K T N N R ",
"Z Q ) h d S D f 4 j c f A O.=.~ h a & . p j 5 y a 9   % p y f h d a a 5 Z B d p @ + p y w u p r r a a @ Q H -  .3.$.q $ <.<.<.V % 2 W % l ^ 3.y u  .$ 0 @ ; @ X s y p . u N ! N x u N N y r   0 a y y d p @ X a d C ~ ~ A d u p a j h V Q o.@.O.o.[ G d l T G V ",
"P v y c S f 4 c J h Z o.%.^ h u $ o a w d u s @ . r u 5 h h y i p d f f y s $ . 0 a y y 4 d y u 0 9 R ~ 0 h 1.$.3.@ ~ C <.; k $.  @ 1.<.l X 3.2.~ ; o.u 9 u i e i u d t 9 X p d A N j a d h u r   ; a y d y a $ . p d C ^ ^ C d a t a v h C ! @.o. .` P k d v H ",
"y j c N 8 l I C Z  .%.{ l u ; . p w y u i . . i t d N h y s a y f 6 u s 0   X 9 s a a u a 0 . a R ^ p d -.A h -.t -.q 3.3.% @ 3.; S <.1.; $.j -.! >.u u $.t ; u y y d 5 y s + @ a d N f a s y 6 y i . @ p j y y a % . p d R ..{ V d p r n v z A ` @.{ ~ Q S j u ",
"k N Z B T F C ` #.X.B u q X p y d u i . @ i u 5 N N 6 u s u d 5 y a i $     @ ; 0 ; +   9 y W Q a d $.C a p C ! y q u 3.d ` ; <.u 2.u 3.u u r -.h d { ! p R W r @ a y y y u s ;   0 p y f y p a y y u p X X p y y d p @ @ a 6 W o.~ h t p t D F C H [ X.! W B u ",
"Z Z / T C Q o.o.H y p o q x y u i @ . r a 5 V Z h y p p y y y u s i ; @     . . + 0 u 5 W Z a f  .C p .   u -.q O.p Z ..; <.d 1.h o.; -.W i <.a O.s i d $.d a ^ N i   9 p a s i $   # p t y y a 9 t y d u i X @ a y w w s . ; u N ~  .H 4 t r j I H C R } _ R Z ",
"P ' G Z { #.) d a - # n j d a ; . ; a d h Z Z f y s a u d y u p p i e 9 9 e i a y N Z f a f ! h i . 9 ; $ W y  .@ @ C t @ j ..<.o.j o d R . u y ~ d . . r V { u d ~ h a X   + % $ X   @ e a t y t r p y f d a e   % a y d u e   i y A { ` V w p w D T G Z ! [ H ",
"Q C Q [ X.C u r O u v d t i X . i j d h V Z f y s p u y y y u x a s s p u y 5 h d u p N H d 0 o p u a @ d ~ j l u i y ; C $ 3.! 1.; j . h 9 0 -.p ..; 9 e . p A A p f R f u e + .     X $ r s a u u i r t 6 5 y s $ . 0 a y 4 p % X s d W X.W 5 u w k U / G Z ) ",
"C _ | Q f u 1 : n k d p 9   + p j d V Z Z h y a i s u y y u x u x t u y y y p p u h h u $ $ a d w 5 s ;  .p $.. r i @ r <.r <.d 3.@ $.p a i a j g R y @ a j t . u Z N a d B f u p e ; ; ; 9 i s a x p s e a f f d u i . + s y d y i . 9 u C { ` h y u y G ( E C ",
"' _ G j a > 2 D k y p ; X % p u d h Z Z V d y s p i s a a a a s s p s e 0 p f 6 u p X 9 u d d y w y @ f B C u u @ o i 9 C h R a -.a :.$   ; r + $.a ^ @ p w d u e + u N h p u d d y a s p i i s s x x a i e a d f d d s %   r a w y t $ @ a d Q } A d u u B / ) ",
"E S j u , d D d u i ; X # t a w d V Z V h d y a i e 9 9 9 ; @ + + $ i t u u p $ X p u y y y u y d p r ~ a ~ . u @ ; p C a =.y r A f C r p   9 a d h A j 9 d d d 5 u ; @ u f d a p u u u p a s s s a a a s e i u d h d w a 9   $ a y 4 w 0 X r y C [ R f y x B ) ",
"l d c 5 l m d u r 9 o o 0 a u 4 f h h h f d y u a s p r r e i i p s s r $ . $ p u u y u p s a y y . h d R u p u p u . -.r -.i   y ..u l a r r u $  .a W . t w y d y y a $ + a y y p ; e p s s p p s s p s e 9 p u y h d y a 9 . @ b u y 1 r @ 0 u l ) W B j u v ",
"d k h h v w t q r $ X @ e p y w d 6 f f f d y y u u a a p s i 9 $ . . $ i a x a u a s 9 9 i t y p p R u A . d y u t u A f A   + a -.r $.o y a w $ h d R a r d u a a u y u a $ X p t u s ; X X + $ ; 0 e 9 & 9 p u d f d d u s 9 . + i u 2 1 r $ ; u d P R B k d ",
"v C h v d d 2 p 0 # o $ e i p j y y y 5 y y y u u p s p ; +     $ e s s s s p p r $ o X $ s w w . h y A u ; w w w . R u ..u $ i @ O.u ..r u w w a a ~ u V . y y s i i p t u u a ;   $ i s p 9 X       X + $ 9 p a y d f d y u s & . $ i w 4 1 p ; # u d F A G v ",
"G h j u d : t a 0 * o @ $ 9 i i a a a a a s s r 0 $ X   + & e i s i 9 i s p e #       X 9 u u p a V u V % a d d p i ..a ..$ a u . h h V d 9 w d u X V d A p a y a 9 $ $ r a u a a s 9 X   + ; 9 0 9 0 9 e i s a u y d y 5 y u s e + . ; r w 4 w a ; # p u l Z P ",
"V , t t > w u u p ; @ .   X + % ; ; - $ @ X     X + 9 i i s e & ; i s i 0 X     X X   + s y u X d u V u X a y u . h h h h + u y r u { u ~ . u d u + y Z d d . y y i X     @ r s a p s i e ; .   X $ 0 i p s s a a u y y y u u s r $   X 9 t q d u p : - a y 6 C ",
", 1 a : < d d u a p e $ + . X X     . . + ; e i p s s i 9 & 9 i p r ; o   . + $ $ X   9 a u r p f a h i $ a u e r ! a  .p p y u a 9 ..a  .a 9 u u 9 i C a V ; p u p @         @ i s i 9 e i i 9 + X   + $ e p s p a x t t a p s e $   . ; i p u d d p % - p > 5 ",
"= e 9 1 t d d w t a p p r i r i i p s s a a a s s r e e i i r 9 $ o     + & 9 9 $   + s a a   d j 5 j X 9 s p . d R d R . y u a y   Z d V d   s a e @ 5 d d u % u u e   X @ +     - i s r $ ; r i e ; +     X $ ; e i p p p r 9 % X   @ ; p a y d w u w * 9 q = ",
"; ; ; r u d d d d t t t q y y t t p u a a s i i i i s i 0 $ o X     X $ ; 9 9 ; +   0 a a r 9 d p f p   9 r . i Z u A y ; d s i y 0 d W t R r $ s e X u h a d X a a s X X $ ; $ X   X ; r i 9 + @ 0 i i e ; + .     X X X + X X     X @ 0 t u y d d w u 0 & ; - ",
"$ . ; s y t d d d y w y w q y t a a a a a a s i i 0 - o         X o @ $ $ ; 9 $   + s s a . a u t d e   % o @ d Z a W 0 u y ; ; u a r ~ a W w . ; ;   s h a 5 p r u a 9   $ ; 9 ; @ X   o ; 9 e 9 $ @ ; i s i e e & $ + X X   . X + $ < p p u y d d u t i $ X ; ",
"+   & r t u u u y y w u y y u j u a a s p r ; @ X       X o X .       o @ $ ; X   e s s i @ u 0 y j %     . a V d h d . y a X X p w . C d h h e   o   e d t u p . a a p X X & 9 9 & $ o     o ; 9 e e ; + $ e i s s i p p e e r e r i p p a u d w d u t r $   $ ",
"@ . $ ; < 0 t p a u a a a a s p r 9 ; @ .     . X @ @ @ X     . . .     X $ #   $ i i s @ i p r y s %   . 9 d V p Z p p d r     e d ; w A u Z t @     9 u d i y X s s s &   $ ; ; ; $ @ o       o - 9 e r e 9 & ; r s s s a a p a a p a t u y d j t w q 9 $ . $ ",
"; & & % # # # - * @ - # @ X X     . . . @ $ ; ; ; @ X   . @ $ & ; $ o   X #   X e i e i . s e a u s $ . $ a g y d d . y u X + @ @ w a r A a V d p X X ; a y e y 0 9 s s r . X & ; @ o   X             @ ; e i i i i e e i i s a a t w w q q 2 1 , < < < 0 & $ ; ",
"- < r p 0 ; - # # @ @ # @ $ % 9 9 e i i r 0 ; o     @ O X O O O @ ; $   X O   $ i ; s ; @ s + a a i $ ; p w d a h a 9 d p . e 9 . a d   d g y h j 9 $ ; p u i p p . s r s $   @ $ o       .       . X     o $ 9 e i p i s s s s a i t r q q 1 q 1 < q t i 0 - - ",
": : 1 u p a p a a a a a a a a p s s p e @     X X                 ; $       X e e $ i . 9 e @ a s i e i a 5 a d d X u w ; $ a s . p d ; a V s 7 w s 9 9 p u s 9 s . i r i e . . @ X   + ; $ & $ .               @ % ; e p s s s a a u a p u r t u t a p q - * : ",
"4 , , 1 q w u u t w y u u u a p p ; .         X X X   O           $ @       $ i $ e 0   e + % s s i i a y y i d s $ w u   i u a ; $ d a $ 7 u y d u s i s x a X s + 9 i e i @   o o   $ ; $ @ % ; ; @ .   o o X       X @ ; 9 r p i i a a a u u t t t 1 : = > y ",
"v d 5 3 3 5 4 2 w w w t i i ; . X X $ $ $ $ @ o X   O           . ; o     X 9 e + i % X 9   9 p p p s u y i t y o s d i + a w w p   u y . y g p d w p s s a a + p 9 X s $ i &   o     $ # X         o % $ .   o @ @ + X . .     X @ $ ; 9 0 1 ; : : = = = , d v ",
"k j d 2 > 2 2 1 q i 9 & ; 9 i i s i i 9 ; @ o                   . ;       $ e $ ; e   $ ;   0 s a a u u s p d s @ y y @ r w g 5 u . s d 0 r h u a d y u a a a @ i e   i 9 e e +   X   $ X                 o @ X   X % ; 9 ; ; + + @ . . . + @ @ @ # * : 1 u x k ",
"y u a a a s p p p p t a u u a a s i 9 @ X                   X   @ #     X ; e X i ;   9 % X e s a u u a 0 d y @ p d a   a h V V d r ; d a @ d d i w d d u u a ; e i X ; i & i $   X   $ +                         X   + 9 i p s s s p i i p t i p p s a u u u y ",
"k k j d d d 4 d 5 d 4 y y u a i 9 @ X     . X X X         X     $       + e 9 $ i + X e ; X e s u u a e u 5 a . u y ; r d Z W R V u   u y . a g t p y d w u u 9 9 s % + s & r 9   X X + #                 X o @ $ + .   . X e s a u y y w w w d w d w d d j k l ",
"A C Z Z V V V h h d y u s i ; @     . X + + + + + X           . ;   X   & i $ e e   $ i & . e s a a r p d y $ r w a . u V W W ! W d ; p d r 0 5 g s u y d u a e 9 a r   i e i i X   @   +                     o $ 9 e e e ; $ $ 9 p u y w d d h h V V Z Z A H A ",
"Q W R R A V h d y u p r $ . . . + $ & ; 9 9 9 ; $ @           @ o X   . e e $ i ;   0 s 9 @ e s s e p d d a . u w 9 r 8 R ! R W ^ V a @ d u . w V w p u y y a e e a i . e s e i %   @   @   X                   X $ 9 i a a a a p r e i p u y d 7 h V Z R R W W ",
"C C h d d y u a r - @ o o @ ; 9 i i i i p i e 9 & @ X   X X   @   X   $ r 9 9 s @ X i s e $ ; e e p w g y $ r w u   u Z ! Z V Z ! ! d . a w @ p g g u p a a s e i a a + % s e i 9   @ @ X               X X . .     X ; i s a y y w 2 w e e p p a u y d d h C C ",
"j u u a p r - @ o # < q p p a a a a s s s p i e & @     X +   @     . & i & i i   % s a p 0 9 e s t d d p . a d e 9 8 ! Z g d g A ..V i 0 w p @ d z d p s s s r s j a 9 X s p s i X + $       o       + + $ $ + + X     @ ; i a u w d g d 5 2 , q q p p a u a j ",
"p t < * # * : q a x x u u u u t u a a a a s i i ; @   X + +     +   . e i & s 0   9 a j a s p a w g 5 u @ r d u   u R ! h y u y h ~ ~ u   y u   p h V d x p p p a w u i   i s p p + X $ X X X +       + $ ; ; ; 9 ; $ +     X ; i a y d h l F B f 5 , > 1 q t a ",
"= = > y c m v j j d w d d d y w u u u a a a s i ; X   + & X X X #   $ i e e s %   e a j u u t w g g y i . u d e 9 h ~ V y a s a w Z ..h ; p d e ; w V h d u a a u w w i . e a i s &   ; % X   # X     + & 9 e i i s i e 9 $ +   . - r a y d h C F H H F f 4 > = ",
"F J F F F l h d d w y w 2 2 y w y u u a a a s e $   X & 9     + +   9 s 9 i s + X p u j u w d d g d p . i w u   u W W d a p s s a 5 ^ ! t . y a . a g Z h g d w w d w s . ; a s s e   $ 9     $ @     @ ; e i s s s a s p i i 9 @   o # r a u y d V H P P Q P M ",
"Q P F l f y y u t q q w w y y y y u u u u a s e @   $ e 0   X % X X e s e s i X + s u d d d 7 d d a & @ u d 0 e h ^ V u s s a p i u A $.d @ a d ; ; y V Z V g 5 d g d a @ @ s a s i . $ e +   + $ X   + ; i p a a a u u u u a a p p 9 @ o @ ; t u y d h C H E ) ",
"S k u u p i e 9 e e i p s a u y y u u u u a s 9   . 0 p 9   $ ;   + i s i p e   $ s u d d g 7 d u r . p d a . u ! ! y s p u u a i s d ..R a - d a . p d C Z V h g g d a $ X p a a s @ @ i 9   @ ; #   X ; i s a a a u u u u d w u u j p i ; $ + $ e p t u j v J ",
"* - % $ . . . + @ @ @ * ; r s a u u y y u u s $   $ i s ; X e ;   ; p s p s 9   % s u y d d y u p . 9 w y ; t V  .h p s t w d u s e u R $.d . a d ; $ u g Z Z C g h d a ; . s a a s $ . i i   + e $     ; i s a a a a u y y d d d d w w w w r 9 $     + ; ; - = ",
"r q ; 9 r i i r 0 - # o X @ 9 s a u d y u a i o . r a s @ ; i $   0 s i s s 9   % s a y y y u a @ @ a d p . d ^ W y a t d 5 g d j i i g $.A p ; d a   i y h V Z V h d u 9   i u a a 0   e p + . e 0 @   $ i s u a u u y u y y d d y 4 2 2 2 2 t p p r ; % ; 0 i ",
"> 1 y j j d y y u j p 0 @ . @ e a u d d u a 9   $ s u s + i i @ X i s s a s 9   $ i a a u a s @ . p w y @ p Z ..h s a d h V V g d s 9 t W $.d . a d 9 @ a y g h h 7 d a 9   r u x a r   9 s e . i p ;   @ i s u u u y u y u u u u t w t y u u y y y y u u q > : ",
"/ ) E P P F S k d w t p e + . & s u d w y s % . i j t s ; a s X @ p s s p s ;   @ e s s s i %   r d y i @ d  .R u p j h A ~ ! A g u e i h =.A i ; d p . ; a y d g d y a ; . r u u j i   ; s i . i s e X . e a u u d u u u a s s i e 9 9 r q t a a c c S J P / / ",
"] _ ! Q Q W R A h 7 , w t &   + s t d d y p . $ a d d e i t i . $ s a a u s ;     & e e 9 @   9 u w p   a A { d p a 5 A { O.$.^ Z d a ; u ~ o.y . a y i   e a w y y u s & . r t t u a . $ a p @ e a s $ . ; a u t w w u a a 9 @ .   . . o o o * , 4 5 h C K / ] ",
"C A H E ) ` [ } _ P l d t i + . r y w w u 0   r t d t 9 a u i   ; p a p u s 0 X   . @ @ @ . ; a d w $ q h o.Z a p d C { ;.:.,.-.^ h x q a h %.H p % y u ; X r a u u t i @ . e t w y s @ @ a a e ; u a e . $ a u d 2 w u a ; o . . + 9 r t u x m D J J J F l C V ",
"j h l C H Q ~ { { ` H h y p $ X r w d w a @ @ a w d t e t u r . 9 a u t t a r # . .     . 9 a w y i + y Q ~ 2 t x h ! %.<.<.1.1.-.W j s 1 d ~ o.d o a d a X X q p s i 9 . . e t w y a @ @ a u i $ u u a @ o p u t 4 w a r O   $ 9 p a d j h C C F Z F z l l h k ",
"F G C G H W !  .o...^ Z d u ; X i w y y p o ; u h d t p d u 9 . e a u w w a i ; @ + . + 9 p y y r . p C X.h a a j A @.;.<.,.1.3.3.$.C n 1 n V %.H a o k y i X @ ; 0 9 @ . + r t w t a - @ p u t & u d a 9 X r u w w w p < X @ r t w d 7 V A ! ^ ^ ~ ! R H H G C ",
"] ' ) ) Q Q ! ..$.=.$.! h j 9 o i w 2 y 9 o a d h 2 i t d t 9 + r a u q w a a r 9 ; 9 r r q w q @ r d { W w q c V { =.:.-.<.3.1.1.1.~ l n 2 k ~ #.d - t k y e + X o * @ . $ i w d w a - @ a y w 9 p d j i @ < x w d w s % o 9 a w d h A ^ O.=.=.$.o.o.{ } [ [ ] ",
"H P T / / P R ! ..-.-...C k q O p w 2 p @ ; u d z 2 r w d u 9 @ r a w q w u a a p p t w 2 2 w ; $ y E } 4 p n B R *.%.:.$.>.<.3.1.1.-.C D 1 m V O.E u o n d a 9 $ o o o @ e a d d t a ; @ a d w e p d d a % # x y d 1 i @ @ r t , l R { =.<.-.$.o.{ ` [ [ ` E R ",
"7 3 4 d v v l Z ! $.-.$.W l y o t u 4 r @ r d h z 1 p d g j 9 @ t u t 2 w t d u u a w 2 2 q e @ a z { h u t S Z X.%.%.o.....$.<.1.>.<.~ B c y l W #.d t * S y p 0 9 # % < p a d w y a - o p t w r i d g w 9 o a j d w r @ - a w 5 H { ..=.&...! A H J S f 5 6 8 ",
"* * - * < u u d Z ^ $.$.! S k * a y y $ % u d C d 1 a g g y 9 o q p t 2 2 d d w w t u y y i @ p h ` Q 2 q m Z ! #.O.@.W Q R ! ..-.-.$.$.C I 4 D V o.` t * u v y r q i r t u u d d y a - O p u d 1 i d h y i o w k d u e + ; u d N ) { ..$...W V d y w > - - * * ",
"; & $ $ ; r a w g ! O.$.W F k > j y r . e y h H 5 q u h h u e # q p t < 2 d w d d y y u p # q d Q ` 4 p u F A @. .o.R A H G H A ! %.o.%.W S k f F W #.B a O c k y y q p a u w d d y a - # p t 7 > p d h g a % : c f y r . r u j Z ` {  .{ ! C d u a r 9 ; ; ; ; ",
"@ X .   @ & s p j P ..o.W F k y k u r   s d C J , i d V h y r O 1 t a 1 1 t d d d y u a # 1 y H [ h u 1 U Z ! @.X.) h G G P J h h _ @.X.X.h D 6 J C  .X.d t = D k u 1 1 t t d d 4 u t * % p t 4 1 i w V h u 9 * m h y i   i w B R [ ~ ! ! Q l u a i % o o X X @ ",
"$ X       . ; q u P { o.W F k f k u ; + a h R F > p d Z V u i = : t a 1 1 t y y y u t @ 1 y B [ Z w t v G R @.{ ) l l T Y J x u u S X.} X.H k B f T Z +.E y w 4 D j u 1 1 t t y y u q * ; p d 4 > p y V V y i # c l d p . r d S Q ` Q R W Q v t 0 $         + $ ",
"& + .       $ ; 2 P } { A F h v v u @ ; y C E d 1 a 8 A V u p = = q p q ; w a u u q * 1 u B _ A 4 a y ) H _ { ! F d T J B 2 < i p 2 C { ` } f m N K G ! +.C u 2 6 S j u 1 < w u u a 1 @ 0 p w 4 , a y V A d a - y F h u @ ; d H Q ! H Z Q ( v : ; @       X $ - ",
"; $ .       + ; : F | } Z S N K v w $ < j H E 2 q a h W C y a 1 = : r i 9 e i r ; # q u j E A f u y T P H | W G d S K N 7 = $ $ ; < , A ! [ G d B N / Z [ [ k u d f l x a 1 < q i r ; & i t 2 3 2 u d V W h a : 2 J l t % ; u H ` R C Z ) / d * & .     . + $ < ",
"r e $ + .   + & = B [ } C v N / F : ; : l E L , p u V W C d u u , * - 9 $ $ @ $ & i a y Z A l u y J ) Z [ ! R k k T V C , - $   . ; ; 5 W R [ d c V G P Z [ P k u k N f w p i ; & $ @ & r < > 5 y u j C W N u t = J H x - < 2 E ` R l C ' / 5 * ; . . . + & e r ",
"u p 0 $ + + + ; = N ) | h v N ' J - r : F E F : a j Z W C j y x y : - - @   . $ 0 q 2 N Z F j j B ' H Q [ R l y S V B h : ; o . o o 9 : C Z R F d l Z ' C R [ G k j S C 5 : 0 ; @   . $ < : , d k u j A ! C j p = J P v # e > ) [ Z l v ' E 6 * & . + $ $ r p u ",
"d a 0 - & @ @ - = V P ] d v C [ J = r > G E l : u k H W F c y x l 2 : < ; $ $ ; - = 6 F J j j B ' Q H [ H h u j A C H > ; .   o o   o ; , H Z P j j C H ] C ) ) F j l J C 3 = - - @ $ ; - : 4 v k y k Z W G j a : l E J : r = T [ C c l ] H h = ; @ $ & ; r u d "
};
