/* XPM */
static char *_cd6257148ef4752a65543d4487a65a1QxeUJI2RruvIXhNH[] = {
/* columns rows colors chars-per-pixel */
"100 100 134 2 ",
"   c #E30502",
".  c #E40603",
"X  c #E30504",
"o  c #E30405",
"O  c #E20705",
"+  c #E20606",
"@  c #E40404",
"#  c #E40405",
"$  c #E50505",
"%  c #E60405",
"&  c #E40605",
"*  c #E60604",
"=  c #E70604",
"-  c #E70705",
";  c #E40506",
":  c #E50506",
">  c #E60406",
",  c #E70506",
"<  c #E70507",
"1  c #E50706",
"2  c #E50607",
"3  c #E60606",
"4  c #E60607",
"5  c #E70707",
"6  c #EF0703",
"7  c #E80705",
"8  c #EA0605",
"9  c #E80607",
"0  c #EB0706",
"q  c #EA0607",
"w  c #E60807",
"e  c #ED0803",
"r  c #ED0A03",
"t  c #E90804",
"y  c #EA0905",
"u  c #E90A05",
"i  c #EB0A04",
"p  c #EA0B04",
"a  c #E80806",
"s  c #E90806",
"d  c #E90907",
"f  c #EA0907",
"g  c #EB0A06",
"h  c #EA0B06",
"j  c #EC0805",
"k  c #ED0805",
"l  c #EE0904",
"z  c #ED0A04",
"x  c #EC0B05",
"c  c #EF0A04",
"v  c #EE0B04",
"b  c #EF0A05",
"n  c #EE0B05",
"m  c #ED0906",
"M  c #EC0807",
"N  c #EE0906",
"B  c #EC0B07",
"V  c #EE0A07",
"C  c #EF0A07",
"Z  c #EB0C05",
"A  c #EB0C07",
"S  c #EC0C04",
"D  c #EF0C05",
"F  c #ED0C06",
"G  c #EF0C06",
"H  c #E50408",
"J  c #E40508",
"K  c #E60509",
"L  c #E70708",
"P  c #E80608",
"I  c #E90708",
"U  c #EB0708",
"Y  c #E70908",
"T  c #E80808",
"R  c #E90909",
"E  c #EA0809",
"W  c #EA0A08",
"Q  c #EB0A08",
"!  c #EB0B09",
"~  c #EC0809",
"^  c #EE0808",
"/  c #EF0909",
"(  c #EC0B09",
")  c #EF0B08",
"_  c #EE0A09",
"`  c #ED0C08",
"'  c #F00703",
"]  c #F00605",
"[  c #F20704",
"{  c #F10706",
"}  c #F00607",
"|  c #F20606",
" . c #F30707",
".. c #F50705",
"X. c #F50707",
"o. c #F70706",
"O. c #F10803",
"+. c #F00903",
"@. c #F00804",
"#. c #F10804",
"$. c #F10905",
"%. c #F30804",
"&. c #F20904",
"*. c #F30805",
"=. c #F20905",
"-. c #F10A04",
";. c #F00806",
":. c #F10907",
">. c #F20807",
",. c #F00B06",
"<. c #F20A06",
"1. c #F30A06",
"2. c #F60805",
"3. c #F70805",
"4. c #F70A04",
"5. c #F40906",
"6. c #F60806",
"7. c #F70906",
"8. c #F70907",
"9. c #F50A06",
"0. c #F50A07",
"q. c #F80906",
"w. c #F80807",
"e. c #FA0806",
"r. c #F80A07",
"t. c #F90A07",
"y. c #F10708",
"u. c #F00808",
"i. c #F10909",
"p. c #F30908",
"a. c #F20809",
"s. c #F00B08",
"d. c #F20A08",
"f. c #F60808",
/* pixels */
"q.7.7.q.7.7.7.7.q.7.7.7.7.q.q.q.q.q.q.q.q.q.q.q.7.q.q.q.q.q.q.7.7.7.7.7.7.7.7.q.7.q.q.q.7.7.q.q.q.q.7.7.7.q.7.7.7.7.7.7.7.7.7.7.7.7.7.7.7.7.q.q.q.q.7.7.7.7.7.q.q.q.7.7.7.q.q.7.7.q.7.q.7.q.q.7.7.7.7.7.",
"7.7.q.q.q.q.q.7.7.q.q.q.q.q.q.7.7.q.q.q.q.q.q.q.q.q.q.q.q.q.q.7.7.7.7.7.7.7.7.q.7.q.q.q.7.7.7.q.q.7.7.7.7.7.7.7.7.7.7.7.o.*.o.7.7.7.7.7.7.7.7.q.7.q.7.7.q.q.7.q.q.q.7.q.7.q.7.7.q.q.q.7.7.7.7.7.q.q.q.7.",
"q.q.q.q.q.7.7.q.q.q.q.q.q.q.q.q.7.q.q.q.q.q.q.q.q.7.7.q.q.q.7.7.7.7.7.7.7.7.7.7.7.7.q.7.7.7.7.q.7.7.7.7.7.7.7.7.7.7.7.*.*.*.*.*.7.7.7.7.7.7.7.q.7.q.7.7.q.q.7.q.q.q.7.q.q.q.7.q.q.q.7.7.7.7.7.7.7.7.7.7.",
"q.q.q.7.q.q.7.q.q.q.q.q.q.q.7.7.q.q.q.q.q.q.q.q.q.7.7.q.q.7.7.7.7.7.7.7.7.7.7.7.7.7.7.7.7.7.7.7.7.7.7.7.7.7.7.7.7.7.7.*.*.*.*.*.*.7.7.7.7.7.7.7.q.7.q.q.7.q.q.7.7.7.7.7.q.7.7.7.q.7.7.7.7.7.7.7.7.7.7.7.",
"7.q.q.q.q.q.7.7.q.q.q.q.q.q.q.7.q.q.q.q.7.7.7.7.q.7.7.q.q.7.7.7.7.7.7.7.7.7.7.o.7.7.7.7.7.7.7.7.7.7.7.7.7.7.7.7.7.7.7.*.*.*.*.*.*.*.7.7.7.7.7.7.7.7.7.7.7.q.q.q.q.7.q.7.q.q.q.7.q.7.7.7.7.7.7.7.7.7.7.7.",
"q.7.7.q.q.7.7.q.7.7.7.7.7.7.7.7.7.7.7.7.7.7.7.7.q.7.7.7.7.7.7.7.7.7.7.7.7.7.7.7.7.7.7.7.7.7.7.7.7.7.7.7.7.7.7.o.7.o.*.*.*.*.*.*.*.*.*.7.7.7.7.7.q.7.7.7.7.7.q.q.q.q.q.7.q.q.q.7.7.q.7.q.7.7.7.7.7.7.7.7.",
"q.q.7.7.7.7.q.7.7.7.o.o.o.o.q.7.7.7.7.7.7.7.7.7.7.7.7.7.7.7.7.7.7.o.*.7.7.7.7.7.7.7.7.7.7.7.7.7.7.7.7.7.7.7.7.7.7.*.*.*.*.*.*.*.*.*.*.7.7.7.7.7.7.7.7.7.7.7.7.q.7.7.7.7.7.7.7.7.7.7.q.7.7.7.q.q.q.q.q.7.",
"7.7.7.q.7.7.7.7.7.7.7.7.7.7.7.7.7.7.7.7.7.7.7.7.7.q.7.7.o.7.7.7.7.*.] *.*.o.*.7.7.7.7.7.7.7.o.7.7.o.7.7.7.7.o.7.*.*.*.*.*.*.*.*.7.*.*.*.7.7.7.7.f.7.7.q.7.7.q.7.q.q.7.q.7.q.7.q.7.7.7.7.7.q.q.q.q.7.7.7.",
"q.7.7.7.7.7.7.7.7.7.7.7.7.7.7.7.7.7.7.7.7.7.7.7.o.7.7.7.7.7.7.7.] *.*.*.*.*.*.7.7.7.7.7.7.7.7.7.7.7.7.7.7.*.*.*.*.o.7.*.*.*.*.*.*.*.*.*.*.7.7.7.7.7.7.7.o.7.7.7.q.7.7.7.7.7.7.q.7.7.q.7.7.7.q.q.7.7.7.7.",
"7.7.7.7.7.7.7.7.7.7.7.7.7.7.7.7.o.7.7.7.7.o.7.7.o.7.7.7.7.7.o.*.*.*.*.*.*.*.*.o.*.7.7.7.7.7.7.7.7.7.7.o.*.*.*.*.*.*.*.*.*.*.*.] ] *.*.*.*.7.7.7.7.7.7.7.7.7.o.o.7.q.7.7.7.7.7.7.7.7.7.7.7.7.7.q.7.7.7.7.",
"7.7.7.7.7.7.7.7.7.7.7.7.7.7.7.7.o.o.o.7.7.7.7.7.7.7.7.7.7.7.*.*.*.*.*.*.*.*.*.*.*.*.7.7.o.7.7.7.*.*.*.*.*.*.*.*.*.*.*.*.*.*.] ] *.*.*.*.*.*.*.*.*.7.7.7.7.7.7.o.7.7.q.7.7.7.7.7.7.7.7.7.7.7.7.7.q.7.7.7.",
"7.7.7.7.7.7.7.7.*.*.*.*.*.*.*.*.*.*.*.*.7.7.7.o.7.7.7.7.7.7.*.*.*.*.] *.*.*.*.*.*.*.*.*.*.*.*.*.*.] *.*.*.*.*.*.*.*.*.*.] *.*.] ] ] ] *.*.*.] *.*.*.7.7.7.7.7.7.o.7.7.q.q.7.7.7.7.7.7.7.7.7.7.7.q.q.7.7.",
"7.7.7.7.7.7.*.*.*.*.*.*.*.*.*.*.*.*.*.*.*.*.*.*.*.*.*.*.*.*.*.*.*.*.*.*.*.*.*.*.*.*.*.*.*.*.*.*.*.*.7.7.*.*.*.*.*.*.*.*.] *.*.*.d.*.*.d.*.*.*.*.o.*.*.*.*.7.7.7.7.7.7.o.o.7.7.7.7.7.7.7.7.7.7.7.q.7.7.7.",
"7.7.7.7.7.*.*.*.*.*.*.*.*.*.*.*.*.*.*.*.*.*.*.*.*.*.*.*.*.*.] *.*.d.*.] ] *.*.*.*.*.*.*.*.*.*.*.*.*.*.*.*.*.*.*.*.*.*.d.] *.*.*.*.*.*.N ] ] ] *.*.*.*.*.*.*.*.7.7.7.7.7.7.o.q.7.7.7.7.7.7.7.7.7.7.7.7.7.",
"*.*.*.*.*.*.*.*.*.*.*.*.*.*.*.*.*.*.*.*.*.*.*.*.*.*.*.*.*.*.*.*.*.*.d.*.*.*.*.] *.*.*.*.*.*.*.*.] *.*.*.*.] *.] *.*.*.*.*.] *.N *.d.*.*.*.] *.*.*.*.*.*.*.*.*.*.*.o.o.7.7.o.o.7.7.7.7.7.7.7.7.q.7.7.7.q.",
"*.*.*.*.*.*.*.*.*.*.*.*.*.*.*.*.] ] ] ] ] ] *.*.*.*.*.*.*.*.] ] *.*.*.*.*.N *.] *.] *.*.*.*.*.*.*.*.*.*.*.*.] ] *.] *.*.*.*.*.N d.*.*.*.*.] *.*.] *.*.*.*.*.*.*.*.*.*.7.7.o.7.o.7.7.7.7.7.7.q.q.7.7.q.q.",
"*.*.*.*.*.*.*.*.*.*.*.*.*.] *.y.*.*.*.*.*.*.*.] *.*.*.d.*.*.*.*.*.*.*.N *.*.d.*.*.N *.*.*.] ] ] *.*.*.*.*.] ] ] N *.N *.*.*.N N *.N *.*.*.d.*.*.6 *.*.*.*.*.*.*.*.*.*.*.7.7.7.7.o.o.7.7.7.7.7.q.7.7.7.7.",
"*.*.*.*.*.*.*.*.] *.6 y.*.N *.*.*.*.*.N *.*.*.*.] ] ] *.*.*.] ] *.*.d.*.*.*.*.*.*.*.*.*.*.*.*.d.*.*.*.*.*.*.*.*.*.*.*.*.*.*.N N N N N *.*.*.*.*.*.] *.*.] *.*.*.*.*.*.*.7.7.7.7.o.7.7.7.7.q.7.7.q.q.q.q.",
"*.*.*.*.*.] ] ] *.*.*.*.*.N *.d.N N _ N N N *.d.*.*.*.*.d.*.*.*.*.d.d.*.d.*.*.*.*.d.*.*.*.*.N N N N _ _ N *.*.*.*.*.*.*.*.N N N N N N N N *.y.*.*.*.N *.] *.*.*.*.*.*.*.*.7.7.7.7.7.7.7.7.7.q.q.q.7.7.7.",
"*.*.*.*.*.*.*.*.d.*.*.*.*.*.*.*.N N N N N N N N *.*.*.*.*.*.*.*.N N *.N N N N *.N *.*.*.N N N N _ _ _ N N N N *.*.*.*.N N N N N _ N N N *.*.*.*.*.*.N *.*.*.*.*.*.*.*.*.*.*.o.*.*.7.7.7.7.7.7.7.7.7.7.7.",
"] d.*.*.*.*.*.*.*.*.*.*.*.*.*.N N N Z D g N N N N N *.*.*.*.*.*.N N N N N N N N N N N N N N _ N N N N N N N N N N N N N N N N N D D D N N *.*.N d.d.*.*.*.*.] ] *.*.*.*.*.*.*.*.*.7.7.7.7.q.q.7.q.q.7.7.",
"] d.*.*.*.*.*.*.*.*.*.*.N N N N g Z Z D g g N N r N N N N N N N N N _ N N N N N N N N N N N N D g g N N N N N N N N N N N N D D N N N _ N N N N N N N N *.d.N ] *.*.*.*.*.*.*.*.*.*.7.o.7.7.q.q.q.q.7.7.",
"] ] *.d.*.*.*.N *.*.*.N N D N N g g D D D ` N N N N N N N N N N N N N N N N N N D N N N g g N N Q _ g N N D N D N N N N D N D D D N N N N N N N N N N N *.*.*.*.*.*.*.] *.*.*.*.*.*.*.7.7.7.q.7.7.7.7.7.",
"*.d.*.*.*.*.d.*.N N N N ` D N N g g g D ` N N N N N N N N N N N N _ N N D D D N D D N g N N g g g g g g N N N D g g N D D D N D Z N N N N N N N N N N N *.*.*.] *.*.d.] ] *.*.*.*.*.*.*.7.7.7.q.7.7.7.7.",
"*.*.*.*.*.N N N N N N N N N N N g N g N g g g g N g g g N g g Z N N N N N N D g N ` N g ` g g Q g g g g Q N g g N D N g g g g N N N N N N N g g N N N N d.*.*.*.*.] ] *.*.*.*.*.*.*.*.*.7.7.7.7.q.7.q.q.",
"*.*.*.*.*.N N N N N N N N N N N g g g g g g g N N g N N N N g Z N N D N D D g g g N N g g g g g g g g Q g g g g N D g g ` N N N g N N N g g g Z N N N N N *.*.*.*.*.N *.N N *.*.*.*.*.*.7.7.7.7.7.q.7.7.",
"N N N N N N N N N D N N N g g N g g Q g g Q g g g N N N N N N N N D D N N N g g N N N g g g g g g g g g g g g g g g g g g g N ` N N g g g g g Z N N Q _ N *.*.*.*.*.*.N N N *.*.*.*.*.*.*.7.7.7.q.q.q.7.",
"N N N N N N N N D N N g g g g g g Q g g g g g g g g g g g g N N N N D N N N N D N N N g g g g g 9 9 9 9 g g g g g g g g g N N g g g g g g g g g g g g _ N _ *.N N N _ _ N N d.*.*.*.*.*.] *.7.7.o.7.q.7.",
"_ N N N N D N N D D g g g g g g Q g g g Q g g Q g g g g g g N N g N N N N N N D N g N g g g g 9 9 9 9 < g 9 g g g g Q g g Q Q g g g g I < < g g g g N N N N N N N N N N N N *.*.*.*.*.*.*.*.7.7.7.o.7.7.",
"g N N N N N N N D D g g g g g Q g g g g g w g g g g g g g g g g g g g N N N g g N g g g Q g g I 9 < < < g g I g g g Q g Q Q g g g 9 9 I < < g g g Q N N N N N N D N N N N N *.*.*.*.*.*.*.*.*.7.7.o.q.q.",
"g N N N N N D N D Z g g g g g g g g g 9 I 9 g g g g g g g g g g g g g N Z Z Z Z g g g g Q g 9 I < < < < Q I 9 9 g g g g g Q g g 9 < < < < < < g g g N N D D D D N N N N N N N *.*.*.*.*.*.*.*.*.7.7.7.7.",
"N N N N D D D D D Z g ` _ g g g g g I 9 I < g g g g g g g g g I g Q g g g g g g g g g g g g 9 9 < < < < < 9 < 9 9 9 g g g g < 9 < < < o < < < g g g N N D D D g g N D D N N N N *.*.*.*.*.*.*.*.f.7.7.o.",
"g g Z Z N N N N _ g g g Q g g g Q g Q Y < < < Q I I g g g < g g g g Q g g g N g g g g g 9 9 9 9 < < < < < < 9 I g g 9 Q < I < < < < < < < < . g g g g ` N N N N ` N N N N N N N N *.N ] *.O.*.*.o.7.7.o.",
"N Z Z Z N N N N g g Q g N g g g g < < w < < < < < 9 < g g g g g g g g Q g N ` N Q g g g g 9 9 < < < < < < < 9 9 g g 9 Q < 9 < < < < < < < < < 9 < g g g N g g N g g N N N N N N N *.N *.*.*.*.*.*.7.7.7.",
"g g g g N N g g g g g g g g g I 9 9 < < < < < < < 9 9 9 Q Y I < I g g g Q N g g g g g g g I 9 < < < < < < < < I I I I < < < < < o < o < < < < < g Q g g g g g N g g g g D N N *.N N N *.*.*.*.*.*.7.7.7.",
"g g g N g g g g g g g g g g g I 9 9 < < < < < < < < < < < < < < 9 I g g Q g g g g g Q g g < < < < < < < < < < < I I 9 < < < o o o o o < < < < < g g g g g g g g g N Z g D N N N N N N *.*.*.*.*.*.7.7.7.",
"g Q Q Q g g g g g g g g < < < Y < < < < < < < < < < < < < < < < < I I g g g Q N g g g g w < < . < < < < < < < < < < 9 < < o o o o o < < < < < g 9 g g g g g g g g g g D D N N N N N N *.*.' *.*.*.7.7.7.",
"g g g g g g g g g g g g < < < < < < < < < < < < < < < < < < < < < < Q 9 g g g g g g g g < < < . < o < L < < < w < w < < < < o o o o < < < < < I 9 g g g g g g N g g N D N N N N N N N N *.*.*.*.o.7.7.7.",
"g g g g g g g g g g 9 < < < < < < < < < < < < < < < < < < o < < < < Y I g Q g g g g g 9 < < < < < < < < < < < < < < < < < < o < < < < < < 9 I I 9 I g g g g g g g N D D g N N N N N N N *.*.*.*.o.7.7.7.",
"g g g g g g g 9 g g 9 9 < < < L < < < < < < < < < < < < < < < < < < Y I I g g g g g g 9 I < < < < < < < < < < < < < < < < o o   . < o < < 9 < < 9 < 9 g g g g g g g D N Z N N N N N N N *.' *.*.o.7.7.7.",
"g g 9 g g g g 9 I < < < < < < < < < < < < < < < < < < o o < < < < < 9 < g g g < g g < < < < < < < < < < < < < < < < < < o o o o o o < < < < < < 9 < 9 g g g g g g g g N N N N N N N _ N *.] *.*.*.*.7.7.",
"g 9 I 9 g g 9 I I < < < < < < < < < < < < < < < < < < o o < < < < < 9 9 g g g < g g < < < < < < < < < < < < < < < < < < < o o < o < < < < < < < < 9 9 9 g g g g g g g g N D D N N N N N *.] ] *.*.*.7.7.",
"< < I < I I 9 9 9 < < < < < < < < < < < < < < < < < < o o < < < < < 9 9 g g < g g 9 < < < < < < < < < < < < < < < < < < o o o o < < < < < < < < < 9 9 g g g g N N N N N Z Z Z Z N N N N N ] *.*.*.*.7.7.",
"< 9 I < I I 9 9 9 < < < < < < < < < < < < o o < < < < < < < < < < < < 9 g g 9 Q I I < Y < < < < < < < o o < < < < < < < < o o < < < < < < < < < < < 9 g g g g g N N N N Z Z N Z D D N N *.] *.*.*.*.7.7.",
"< 9 9 9 9 < 9 9 < < < < < o < o < o o < < o o < < < < < < < < < < < < < g g 9 9 < 9 9 < < < < < < < < o o o < < < < < < < < < < < < < < < < < < < < 9 g g g g g N N ` D N N g Z N D N N *.*.*.*.*.*.*.7.",
"< 9 < 9 9 < 9 9 9 < < < < < o < < o < < < o o < < < < < < < < < < < < < I 9 9 9 9 9 < < < < < < < < o o o o < < < o o < o < < < < < < < o o < < < < 9 g g g g g g N Z Z g N g N N N N N N *.*.*.*.*.*.*.",
"< < < < < < < < < < < < < o o < < o < < < o o < < < < < < < < < < < < < w 9 9 9 9 9 < < < < < < < < o o o < o < < < o o < < < < < < o o o o < < < < < g g 9 g g g g g g g N N N N N N N N *.*.*.*.*.*.*.",
"< < < < < < < < < o < < < o o < < < < < < o < < < < < < < < < < < < < < w Q w < < 9 9 < Q < < < < < o o o o o o < o o < < < < < < < o o o o < o < < < g g g g Q Z g g Z N N N N N N N N N *.*.*.7.*.*.*.",
"< < < < < < < < < < < < < o o < < < < < < < < < < < < L <   < < < < < < < Q Q < 9 < < < < < < < < < < < o o o < < < < < < < < o < < < < o < o o < < w g g Q g g g g g N Z D N g N N N N N *.*.O.*.*.*.] ",
"< < < < < < < < < < < < < o < < < < < < < < < < < < < < < < < < < < 9 < < < Q 9 < 9 < < < < < < < < < < o o < < < < < < < < < o < o . < o < o O < < w 9 g g g g g g g g Z N N N Z N g N N *.*.*.*.*.*.*.",
"< < < < < < < < < < < < < < < < < < < < < < < < < < < < < < < < < < < < < < I 9 < < < < Y < < < < o < o o o o o < < < < < < < o < o o o o o o o < < w 9 g g g g g g g g Z Z N N N D N N N *.*.] *.*.*.*.",
"< < < < < < < < < < < < < < < < < < < < < < < < < < < < L < < o < < < < 9 9 I 9 9 9 g < < < < < < o o o o o o < < < < < < < < < < o o o o o o o < < < 9 I g g g g g g g Z Z g N D D N N N *.] *.*.*.*.*.",
"< < < < < < < < < < < < < < < < < < < < < < < < < < < < < < < < < w < 9 9 < I 9 Q Q g g Y L < < < o o o o o < < < < < < < < < < < < o o < L o o < < < < < < g g g Q g g g N g N D D D N N *.] *.*.*.*.*.",
"< < < < < < < < < < < < < < < < < < < < < < < < L . < < < < < < < w < 9 < < 9 g g g 9 9 Y < < < < < o o o < < < < < < < < < < < < < o o < < o o < < < < < < g g g Q g g g g N N D D N D N N *.*.*.*.*.*.",
"< < < < < < < < < < . < < < < < < < < < < < < < < . < < < < < < < < < < 9 I g g w g g g I < < < < < < < < < < < < < < < < < < < < < L L < < o o < < < < 9 I g g g g g g g g g g g N N N N N N ] *.*.*.*.",
"< < < < < < < < < < < < < o < < < < < < < < < < < < . < < < < < < < < 9 < I g 9 g g g 9 I < < < < < < < < < < < < < < < < < < < < < < < < < o o < < < < 9 I g g g g g g N g N g N _ N N N N *.*.' *.*.*.",
"9 9 < 9 < Y < < < < < < < < < < < < < o < < < < L < < < < < < < < Q 9 9 I g g g g 9 < I < < < < < < < < < < < < < < < < < < < o < < < < < o o o < < < 9 < g g 9 g g g g g g N D N N N N N _ *.*.*.*.*.7.",
"9 9 9 < < < L < < 9 < < < < < < < < < < < < < < < < w < < < < < < < 9 9 g g g g g 9 9 L < < < < < < < < < < < < < w < < < < < < < < < < < < o o < < < 9 < g g g g g Q g N g N N N D _ N N N d.*.*.*.*.7.",
"I Q 9 < < 9 I I < Q 9 9 < < < < < < < < < < < < < < w < < < < < 9 < 9 g I g g 9 g g g g 9 9 < < < < < < < < < Q < < < < < < < < < < < < < < < < < < < < < I g I g g N g N g N N N D N N N *.*.*.*.*.*.o.",
"g g g g g g < g < I 9 9 < < < < < < < < < < < < w w < < < < I 9 9 g g g g g g g g g g g 9 < < < < < < < < < 9 < < < < < < < < < < < < o < < < < < < < < < < < g Q g g g N N N N D N N N N N *.*.*.*.*.*.",
"g g g < g g g g 9 9 9 9 < < < < < < < < < < < < < w < < < < 9 9 I g g g g g g g g g g g 9 < < < < < < < < 9 9 9 < 9 < < < < < < < < < < < < < < < < < < Q g g g g g g N N N Z Z N N N N r *.*.*.*.*.*.*.",
"g N g g g g g 9 9 9 9 9 < < < < < < < < < < < < < < < < < 9 < 9 g 9 Q g g 9 g g g g g g g 9 < < < < < < < 9 I I 9 9 < < < < < < < < < < < < < < < < w < 9 g Q g g g N N N N Z Z N N g N _ *.] *.*.*.*.*.",
"g g g g g g g I g I 9 < w < < < < < < < < < < < < Q 9 9 9 9 < g I g g g g g g g g g g g g I I Q < < < < 9 9 g g I 9 w < < < < < Y < < < < < < < < < < < g g g g Q g N N Z g Z Z N N N N *.*.*.*.*.*.*.*.",
"g w g g g g g I g I 9 w < < w < < w < < < < < < < 9 9 9 I 9 g g g g g g g Q Q g g g g g g I Q g Q Y < < 9 g g g 9 I Y < < < < < < < < < < < < < < . < < g Q g g g g N N g g Z Z N _ N N *.] O.*.*.*.*.*.",
"g g g g g g g g w < 9 9 9 9 9 < < < < < Y < < 9 9 9 9 I I 9 g g g g Q g g g g Q N g g Q g g g g Q I < < I I g g < 9 < < < < < < 9 9 < < < < < < < < < 9 I g Q Q g g N N N N N D N N N *.*.*.] *.*.*.*.*.",
"g g g g g g g g g g 9 9 I < 9 9 < < < < < 9 < 9 9 < < I I I g g g g g g g g g Q g g g g g g g g g I < < I < g g I 9 < < < < < < 9 < I < < < < < < < < I g g g N g g N N N N D D N N N *.*.] *.*.*.*.*.*.",
"g g g Q g g g g g g g 9 I 9 9 9 < 9 < < < < Q 9 Q < < I I g g g g g g Q g g g g g g g N g g g g g g g g g g g g I < < < 9 9 I I 9 9 g 9 < < < < < < 9 9 g g g g N N N N N N N N N N *.*.*.' *.*.*.*.*.*.",
"g g g g g g g g g g g < 9 9 9 9 < < 9 < < Q I 9 Q < Q 9 I g g g g g g g g g g g g N N N N N N g g g < g g g g g g < < < < Q Q < g Q g 9 9 9 < 9 < 9 I < g Q g g N N N N N N N N D N *.] *.*.*.*.*.*.*.*.",
"N g g g g g g g g g g < < < 9 9 9 9 < 9 < < w Q L L I I g g 9 g g Q Q g g g D g g N N N g Z N g Q g g g g g < g g I < 9 < I 9 < 9 Q 9 I I g 9 9 < < g g g g g g g N N N N N N N N N *.] *.O.*.*.*.*.*.*.",
"N g g g g g Q Q g g g g g g g 9 Q I g I Y I Q g < 9 9 g g g g g g g g g g g D Q N N N N D N g g g g g g g g g g g 9 I 9 < g g g 9 g 9 g g g g 9 9 g g g g g N g Z g N N N N N N N *.N *.*.*.*.*.*.*.*.o.",
"N g N N N g g g Q g g g g 9 g g 9 g 9 < 9 Q I < 9 9 g g g g g g g g g g g Q D N N N g N D N D D g Q g g g Q g Q g g Y < < w g g g g g g g g g g 9 g g g g N g g Z Z Z D N N N *.*.*.*.*.*.*.*.*.*.*.*.*.",
"N g N g g g g g Q g g g g 9 g g Q g g 9 I I g g g g g g g g g g Q g g g g ` D N ` N N N N N D D g g g w g g 9 I g I 9 < < g g g g g g g g g g g g g g N g _ g Z Z Z Z D N N N *.*.*.*.*.*.*.*.*.*.*.o.7.",
"g D N g Z g g g g g g g g g Q g 9 g g g g g g g g g g g g g g g g Q Q g Q N N N N N D _ N N N N N g g g g g Q < 9 g g 9 g g g g g g g g g g g 9 g g g g g g D g g N N N N *.*.*.N *.*.*.*.*.*.*.*.*.7.7.",
"N N D N g g g g g g g g g g g g 9 g g g g g g g g g g g g g g g g g Q g g N N N N N N N N N N N g g g g g g Q g g g g g g g g g g g g g g g g g g g g g g g D Z N N N N _ d.*.*.*.*.*.*.*.*.*.*.*.*.7.7.",
"N N N D N N ` D N g g g g g g g g g g g g g g g g g g g g g g g g g g g g N N N N *.*.N _ N N N N N g g Q Q Q g g g g g g g g g g g g g g g Q g g N g g N N N N N N N *.*.] O.O.*.*.*.*.*.*.*.*.*.*.7.7.",
"N N D Z N N N D N g g g g g g g Q g g g Q g g g g g g g Q g g g g g g g N N N N *.*.*.*.*.N N N N N N N g g g g g g g g g g g N g g g g g g g g g g N ` D N N N N N N *.*.] *.] *.*.*.*.*.*.*.*.*.7.7.7.",
"N N N N N N D D N g g g g g g g g g g g Q g g g g g g g Q g g g g g g D g N N N d.*.*.*.*.N N _ N N D g g N g g g g g g g g g N N N g g g Q g g N N g Z Z Z N N N N *.*.*.] *.*.*.*.*.*.*.*.*.o.7.7.7.7.",
"N N N N N N N N N N g g g g g g g g g g g g g g g g g g Q g g g g g g N N N *.N *.*.d.*.*.N N N N N Z Z N N g N Z g g g g N N ` N N g g g Z g g N N g N g D N N N d.] *.N ] *.*.*.*.*.*.*.*.o.o.7.7.7.7.",
"*.*.N N N N N N D N N N Z N N N g g g g g g g g g g g g g Q g g N D N N N *.*.*.*.*.d.*.d.N N N N N N Z N N N N N N N N Z Z D N N N N N Z g g g N g N g Z N N N N *.*.*.*.*.*.*.*.*.*.*.*.] o.o.7.7.7.7.",
"*.*.*.d.*.N N _ N N N g Z Z N N ` g g g g g g g g g 9 N g Q g g N N N N N d.*.*.6 N *.*.*.N N _ N N N D N N N N N N N N Z Z N N N N N N Z Z N N N N N g N N N N *.d.] *.*.*.*.*.*.*.*.*.*.o.o.7.7.7.7.7.",
"*.*.*.*.N N N N N N Z Z N N N _ N N N g g g g g g g g g g g g N Z g N N d.*.*.*.] d.d.*.] *.d.N N N N N N N N N D D D D Z N N N N N D D N ` N g N N N N D N N *.*.] *.*.*.*.*.*.] *.*.*.*.7.7.o.7.7.7.7.",
"] *.*.*.*.*.N N N N D N D N N D N N N N g g g Z Q g g g g g g N D g N N *.*.] *.*.] ] ] *.*.*.N _ N N N N N N N N N D N N N N N *.N N D N N N N g N N N N N *.*.*.*.*.*.*.*.*.*.*.*.*.*.*.7.7.7.7.7.7.7.",
"*.*.*.*.*.*.N N N N N N D D N g N N g N N g g g g g g g g g g N N N N d.*.] ] ] *.d.*.*.*.*.*.*.*.*.*.d._ N N *.N D N D N N N N N N N N N D N D g D N N *.*.] ] *.*.*.*.*.*.*.*.*.*.*.*.*.7.7.7.7.7.o.o.",
"*.*.*.*.*.*.*.*.N N N N N N N N g N g N N g g g g g g g N N N N N N *.d.*.] ] *.*.*.*.*.] ] *.*.*.*.*.*.N N *.*.N N N *.N N N N *.*.*.*.*.N N N N N N *.*.*.*.] *.*.*.*.*.*.*.*.*.*.*.*.7.7.7.o.7.7.7.7.",
"*.*.*.*.*.] *.*.*.*.*.N N N _ N Z Z N N N N g g g g g g g N N N *.*.*.*.] *.] *.*.*.*.*.*.] ] *.*.*.*.*.*.d.*.*.*.N N *.N N *.d.*.*.] *.*.*.N N N N *.*.*.] *.*.*.*.*.*.*.*.*.*.*.*.o.o.7.7.7.7.o.o.7.q.",
"*.*.*.*.*.] ] ] y.*.*.*.N N N *.N D N D D N g g g g g g g N N N *.*.*.*.] *.] *.*.*.*.*.*.*.*.*.*.*.] ] ] *.*.*.*.N *.*.N *.*.*.*.*.*.] *.*.*.N N *.*.*.*.*.*.*.*.*.*.] ] *.o.7.7.7.7.7.7.7.o.o.7.7.7.7.",
"*.*.*.*.*.*.d.*.] ] *.*.*.d.N N N N N N D D Z g g g g D N N N d.*.*.*.*.*.*.*.*.*.*.*.*.] *.*.*.*.*.*.] ] ] ] *.*.N *.*.*.*.*.*.*.*.*.*.*.N *.*.*.*.*.*.*.*.*.*.*.*.*.*.*.*.7.7.7.7.7.7.7.7.7.q.7.7.q.q.",
"*.*.*.*.*.*.*.*.*.*.*.*.*.*.*.*.N N N N D g g Z ` g D N N N N d.] ] *.*.*.*.*.*.*.*.*.*.*.*.*.*.*.*.*.*.d.*.] ] *.*.] y.] ] ] ] *.*.*.*.*.6 *.*.*.O.*.*.*.*.*.*.*.*.o.7.7.7.7.7.7.7.7.7.7.7.7.q.7.7.7.7.",
"7.*.*.*.*.*.*.*.*.*.] ] ] *.*.*.N N N D N N N N g N N N N N *.*.] *.*.*.*.*.*.*.*.*.*.*.*.*.*.*.*.*.*.*.*.*.*.*.*.] *.*.*.*.*.*.*.*.*.*.*.*.*.*.' *.*.*.*.*.*.*.*.o.7.7.7.7.7.o.7.o.o.7.7.o.o.7.q.q.q.q.",
"7.7.o.7.7.*.*.*.*.*.] ] ] *.*.] *.N N D N N N _ N N N N N *.*.*.] *.d.*.*.*.*.*.*.*.*.*.7.7.*.*.*.*.*.*.*.*.*.*.*.*.*.*.*.7.*.*.*.*.*.*.*.*.*.*.*.*.*.*.*.*.*.7.*.*.7.7.7.7.7.7.7.7.7.7.7.7.7.7.q.7.7.7.",
"7.7.7.7.7.7.*.*.7.*.*.*.*.] ] ] *.*.N N N D N N N N _ N *.*.] ] *.*.*.*.*.*.*.*.*.*.*.o.7.7.*.*.*.*.*.*.*.*.*.*.*.*.*.*.*.*.*.*.*.*.*.*.*.*.7.*.*.*.*.*.*.] o.7.7.7.7.o.7.7.7.q.7.7.7.7.7.7.7.7.7.7.7.7.",
"7.7.7.7.7.7.7.*.*.*.*.*.*.*.*.*.] *.*.N D D N N N N *.*.*.N *.*.*.*.*.*.*.*.*.*.*.*.o.o.7.7.7.*.*.*.*.*.*.*.*.*.*.*.*.o.o.o.] *.7.*.*.*.*.*.*.*.*.*.*.*.7.o.o.7.7.7.7.7.7.7.7.7.7.7.q.7.7.7.q.q.7.7.7.7.",
"7.7.7.7.7.7.7.7.*.*.*.*.*.*.*.*.*.*.*.*.N N N N N *.] ] ] *.*.*.*.*.*.*.*.*.*.*.7.7.7.7.7.7.7.7.*.*.7.*.*.*.*.*.*.o.7.7.7.o.o.o.7.*.*.*.*.*.*.] *.*.7.7.7.7.7.7.7.7.7.7.7.7.7.7.7.7.q.q.q.q.q.q.7.7.7.7.",
"7.7.7.7.7.7.7.7.7.*.*.*.*.*.*.] *.*.*.*.*.N N *._ *.*.*.*.*.*.*.*.*.*.*.*.*.*.*.7.7.7.7.7.7.7.7.7.7.7.7.7.7.7.7.7.7.7.7.7.7.7.7.7.o.o.7.*.*.*.*.o.7.7.7.7.7.7.7.7.7.7.o.q.7.q.7.7.7.7.o.o.q.7.7.7.7.7.7.",
"7.7.7.7.7.7.7.7.7.o.*.*.*.*.*.*.] ] *.*.*.*.*.*.*.d.*.*.*.*.] *.*.*.*.*.*.*.*.7.7.7.7.7.7.7.7.7.o.7.7.7.7.7.7.7.7.7.7.7.7.7.7.7.7.7.7.7.7.7.7.7.7.7.7.7.7.7.o.q.7.7.7.7.7.7.7.7.7.q.q.q.7.7.7.7.7.7.7.7.",
"7.7.7.7.7.7.7.7.7.7.7.*.*.*.*.*.*.] ] ] ] ] *.*.*.*.*.*.*.*.*.*.7.7.7.7.*.*.*.7.7.7.7.7.7.7.7.7.7.7.7.7.7.7.7.7.7.7.7.7.7.7.7.7.7.7.7.7.o.7.7.o.7.7.7.7.7.7.o.q.o.7.7.q.q.q.7.7.7.7.7.7.7.7.7.7.7.7.7.7.",
"7.7.q.q.7.7.7.7.o.7.7.7.*.*.*.*.*.*.*.*.*.*.*.*.*.*.*.*.*.*.*.*.7.7.7.7.7.7.7.7.o.7.7.7.7.7.7.7.7.7.7.7.7.7.7.7.7.7.7.7.7.7.7.7.7.7.7.7.7.7.7.7.7.7.7.7.7.7.7.7.q.q.7.7.q.q.7.7.7.7.q.7.7.7.7.7.7.7.7.q.",
"q.q.q.q.q.7.7.7.o.7.7.7.*.*.*.*.*.*.*.*.*.*.*.*.*.*.*.*.7.*.o.o.7.7.7.7.7.7.7.7.7.7.7.7.7.7.7.7.7.7.7.7.7.7.q.q.7.7.7.7.7.7.7.7.7.7.7.7.7.7.7.7.7.7.7.7.7.7.7.7.q.q.7.7.q.7.7.7.q.q.o.7.q.7.o.7.q.q.q.q.",
"q.q.q.q.q.q.7.7.7.7.7.7.o.7.*.*.*.*.*.*.*.*.*.*.*.*.*.*.7.7.7.7.7.7.7.7.7.7.7.7.7.7.7.7.q.q.7.7.7.7.7.q.q.q.q.q.q.7.7.7.7.7.7.7.7.7.7.7.7.7.7.7.7.o.7.7.q.7.7.q.q.7.7.7.7.7.7.7.7.7.q.7.7.7.7.7.7.7.7.7.",
"q.q.q.q.q.q.7.7.7.7.7.7.7.7.7.o.*.*.*.*.*.*.*.*.*.*.*.*.7.7.7.7.7.7.7.7.7.7.7.7.7.7.7.7.q.q.q.q.7.7.q.q.q.q.q.q.q.q.7.7.7.7.o.7.7.7.7.7.7.7.7.7.7.q.o.7.q.7.7.q.q.7.7.7.7.7.7.7.o.7.q.7.o.7.q.q.q.q.7.7."
};
