/* XPM */
static char *_83e29556c094d9a859881cb368edb21PiqUqtVVigrrQw1z[] = {
/* columns rows colors chars-per-pixel */
"32 32 6 1 ",
"  c #89706E",
". c #7E6764",
"X c #745F5D",
"o c #634845",
"O c #573B37",
"+ c white",
/* pixels */
"  ........X          XX......XX ",
"o ooooooooXoooooooooooo.OOO.oooo",
"O OOOooooOXooooooOOOOOO.OOO.OOOO",
"O OOOOOOOOXOOOOOOOOOOOO.OOO.OOOO",
"X  XX..........       .........X",
"oooooooooooo ooooooo.ooooooooooX",
"OoooooooOOOO OOooooO.oooooooOOOX",
"OOoOOOOOOOOO OOOOOOO.oOOOOOOOOO.",
"                    ............",
"ooooo ooo ooooooo.oooooooooo ooo",
"ooooo oOO OOooooo.OOOOoooooo ooo",
"ooooo OOO OOOOOOO.OOOOOOOOOO ooo",
"XXXX..XXX   ......     .XXXX    ",
"oooo ooooooo.ooooooooo.ooooooooo",
"ooOO ooooooo.OOOOOOooo.OOOoooooo",
"OOOO ooooooo.OOOOOOOOO.OOOOOOOOO",
".XX    XXX.......XX   ..........",
"oXooooooo oooooooXooooooooo.oooo",
"oXOOooooo ooooOOOXOOoooooOO.OOoo",
"oXOOOOOOO OOOOOOOXOOOOOOOOO.OOOO",
"......XXXX.......XXXXXX    .....",
"ooooo.ooooooooo ooooooooo.oooooo",
"oooOO.OooooooOO OOooooooo.oooooo",
"OOOOO.OOOOOOOOO OOOOOOOOO OOOOOO",
"XXX.                  .....XXX  ",
"ooo.ooooooo.oooooooooo.ooooooooo",
"OOO.OOoooOO.OOOooooooO.ooooooooO",
"OOO.OOOOOOO.OOOOOOOOOO.oooOOOOOO",
".............................XXX",
"ooooo ooooooooo.oooooooooooooooX",
"Ooooo OooooooOO.OOOoooooooooooo ",
"OOOOO OOOOOoOOO.OOOOOOOOOOOOoOO "
};
