/* XPM */
static char *ffb350a26d494556d16292f257b4c2faoXEO4PR6DL04iAvU[] = {
/* columns rows colors chars-per-pixel */
"32 32 7 1 ",
"  c #505454",
". c #5B6060",
"X c #A0A2A5",
"o c #939699",
"O c #727777",
"+ c #7D8282",
"@ c white",
/* pixels */
"    .....       .....   .....   ",
" XXXXXXXX XXXXXXXXXXXXX XXXXXXX ",
" XXXXXXXX XoooooooooXXX ooooXXX ",
" XoXXoooX ooooooooooooX ooooooX ",
" Oooooooo ooooooooooooo.ooooooX ",
" Ooooooo+ +ooooooooooo+.++ooo++.",
" ++oooo++ ++ooooooooo++.O++o++O.",
" O++oo+++ O+++++++++++O OO+++OO.",
" OO++++OO OOO+++++++OOO OOOOOOO.",
" OOOOOOOO OOOOOOOOOOOOO OOOOOOO.",
"   ...... ......                ",
" XXXXXXXXXXXXXXX XXXXXXXXXXXXXX ",
".XXXXXXXXXXXXXXX XXXooooooooXXX ",
".XXoooooooooooXX XXooooooooooXX ",
" XoooooooooooooX XooooooooooooX ",
" +oooooooooooooo oooooooooooooX ",
" +oooooooooooooo ooooooooooooo+ ",
" +++oooooooooo++ ++++ooooo+++++ ",
" ++++++oooo+++++ ++++++++++++++ ",
" OOO+++++++++OOO OOOOO+++OOOOOO ",
" OOOOOOOOOOOOOOO OOOOOOOOOOOOOO ",
"      ...... ......             ",
" XXXXXXXX XXXXXXXXXXXXX XXXXXXX ",
" XXoooooo XXooooooooooX XoooooX ",
".Xooooooo Xoooooooooooo +ooooo+ ",
".+oooooo+ Xoooooooooooo +ooooo+ ",
" +oooooo+ +oooooooooooo.++ooo++ ",
" ++oooo++ ++++oooooooo+.+++++++ ",
".O++oo++O.OO+++++++++++.O+++++O ",
".OO++++OO.OOO+++++++++O.OO+++OO ",
".OOOOOOOO.OOOOOOOOOOOOO.OOOOOOO ",
".......                         "
};
