/* XPM */
static char *b32722902fee49c9e1285bddc335b1a782eMUj8FeJQDkWUh[] = {
/* columns rows colors chars-per-pixel */
"32 32 15 1 ",
"  c #263441",
". c #32404E",
"X c #303F4C",
"o c #4C6D8A",
"O c #40505F",
"+ c #425669",
"@ c #425465",
"# c #415363",
"$ c #405161",
"% c #364554",
"& c #405262",
"* c #415262",
"= c #34414D",
"- c #374654",
"; c white",
/* pixels */
"     ..    ..........  X  XX  X ",
" oooooooooooooooooooooooooooooo ",
" OO+@+++@+++++++++++@+@+++++@++ ",
" OO+++@+++++++@#+++#+@@+++++@++ ",
" OO@++@+++@+++++++++@++@+$@++++%",
" O+++++++#++@+++++@@@#@@@@#+@++ ",
" O@+++@@++@#++@+#@++#@#@$&$#+@+ ",
" O++++++#++++@+@@++++$#@@#@@&++.",
" O++@++@+@++@#@++@@##@+@&@#++++.",
" O++@++++@++@+@#++#@@#+++@@++@+.",
".O++++@++@+@#+++&$++@@#@+@++@++.",
".O+++++++++@+++@#+++++++@++@+++.",
".OO+++++++@+++++@+@@+@@#@+@@+++.",
".OO+@@++++++@++++@#+++++@@+++++.",
".OOOOOO*+++++++++@@+@++++++++++.",
" ============================== ",
"====....======================= ",
" oooooooooooooooooooooooooooooo ",
".O+++@+@++++@+++++++@@+++++@+++ ",
".O+++++++++@#+++++++++@+#++++++ ",
".O+++++@++++#++++++@@+++@@+++++ ",
".O++#+++++#+@+#++@+++@@+@+@++++ ",
".O++++#++++++@+@+++++@&@+#@+@++ ",
".O+#++@+#+@+@+++@#+@+@#@+@@@+++ ",
".O++++@+#$@@#+@##@+@@@@@+++##++ ",
" O++++@@@@@++@@+++@+$&@+@++@+++ ",
" O++++@@@+@++@++#+++@@+#+#@++++ ",
" O++@++++@+++++@#+@+++++#++++++ ",
" O+@+++++++++#@++++++#@#++@++++ ",
".O++++++++++@+++++@+@+@+@++++++ ",
" O++++++++OOOOOO++++++@+#@+++++ ",
"     ..--....  ..-..-....       "
};
