/* XPM */
static char *bfb94c2e0b04489de2d4ae7f597b338dtxLLjkrOwyEiykHv[] = {
/* columns rows colors chars-per-pixel */
"32 32 25 1 ",
"  c None",
". c #2B160B",
"X c #130803",
"o c #0E0603",
"O c #1E110A",
"+ c #180E08",
"@ c #74604C",
"# c #BDA48A",
"$ c #074609",
"% c #2B1F14",
"& c #171464",
"* c #611E0F",
"= c #053608",
"- c #1E1812",
"; c #A98E7B",
": c #111057",
"> c #514942",
", c #44170D",
"< c #0B0502",
"1 c #513824",
"2 c #322215",
"3 c #836D3F",
"4 c #5E5337",
"5 c #392B20",
"6 c white",
/* pixels */
"..X  XXXXXXooXXXXXooXXXXXXXooooo",
"O.X  XO+++OOOOOOOOOOOOOOOOOOOOOO",
"O.X  X+++OOO....................",
"O.X X+++OO@#@###@@###...........",
"O.X X+++O.$%#$&%%&*%*...........",
"O.XXO+++OO=-;$:>;:*%*...........",
"O.XXO++++O=>;=:>>:,>,OO.....OOOO",
"O.XXoooo<<<<oooooXXXXXXXXXXXXXXX",
"O.XO+++++OOOOOOOOOOOOOOOOOOOOOOO",
"O.X++++OOOOOOO.OO...............",
"O.X+++OO.11111111111.........@@#",
"O.<++O...11111111111.........$#$",
"O.<+OO...22223322222.........$%$",
"4.X+++OOO55555551111........O=>=",
"43XXooooooooXXXXXXXXXXXXXXXXoooX",
"43333333333333333333333333333333",
"O.X  XXXoooooooooooooooooooXXXXX",
"O.X  XOOOOOOOOOOOOOOOOOOOOOOOOOO",
"O.X  oOOO.............O.........",
"O.X XOOO@##@@@###...............",
"O.X oOO.*%*$#$&%&...............",
"O.XXOOOO,@*=-=:;:OOO............",
"O.XoOOOO,>,=>=:>:OOOOOOOOOO.....",
"O.XXooo<ooooooooooooooooooooooXX",
"O.XOO+++OOOOOOOOOOOOOOO.......OO",
"O.o+++OOOOOOOOOOO...............",
"O.o+++OOO..........11111111111..",
"O.o++OOOO..........11111111111..",
"O.X++++OO..........22222333222..",
"4.oOOOOOOOOOOOOO...11111111111..",
"43XooXoooooooooooooXXXXXXXXXXXXo",
"43333333333333333333333333333333"
};
