/* XPM */
static char *_a0e3776fad84261f37a000e67dff7467pg45rjzeSZL0tGL[] = {
/* columns rows colors chars-per-pixel */
"600 600 195 2 ",
"   c #030202",
".  c #0D0102",
"X  c #050807",
"o  c #0B0906",
"O  c #0C0709",
"+  c #070908",
"@  c #0B0B0B",
"#  c #060608",
"$  c #120103",
"%  c #180305",
"&  c #120906",
"*  c #140509",
"=  c #140B0B",
"-  c #190D0E",
";  c #19060A",
":  c #0E100F",
">  c #14110F",
",  c #19100F",
"<  c #140F10",
"1  c #1B0F11",
"2  c #0F1110",
"3  c #141514",
"4  c #1B1414",
"5  c #161817",
"6  c #1C1916",
"7  c #171918",
"8  c #1C1D1C",
"9  c #171718",
"0  c #0C0E10",
"q  c #211415",
"w  c #221718",
"e  c #221C1C",
"r  c #231A1A",
"t  c #1E201E",
"y  c #22211F",
"u  c #29201F",
"i  c #1D1F20",
"p  c #241F21",
"a  c #291F20",
"s  c #311E20",
"d  c #1F2121",
"f  c #222423",
"g  c #2A2423",
"h  c #262926",
"j  c #2A2926",
"k  c #252728",
"l  c #28272A",
"z  c #262929",
"x  c #2C2D2C",
"c  c #352625",
"v  c #332825",
"b  c #322728",
"n  c #322D2D",
"m  c #39292B",
"M  c #2D302E",
"N  c #33302E",
"B  c #38322F",
"V  c #332F31",
"C  c #382F30",
"Z  c #2E3130",
"A  c #333433",
"S  c #3B3434",
"D  c #353837",
"F  c #3B3937",
"G  c #3B3739",
"H  c #373A39",
"J  c #3C3E3D",
"K  c #353739",
"L  c #2D2F31",
"P  c #423D3D",
"I  c #44393A",
"U  c #3D403F",
"Y  c #37413C",
"T  c #42413E",
"R  c #4A413F",
"E  c #3D3E41",
"W  c #423E40",
"Q  c #4A3F40",
"!  c #3E4140",
"~  c #3E4845",
"^  c #424342",
"/  c #4B4545",
"(  c #454846",
")  c #4B4946",
"_  c #444648",
"`  c #4D4649",
"'  c #474948",
"]  c #4B4C4B",
"[  c #504647",
"{  c #504649",
"}  c #524D4C",
"|  c #574D4D",
" . c #4E514E",
".. c #51524F",
"X. c #59504F",
"o. c #554F52",
"O. c #4F5251",
"+. c #4F5953",
"@. c #555756",
"#. c #5A5554",
"$. c #565857",
"%. c #595956",
"&. c #555758",
"*. c #575958",
"=. c #5A5C5B",
"-. c #5E5658",
";. c #4D4E50",
":. c #615758",
">. c #615C5C",
",. c #615757",
"<. c #5E605E",
"1. c #62625E",
"2. c #5E5F60",
"3. c #645F61",
"4. c #6A5E60",
"5. c #5F6161",
"6. c #636564",
"7. c #6B6465",
"8. c #646965",
"9. c #696967",
"0. c #666668",
"q. c #6B6668",
"w. c #676969",
"e. c #666969",
"r. c #6C6D6D",
"t. c #706769",
"y. c #726C6D",
"u. c #7A6C6E",
"i. c #6D716E",
"p. c #73716E",
"a. c #6D6F71",
"s. c #726E71",
"d. c #796F70",
"f. c #6E7170",
"g. c #737574",
"h. c #7C7676",
"j. c #757877",
"k. c #797977",
"l. c #747678",
"z. c #7A7779",
"x. c #767979",
"c. c #7B7B7B",
"v. c #817778",
"b. c #827E7D",
"n. c #837879",
"m. c #7D807E",
"M. c #82817E",
"N. c #7D7E80",
"B. c #827E81",
"V. c #7E8181",
"C. c #828483",
"Z. c #8C8686",
"A. c #868986",
"S. c #898A87",
"D. c #848688",
"F. c #878A89",
"G. c #8B8C8C",
"H. c #8A8789",
"J. c #918D8C",
"K. c #908586",
"L. c #8E908D",
"P. c #90918E",
"I. c #8D8E90",
"U. c #8F9190",
"Y. c #939493",
"T. c #999595",
"R. c #969996",
"E. c #979999",
"W. c #9C9C9B",
"Q. c #979798",
"!. c #958F90",
"~. c #A19C9C",
"^. c #9BA09D",
"/. c #9EA1A0",
"(. c #A3A4A4",
"). c #A6ABAA",
"_. c #ABAEAD",
"`. c #A6A5A4",
"'. c #ABB0AF",
"]. c #A7B1AD",
"[. c #ACAEB0",
"{. c #ADB1B1",
"}. c #B3B5B4",
"|. c #B5B8B7",
" X c #B6B9B8",
".X c #BABBBB",
"XX c #B6B6B7",
"oX c #B1AFB0",
"OX c #A19FA0",
"+X c #BDC0BF",
"@X c #BFC1C0",
"#X c #C3C5C4",
"$X c #D8D7D5",
"%X c #E8E8E6",
"&X c #C0C1BE",
/* pixels */
"c c c c c c c c c c c c c c c c c c c c c c c c c c c c c c c c c c c c c c c c c c c c c c c c c c c c v v g v c c s u.b.j.9.6.e.e.e.e.e.e.e.e.e.e.e.e.e.e.e.e.e.e.e.e.e.e.e.e.e.e.e.e.e.e.e.e.e.e.e.e.e.e.e.e.e.e.e.e.e.e.e.e.e.e.e.e.e.e.e.e.e.e.e.e.e.e.e.e.e.e.e.e.e.e.e.e.r.5.6.r.6.8.e.9.w.6.r.r.w.6.*.' Z f 8 d 8 t 9 f ] 9.c.r.8.8.8.8.8.8.8.8.8.8.8.8.6.6.6.6.8.9.7.S b b m m m g #.c.9.e.e.e.e.e.e.e.e.e.e.e.e.e.0.0.8.8.8.8.8.8.8.8.8.8.8.8.8.8.8.8.8.8.8.8.8.8.8.8.8.8.8.8.8.8.8.8.8.8.8.8.8.8.8.8.e.e.e.e.9.$.] @.@.x g b b b b b g / g.8.e.e.8.7.w.e.e.e.e.e.w.w.e.e.e.e.e.e.e.e.e.e.e.e.e.e.e.e.e.e.e.e.e.e.e.e.e.e.e.e.e.e.e.e.e.e.e.e.e.e.e.e.e.e.e.e.e.e.e.e.e.e.e.e.e.e.e.e.e.e.e.e.e.e.e.e.e.e.e.e.e.e.e.e.e.e.e.e.e.e.e.e.e.e.e.e.e.e.e.e.e.e.e.e.e.e.e.e.e.6.@.^ b m c c c v v v v v v v v v v v v v v v v v v v c c c v v c c c c c c c c c c c c c c c c c c c c c c c c c c c c c c c c c c c c c c c c c c c c c c c c c c c c c c c c c c c c c c c c c c c c c c c c c c c c c c c c c c c c c c c c c c c c c c c c c c c c c c c c v v v v v v v v c c v c c c c c c c c c c c c c c c c c c c c c c c c c c c c c c c c c c c c c c c c c c c c c c c c c c c c c c c c c c c c c c c c c c c c c c c c c c m m ",
". . . . . . . . . . . . . . . . . . . . . . . . . . . . . . . . . . . . . . . . . . . . . $ $ . $ . . . . . . . . $ . | p.e.=.@.@.@.@.@.@.@.@.@.@.@.@.@.@.@.@.@.@.@.@.@.@.@.@.@.@.@.@.@.@.@.@.@.@.@.@.@.@.@.@.@.@.@.@.@.@.@.@.@.@.@.@.@.@.@.@.@.@.@.@.@.@.@.@.@.@.@.@.@.@.O.O.O.@.@.@.@.@.@.@.@.*.*. .H k 3       X X   3 x @.e.e.=.@.@.@.@.@.@.@.@.@.@.@.@.@.@.@.@.+.+.] $...= . . $ $ $ . P r.........@.@.@.@.O.O.O.O.O.@.@.@.@.@.@.@.@.@.@.@.@.@.@.@.@.@.@.@.@.@.@.@.@.@.@.@.@.@.@.@.@.@.@.@.@.@.@.@.@.@.@.@.@.@.@.@.@.^ H W x     . . . . . $ j #.] @.@.@.@.@.@.@.@.@.@.@.@.@.@.@.@.@.@.@.@.@.@.@.@.@.@.@.@.@.@.@.@.@.@.@.@.@.@.@.@.@.@.@.@.@.@.@.@.@.@.@.@.@.@.@.@.@.@.@.@.@.@.@.@.@.@.@.@.@.@.@.@.@.@.@.@.@.@.@.@.@.@.@.@.@.@.@.@.@.@.@.@.@.@.@.@.@.@.@.@.@.@.@.@.@.@.@.@.@. .U N . . . . . . . . . . . . . . . . . . . . . . . . . $ $ $ $ $ $ $ $ $ $ $ $ $ $ $ $ . . . $ $ $ $ $ $ $ $ $ $ $ $ $ $ $ $ $ $ $ $ $ $ $ $ $ $ $ $ $ $ $ $ $ $ $ $ $ $ $ $ $ $ $ $ $ $ $ $ $ $ $ $ $ $ $ $ $ $ $ $ $ $ $ $ $ $ $ $ $ $ $ $ $ $ $ $ $ $ $ $ $ $ $ $ . . . . . . . . . . . . . . . . $ $ $ $ . . . . . . . . . . . . . . . . . . . . . . . . . . . . . . . . . . . . . . . . . . . . . . . . . . . . . . . . . . . . . . . . . . . . . $ $ $ ",
"$ $ $ $ $ $ $ $ $ $ $ $ $ $ $ $ $ $ $ $ $ $ $ $ $ $ $ $ $ $ $ $ $ $ $ $ $ $ $ $ $ $ $ $ $ $ $ $ $ . . . $ $ $ $ . $ $ #.p.w.<.@.@.@.@.@.@.@.@.@.@.@.@.@.@.@.@.@.@.@.@.@.@.@.@.@.@.@.@.@.@.@.@.@.@.@.@.@.@.@.@.@.@.@.@.@.@.@.@.@.@.@.@.@.@.@.@.@.@.@.@.@.@.@.@.@.@.@.@.@.$.$.*.*.$.@.@.$.6.=.@. .A 8 + X   X X   X 8 J =.f.g.f.6.*. .O.=.*.*.*.*.*.*.*.*.*.*.*.*.*.*.*.*.O.=...= $ * $ $ $ . ^ y.$.$.$.$.@.$.$.$.$.$.$.$.*.*.*.*.@.@.@.@.@.@.@.@.@.@.@.@.@.@.@.@.@.@.@.@.@.@.@.@.@.@.@.@.@.@.@.@.@.@.@.@.@.@.@.@.$.$.$.$.=.( J ( n . . $ $ $ $ $ . b =.@.$.$.%.%.&.*.*.*.&.&.&.*.$.$.$.$.$.$.$.$.$.$.$.$.$.$.$.$.$.$.$.$.$.$.$.$.$.$.$.$.$.$.$.$.$.$.$.$.$.$.$.$.$.$.$.$.$.$.$.$.$.$.$.$.$.$.$.$.$.$.$.$.$.$.$.$.$.$.$.$.$.$.$.$.$.$.$.$.$.$.$.$.$.$.$.$.$.$.$.$.$.$.$.$.$.$.$.$.$.@.T N $ $ $ $ . . . . . . . . . . . . . $ $ $ $ $ $ $ $ $ $ $ $ $ $ $ $ $ $ $ $ $ $ $ $ $ $ $ $ $ . . . . . . . . . . . . . . . . . . . . . . . . . . . . . . . . . . . . . . . . . . . . . . . . . . . . . . . . . . . . . . . . . . . . . . . . . . . . . . . . . . . . . . . . $ $ $ $ $ $ . $ $ . . . . . . . . . . . . . . . . . . . . . . . . . . . . . . . . . . . . . . . . . . . . . . . . . . . . . . . . . . . . . . . . . . . . . . . . . . . $ $ ",
"= = = = = = = = = = = = = = = = = = = = = = = = = = = = = = = = = = = = = = = = = = = = = = = = . . . . . . $ $ . . $ ,.y.e.=.@.&.&.&.&.&.&.&.&.@.@.@.@.@.@.@.@.@.@.@.@.@.@.@.@.@.@.@.@.@.@.@.@.@.@.@.@.@.@.@.@.@.@.@.@.@.@.@.@.@.@.@.@.@.@.@.@.@.@.@.@.@.@.@.@.@.@.@.@.@.@.@.@.O.=.=.@.J x 9 +       X   X d ! =.9.g.r.=.$.@.@.$.@.@.@.@.@.@.@.@.@.@.@.@.@.@.@.@.@.@.@.*.$.` , . $ $ $ $ . P w.@.@.@.@.@.@.@.@.@.@.@.@.@.@.@.@.@.@.@.@.@.@.@.@.@.@.@.@.@.@.@.@.@.@.@.@.@.@.@.@.@.@.@.@.@.@.@.@.@.@.@.@.@.@.@.@.@.@.@.@.*.( H ^ n . . . $ $ $ $ . b >.#.$.$.@.#.@.@.@.@.@.@.&.&.@.@.@.@.@.@.@.@.@.@.@.@.@.@.@.@.@.@.@.@.@.@.@.@.@.@.@.@.@.@.@.@.@.@.@.@.@.@.@.@.@.@.@.@.@.@.@.@.@.@.@.@.@.@.@.@.@.@.@.@.@.@.@.@.@.@.@.@.@.@.@.@.@.@.@.@.@.@.@.@.@.@.@.@.@.@.@.@.@.@.@.@.@.@.@.@.@. .T N . $ $ . . . . . = = = = = - - - - - - - - - - - ; ; ; ; - - - - - - - - - - - - - - - - - - - - - - - - - - - - - - - - - - - - - - - - - - - - - - - - - - - - - - - - - - = = - - - - - - - - - - - - - - - - - - - - - - - - - - - - - - - - - - - - - - - - ; $ $ $ $ $ $ $ $ $ $ . $ . . $ - - - - - - - - - - - - - - - - - - - - - - - - - - - - - - - - - - - - - - - - - - - - - - - - - - - - - - - - - - - - - - - - - - - - - - - = = - 4 4 ",
"a.a.a.a.r.a.a.r.a.a.a.r.y.y.y.y.y.y.y.y.y.y.y.y.y.y.r.r.r.r.r.r.r.r.r.r.y.y.y.y.y.y.y.y.y.y.y.y.r./ 4 $ . $ $ $ . $ $ X.h.9.@.@.&.&.&.&.&.&.&.&.@.@.@.@.@.@.@.@.@.@.@.@.@.@.@.@.@.@.@.@.@.@.@.@.@.@.@.@.@.@.@.@.@.@.@.@.@.@.@.@.@.@.@.@.@.@.@.@.@.@.@.@.@.@.@.O.O.O.@.@.=.@.=.*.( A 8 @             @ h  .6.x.r.r.6.$.@.$.$.$.$.@.@.@.@.@.@.@.@.@.@.@.@.@.@.@.$.$.$.@.@.$.) A = . $ $ $ $ . P w.@.@.@.@.@.@.@.@.@.@.@.@.@.@.@.@.@.@.@.@.@.@.@.@.@.@.@.@.@.@.@.@.@.@.@.@.@.@.@.@.@.@.@.@.@.@.@.@.@.@.@.@.@.@.@.@.@.@.@.@.@.^ H W n . . . $ $ $ $ . b =.$.$.$.$.#.&.&.&.&.&.&.@.@.@.@.@.@.@.@.@.@.@.@.@.@.@.@.@.@.@.@.@.@.@.@.@.@.@.@.@.@.@.@.@.@.@.@.@.@.@.@.@.@.@.@.@.@.@.@.@.@.@.@.@.@.@.@.@.@.@.@.@.@.@.@.@.@.@.@.@.@.@.@.@.@.@.@.@.@.@.@.@.@.@.@.@.@.@.@.@.@.@.@.@.@.@.@.@.@.$. .T S $ $ $ $ . = ` 7.y.y.y.y.y.y.y.y.y.y.y.y.r.r.r.r.r.r.y.r.r.r.r.r.r.r.r.r.r.r.r.r.y.y.y.y.y.y.y.y.y.y.y.y.y.y.y.y.y.y.y.y.y.y.y.y.y.y.y.y.y.y.g.s.s.s.s.s.s.s.s.s.y.y.s.s.s.s.s.s.r.r.y.y.y.y.y.y.s.s.s.s.y.s.y.y.y.r.r.r.s.s.s.s.s.y.s.y.y.y.s.s.y.h.h.y.g.g.s.y.8.y.7.P $ . & $ . . . . . e -.g.y.y.y.y.y.y.y.y.y.y.y.y.y.y.y.y.y.y.y.y.y.y.y.y.y.y.y.y.y.y.y.y.y.y.y.y.y.y.y.y.y.y.y.y.y.y.y.y.y.y.y.y.y.y.y.y.y.y.y.y.y.y.y.y.y.y.y.y.y.y.s.s.y.y.y.y.",
"c.c.c.c.c.c.c.c.c.c.c.c.c.c.c.c.c.c.c.c.c.c.c.c.c.c.c.c.c.c.c.c.c.c.c.c.c.c.c.c.c.c.c.c.c.c.c.c.k.C.-.= . $ $ $ $ $ $ X.h.9.@.@.&.&.&.&.&.&.&.&.@.@.@.@.@.@.@.@.@.@.@.@.@.@.@.@.@.@.@.@.@.@.@.@.@.@.@.@.@.@.@.@.@.@.@.@.@.@.@.@.@.@.@.@.@.@.@.@.@.@.@.@.@.@.@.@.@.*.=.=.( J k 3 X           X 2 D ] w.c.g.e.6.=.*.*.*.*.*.$.$.$.@.@.@.@.@.@.@.@.@.@.@.@.@.@.@.$.$.$.@.@.@.T P = . $ $ $ $ . P w.@.@.@.@.@.@.@.@.@.@.@.@.@.@.@.@.@.@.@.@.@.@.@.@.@.@.@.@.@.@.@.@.@.@.@.@.@.@.@.@.@.@.@.@.@.@.@.@.@.@.@.@.@.@.@.@.@.@.@.@.@.^ H W N o . . $ $ $ $ . b =.$.$.$.$.#.&.&.&.&.&.&.&.@.@.@.@.@.@.@.@.@.@.@.@.@.@.@.@.@.@.@.@.@.@.@.@.@.@.@.@.@.@.@.@.@.@.@.@.@.@.@.@.@.@.@.@.@.@.@.@.@.@.@.@.@.@.@.@.@.@.@.@.@.@.@.@.@.@.@.@.@.@.@.@.@.@.@.@.@.@.@.@.@.@.@.@.@.@.@.@.@.@.@.@.@.@.@.@.@.$. .T S $ $ $ $ < -.b.g.z.z.z.z.z.z.z.c.c.c.c.x.c.c.z.x.x.x.x.x.x.x.x.x.j.j.j.j.x.l.x.x.c.c.c.c.c.k.x.c.c.z.z.z.z.z.z.z.h.h.z.h.z.z.z.z.z.z.z.z.h.z.z.z.z.z.c.c.z.z.z.c.c.h.c.h.z.h.h.g.g.g.g.g.c.c.c.c.c.c.c.c.c.c.c.c.c.c.c.c.c.c.c.c.c.c.c.c.c.c.z.z.g.s.s.g.c.c.c.h.g.c.k.Z.} = . . . . . . g w.c.h.c.c.c.c.z.z.z.z.h.h.z.h.z.z.z.z.z.z.z.z.z.z.z.z.z.z.z.z.z.z.z.z.h.h.z.h.z.z.z.z.z.z.z.z.z.h.z.z.z.z.z.z.z.z.z.z.h.h.z.h.z.z.z.z.z.z.z.z.c.c.c.c.z.z.z.z.",
"x.x.x.x.x.x.x.x.x.x.x.x.l.l.l.l.l.l.l.l.l.l.l.l.l.l.x.x.x.x.x.x.x.x.x.x.l.l.l.l.l.l.j.j.l.l.g.g.c.r.b.n . $ $ $ $ $ $ #.h.9.@.@.&.&.&.&.&.&.&.&.@.@.@.@.@.@.@.@.@.@.@.@.@.@.@.@.@.@.@.@.@.@.@.@.@.@.@.@.@.@.@.@.@.@.@.@.@.@.@.@.@.@.@.@.@.@.@.@.@.@.@.@.@.$.$.*.@.( Z f @             X f J $.e.c.g.f.r.=.*.@.$.@.@.*.=.$.$.$.$.@.@.@.@.@.@.@.@.@.@.@.@.@.@.@.@.*.$.$.@.^ J P = . $ $ $ $ . P w.@.@.@.@.@.@.@.@.@.@.@.@.@.@.@.@.@.@.@.@.@.@.@.@.@.@.@.@.@.@.@.@.@.@.@.@.@.@.@.@.@.@.@.@.@.@.@.@.@.@.@.@.@.@.@.@.@.@.@.@.@.^ H W N o . . $ $ $ $ . v =.$.$.$.$.#.&.&.&.&.&.&.@.@.@.@.@.@.@.@.@.@.@.@.@.@.@.@.@.@.@.@.@.@.@.@.@.@.@.@.@.@.@.@.@.@.@.@.@.@.@.@.@.@.@.@.@.@.@.@.@.@.@.@.@.@.@.@.@.@.@.@.@.@.@.@.@.@.@.@.@.@.@.@.@.@.@.@.@.@.@.@.@.@.@.@.@.@.@.@.@.@.@.@.@.@.@.@.@.@.$. .T S . $ $ $ C D.s.g.g.g.g.g.h.h.h.g.g.g.g.g.g.g.l.g.g.g.g.g.g.g.g.g.g.g.g.g.g.l.l.g.g.g.g.g.g.g.g.g.g.g.g.g.g.l.l.g.g.g.g.g.g.g.g.g.g.g.l.l.l.l.c.c.c.c.c.c.z.l.c.c.c.c.c.c.c.c.c.c.c.c.c.c.g.g.g.g.g.g.s.s.a.a.r.r.r.w.w.w.6.6.6.6.6.6.2.2.2.2.2.2.=.&.&.=.r.s.g.l.r.k.g.g.v.e . $ . $ $ . @.c.l.l.l.l.l.l.g.l.l.g.g.g.g.g.g.g.g.g.g.g.g.g.g.l.l.g.g.g.g.g.g.g.g.g.g.g.g.g.g.l.l.g.g.g.g.g.g.g.g.g.g.g.g.g.g.l.l.g.g.g.g.g.g.g.g.g.g.g.g.g.g.g.g.g.g.l.l.g.",
"x.x.x.x.x.x.x.x.x.x.x.x.x.x.x.x.x.x.x.x.x.x.x.x.x.x.x.x.x.x.x.x.x.x.x.x.x.x.x.x.x.x.x.x.x.x.x.x.m.g.M./ . $ $ $ $ $ $ #.h.9.@.@.@.&.&.&.&.&.&.@.@.@.@.@.@.@.@.@.@.@.@.@.@.@.@.@.@.@.@.@.@.@.@.@.@.@.@.@.@.@.@.@.@.@.@.@.@.@.@.@.@.@.@.@.@.@.@.@.@.@.@.@.=.] H k @ +             + f ( 5.r.g.j.f.8.6.*.@.O.@.@.@.@.$.$.*.$.$.$.$.@.@.@.@.@.@.@.@.@.@.@.@.@.@.@.@.*.$.$.J D T F 1 . $ $ $ $ . P w.@.@.@.@.@.@.@.@.@.@.@.@.@.@.@.@.@.@.@.@.@.@.@.@.@.@.@.@.@.@.@.@.@.@.@.@.@.@.@.@.@.@.@.@.@.@.@.@.@.@.@.@.@.@.@.@.@.@.@.@.@.^ H W N o . . $ $ $ $ . v =.$.$.$.$.#.@.&.&.&.&.&.@.@.@.@.@.@.@.@.@.@.@.@.@.@.@.@.@.@.@.@.@.@.@.@.@.@.@.@.@.@.@.@.@.@.@.@.@.@.@.@.@.@.@.@.@.@.@.@.@.@.@.@.@.@.@.@.@.@.@.@.@.@.@.@.@.@.@.@.@.@.@.@.@.@.@.@.@.@.@.@.@.@.@.@.@.@.@.@.@.@.@.@.@.@.@.@.@.@.$. .T S . $ $ $ W B.g.z.z.z.z.z.z.z.z.z.z.z.z.z.z.z.z.z.c.c.c.c.z.z.c.c.c.c.c.c.z.l.z.l.z.z.c.c.x.x.x.x.x.x.x.x.x.x.x.x.x.x.x.x.x.x.x.x.x.l.l.l.l.g.l.g.f.f.f.f.r.r.r.w.w.e.e.e.6.6.6.6.=.=.=.=.=.=.=.=.@.@.@.@.&.&.&.@.@.@.@.@.@.@.@.@.@.@.@.@.@.@.@.@.@.*.*.@.@.=.r.g.c.g.j.i.b.I . . . $ $ . 6.c.g.l.c.c.c.c.c.c.c.c.c.c.c.c.c.c.c.c.c.c.c.c.c.c.c.c.c.c.c.c.c.c.c.c.c.c.c.c.c.c.c.c.c.c.c.c.c.c.c.c.c.c.c.c.c.c.c.c.c.c.c.c.c.c.c.c.c.c.c.c.x.x.x.x.c.c.c.c.",
"5.5.5.5.6.6.6.5.5.5.5.5.5.5.5.5.5.5.5.5.5.5.5.5.5.5.5.5.5.5.5.5.6.6.6.5.5.5.5.5.5.5.5.5.5.5.5.5.5.=.7.I . $ $ $ $ $ $ #.h.1.@.@.@.@.@.@.@.@.@.@.@.@.&.&.&.&.&.@.@.@.@.@.@.@.@.@.@.@.@.@.@.@.@.@.@.@.@.@.@.@.@.@.@.@.@.@.*.@.@.@.@.@.@.@.$.$.*.=.=.@.( Z 3 +               2 x ( 8.r.x.g.r.8.5.=.@.@.@.@.@.@.@.@.@.@.@.@.$.$.$.$.$.$.$.$.$.$.$.@.@.@.@.@.*.@.@.=.@.] ^ J J J I = $ $ $ $ $ . P 7.@.@.@.@.@.@.@.@.@.@.@.@.@.@.@.@.@.@.@.@.@.@.@.@.@.@.@.@.@.@.@.@.@.@.@.@.@.@.@.@.@.@.@.@.@.@.@.@.@.@.@.@.@.@.@.@.@.@.@.@.@.J H W A o . . $ $ $ $ . b =.$.$.$.$.#.@.@.@.@.@.@.@.@.@.&.&.&.&.&.&.@.@.@.@.@.@.@.@.@.@.@.@.@.@.@.@.@.@.@.@.@.@.@.@.@.@.@.@.@.@.@.@.@.@.@.@.@.@.@.@.@.@.@.@.@.@.@.@.@.@.@.@.@.@.@.@.@.@.@.@.@.@.@.@.@.@.@.@.@.@.@.@.@.@.@.@.@.@.@.@.@.@.@.@.@.@.@.@.@.@.] T A . $ $ . ) c.g.g.c.c.l.g.l.l.g.g.g.g.c.x.l.l.l.l.l.l.l.l.l.x.x.x.x.x.x.x.c.c.c.x.l.l.x.x.l.l.j.j.f.f.f.a.a.r.r.r.0.0.0.0.5.5.5.5.=.*.@.@.&.&.&.&.&.&.&.&.&.&.@.@.@.@.@.@.@.@.@.@.@.@.@.@.@.@.@.@.@.@.@.@.@.@.@.@.@.@.@.@.@.@.@.@.@.@.@.@.@.@.@.@.@.@.@.@.@.@.@.@.8.g.c.g.p.A . . . $ . = w.g.r.c.g.w.5.=.6.6.6.6.5.5.5.5.5.5.<.<.<.<.<.5.5.5.5.5.5.5.5.5.5.5.<.<.<.<.<.5.5.5.5.5.5.5.5.5.5.5.<.<.<.<.<.5.5.5.5.5.5.5.5.5.5.5.<.<.<.<.<.5.2.2.2.2.5.5.5.5.",
"@.@.@.@.@.@.@.@.@.@.@.@.@.@.@.@.@.@.@.@.@.@.@.@.@.@.@.@.@.@.@.@.@.@.@.@.@.@.@.@.@.@.@.@.@.@.@.@.@. .=.n . $ $ $ $ $ . #.g.1.@.@.@.@.@.@.@.@.@.@.@.@.&.&.&.&.&.&.@.@.@.@.@.@.@.@.@.@.@.@.@.@.@.@.@.@.@.@.@.@.@.@.@.@.@.@.@.@.$.*.*.*.*.$.=.=. .^ t 3               X 9 A *.w.x.g.g.r.w.8.5.=.*.*.@.@.@.@.@.@.@.@.@.@.@.@.$.$.$.$.$.$.$.$.$.$.$.@.@.@.@.@.*.@.@.@.] ^ U H H J F = $ $ $ $ $ . P 7.@.@.@.@.@.@.@.@.@.@.@.@.@.@.@.@.@.@.@.@.@.@.@.@.@.@.@.@.@.@.@.@.@.@.@.@.@.@.@.@.@.@.@.@.@.@.@.@.@.@.@.@.@.@.@.@.@.@.@.@.@.J H W A o . . $ $ $ $ . b =.$.$.$.%.#.@.@.@.@.@.@.@.@.&.&.&.&.&.&.&.&.@.@.@.@.@.@.@.@.@.@.@.@.@.@.@.@.@.@.@.@.@.@.@.@.@.@.@.@.@.@.@.@.@.@.@.@.@.@.@.@.@.@.@.@.@.@.@.@.@.@.@.@.@.@.@.@.@.@.@.@.@.@.@.@.@.@.@.@.@.@.@.@.@.@.@.@.@.@.@.@.@.@.@.@.@.@.@.@.@.] T A . . $ . ) c.g.g.l.l.x.c.c.c.c.c.c.c.c.c.x.x.x.x.x.x.x.x.g.g.g.g.g.g.g.g.e.e.e.e.5.2.5.2.=.=.=.=.*.*.$.$.&.&.@.@.@.@.@.@.&.&.@.@.@.@.@.@.&.&.&.&.&.&.&.&.&.&.@.@.@.@.@.@.@.@.@.@.@.@.@.@.@.@.@.@.@.@.@.@.@.@.@.@.@.@.@.@.@.@.@.@.@.@.@.@.@.@.@.@.@.@.@.@.@.@.@.@.$.5.6.6.>.N $ . . $ $ = 6.j.r.r.5.=.@.@.@.@.@.@.*.*.*.*.*.*.*.*.*.*.*.*.*.*.*.*.*.*.*.*.*.*.*.*.*.*.*.*.*.*.*.*.*.*.*.*.*.*.*.*.*.*.*.*.*.*.*.*.*.*.*.*.*.*.*.*.*.*.*.*.*.*.*.*.*.*.=.*.",
"*.*.*.*.*.*.*.*.*.*.*.*.*.*.*.*.*.*.*.*.*.*.*.*.*.*.*.*.*.*.*.*.*.*.*.*.*.*.*.*.*.*.*.*.*.*.*.*.*.@.<.A . $ $ $ $ $ $ #.g.1.@.@.@.@.@.@.@.@.@.@.@.&.&.&.&.&.&.&.@.@.@.@.@.@.@.@.@.@.@.@.@.@.@.@.@.@.@.@.@.@.@.@.@.@.@.@.@.@.$.*.=.$.] ( Z 8 @               @ 8 ! *.f.g.x.f.e.9.6.<.=.=.*.*.$.$.@.@.@.@.@.@.@.@.@.@.@.@.$.$.$.$.$.$.$.$.$.$.$.@.@.@.@.@.=.*.@. .T U Y J J J I = $ $ $ $ $ . P 7.@.@.@.@.@.@.@.@.@.@.@.@.@.@.@.@.@.@.@.@.@.@.@.@.@.@.@.@.@.@.@.@.@.@.@.@.@.@.@.@.@.@.@.@.@.@.@.@.@.@.@.@.@.@.@.@.@.@.@.@.@.J J W A o . . $ $ $ $ . b =.$.$.$.%.#.@.@.@.@.@.@.@.@.&.&.&.&.&.&.&.&.@.@.@.@.@.@.@.@.@.@.@.@.@.@.@.@.@.@.@.@.@.@.@.@.@.@.@.@.@.@.@.@.@.@.@.@.@.@.@.@.@.@.@.@.@.@.@.@.@.@.@.@.@.@.@.@.@.@.@.@.@.@.@.@.@.@.@.@.@.@.@.@.@.@.@.@.@.@.@.@.@.@.@.@.@.@.@.@.@.] ^ A . . * . ` c.g.g.g.g.f.r.r.r.r.9.6.6.6.6.5.5.5.5.5.5.5.5.=.=.=.=.=.=.=.=.@.@.@.@.O.O.O.O.$.$.$.$.@.@.@.@.@.@.@.@.@.@.@.@.@.@.@.@.@.@.@.@.@.@.@.@.&.&.@.@.@.@.@.@.@.@.@.@.@.@.@.@.@.@.@.@.@.@.@.@.@.@.@.@.@.@.@.@.@.@.@.@.@.@.@.@.@.@.@.@.@.@.@.@.@.@.@.@.@.@.@.@.$.*.@...#.b $ $ . $ $ = 6.i.=.@.@.@.$.$.&.&.$.$.*.*.$.$.$.$.$.$.$.$.$.$.$.$.$.$.*.*.$.$.$.$.$.$.$.$.$.$.$.$.$.$.*.*.$.$.$.$.$.$.$.$.$.$.*.*.$.$.*.*.$.$.$.$.$.$.$.$.$.$.@.@.@.@.*.*.*.$.",
"@.@.@.@.@.@.@.@.@.@.@.@.@.@.@.@.@.@.@.@.@.@.@.@.@.@.@.@.@.@.@.@.@.@.@.@.@.@.@.@.@.@.@.@.@.@.@.@.$...=.N . $ $ $ $ $ $ #.g.1.@.@.@.@.@.@.@.@.@.@.@.@.&.&.&.&.&.&.@.@.@.@.@.@.@.@.@.@.@.@.@.@.@.@.@.@.@.@.@.@.@.@.@.@.@.$.*.$.@.@.J k 2       X X     X 3 f ^ 5.r.g.g.g.r.r.f.9.=.$.$.$.$.$.$.$.$.@.@.@.@.@.@.@.@.@.@.@.@.$.$.$.$.$.$.$.$.$.$.$.@.@.@.@.@.=.=.@.] J J U Y J P I = . $ $ $ $ . P 7.@.@.@.@.@.@.@.@.@.@.@.@.@.@.@.@.@.@.@.@.@.@.@.@.@.@.@.@.@.@.@.@.@.@.@.@.@.@.@.@.@.@.@.@.@.@.@.@.@.@.@.@.@.@.@.@.@.@.@.@.@.J J ^ A o . . . $ $ $ . b =.$.$.$.%.#.@.@.@.@.@.@.@.@.&.&.&.&.&.&.&.&.@.@.@.@.@.@.@.@.@.@.@.@.@.@.@.@.@.@.@.@.@.@.@.@.@.@.@.@.@.@.@.@.@.@.@.@.@.@.@.@.@.@.@.@.@.@.@.@.@.@.@.@.@.@.@.@.@.@.@.@.@.@.@.@.@.@.@.@.@.@.@.@.@.@.@.@.@.@.@.@.@.@.@.@.@.@.@.@.@.' ^ A . . * . ` c.g.g.g.r.6.=.@.@.@.@.@.@.@.@.@.@.@.@.@.@.@.@.@.@.@.@.@.@.@.@.@.@.$.$.&.&.*.*.$.$.$.$.*.*.*.*.*.*.*.*.@.@.@.@.@.@.@.@.@.@.@.@.@.@.@.@.&.&.@.@.@.@.@.@.@.@.@.@.@.@.@.@.@.@.@.@.@.@.@.@.@.@.@.@.@.@.@.@.@.@.@.@.@.@.@.@.@.@.@.@.@.@.@.@.@.@.@.@.@.@.@.@.@.=.=.@.1.g . $ . $ $ = @.$.] $.$.$.$.$.@.@.@.@.@.@.@.@.@.@.@.@.@.@.@.@.@.@.@.@.@.@.@.@.@.@.@.@.@.@.@.@.@.@.@.@.@.@.@.@.@.@.@.@.@.@.@.@.@.@.@.@.@.@.@.@.@.@.@.@.@.@.@.@.@.@.@.@.@.@.@.@.",
"@.@.@.@.@.@.@.@.@.@.@.@.@.@.@.@.@.@.@.@.@.@.@.@.@.@.@.@.@.@.@.@.@.@.@.@.@.@.@.@.@.@.@.@.@.@.@.@.@.@.=.F . . $ $ $ $ . #.h.1.@.O.@.@.@.@.@.@.@.@.&.&.&.&.&.&.&.&.@.@.@.@.@.@.@.@.@.@.@.@.$.$.@.@.$.$.@.@.@.@.*.@.=.*.=.$.] A 5 @       X         3 A ] 8.j.g.g.e.r.r.r.e.=.*.@.@.$.$.$.$.$.$.$.$.$.$.$.$.@.@.@.@.@.@.@.@.$.$.$.$.$.$.$.$.$.$.$.$.@.@.@.@.$.@.( D J J J Y J P I = . $ $ $ $ . P 7.@.@.@.@.@.@.@.@.@.@.@.@.@.@.@.@.@.@.@.@.@.@.@.@.@.@.@.@.@.@.@.@.@.@.@.@.@.@.@.@.@.@.@.@.@.@.@.@.@.@.@.@.@.@.@.@.@.@.@.@.] J J ^ A o . . . $ $ $ . b =.$.$.$.$.#.@.@.@.@.@.@.@.@.&.&.&.&.&.&.&.&.@.@.@.@.@.@.@.@.@.@.@.@.@.@.@.@.@.@.@.@.@.@.@.@.@.@.@.@.@.@.@.@.@.@.@.@.@.@.@.@.@.@.@.@.@.@.@.@.@.@.@.@.@.@.@.@.@.@.@.@.@.@.@.@.@.@.@.@.@.@.@.@.@.@.@.@.@.@.@.@.@.@.@.@.@.@.@.@.@.( ^ A . . $ . ` N.l.g.g.8.@.*.$.$.$.$.@.@.@.@.@.@.@.@.&.&.@.@.@.@.@.@.@.@.@.@.@.@.@.@.*.*.$.$.$.$.$.$.@.@.@.@.@.@.@.@.&.&.@.@.@.@.@.@.@.@.@.@.@.@.@.@.&.&.@.@.@.@.@.@.@.@.@.@.@.@.@.@.@.@.@.@.@.@.@.@.@.@.@.@.@.@.@.@.@.@.@.@.@.@.@.@.@.@.@.@.@.@.@.@.@.@.@.@.@.@.@.@.$.$.$.$.=.x . $ . $ $ = @.@.@.$.$.$.$.$.@.@.@.@.&.&.@.@.@.@.@.@.@.@.@.@.@.@.@.@.&.&.@.@.@.@.@.@.@.@.@.@.@.@.@.@.&.&.@.@.@.@.@.@.@.@.@.@.@.@.@.@.&.&.@.@.@.@.@.@.@.@.@.@.@.@.@.@.&.&.$.@.",
"@.@.@.@.@.@.@.@.@.@.@.@.@.@.@.@.@.@.@.@.@.@.@.@.@.@.@.@.@.@.@.@.@.@.@.@.@.@.@.@.@.@.@.@.@.@.@.@.@.@.=.F . . $ $ $ $ . #.h.1.@.@.@.@.@.@.@.@.@.@.&.&.&.&.&.&.&.&.@.@.@.@.@.@.@.@.@.@.@.@.@.@.$.*.@.@.@.@.*.$.=.*.@.H 8 3                   8 D *.r.x.g.f.9.9.r.r.r.6.*.@.@.@.$.@.$.$.$.$.$.$.$.$.$.$.$.$.@.@.@.@.@.@.@.@.$.$.$.$.$.$.$.$.$.$.$.$.@.@.@.@.@.( J J J J J J J J I = . $ $ $ $ . P 8.@.@.@.@.@.@.@.@.@.@.@.@.@.@.@.@.@.@.@.@.@.@.@.@.@.@.@.@.@.@.@.@.@.@.@.@.@.@.@.@.@.@.@.@.@.@.@.@.@.@.@.@.@.@.@.@.@.@.@.@.] J J ^ A o . . . $ $ $ . b =.$.$.$.$.#.@.@.@.@.@.@.@.@.&.&.&.&.&.&.&.&.@.@.@.@.@.@.@.@.@.@.@.@.@.@.@.@.@.@.@.@.@.@.@.@.@.@.@.@.@.@.@.@.@.@.@.@.@.@.@.@.@.@.@.@.@.@.@.@.@.@.@.@.@.@.@.@.@.@.@.@.@.@.@.@.@.@.@.@.@.@.@.@.@.@.@.@.@.@.@.@.@.@.@.@.@.@.@.@.@.( ^ A . . $ . ` N.l.g.g.8.@.*.$.$.$.$.@.@.@.@.@.@.@.@.&.&.@.@.@.@.@.@.@.@.@.@.@.@.@.@.*.*.$.$.$.$.$.$.@.@.@.@.@.@.@.@.&.&.@.@.@.@.@.@.@.@.@.@.@.@.@.@.&.&.@.@.@.@.@.@.@.@.@.@.@.@.@.@.@.@.@.@.@.@.@.@.@.@.@.@.@.@.@.@.@.@.@.@.@.@.@.@.@.@.@.@.@.@.@.@.@.@.@.@.@.@.@.@.$.$.$.$.=.x . $ . $ $ = @.@.$.$.$.$.$.$.@.@.@.@.&.&.@.@.@.@.@.@.@.@.@.@.@.@.@.@.&.&.@.@.@.@.@.@.@.@.@.@.@.@.@.@.&.&.@.@.@.@.@.@.@.@.@.@.@.@.@.@.&.&.@.@.@.@.@.@.@.@.@.@.@.@.@.@.&.&.$.@.",
"@.@.@.@.@.@.@.@.@.@.@.@.@.@.@.@.@.@.@.@.@.@.@.@.@.@.@.@.@.@.@.@.@.@.@.@.@.@.@.@.@.@.@.@.@.@.@.@.@.@.=.F . $ $ $ $ $ . #.h.1.@.@.@.@.@.@.@.@.@.@.&.&.&.&.&.&.&.&.@.@.@.@.@.@.@.@.@.@.@.@.*.$.@.@.*.=.=.=.@.( x 3 X X               @ f H 6.g.g.g.a.e.w.r.r.w.8.8.$.@.@.*.*.@.@.@.$.$.$.$.$.$.$.$.$.$.$.$.@.@.@.@.@.@.@.@.$.$.$.$.$.$.$.$.$.$.$.$.@.@.@.@.( J J U J J J J J J I = . $ $ $ $ . P 6.@.@.@.@.@.@.@.@.@.@.@.@.@.@.@.@.@.@.@.@.@.@.@.@.@.@.@.@.@.@.@.@.@.@.@.@.@.@.@.@.@.@.@.@.@.@.@.@.@.@.@.@.@.@.@.@.@.@.@.@.] J J ^ A . . . . $ $ $ . v =.$.$.$.$.#.@.@.@.@.@.@.@.@.&.&.&.&.&.&.&.&.@.@.@.@.@.@.@.@.@.@.@.@.@.@.@.@.@.@.@.@.@.@.@.@.@.@.@.@.@.@.@.@.@.@.@.@.@.@.@.@.@.@.@.@.@.@.@.@.@.@.@.@.@.@.@.@.@.@.@.@.@.@.@.@.@.@.@.@.@.@.@.@.@.@.@.@.@.@.@.@.@.@.@.@.@.@.@.@.@.( ^ A . . $ . ` N.l.g.g.8.@.*.@.@.@.@.@.@.@.@.@.@.@.@.&.&.@.@.@.@.@.@.@.@.@.@.@.@.@.@.*.*.$.$.$.$.$.$.@.@.@.@.@.@.@.@.&.&.@.@.@.@.@.@.@.@.@.@.@.@.@.@.&.&.@.@.@.@.@.@.@.@.@.@.@.@.@.@.@.@.@.@.@.@.@.@.@.@.@.@.@.@.@.@.@.@.@.@.@.@.@.@.@.@.@.@.@.@.@.@.@.@.@.@.@.@.@.@.$.$.$.$.=.x . $ . $ $ = @.$.$.$.$.$.$.$.@.@.@.@.&.&.@.@.@.@.@.@.@.@.@.@.@.@.@.@.&.&.@.@.@.@.@.@.@.@.@.@.@.@.@.@.&.&.@.@.@.@.@.@.@.@.@.@.@.@.@.@.&.&.@.@.@.@.@.@.@.@.@.@.@.@.@.@.&.&.$.@.",
"@.@.@.@.@.@.@.@.@.@.@.@.@.@.@.@.@.@.@.@.@.@.@.@.@.@.@.@.@.@.@.@.@.@.@.@.@.@.@.@.@.@.@.@.@.@.@.@.@.@.=.F . $ $ $ $ $ . #.h.1.@.@.@.@.@.@.@.@.@.@.@.&.&.&.&.&.&.&.@.@.@.@.@.@.@.@.@.@.@.@.@.@.$.$.=.] D k @     X X           @ f ' =.f.g.f.r.g.w.f.f.g.=.=.*.*.*.=.=.*.*.@.@.@.@.$.$.$.$.$.$.$.$.$.$.$.$.@.@.@.@.@.@.@.@.$.$.$.$.$.$.$.$.$.$.$.$.@.@.@.@.D J U H J J J J J J I = . $ $ $ $ . P 6.@.@.@.@.@.@.@.@.@.@.@.@.@.@.@.@.@.@.@.@.@.@.@.@.@.@.@.@.@.@.@.@.@.@.@.@.@.@.@.@.@.@.@.@.@.@.@.@.@.@.@.@.@.@.@.@.@.@.@.@.] J J ^ A . . . . $ $ $ . v =.$.$.$.$.#.@.@.@.@.@.@.@.@.@.&.&.&.&.&.&.&.@.@.@.@.@.@.@.@.@.@.@.@.@.@.@.@.@.@.@.@.@.@.@.@.@.@.@.@.@.@.@.@.@.@.@.@.@.@.@.@.@.@.@.@.@.@.@.@.@.@.@.@.@.@.@.@.@.@.@.@.@.@.@.@.@.@.@.@.@.@.@.@.@.@.@.@.@.@.@.@.@.@.@.@.@.@.@.@.@.( ^ A . . $ . ) N.l.g.g.8.@.*.@.@.@.@.@.@.@.@.@.@.@.@.&.&.@.@.@.@.@.@.@.@.@.@.@.@.@.@.*.*.$.$.$.$.$.$.@.@.@.@.@.@.@.@.&.&.@.@.@.@.@.@.@.@.@.@.@.@.@.@.@.@.@.@.@.@.@.@.@.@.@.@.@.@.@.@.@.@.@.@.@.@.@.@.@.@.@.@.@.@.@.@.@.@.@.@.@.@.@.@.@.@.@.@.@.@.@.@.@.@.@.@.@.@.@.@.$.$.$.$.=.x . $ . $ $ = #.$.$.$.$.$.$.$.@.@.@.@.&.&.@.@.@.@.@.@.@.@.@.@.@.@.@.@.&.&.@.@.@.@.@.@.@.@.@.@.@.@.@.@.&.&.@.@.@.@.@.@.@.@.@.@.@.@.@.@.&.&.@.@.@.@.@.@.@.@.@.@.@.@.@.@.&.&.$.@.",
"@.@.@.@.@.@.@.@.@.@.@.@.@.@.@.@.@.@.@.@.@.@.@.@.@.@.@.@.@.@.@.@.@.@.@.@.@.@.@.@.@.@.@.@.@.@.@.@.@.@.=.F . . $ $ $ $ . #.h.%.@.@.$.$.$.$.$.$.$.$.$.$.$.$.$.$.$.$.$.$.$.$.*.=.=.@.@.O.=.=.5.O.J x 5 @                 X 8 Z ] 9.g.g.g.f.r.r.f.g.r.6.<.=.*.@.@.@.@.@.@.@.@.@.@.@.@.@.@.@.@.@.@.@.@.@.@.@.@.@.@.@.@.@.@.@.@.@.@.@.@.$.$.$.$.$.$.$.$.*.$.] J J J J J J J J J J J I = . . $ $ * . ^ 6.@.@.@.&.&.&.&.&.&.&.&.&.&.&.&.@.@.@.@.@.@.@.@.@.@.@.@.@.@.@.@.@.@.@.@.@.@.@.@.@.@.@.@.@.@.@.@.@.@.@.@.@.@.@.@.@.@.@.@.@.] J J J A . . . . $ $ $ . b >.%.@.@.@.#.@.@.@.@.@.@.@.@.@.@.@.@.@.@.@.@.@.@.@.@.@.@.@.@.@.@.@.@.@.@.@.@.@.@.@.@.@.@.@.@.@.@.@.@.@.@.@.@.@.@.@.@.@.@.@.@.@.@.@.@.@.@.@.@.@.@.@.@.@.@.@.@.@.@.@.@.@.@.@.@.@.@.@.@.@.@.@.@.@.@.@.@.@.@.@.@.@.@.@.@.@.@.@.@.O.^ ^ A . . % . ` m.g.g.l.*.@.$.@.@.@.@.@.@.@.@.@.@.@.@.@.@.@.@.@.@.@.@.@.@.@.@.@.@.@.@.@.@.@.@.@.@.@.@.@.@.@.@.@.@.@.@.@.@.@.@.@.@.@.@.@.@.@.@.@.@.@.@.@.@.@.@.@.@.@.@.@.@.@.@.@.@.@.@.@.@.@.@.@.@.@.@.@.@.@.@.@.@.@.@.@.@.@.@.@.@.@.@.@.@.@.@.@.@.@.@.@.@.@.@.@.@.@.@.$.$.$.$.=.x . $ . $ $ = } @.$.@.@.@.@.@.@.@.@.@.@.@.@.@.@.@.@.@.@.@.@.@.@.@.@.@.@.@.@.@.@.@.@.@.@.@.@.@.@.@.@.@.@.@.@.@.@.@.@.@.@.@.@.@.@.@.@.@.@.@.@.@.@.@.@.@.@.@.@.@.@.@.@.@.$.$.*.$.",
"@.@.@.@.@.@.@.@.@.@.@.@.@.@.@.@.@.@.@.@.@.@.@.@.@.@.@.@.@.@.@.@.@.@.@.@.@.@.@.@.@.@.@.@.@.@.@.@.@.@.=.F . . $ $ $ $ . #.h.%.@.@.$.$.$.$.$.$.$.$.$.$.$.$.$.$.$.$.$.$.$.$.=.@.@.=.=.=. .A f :             X       8 H *.9.c.x.g.r.9.r.r.f.r.e.8.<.=.*.$.$.@.@.@.@.@.@.@.@.@.@.@.@.@.@.@.@.@.@.@.@.@.@.@.@.@.@.@.@.@.@.@.@.@.@.@.@.$.$.$.$.$.$.$.$.@.] ! ! J J J J J J J J J J I = . $ $ $ * . ^ 6.@.@.@.&.&.&.&.&.&.&.&.&.&.&.&.&.@.@.@.@.@.@.@.@.@.@.@.@.@.@.@.@.@.@.@.@.@.@.@.@.@.@.@.@.@.@.@.@.@.@.@.@.@.@.@.@.@.@.@.@.] J J J A . . . . $ $ $ . b >.%.@.@.@.#.@.@.@.@.@.@.@.@.@.@.@.@.@.@.@.@.@.@.@.@.@.@.@.@.@.@.@.@.@.@.@.@.@.@.@.@.@.@.@.@.@.@.@.@.@.@.@.@.@.@.@.@.@.@.@.@.@.@.@.@.@.@.@.@.@.@.@.@.@.@.@.@.@.@.@.@.@.@.@.@.@.@.@.@.@.@.@.@.@.@.@.@.@.@.@.@.@.@.@.@.@.@.@.@. .^ ^ A . . % . ` m.j.g.l.*.@.$.@.@.@.@.@.@.@.@.@.@.@.@.@.@.@.@.@.@.@.@.@.@.@.@.@.@.@.@.@.@.@.@.@.@.@.@.@.@.@.@.@.@.@.@.@.@.@.@.@.@.@.@.@.@.@.@.@.@.@.@.@.@.@.@.@.@.@.@.@.@.@.@.@.@.@.@.@.@.@.@.@.@.@.@.@.@.@.@.@.@.@.@.@.@.@.@.@.@.@.@.@.@.@.@.@.@.@.@.@.@.@.@.@.@.@.@.$.$.$.$.=.x . $ $ $ $ = } @.$.@.@.@.@.@.@.@.@.@.@.@.@.@.@.@.@.@.@.@.@.@.@.@.@.@.@.@.@.@.@.@.@.@.@.@.@.@.@.@.@.@.@.@.@.@.@.@.@.@.@.@.@.@.@.@.@.@.@.@.@.@.@.@.@.@.@.@.@.@.@.@.@.@.$.$.*.$.",
"@.@.@.@.@.@.@.@.@.@.@.@.@.@.@.@.@.@.@.@.@.@.@.@.@.@.@.@.@.@.@.@.@.@.@.@.@.@.@.@.@.@.@.@.@.@.@.@.@.@.=.F . . $ $ $ $ . #.h.$.@.@.$.$.$.$.$.$.$.$.$.$.$.$.$.$.$.$.$.$.$.$.*.=.@.( A 8           @       X @ d ^ @.c.g.g.f.f.f.r.r.f.f.r.r.<.=.*.*.$.$.$.$.@.@.@.@.@.@.@.@.@.@.@.@.@.@.@.@.@.@.@.@.@.@.@.@.@.@.@.@.@.@.@.@.@.@.@.@.$.$.$.$.$.$.$.$.] U J ^ J J J J J J J J J J I = . $ $ $ * . ^ 6.@.@.&.&.&.&.&.&.&.&.&.&.&.&.&.&.@.@.@.@.@.@.@.@.@.@.@.@.@.@.@.@.@.@.@.@.@.@.@.@.@.@.@.@.@.@.@.@.@.@.@.@.@.@.@.@.@.@.@.@.] J J P A . . . . $ $ $ . b =.$.@.@.@.#.@.@.@.@.@.@.@.@.@.@.@.@.@.@.@.@.@.@.@.@.@.@.@.@.@.@.@.@.@.@.@.@.@.@.@.@.@.@.@.@.@.@.@.@.@.@.@.@.@.@.@.@.@.@.@.@.@.@.@.@.@.@.@.@.@.@.@.@.@.@.@.@.@.@.@.@.@.@.@.@.@.@.@.@.@.@.@.@.@.@.@.@.@.@.@.@.@.@.@.@.@.@.@.@. .^ ^ A . . % . ` m.j.g.l.*.@.$.@.@.@.@.@.@.@.@.@.@.@.@.@.@.@.@.@.@.@.@.@.@.@.@.@.@.@.@.@.@.@.@.@.@.@.@.@.@.@.@.@.@.@.@.@.@.@.$.@.@.@.@.@.@.@.@.@.@.@.@.@.@.@.@.@.@.@.@.@.@.@.@.@.@.@.@.@.@.@.@.@.@.@.@.@.@.@.@.@.@.@.@.@.@.@.$.@.@.@.@.@.@.@.@.@.@.@.@.@.@.@.@.@.@.@.@.$.$.$.$.>.x . $ $ $ $ = } @.*.@.@.@.@.@.@.@.@.@.@.@.@.@.@.@.@.@.@.@.@.@.@.@.@.@.@.@.@.@.@.@.@.@.@.@.@.@.@.@.@.@.@.@.@.@.@.@.@.@.@.@.@.@.@.@.@.@.@.@.@.@.@.@.@.@.@.@.@.@.@.@.@.@.$.$.*.$.",
"@.@.@.@.@.@.@.@.@.@.@.@.@.@.@.@.@.@.@.@.@.@.@.@.@.@.@.@.@.@.@.@.@.@.@.@.@.@.@.@.@.@.@.@.@.@.@.@.@.@.=.F . . $ $ $ $ . #.h.$.@.@.$.$.$.$.$.$.$.$.$.$.$.$.$.$.$.$.$.$.$.$.D f :             + X     : k J 8.f.c.x.g.9.e.r.g.g.r.r.r.8.=.@.@.@.*.*.*.$.$.$.@.@.@.@.@.@.@.@.@.@.@.@.@.@.@.@.@.@.@.@.@.@.@.@.@.@.@.@.@.@.@.@.@.@.@.@.$.$.$.$.$.$.$.$.^ J J H J J J J J J J J J J I = . $ $ $ $ . T 6.@.@.&.&.&.&.&.&.&.&.&.&.&.&.&.&.@.@.@.@.@.@.@.@.@.@.@.@.@.@.@.@.@.@.@.@.@.@.@.@.@.@.@.@.@.@.@.@.@.@.@.@.@.@.@.@.@.@.@.@.] J J P A . . . . $ $ $ . b =.$.@.@.@.#.@.@.@.@.@.@.@.@.@.@.@.@.@.@.@.@.@.@.@.@.@.@.@.@.@.@.@.@.@.@.@.@.@.@.@.@.@.@.@.@.@.@.@.@.@.@.@.@.@.@.@.@.@.@.@.@.@.@.@.@.@.@.@.@.@.@.@.@.@.@.@.@.@.@.@.@.@.@.@.@.@.@.@.@.@.@.@.@.@.@.@.@.@.@.@.@.@.@.@.@.@.@.@.@. .^ ^ A . . % . ` m.g.g.l.*.@.$.@.@.@.@.@.@.@.@.@.@.@.@.@.@.@.@.@.@.@.@.@.@.@.@.@.@.@.@.@.@.@.@.@.@.@.@.@.@.@.@.@.@.@.@.@.@.@.@.@.@.@.@.@.@.@.@.@.@.@.@.@.@.@.@.@.@.@.@.@.@.@.@.@.@.@.@.@.@.@.@.@.@.@.@.@.@.@.@.@.@.@.@.@.@.@.$.@.@.@.@.@.@.@.@.@.@.@.@.@.@.@.@.@.@.@.@.@.@.@.@.>.x . $ . $ $ = } @.*.@.@.@.@.@.@.@.@.@.@.@.@.@.@.@.@.@.@.@.@.@.@.@.@.@.@.@.@.@.@.@.@.@.@.@.@.@.@.@.@.@.@.@.@.@.@.@.@.@.@.@.@.@.@.@.@.@.@.@.@.@.@.@.@.@.@.@.@.@.@.@.@.@.$.$.*.$.",
"@.@.@.@.@.@.@.@.@.@.@.@.@.@.@.@.@.@.@.@.@.@.@.@.@.@.@.@.@.@.@.@.@.@.@.@.@.@.@.@.@.@.@.@.@.@.@.@.@.@.=.F . . $ $ $ $ . #.h.$.@.@.@.@.@.@.$.$.$.$.$.$.$.$.$.$.@.$.=.*.J +   @     @ @         3 A O.5.f.r.g.f.r.r.r.r.r.r.r.w.8.5.*.@.@.@.@.@.@.@.$.$.$.$.$.$.$.$.@.@.@.@.@.@.@.@.@.@.@.@.@.@.@.@.@.@.@.@.@.@.@.@.@.@.@.@.@.@.@.@.$.$.$.$.$.$.$.$.( U J J J J J J J J J J J J I = . $ $ $ $ . T >.@.&.&.&.&.&.&.&.&.&.&.&.&.&.&.&.@.@.@.@.@.@.@.@.@.@.@.@.@.@.@.@.@.@.@.@.@.@.@.@.@.@.@.@.@.@.@.@.@.@.@.@.@.@.@.@.@.@.@.@.^ J J P A o . . . $ $ $ . v =.$.@.@.@.#.@.@.@.@.@.@.@.@.@.@.@.@.@.@.@.@.@.@.@.@.@.@.@.@.@.@.@.@.@.@.@.@.@.@.@.@.@.@.@.@.@.@.@.@.@.@.@.@.@.@.@.@.@.@.@.@.@.@.@.@.@.@.@.@.@.@.@.@.@.@.@.@.@.@.@.@.@.@.@.@.@.@.@.@.@.@.@.@.@.@.@.@.@.@.@.@.@.@.@.@.@.@.@.@. .J ^ N . . * . ) c.g.g.g.*.@.@.@.@.@.@.@.@.@.@.@.@.@.@.@.@.@.@.@.@.@.@.@.@.@.@.@.@.@.@.@.@.@.@.*.*.$.@.*.*.$.@.@.@.@.@.$.$.$.$.@.@.@.@.@.@.@.@.@.@.@.@.@.@.@.@.@.@.@.@.@.@.@.@.@.@.@.@.$.$.*.*.O.O.O.O.*.$.@.@.@.$.*.*.*.*.=.=.=.=.=.=.*.*.=.=.=.=.=.=.$.$.$.$.=.] @.$.@.@.@.@.>.x . $ . $ $ = } @.=.$.$.@.@.@.@.@.@.@.@.@.@.@.@.@.@.@.@.@.@.@.@.@.@.@.@.@.@.@.@.@.@.@.@.@.@.@.@.@.@.@.@.@.@.@.@.@.@.@.@.@.@.@.@.@.@.@.@.@.@.@.@.@.@.@.@.@.@.@.@.@.@.@.$.$.$.$.",
"@.@.@.@.@.@.@.@.@.@.@.@.@.@.@.@.@.@.@.@.@.@.@.@.@.@.@.@.@.@.@.@.@.@.@.@.@.@.@.@.@.@.@.@.@.@.@.@.@.@.=.F . . $ $ $ $ . #.g.@.@.@.@.@.@.@.$.$.$.$.$.$.$.$.$.$.@.$.=.*.3   @ X + X     @ 8 ^ $.g.c.f.r.r.r.f.f.f.f.g.f.e.6.<.=.$.@.@.@.@.@.@.@.@.@.$.$.$.$.$.$.$.$.@.@.@.@.@.@.@.@.@.@.@.@.@.@.@.@.@.@.@.@.@.@.@.@.@.@.@.@.@.@.@.@.$.$.$.$.$.$.$.$.( U J J J J J J J J J J J P I = . $ $ $ $ . P >.@.&.&.&.&.&.&.&.&.&.&.&.&.@.&.&.@.@.@.@.@.@.@.@.@.@.@.@.@.@.@.@.@.@.@.@.@.@.@.@.@.@.@.@.@.@.@.@.@.@.@.@.@.@.@.@.@.@.@.@.^ J J P A o . . . $ $ $ . v =.$.@.@.@.#.@.@.@.@.@.@.@.@.@.@.@.@.@.@.@.@.@.@.@.@.@.@.@.@.@.@.@.@.@.@.@.@.@.@.@.@.@.@.@.@.@.@.@.@.@.@.@.@.@.@.@.@.@.@.@.@.@.@.@.@.@.@.@.@.@.@.@.@.@.@.@.@.@.@.@.@.@.@.@.@.@.@.@.@.@.@.@.@.@.@.@.@.@.@.@.@.@.@.@.@.@.@.@.@. .J ^ n . . * . ) c.g.g.g.*.@.@.@.@.@.@.@.@.@.@.@.@.@.@.@.@.@.@.@.@.@.@.@.@.@.@.@.@.@.@.*.*.*.*.@.@.$.*.@.@.*.*.*.*.*.*.@.@.*.*.*.*.*.*.*.$.$.$.$.$.$.$.=.=.=.=.=.*.*.*.*.=.=.=.=.=.=.=.=.=.=.=.=.=.=.=.=.*.$.@.] ( ! J H H H J H H H H ^ ^ ( ( ( ( ( ( O. .O.O.@.=.*.$.@.@.@.@.>.x . $ . $ $ = } @.=.$.$.$.@.@.@.@.@.@.@.@.@.@.@.@.@.@.@.@.@.@.@.@.@.@.@.@.@.@.@.@.@.@.@.@.@.@.@.@.@.@.@.@.@.@.@.@.@.@.@.@.@.@.@.@.@.@.@.@.@.@.@.@.@.@.@.@.@.@.@.@.@.@.$.$.$.$.",
"@.@.@.@.@.@.@.@.@.@.@.@.@.@.@.@.@.@.@.@.@.@.@.@.@.@.@.@.@.@.@.@.@.@.@.@.@.@.@.@.@.@.@.@.@.@.@.@.@.@.=.F . . $ $ $ $ . #.g.@.@.@.@.@.@.@.$.$.$.$.$.$.$.$.$.$.$.$.=.8 X X   + X X k U 5.g.g.g.g.f.r.r.r.r.r.r.r.9.w.8.=.*.$.@.@.@.@.@.$.$.@.@.@.@.$.$.$.$.$.$.$.$.@.@.@.@.@.@.@.@.@.@.@.@.@.@.@.@.@.@.@.@.@.@.@.@.@.@.@.@.@.@.@.@.$.$.$.$.$.$.$.$.( U J J J J J J J J J J J J I = . $ $ $ $ . P >.&.&.&.&.&.&.&.&.&.&.&.&.@.@.@.@.@.@.@.@.@.@.@.@.@.@.@.@.@.@.@.@.@.@.@.@.@.@.@.@.@.@.@.@.@.@.@.@.@.@.@.@.@.@.@.@.@.@.@.@.^ J J P A o . . . $ $ $ . v =.$.@.@.@.#.@.@.@.@.@.@.@.@.@.@.@.@.@.@.@.@.@.@.@.@.@.@.@.@.@.@.@.@.@.@.@.@.@.@.@.@.@.@.@.@.@.@.@.@.@.@.@.@.@.@.@.@.@.@.@.@.@.@.@.@.@.@.@.@.@.@.@.@.@.@.@.@.@.@.@.@.@.@.@.@.@.@.@.@.@.@.@.@.@.@.@.@.@.@.@.@.@.@.@.@.@.@.@.@. .J ^ n . . * . ) c.g.g.g.*.@.@.@.@.@.@.@.@.@.@.@.@.@.@.@.@.@.@.@.@.@.@.@.@.@.@.@.@.@.@.@.@.@.@.@.@.@.@.$.@.@.$.$.$.*.$.@.@.@.@.@.@.@.@.@.O.O.@.O.O.@.@.] ] ] ] ] ] ] ] ( ( ( ( J J J J H H H H Z Z Z Z h t 3 : @ X                                     X X X X : J =.@.@.@.@.@.=.x . $ . $ $ = } @.*.$.@.@.@.@.@.@.@.@.@.@.@.@.@.@.@.@.@.@.@.@.@.@.@.@.@.@.@.@.@.@.@.@.@.@.@.@.@.@.@.@.@.@.@.@.@.@.@.@.@.@.@.@.@.@.@.@.@.@.@.@.@.@.@.@.@.@.@.@.@.@.@.@.$.$.$.$.",
"@.@.@.@.@.@.@.@.@.@.@.@.@.@.@.@.@.@.@.@.@.@.@.@.@.@.@.@.@.@.@.@.@.@.@.@.@.@.@.@.@.@.@.@.@.@.@.@.@.@.=.F . $ $ $ $ $ . #.g.@.@.@.@.@.@.@.$.$.$.$.$.$.$.$.$.$.$.$.x   X X   X + $.f.g.g.r.9.9.r.g.r.r.r.r.f.r.9.6.@.@.@.@.$.*.*.*.*.$.$.$.@.@.@.@.$.$.$.$.$.$.$.$.@.@.@.@.@.@.@.@.@.@.@.@.@.@.@.@.@.@.@.@.@.@.@.@.@.@.@.@.@.@.@.@.$.$.$.$.$.$.$.$.( U J J J J J J J J J J J P I = . $ $ $ $ . P >.&.&.&.&.&.&.&.&.&.&.&.&.@.@.@.@.@.@.@.@.@.@.@.@.@.@.@.@.@.@.@.@.@.@.@.@.@.@.@.@.@.@.@.@.@.@.@.@.@.@.@.@.@.@.@.@.@.@.@.@.^ J J P A o . . . $ $ $ . v =.$.@.@.@.#.@.@.@.@.@.@.@.@.@.@.@.@.@.@.@.@.@.@.@.@.@.@.@.@.@.@.@.@.@.@.@.@.@.@.@.@.@.@.@.@.@.@.@.@.@.@.@.@.@.@.@.@.@.@.@.@.@.@.@.@.@.@.@.@.@.@.@.@.@.@.@.@.@.@.@.@.@.@.@.@.@.@.@.@.@.@.@.@.@.@.@.@.@.@.@.@.@.@.@.@.@.@.@.@. .J ^ n . . * . ) c.g.g.g.*.@.@.@.@.@.@.@.@.@.@.@.@.@.@.@.@.@.@.@.@.@.@.@.@.@.@.@.@.@.@.$.$.$.$.' ( J D Z z f 8 3 3 3 3 @ @ @ @ X X X X X                                                                                                                         @ ] =.@.@.@.@.=.x . $ . $ $ = } @.*.@.@.@.@.@.@.@.@.@.@.@.@.@.@.@.@.@.@.@.@.@.@.@.@.@.@.@.@.@.@.@.@.@.@.@.@.@.@.@.@.@.@.@.@.@.@.@.@.@.@.@.@.@.@.@.@.@.@.@.@.@.@.@.@.@.@.@.@.@.@.@.@.@.$.$.$.$.",
"@.@.@.@.@.@.@.@.@.@.@.@.@.@.@.@.@.@.@.@.@.@.@.@.@.@.@.@.@.@.@.@.@.@.@.@.@.@.@.@.@.@.@.@.@.@.@.@.@.@.=.F . . $ $ $ $ . #.p.@.@.$.$.$.$.$.$.$.$.$.$.$.$.$.*.@.@.J   X       X   k w.g.r.f.r.r.r.r.r.r.a.f.r.w.5.$.$.$.$.$.@.@.@.@.$.$.$.$.$.$.$.$.$.$.$.$.$.$.$.$.@.@.@.@.@.@.@.@.@.@.@.@.@.@.@.@.@.@.@.@.@.@.@.@.@.@.@.@.@.@.@.@.$.$.$.$.$.$.$.$.] J J J J J J J J J J J J P I ; $ $ $ $ $ . F 3.&.&.&.&.&.&.&.&.@.@.@.@.@.@.@.@.@.@.@.@.@.@.@.@.@.@.@.@.@.@.@.@.@.@.@.@.@.@.@.@.@.@.@.@.@.@.@.@.@.@.@.@.@.@.@.$.@.$.*.$.U J J T A . . . . $ $ $ . v =.@.@.@.@.#.@.@.@.@.@.@.@.@.@.@.@.@.@.@.@.@.@.@.@.@.@.@.@.@.@.@.@.@.@.@.@.@.@.@.@.@.@.@.@.@.@.@.@.@.@.@.@.@.@.@.@.@.@.@.@.@.@.@.@.@.@.@.@.@.@.@.@.@.@.@.@.@.@.@.@.@.@.@.@.@.@.@.@.@.@.@.@.@.@.@.@.@.@.@.@.@.@.@.@.@.@.@.@.@.' J ) N . . % . ) m.j.g.r.$.@.@.@.@.@.@.@.@.@.@.@.@.@.@.@.@.@.@.@.@.@.@.@.@.@.@.@.@.@.@.=.=.=.=.8.8.8.8.8.8.8.8.8.6.=.=.*.@.] ( U H A x k f 8 9 9 5 3 3 + X                                                           X X X X X X X     X                       X   k =.$.$. .@.>.x . $ . $ $ = } @.*.@.@.@.@.@.@.@.@.@.@.@.@.@.@.@.@.@.@.@.@.@.@.@.@.@.@.@.@.@.@.@.@.@.@.@.@.@.@.@.@.@.@.@.@.@.@.@.@.@.@.@.@.@.@.@.@.@.@.@.@.@.@.@.@.@.@.@.@.@.@.@.@.@.$.$.$.$.",
"@.@.@.@.@.@.@.@.@.@.@.@.@.@.@.@.@.@.@.@.@.@.@.@.@.@.@.@.@.@.@.@.@.@.@.@.@.@.@.@.@.@.@.@.@.@.@.@.@.@.=.F . . $ $ $ $ . #.p.@.@.$.$.$.$.$.$.$.$.$.$.$.$.$.@.5.] @     3 A   +     f g.r.f.r.r.r.r.a.a.f.f.w.5.$.@.$.$.$.$.@.@.@.@.$.$.$.$.$.$.$.$.$.$.$.$.$.$.$.$.@.@.@.@.@.@.@.@.@.@.@.@.@.@.@.@.@.@.@.@.@.@.@.@.@.@.@.@.@.@.@.@.$.$.$.$.$.$.$.$.] J J J J U J J J J J J J P I ; . $ $ $ $ . F 3.&.&.&.&.&.&.&.&.@.@.@.@.@.@.@.@.@.@.@.@.@.@.@.@.@.@.@.@.@.@.@.@.@.@.@.@.@.@.@.@.@.@.@.@.@.@.@.@.@.@.@.@.=.*.@.@.$.*.*.*.U J J T N . . . . $ $ $ . v =.@.@.@.@.#.@.@.@.@.@.@.@.@.@.@.@.@.@.@.@.@.@.@.@.@.@.@.@.@.@.@.@.@.@.@.@.@.@.@.@.@.@.@.@.@.@.@.@.@.@.@.@.@.@.@.@.@.@.@.@.@.@.@.@.@.@.@.@.@.@.@.@.@.@.@.@.@.@.@.@.@.@.@.@.@.@.@.@.@.@.@.@.@.@.@.@.@.@.@.@.@.@.@.@.@.@.@.@.@.' J ) N . . * . ) m.j.g.r.$.@.@.@.@.@.@.@.@.@.@.@.@.@.@.@.@.@.@.@.@.@.@.@.@.@.@.@.@.@.@.@.@.@.@.@.@.@.@.=.=.=.=.=.6.9.f.f.g.x.c.m.V.C.C.m.m.V.C.g.g.g.g.e.8.6.6.5.=.@.] ( ( ( ^ A Z x h f t 7 3 3 : + X X X                                       X X                 ( 5.@.@.] =.x . $ $ $ $ = } @.*.@.@.@.@.@.@.@.@.@.@.@.@.@.@.@.@.@.@.@.@.@.@.@.@.@.@.@.@.@.@.@.@.@.@.@.@.@.@.@.@.@.@.@.@.@.@.@.@.@.@.@.@.@.@.@.@.@.@.@.@.@.@.@.@.@.@.@.@.@.@.@.@.@.$.$.$.$.",
"@.@.@.@.@.@.@.@.@.@.@.@.@.@.@.@.@.@.@.@.@.@.@.@.@.@.@.@.@.@.@.@.@.@.@.@.@.@.@.@.@.@.@.@.@.@.@.@.@.@.=.F . . $ $ $ $ . -.p.@.@.$.$.$.$.$.$.$.$.$.$.$.$.$.$.@.5 X X X e..X!   + X X h g.r.r.r.r.r.a.f.f.9.5.$.@.@.$.$.$.$.@.@.@.@.$.$.$.$.$.$.$.$.$.$.$.$.$.$.$.$.@.@.@.@.@.@.@.@.@.@.@.@.@.@.@.@.@.@.@.@.@.@.@.@.@.@.@.@.@.@.@.@.$.$.$.$.$.$.$.$.] J J J U U J J J J J J J P P = . $ $ $ $ . F 6.&.&.&.&.&.&.&.&.@.@.@.@.@.@.@.@.@.@.@.@.@.@.@.@.@.@.@.@.@.@.@.@.@.@.@.@.@.@.@.@.@.@.@.@.@.@.@.@.@.@.@.@.@.@.@.@.$.O.] ( U J J T N . . . . $ $ $ . v =.@.@.@.@.#.@.@.@.@.$.@.@.@.@.@.@.@.$.@.@.@.@.@.@.@.@.@.@.@.@.@.@.@.@.@.@.@.@.@.@.@.@.@.@.@.@.@.@.@.@.@.@.@.@.@.@.@.@.@.@.@.@.@.@.@.@.@.@.@.@.@.@.@.@.@.@.@.@.@.@.@.@.@.@.@.@.@.@.@.@.@.@.@.@.@.@.@.@.@.@.@.@.@.@.@.@.@.@.@.' U ) A . . % . ) m.j.g.r.$.@.@.@.@.@.@.@.@.@.@.@.@.@.@.@.@.@.@.@.@.@.@.@.@.@.@.@.@.@.@.@.@.@.@.@.@.@.@.@.@.@.@.@.@.@.@.@.@.@.@.@.@.*.=.5.6.e.9.j.x.c.c.c.c.V.C.c.c.V.V.C.m.c.c.D.C.c.x.c.x.g.r.g.g.r.e.6.5.=.*.@.O.] ( H H H H Z x f t 8 9 3 3 3 + X @               3 =.@.$...>.x . $ . $ $ = } @.*.@.@.@.@.@.@.@.@.@.@.@.@.@.@.@.@.@.@.@.@.@.@.@.@.@.@.@.@.@.@.@.@.@.@.@.@.@.@.@.@.@.@.@.@.@.@.@.@.@.@.@.@.@.@.@.@.@.@.@.@.@.@.@.@.@.@.@.@.@.@.@.@.@.$.$.$.$.",
"@.@.@.@.@.@.@.@.@.@.@.@.@.@.@.@.@.@.@.@.@.@.@.@.@.@.@.@.@.@.@.@.@.@.@.@.@.@.@.@.@.@.@.@.@.@.@.@.@.@.=.F . . $ $ $ $ . -.p.@.@.$.$.$.$.$.$.$.$.$.$.$.$.$.*.f X @ X @..X{.}.!         x c.r.r.r.r.f.f.9.6.$.@.@.@.@.@.$.$.@.@.@.@.$.$.$.$.$.$.$.$.$.$.$.$.$.$.$.$.@.@.@.@.@.@.@.@.@.@.@.@.@.@.@.@.@.@.@.@.@.@.@.@.@.@.@.@.@.@.@.@.$.$.$.$.$.$.$.$.] J J J J J U J J J Y Y U P P = . $ $ $ $ . F 6.@.&.&.&.&.&.&.@.@.@.@.@.@.@.@.@.@.@.@.@.@.@.@.@.@.@.@.@.@.@.@.@.@.@.@.@.@.@.@.@.@.@.@.@.@.@.@.@.@.@.@.@.$.@.] ( ^ ! J J U J J T N . . . . . $ $ . v =.@.@.@.@.#.@.@.@.@.$.$.@.@.@.@.@.@.$.$.$.@.@.@.@.@.@.@.@.@.@.@.@.@.@.@.@.@.@.@.@.@.@.@.@.@.@.@.@.@.@.@.@.@.@.@.@.@.@.@.@.@.@.@.@.@.@.@.@.@.@.@.@.@.@.@.@.@.@.@.@.@.@.@.@.@.@.@.@.@.@.@.@.@.@.@.@.@.@.@.@.@.@.@.@.@.@.@.@.@.' U ) A . . % . ) m.j.g.r.$.@.@.@.@.@.@.@.@.@.@.@.@.@.@.@.@.@.@.@.@.@.@.@.@.@.@.@.@.@.@.$.$.$.$.$.$.$.$.@.@.@.@.$.$.@.@.@.@.@.$.@.@.@.@.@.@.@.@.@.@.*.=.=.<.6.8.6.e.r.g.g.g.x.x.x.j.j.g.g.g.g.g.j.j.x.x.c.c.m.V.x.c.V.C.V.V.V.m.m.c.c.c.x.x.g.g.j.=.k               X   D =.$.<.>.x . $ . $ $ = } @.*.@.@.@.@.@.@.@.@.@.@.@.@.@.@.@.@.@.@.@.@.@.@.@.@.@.@.@.@.@.@.@.@.@.@.@.@.@.@.@.@.@.@.@.@.@.@.@.@.@.@.@.@.@.@.@.@.@.@.@.@.@.@.@.@.@.@.@.@.@.@.@.@.@.$.$.$.$.",
"@.@.@.@.@.@.@.@.@.@.@.@.@.@.@.@.@.@.@.@.@.@.@.@.@.@.@.@.@.@.@.@.@.@.@.@.@.@.@.@.@.@.@.@.@.@.@.@.@.@.=.F . . $ $ $ $ . -.7.@.@.$.@.@.@.@.$.$.$.$.*.=.*.5.A   X   J }._.).}.@XU   X     ( x.8.g.f.r.g.5.@.@.@.@.@.$.$.$.$.$.$.$.$.$.$.$.$.$.$.$.$.$.$.$.$.$.$.$.$.@.@.@.@.@.@.@.@.@.@.@.@.@.@.@.@.@.@.@.@.@.@.@.@.@.@.@.@.@.@.@.@.$.$.$.$.$.$.$.$.] J J J J J J J J J Y Y J P P = . $ $ $ . . I 1.@.@.@.@.@.@.@.@.$.$.$.$.@.@.@.@.@.@.@.@.@.@.@.@.@.@.@.@.@.@.@.@.@.@.@.@.@.@.@.@.@.@.=.*.$.@.*.@.$.O.] ' ( ! U J J J J J T J J T N . . . . . $ $ $ v =.@.$.$.%.%.@.@.@.@.$.$.$.$.$.$.$.$.$.$.$.$.@.@.@.@.@.@.@.@.@.@.@.@.@.@.@.@.@.@.@.@.@.@.@.@.*.*.*.*.@.@.@.@.@.@.@.@.@.@.@.@.*.*.*.*.@.@.@.@.@.@.@.@.@.@.@.@.@.@.@.@.@.@.$.$.@.@.@.@.@.@.@.@.@.@.@.@.@.@.@.@.@.@.@.@.@.@.$.*.~ U ( A . . % . ) c.g.c.8.@.@.$.$.$.$.$.$.$.$.$.@.@.@.@.@.@.@.@.@.@.@.@.@.@.@.@.@.@.@.@.$.$.$.$.@.@.@.@.@.@.@.@.@.@.@.@.@.@.@.@.@.@.@.@.@.@.@.@.@.@.@.@.@.@.@.@.@.@.@.@.*.=.<.6.8.e.9.r.f.g.c.c.c.x.g.g.f.f.f.f.g.g.f.r.g.g.g.g.g.g.g.g.g.g.g.g.g.c.g.] X               X ] =.@.=.x . $ . $ $ = } @.*.@.@.@.@.@.@.@.@.@.@.@.@.@.@.@.@.@.@.@.@.@.@.@.@.@.@.@.@.@.@.@.@.@.@.@.@.@.@.@.@.@.@.@.@.@.@.@.@.@.@.@.@.@.@.@.@.@.@.@.@.@.@.@.@.@.@.@.@.@.@.@.@.@.$.$.$.$.",
"@.@.@.@.@.@.@.@.@.@.@.@.@.@.@.@.@.@.@.@.@.@.@.@.@.@.@.@.@.@.@.@.@.@.@.@.@.@.@.@.@.@.@.@.@.@.@.@.@.@.=.F . . $ $ $ $ . -.7.@.@.$.@.@.@.@.$.$.$.$.$.@.<.!   + X f (.}._.{._..X|.]   @     ] g.e.f.f.9.r.=.@.@.@.$.$.$.$.$.$.$.$.$.$.$.$.$.$.$.$.$.$.$.$.$.$.$.$.$.@.@.@.@.@.@.@.@.@.@.@.@.@.@.@.@.@.@.@.@.@.@.@.@.@.@.@.@.@.@.@.@.$.$.$.$.$.$.$.$.] J J J J J J J J J Y Y J J P ; . $ $ $ . . S #.@.@.@.@.@.@.@.@.$.$.$.$.$.$.$.$.*.*.*.*.$.$.$.@.@.@.@.@.@.@.@.@.@.@.@.@.@.@.@.@.*.*.=.=.@.] ' ' ^ ! U ! U J J J J J J J T J J T N . . . . . $ $ ; n >.%.$.$.$.$.@.@.@.@.*.*.*.*.*.*.*.*.*.*.*.*.@.@.@.@.@.@.@.@.@.@.@.@.@.@.@.@.@.@.@.@.@.@.@.@.$.$.$.$.@.@.@.@.$.$.@.@.@.@.@.@.$.$.$.$.@.@.@.@.@.@.@.@.@.@.@.@.@.@.@.@.@.@.$.$.@.@.@.@.@.@.@.@.@.@.@.@.@.@.@.@.@.@.@.@.@.$.@.@.~ U ( A . . % . ) c.g.c.8.@.@.$.$.$.$.$.$.$.$.$.@.@.@.@.@.@.@.@.@.@.@.@.@.@.@.@.@.@.@.@.$.$.$.$.@.@.@.@.@.@.@.@.@.@.@.@.@.@.@.@.@.@.@.@.@.@.@.@.@.@.@.@.@.@.@.@.@.@.@.@.@.@.$.*.O.O.@.$.@.=.6.w.f.g.g.j.x.c.c.c.c.x.j.g.g.g.g.g.g.g.g.g.g.g.g.g.f.f.g.m.6.d               8 @.@.>.x . $ . $ $ = ..@.=.$.@.@.@.@.@.@.@.@.@.@.@.@.@.@.@.@.@.@.@.@.@.@.@.@.@.@.@.@.@.@.@.@.@.@.@.@.@.@.@.@.@.@.@.@.@.@.@.@.@.@.@.@.@.@.@.@.@.@.@.@.@.@.@.@.@.@.@.@.@.@.@.@.$.$.$.$.",
"@.@.@.@.@.@.@.@.@.@.@.@.@.@.@.@.@.@.@.@.@.@.@.@.@.@.@.@.@.@.@.@.@.@.@.@.@.@.@.@.@.@.@.@.@.@.@.@.@.@.=.F . . $ $ $ $ . -.7.@.@.$.@.@.@.@.$.$.$.$. .*.O.@   X 3 W.}.)._.#X{.|.{.|.O.  @   @ O.g.e.f.r.g.6.@.@.$.$.$.$.$.$.$.$.$.$.$.$.$.$.$.$.$.$.$.$.$.$.$.$.$.$.@.@.@.@.@.@.@.@.@.@.@.@.@.@.@.@.@.@.@.@.@.@.@.@.@.@.@.@.@.@.@.@.$.$.$.$.$.$.$.$.] J J J J J J J J J U U J J I ; . $ $ $ .   b ) E ! ! ! ( ( ( ( ( ( ( ( ] ] ] ]  . . . .@.@.@.@.$.$.$.$.$.$.$.$.$.$.$.$.$.$.$.$.O.] ^ ^ ! U J J H J J J J J J J J J J J T J J T N . . . . . $ $ $ v >.@.=.=.*.*.@.@.@.@.$.@.@.$.$.$.$.$.$.$.$.$.@.@.@.@.@.@.@.@.@.@.@.@.@.@.@.@.@.@.@.@.@.@.@.@.*.*.*.*.$.$.$.$.=.*.@.O.@.@.@.@.$.*.*.*.@.@.@.@.@.@.@.@.@.@.@.@.@.@.@.@.@.@.$.$.@.@.@.@.@.@.@.@.@.@.@.@.@.@.@.@.@.@.@.@.@.*.@.' ~ ! ( A . . * . ) c.g.c.6.@.@.@.$.$.$.$.$.$.$.$.@.@.@.@.@.@.@.@.@.@.@.@.@.@.@.@.@.@.@.@.$.$.$.$.@.@.@.@.@.@.@.@.@.@.@.@.@.@.@.@.@.@.@.@.@.@.@.@.@.@.@.@.@.@.@.@.@.@.@.$.$.$.@.@.@.@.$.*.*.@.@.@.@.*.=.=.9.r.g.j.g.j.x.x.j.g.g.g.g.g.g.g.g.g.g.g.g.x.x.g.m.g.x               J %.=.x . $ $ $ $ = } @.*.$.@.@.@.@.@.@.@.@.@.@.@.@.@.@.@.@.@.@.@.@.@.@.@.@.@.@.@.@.@.@.@.@.@.@.@.@.@.@.@.@.@.@.@.@.@.@.@.@.@.@.@.@.@.@.@.@.@.@.@.@.@.@.@.@.@.@.@.@.@.@.@.@.$.$.$.$.",
"@.@.@.@.@.@.@.@.@.@.@.@.@.@.@.@.@.@.@.@.@.@.@.@.@.@.@.@.@.@.@.@.@.@.@.@.@.@.@.@.@.@.@.@.@.@.@.@.@.@.=.F . . $ $ $ $ . -.7.@.@.$.@.@.@.@.$.$.$.$.*.@.3   X X G. X)..XE.c.}.{.{. X.XO.  X     =.f.w.x.f.r.@.$.@.*.$.$.$.$.$.$.$.$.$.$.$.$.$.$.$.$.$.$.$.$.$.$.$.$.@.@.@.@.@.@.@.@.@.@.@.@.@.@.@.@.@.@.@.@.@.@.@.@.@.@.@.@.@.@.@.@.$.$.$.$.$.$.$.$.] J J J J J J J J J U U J J I = . $ $ $ .   g T J J J J J J J J J J J J J J J J ^ ^ ^ ! U U U U ^ ^ ^ ^ ^ ^ ^ ^ ^ ^ ^ ^ ^ ^ ^ ^ J J J J J U ! ^ J J J J J J J J J J J J T J J T N . . . . . $ $ . g @. . . . . .O.O.O.O.O.O.O.O.O.O.O.O.O.O.O.O.@.@.@.@.@.@.@.@.@.@.@.@.@.@.@.@.@.@.@.@.@.@.@.@.O.O.O.O. . . . .] ] ( ! ! ! ! ! ( ' ]  .@.@.@.@.@.@.@.@.@.@.@.@.@.@.@.@.@.@.$.$.@.@.@.@.@.@.@.@.@.@.@.@.@.@.@.@.@.@.@.@.@.*.@.^ ^ ! ^ A . . * . ) c.g.c.6.@.@.@.$.$.$.$.$.$.$.$.@.@.@.@.@.@.@.@.@.@.@.@.@.@.@.@.@.@.@.@.$.$.$.$.@.@.@.@.@.@.@.@.@.@.@.@.@.@.@.@.@.@.@.@.@.@.@.@.@.@.@.@.@.@.@.@.@.@.@.@.=.*.@.@.O.@.@.$.@.@.$.$.$.@.@.O.@.@.=.6.r.f.g.g.j.g.g.g.g.g.g.g.g.g.g.g.c.f.f.x.g.c.c.A             + ..=.x . $ $ $ $ = } @.=.$.@.@.@.@.@.@.@.@.@.@.@.@.@.@.@.@.@.@.@.@.@.@.@.@.@.@.@.@.@.@.@.@.@.@.@.@.@.@.@.@.@.@.@.@.@.@.@.@.@.@.@.@.@.@.@.@.@.@.@.@.@.@.@.@.@.@.@.@.@.@.@.@.$.$.$.$.",
"@.@.@.@.@.@.@.@.@.@.@.@.@.@.@.@.@.@.@.@.@.@.@.@.@.@.@.@.@.@.@.@.@.@.@.@.@.@.@.@.@.@.@.@.@.@.@.@.@.@.=.F . . $ $ $ $ . -.7.@.@.$.@.@.@.$.@.O.@.] @.h   @   w.#X}.@XR.r.9.g./. X{.|.|.'   X   3 =.j.r.f.f.e.@.@.=.$.$.$.$.$.$.$.$.@.@.@.@.@.@.@.@.@.@.@.@.@.@.@.@.@.@.@.@.@.@.@.@.@.@.@.@.@.@.@.@.@.@.@.@.@.@.@.@.@.@.@.@.@.@.@.@.$.$.$.$.$.$.$.$.] J J J J J J J J J Y Y J J P = . $ $ $ . . e F J J J J J J J P P P P P J J J J F F J J J J J J J J J J J J J J J J J J J J J J J J J J J J J J J J J J J J J J J J J J ^ F F ^ b . .   . . $ $ . r ^ J U U J J U U U U U U U U U U U U U U U U U U U U ! ! U U U U U U U U U U U U U U U U U U U U U U U U U U U U U U U U U U U ! ! ! ^ ! ^ ^ O.O.@.@.*.*.*.*.@.@.@.@.@.@.@.@.$.$.$.@.@.@.@.@.@.@.@.@.@.@.@.@.$.@.$.$.O.@...J U J ^ C . . * . ) c.g.g.6.@.$.@.@.@.@.@.$.$.$.$.$.$.$.$.$.$.$.$.$.$.$.$.$.$.$.$.$.$.$.$.$.$.$.$.@.@.@.@.@.@.@.@.@.@.@.@.@.@.@.@.@.@.@.@.@.@.@.@.@.@.@.@.@.@.@.@.@.@.@.@.@.@.@.@.@.@.@.@.@.@.@.@.@.@.@.@.@.@.$.$.*.*.*.*.r.f.g.c.x.x.x.x.j.g.g.g.g.g.g.g.c.x.g.m.( X     X X   y 6.g . * $ $ . = } @.*.@.@.@.@.@.@.@.@.@.@.@.@.@.@.@.@.@.@.@.@.@.@.@.@.@.@.@.@.@.@.@.@.@.@.@.@.@.@.@.@.@.@.@.@.@.@.@.@.@.@.@.@.@.@.@.@.@.@.@.@.@.@.@.@.@.@.@.@.@.@.@.@.@.$.$.$.$.",
"@.@.@.@.@.@.@.@.@.@.@.@.@.@.@.@.@.@.@.@.@.@.@.@.@.@.@.@.@.@.@.@.@.@.@.@.@.@.@.@.@.@.@.@.@.@.@.@.@.@.=.F . . $ $ $ $ . -.7.@.@.$.@.@.@.@.O.=.@.<.x   :   @..X_.}.R.f.r.g.e.g.W..X|.{.@X'   2   2 6.r.r.f.9.=.@.*.$.$.$.$.$.$.$.$.@.@.@.@.@.@.@.@.@.@.@.@.@.@.@.@.@.@.@.@.@.@.@.@.@.@.@.@.@.@.@.@.@.@.@.@.@.@.@.@.@.@.@.@.@.@.@.@.$.$.$.$.$.$.$.$.] J J J J J J J J J Y U J J P = . $ $ $ $   g ^ J J J J J J J P P P P P J J J J F J J J J J J J J J J J J J J J J J J J J J J J J J J J J J J J J J J J J J J J J J J J J T T F n .   . . . $ $ . r ^ J U Y J J U U U U U U U U U U U U U U U U U U Y Y ! ! U U U U U U U U U U U U U U U U U U U U U U U U U U U U U U U U U U U U ! ! ! ! Y Y Y Y J J ] ] ] ] ........$.$.$.$.=.%.%.%.@.@.@.@.$.$.$.$.@.@.@.@.@.@.$.@.O.@.^ T T J ^ A . . O . ) c.g.g.6.@.$.@.@.@.@.@.$.$.$.$.$.$.$.$.$.$.$.$.$.$.$.$.$.$.$.$.$.$.$.$.$.$.$.$.@.@.@.@.@.@.@.@.@.@.@.@.@.@.@.@.@.@.@.@.@.@.@.@.@.@.@.@.@.@.@.@.@.@.@.@.@.@.@.@.@.@.@.@.@.@.@.@.@.@.@.@.@.@.@.@.@.@.@.@. .@.=.6.9.f.g.c.c.c.c.x.j.g.g.g.j.x.g.c.e.@   X       : ) v . $ $ $ . = } @.*.@.@.@.@.@.@.@.@.@.@.@.@.@.@.@.@.@.@.@.@.@.@.@.@.@.@.@.@.@.@.@.@.@.@.@.@.@.@.@.@.@.@.@.@.@.@.@.@.@.@.@.@.@.@.@.@.@.@.@.@.@.@.@.@.@.@.@.@.@.@.@.@.@.$.$.$.$.",
"@.@.@.@.@.@.@.@.@.@.@.@.@.@.@.@.@.@.@.@.@.@.@.@.@.@.@.@.@.@.@.@.@.@.@.@.@.@.@.@.@.@.@.@.@.@.@.@.@.@.=.F . . $ $ $ $ . -.7.@.$.$.@.@.@.@.@.O.5.] X @   U |._.|.W.r.r.r.g.g.f.e.W.}._.{.|.O.X +   t f.f.w.r.8.*.@.$.$.$.$.$.$.$.$.@.@.@.@.@.@.@.@.@.@.@.@.@.@.@.@.@.@.@.@.@.@.@.@.@.@.@.@.@.@.@.@.@.@.@.@.@.@.@.@.@.@.@.@.@.@.@.@.$.$.$.$.$.$.@.$.] J J J J J J J J J U U J J P = . $ $ $ $   e T J U J J J J J J J J J J J J J J J J J J J J J J J J J J J J J J J J J J J J J J J J J J J J J J J J J J J J J J J J J J U J J T g .   . . . $ $ . r ^ J U U J J U U U U U U U U U U U U U U U U U U U Y ! ! U U U U U U U U U U U U U U J J U U U U U U Y Y Y Y Y U U Y Y Y Y Y Y Y ! Y J J J J Y Y Y ! U U U U U U U U ^ ^ ^ ^  . . . .O.O.O.O.*.*.$.$.@.@.@.@.@.@.$.$.@.] J ^ ^ U ^ A X o . o ) c.g.g.6.&.*.@.@.@.@.@.$.$.$.$.$.$.$.$.$.$.$.$.$.$.$.$.$.$.$.$.$.$.$.$.$.$.$.$.@.@.@.@.@.@.@.@.@.@.@.@.@.@.@.@.@.@.@.@.@.@.@.@.@.@.@.@.@.@.@.@.@.@.@.@.@.@.@.@.@.@.@.@.@.@.@.@.@.@.@.@.@.@.@.@.@.@.@.@.@.@.@.O.@.*.<.6.r.g.c.x.g.g.g.g.j.j.f.c.f.@   X         e v $ . $ $ . = } @.*.@.@.@.@.@.@.@.@.@.@.@.@.@.@.@.@.@.@.@.@.@.@.@.@.@.@.@.@.@.@.@.@.@.@.@.@.@.@.@.@.@.@.@.@.@.@.@.@.@.@.@.@.@.@.@.@.@.@.@.@.@.@.@.@.@.@.@.@.@.@.@.@.@.$.$.$.$.",
"@.@.@.@.@.@.@.@.@.@.@.@.@.@.@.@.@.@.@.@.@.@.@.@.@.@.@.@.@.@.@.@.@.@.@.@.@.@.@.@.@.@.@.@.@.@.@.@.@.@.=.F . . $ $ $ $ . -.7.@.$.$.@.@.@.@.@.@.] 3   X f ).{.}.Y.8.9.g.g.g.r.e.r.e.D.}.|.|..X] +     x r.r.w.r.6.@.$.$.$.$.$.$.$.$.@.@.@.@.@.@.@.@.@.@.@.@.@.@.@.@.@.@.@.@.@.@.@.@.@.@.@.@.@.@.@.@.@.@.@.@.@.@.@.@.@.@.@.@.@.@.@.@.$.$.$.$.@.@.@.@.] J J U J J J J J J Y U J P P = . $ $ . * . o A W J J J J J J J P P P P P J J J J J J J J J J J J J J J J J J J J J J J J J J J J J J J J J J J J J J J J J J J J J J J F ^ ^ F - . . . . . $ $ . r / J J J J J U U U U U U U U U U U U U U U U U U U U E E ! ! U U U U J J J J J J J J P P J P J J U U U U U U U U U U Y Y Y Y Y Y Y Y J J J Y Y ! ! ! Y J J J J J J J J J Y Y Y Y U U U U U U ' ( ( ( @.@.@.@.@.@.@.@.@.U T T J H J x X o . o ) c.g.g.6.&.*.@.@.@.@.@.$.$.$.$.$.$.$.$.$.$.$.$.$.@.@.@.$.$.$.$.$.$.$.$.$.$.$.$.@.@.@.@.@.@.@.@.@.@.@.@.@.@.@.@.@.@.@.@.@.@.@.@.@.@.@.@.@.@.@.@.@.@.@.@.@.@.@.@.@.@.@.@.@.@.@.@.@.@.@.@.@.@.@.@.@.@.@.@.*.*.*.=.@.@.@.@.@.=.8.r.g.g.g.g.j.x.f.c.j.3               = $ $ $ $ . = } @.*.@.@.@.@.@.@.@.@.@.@.@.@.@.@.@.@.@.@.@.@.@.@.@.@.@.@.@.@.@.@.@.@.@.@.@.@.@.@.@.@.@.@.@.@.@.@.@.@.@.@.@.@.@.@.@.@.@.@.@.@.@.@.@.@.@.@.@.@.@.@.@.@.@.$.$.$.$.",
"@.@.@.@.@.@.@.@.@.@.@.@.@.@.@.@.@.@.@.@.@.@.@.@.@.@.@.@.@.@.@.@.@.@.@.@.@.@.@.@.@.@.@.@.@.@.@.@.@.@.=.F . . $ $ $ $ . -.>.@.@.@.@.@.@.@.=.@.8 X   8 W. X.XL.9.c.f.f.f.f.f.f.f.f.8.j._..X}.|.'   @   h r.j.r.f.e.@.$.$.$.$.$.$.$.@.@.@.@.@.@.@.@.@.@.@.@.@.@.@.@.@.@.@.@.@.@.@.@.@.@.@.@.@.@.@.@.@.@.@.@.@.@.@.@.@.@.@.@.@.@.@.@.$.$.$.$.@.@.@.O.@.J J ! U U U U U U U U J J I = $ $ $ . . . . . b n F I F F F F F F F F F F F F F F F F F F F F F F F F F F F F F F F F F F F F F F F F F F F F F F F F F F F F F F F F F P b = . . . . . . . . $ . F T J J P P T T T T ^ ^ ^ ^ T T T T ^ ^ ^ ^ ^ ^ ^ ^ ^ ^ ^ ^ ^ ^ ^ T T P P P P P P P P P P P P P P J J U U U U U U U U U U U U U ! ! U U U U U U U U U U U U U U U J U J J J J J J J J J J J U J U U U U U U ( ] O.$.U U U U J ^ F > . . . . ( c.g.g.6.@.@.@.@.@.@.@.@.@.@.@.$.$.$.$.$.$.$.@.@.@.@.@.@.@.@.@.$.$.$.$.$.$.$.$.$.$.$.$.$.$.$.$.@.@.@.@.@.@.@.@.@.@.@.@.@.@.@.@.@.@.@.@.@.@.@.@.@.@.@.@.@.@.@.@.@.@.@.@.@.@.@.@.@.@.@.@.@.@.@.@.@.@.@.@.@.@.@.@.@.@.@.@.@.@.@.@.$.5.r.g.c.c.j.c.x.9   X             . . $ $ . = } @.=.$.$.@.@.@.@.@.@.@.@.@.@.@.@.@.@.@.@.@.@.@.@.@.@.@.@.@.@.@.@.@.@.@.@.@.@.@.@.@.@.@.@.@.@.@.@.@.@.@.@.@.@.@.@.@.@.@.@.@.@.@.@.@.@.@.@.@.@.@.@.@.@.@.$.$.$.$.",
"@.@.@.@.@.@.@.@.@.@.@.@.@.@.@.@.@.@.@.@.@.@.@.@.@.@.@.@.@.@.@.@.@.@.@.@.@.@.@.@.@.@.@.@.@.@.@.@.@.@.=.F . . $ $ $ $ . -.>.@.$.@.@.@.@.@.*.d     @ A.|.}.Y.r.g.e.f.f.f.f.f.f.f.f.r.f.g._. X_..X]   X   H x.9.g.e.*.@.$.$.$.$.$.$.@.@.@.@.@.@.@.@.@.@.@.@.@.@.@.@.@.@.@.@.@.@.@.@.@.@.@.@.@.@.@.@.@.@.@.@.@.@.@.@.@.@.@.@.@.@.@.@.$.$.$.@.@.@.$.*.] J J ! U U U U U U U U J J I = $ $ $ . . . . . . . = = . $ $ $ $ $ $ $ $ $ $ $ $ $ $ . . . . . . . . . . . . . . . . . . . . . . . . . . . . . . . . . . . . . . . . . . . . . . . . . . . . . $ . = v T T P P T T T T ^ ^ ^ ^ T T T T ^ ^ ^ ^ ^ ^ ^ ^ ^ ^ ^ ^ ^ ^ ^ ^ T T T T T T T P P P P T T T T T T T T T T T ^ ^ ^ ^ ^ ^ ^ ^ ^ ^ ^ ^ ^ ^ ^ ^ ^ ^ T T T T T T ^ ^ ^ ^ ^ ^ ^ ^ ^ ^ ^ ^ ^ ^ ^ ^ ^ ^ ^ ^ ^ ^ F J ^ ( ^ ^ ^ ^ ) F r   . . $ . ( c.g.g.6.@.@.@.@.@.@.@.@.@.@.@.$.$.$.$.$.$.$.@.@.@.@.@.@.@.@.@.$.$.$.$.$.$.$.$.$.$.$.$.$.$.$.$.@.@.@.@.@.@.@.@.@.@.@.@.@.@.@.@.@.@.@.@.@.@.@.@.@.@.@.@.@.@.@.@.@.@.@.@.@.@.@.@.@.@.@.@.@.@.@.@.@.@.@.@.@.@.@.@.@.@.@.@.@.@.@.@.@.*.=.6.j.x.j.g.c.d                 . . $ $ . = } @.=.$.$.$.@.@.@.@.@.@.@.@.@.@.@.@.@.@.@.@.@.@.@.@.@.@.@.@.@.@.@.@.@.@.@.@.@.@.@.@.@.@.@.@.@.@.@.@.@.@.@.@.@.@.@.@.@.@.@.@.@.@.@.@.@.@.@.@.@.@.@.@.@.@.$.$.$.$.",
"@.@.@.@.@.@.@.@.@.@.@.@.@.@.@.@.@.@.@.@.@.@.@.@.@.@.@.@.@.@.@.@.@.@.@.@.@.@.@.@.@.@.@.@.@.@.@.@.@.@.=.F . . $ $ $ $ . -.>.@.%.$.@.@.@.@.H       r.}.}.G.e.r.r.r.f.f.f.f.f.f.f.f.r.f.f.j.W.{.}.{. .  @   ^ x.9.e.6.@.$.$.$.$.$.$.@.@.@.@.@.@.@.@.@.@.@.@.@.@.@.@.@.@.@.@.@.@.@.@.@.@.@.@.@.@.@.@.@.@.@.@.@.@.@.@.@.@.@.@.@.@.@.@.$.$.$.$.@.@.@.@.! J J J ! U ! ! U U U U J J I = $ $ $ . . . . . . . . . . . . . . . . . . . . . . . . . . . . . . . . . . . . . . . . . . . . . . . . . . . . . . . . . . . . . . . . . . .   . . . . . $ $ . $ . % $ = 4 4 4 4 4 4 4 4 4 4 4 4 4 4 4 4 4 4 4 4 4 4 4 4 4 4 4 4 4 4 4 4 6 6 6 6 6 6 6 6 6 6 6 6 6 6 4 4 4 4 4 4 4 4 4 4 6 6 6 6 6 6 6 6 6 6 6 6 6 6 6 6 6 6 6 6 6 6 6 6 6 6 q q w w q q w w w w r r r q 6 6 6 6 6 6 6 r 6 6 6 6 r = . . $ $ $ $ ) c.g.g.6.@.$.@.@.@.@.@.@.@.@.@.$.$.$.$.$.$.$.@.@.@.@.@.@.@.@.@.$.$.$.$.$.$.$.$.$.$.$.$.$.$.$.$.@.@.@.@.@.@.@.@.@.@.@.@.@.@.@.@.@.@.@.@.@.@.@.@.@.@.@.@.@.@.@.@.@.@.@.@.@.@.@.@.@.@.@.@.@.@.@.@.@.@.@.@.@.@.@.@.@.@.@.@.@.@.@.@.@.@.@.@.r.g.g.g.c.x                 . . $ $ $ = } @.*.$.@.@.@.@.@.@.@.@.@.@.@.@.@.@.@.@.@.@.@.@.@.@.@.@.@.@.@.@.@.@.@.@.@.@.@.@.@.@.@.@.@.@.@.@.@.@.@.@.@.@.@.@.@.@.@.@.@.@.@.@.@.@.@.@.@.@.@.@.@.@.@.@.$.$.$.$.",
"@.@.@.@.@.@.@.@.@.@.@.@.@.@.@.@.@.@.@.@.@.@.@.@.@.@.@.@.@.@.@.@.@.@.@.@.@.@.@.@.@.@.@.@.@.@.@.@.@.@.=.F . . $ $ $ $ . -.>.@.$.$.@.@.@.!     X @.#X.XC.r.r.g.r.w.f.f.f.f.f.f.f.f.9.r.r.8.r./.}. X}.(   X X @.g.8.e.*.@.$.$.$.$.$.@.@.@.@.@.@.@.@.@.@.@.@.@.@.@.@.@.@.@.@.@.@.@.@.@.@.@.@.@.@.@.@.@.@.@.@.@.@.@.@.@.@.@.@.@.@.@.@.$.$.$.$.*.@.( ! H J J J ! ! ! ! U U U U J J I = $ $ $ . . . . . $ . . . $ $ $ $ $ $ $ $ $ $ $ $ $ $ $ $ . . . . . . . . . . . . . . . . . . . . . . . . O O O O . . . . . . . . . . . . . . . . . . . . $ $ . $ $ . . . . . . . . .                             .                   . . . . . . . . . . . . . . . o o o o . . . . . . . . . . . . . . . . . . . . . . . . . . . . . . . . . . . . . . . . . . . . . . . . . $ $ . . . . . . . . . . . % $ $ $ $ ) c.g.g.6.@.@.@.@.@.@.@.@.@.@.@.$.$.$.$.$.%.$.@.@.@.@.@.@.@.@.@.$.$.$.$.$.$.$.$.$.$.$.$.$.$.$.$.@.@.@.@.@.@.@.@.@.@.@.@.@.@.@.@.@.@.@.@.@.@.@.@.@.@.@.@.@.@.@.@.@.@.@.@.@.@.@.@.@.@.@.@.@.@.@.@.@.@.@.@.@.@.@.@.@.@.@.@.@.@.@.@.@.@.$.*.<.g.g.g.m.A                 . . $ $ $ = } @.*.@.@.@.@.@.@.@.@.@.@.@.@.@.@.@.@.@.@.@.@.@.@.@.@.@.@.@.@.@.@.@.@.@.@.@.@.@.@.@.@.@.@.@.@.@.@.@.@.@.@.@.@.@.@.@.@.@.@.@.@.@.@.@.@.@.@.@.@.@.@.@.@.@.$.$.$.$.",
"@.@.@.@.@.@.@.@.@.@.@.@.@.@.@.@.@.@.@.@.@.@.@.@.@.@.@.@.@.@.@.@.@.@.@.@.@.@.@.@.@.@.@.@.@.@.@.@.@.@.=.F . . $ $ $ $ . -.=.@.@.$. .=.] @     J  X_.G.r.r.f.f.f.f.f.f.f.f.f.f.f.f.r.r.r.r.8.g.(.{..X_.]   @   =.j.r.g.@.@.@.@.@.@.@.@.@.@.@.@.@.@.@.@.@.@.@.@.@.@.@.@.@.@.@.@.@.@.@.@.@.@.@.@.@.@.@.@.@.@.@.@.@.@.@.@.@.@.@.@.@.@.*.*.*.@.] ( U J J J J J J J J J U U U U J J I = . $ $ $ * $ . $ % $ $ $ $ $ $ $ $ $ $ $ $ $ $ $ $ $ $ $ $ $ $ $ $ $ . . $ $ $ $ $ $ $ $ $ $ $ $ $ $ * * * $ $ * . . . . . . $ $ $ $ $ $ $ $ $ $ $ $ $ $ $ $ $ $ $ . . . . . . . . . . . . . . . . . . . . . . . . . . . . . . . . . . . . . . . . . . . . . . . . . . . . . . . . . . . . . . . . . . . . . . . . . . . . $ . . . . . . . . . . . . . . . . . . . . . . $ $ $ $ . . . . . . . . . . . . . . . . } C.C.c.w.=.>.=.=.=.=.=.=.=.=.=.=.=.=.=.=.=.=.=.*.=.=.$.@.*.*.$.$.*.*.*.*.*.*.*.*.=.=.*.$.@.$.@.@.@.@.@.@.@.@.@.@.@.@.@.@.@.@.@.@.@.@.@.@.@.@.@.@.@.@.@.@.@.@.@.@.@.@.@.@.@.@.@.@.@.@.@.@.@.@.@.@.@.@.@.@.@.@.@.@.@.@.@.@.@.@.@.@.@.@.@.$.e.c.g.V.!                 . $ $ $ $ = ..$.=.$.@.@.@.@.@.@.@.@.@.@.@.@.@.@.@.@.@.@.@.@.@.@.@.@.@.@.@.@.@.@.@.@.@.@.@.@.@.@.@.@.@.@.@.@.@.@.@.@.@.@.@.@.@.@.@.@.@.@.@.@.@.@.@.@.@.@.@.@.@.@.@.@.$.$.$.$.",
"@.@.@.@.@.@.@.@.@.@.@.@.@.@.@.@.@.@.@.@.@.@.@.@.@.@.@.@.@.@.@.@.@.@.@.@.@.@.@.@.@.@.@.@.@.@.@.@.@.@.=.F . . $ $ $ $ . -.-.@.@.$.5.@.d     d (..XG.e.g.9.f.f.f.f.f.f.f.f.f.f.f.f.r.r.r.r.f.f.w.W.).|.{.^     3 $.g.g.8.@.@.@.@.@.@.@.@.@.@.@.@.@.@.@.@.@.@.@.@.@.@.@.@.@.@.@.@.@.@.@.@.@.@.@.@.@.@.@.@.@.@.@.@.@.@.@.@.@.@.$.*.*.@.] ( ^ U J J J J J J J J J J J U U U U J J I = . . $ $ . $ . % $ $ $ $ $ $ $ $ . . . . . . . . . . . . . . . . . . . . . . . . . . . . . $ $ $ $ $ $ $ $ . . . . . . . . $ $ $ $ $ $ $ $ $ $ $ $ $ $ $ $ $ $ $ . . . . . . . . . . . . . . . . . . . . . . . . . . . . . $ $ $ $ $ $ $ $ $ $ $ . $ $ . . . . . . . . . . . . . . . . . . $ $ $ $ $ $ $ $ $ $ $ $ $ $ $ $ $ $ $ $ . . . . . . . . . . . . . . . . . . . $ $ $ $ $ $ $ $ $ $ $ $ $ . . . . . . . g P F I G n n x x x x x v v v v x x x x x x b b x v F ^ ..] ) ] ] ] ] ] ] ] ] ] ] ] @.=.$.$.$.$.@.@.@.@.@.@.@.@.@.@.@.@.@.@.@.@.@.@.@.@.@.@.@.@.@.@.@.@.@.@.@.@.@.@.@.@.@.@.@.@.@.@.@.@.@.@.@.@.@.@.@.@.@.@.@.@.@.@.@.@.@.@.@.@.@.@.@.@.$.<.g.g.m.'                 . $ $ $ $ = ..$.=.$.@.@.@.@.@.@.@.@.@.@.@.@.@.@.@.@.@.@.@.@.@.@.@.@.@.@.@.@.@.@.@.@.@.@.@.@.@.@.@.@.@.@.@.@.@.@.@.@.@.@.@.@.@.@.@.@.@.@.@.@.@.@.@.@.@.@.@.@.@.@.@.@.$.$.$.$.",
"@.@.@.@.@.@.@.@.@.@.@.@.@.@.@.@.@.@.@.@.@.@.@.@.@.@.@.@.@.@.@.@.@.@.@.@.@.@.@.@.@.@.@.@.@.@.@.@.@.@.=.F . . $ $ $ $ . -.%.@.@.$.*.k     2 E.#XG.r.g.e.r.f.f.f.f.f.f.f.f.f.f.f.f.r.r.r.r.r.f.r.f.W.|._..X]   @ 3 <.f.f.=.@.@.@.@.@.@.@.@.@.@.@.@.@.@.@.@.@.@.@.@.@.@.@.@.@.@.@.@.@.@.@.@.@.@.@.@.@.@.@.@.@.@.@.@.@.@.@.@.$.@.@.@.( U H H J J J J J J J J J J J J U U U U J J I = . . . $ = $ . * = $ * $ $ $ . . . O o O + . . . . . . . . . . . . + + o o . . . . . . . O O O * O O O O O O O O o o . . . $ * $ $ $ $ $ $ $ $ $ $ $ $ $ $ $ $ $ $ $ $ $ $ $ $ $ $ $ $ $ $ $ . . $ $ $ $ $ $ $ $ $ $ $ $ $ $ $ $ $ $ $ $ $ $ $ $ $ $ $ $ $ $ $ $ $ $ $ $ $ $ $ $ $ $ $ $ $ $ $ $ $ $ $ $ $ $ $ $ $ $ $ $ $ $ $ $ $ $ $ $ $ $ $ $ $ $ $ $ $ $ $ $ $ $ $ $ $ $ $ $ $ $ $ $ $ $ $ $ $ $ $ . . . . . . . . . .       . . . . . . . . . . . . . . . . .     . e F ) J J J T T ^ ^ ! ! ! U ] *.$.$.$.$.@.@.@.@.@.@.@.@.@.@.@.@.@.@.@.@.@.@.@.@.@.@.@.@.@.@.@.@.@.@.@.@.@.@.@.@.@.@.@.@.@.@.@.@.@.@.@.@.@.@.@.@.@.@.@.@.@.@.@.@.@.@.@.@.@.@.@.@.$.@.r.j.c.O.                . $ $ $ $ = ..$.=.$.@.@.@.@.@.@.@.@.@.@.@.@.@.@.@.@.@.@.@.@.@.@.@.@.@.@.@.@.@.@.@.@.@.@.@.@.@.@.@.@.@.@.@.@.@.@.@.@.@.@.@.@.@.@.@.@.@.@.@.@.@.@.@.@.@.@.@.@.@.@.@.@.$.$.$.$.",
"@.@.@.@.@.@.@.@.@.@.@.@.@.@.@.@.@.@.@.@.@.@.@.@.@.@.@.@.@.@.@.@.@.@.@.@.@.@.@.@.@.@.@.@.@.@.@.@.@.@.=.F . . $ $ $ $ . -.%.@.@.$.H   +   F..Xm.6.r.9.r.w.r.f.f.f.f.f.f.f.f.f.f.f.r.r.r.r.r.e.a.f.r.Y..X}.}.@.X   t r.r.w.@.@.@.@.@.@.@.@.@.@.@.@.@.@.@.@.@.@.@.@.@.@.@.@.@.@.@.@.@.@.@.@.@.@.@.@.@.@.@.@.@.@.@.@.@.@.@.@.*.@.' ^ J J J J J J J J J J J J J J J J U U U U J J I = $ $ $ . . $ P #.=.-.-.#.#.#.#.#.%.%.%.%.$.%.%.%.#.#.#.#.%.%.#.#.#.$.$.$.$.#.#.#.#.#.#.#.*.#.#.#.#.#.#.#.#.#.#.*.#.#.#.-.r $ * % $ $ $ $ $ $ $ $ $ $ $ $ $ $ $ $ $ $ $ $ $ $ $ $ $ $ $ $ $ $ $ $ $ $ $ $ $ $ $ $ $ $ $ $ $ $ $ $ $ $ $ $ $ $ $ $ $ $ $ $ $ $ $ $ $ $ $ $ $ $ $ $ $ $ $ $ $ $ $ $ $ $ $ $ $ $ $ $ $ $ $ $ $ $ $ $ $ $ $ $ $ $ $ $ $ $ $ $ $ $ $ $ $ $ $ $ $ $ $ $ $ $ $ $ $ $ $ $ $ $ $ . . . . . $ $ = % - . . . . . . . $ $ $ $ . . . . . . $ $ . $ = . . = e F P P T T ^ ^ ! ! ( J ^ @.$.$.$.$.@.@.@.@.@.@.@.@.@.@.@.@.@.@.@.@.@.@.@.@.@.@.@.@.@.@.@.@.@.@.@.@.@.@.@.@.@.@.@.@.@.@.@.@.@.@.@.@.@.@.@.@.@.@.@.@.@.@.@.@.@.@.@.@.@.@.@.@.*.@.6.g.j.O.                . $ $ $ $ = ..$.=.$.@.@.@.@.@.@.@.@.@.@.@.@.@.@.@.@.@.@.@.@.@.@.@.@.@.@.@.@.@.@.@.@.@.@.@.@.@.@.@.@.@.@.@.@.@.@.@.@.@.@.@.@.@.@.@.@.@.@.@.@.@.@.@.@.@.@.@.@.@.@.@.@.$.$.$.$.",
"@.@.@.@.@.@.@.@.@.@.@.@.@.@.@.@.@.@.@.@.@.@.@.@.@.@.@.@.@.@.@.@.@.@.@.@.@.@.@.@.@.@.@.@.@.@.@.@.@.@.=.F . . $ $ $ $ . | >.*.@.] 2 X X r.#Xj.f.9.r.r.w.9.r.f.g.w.e.6.=.=.5.8.r.g.g.f.r.r.f.f.f.f.g.r.U..X}.|.O.X   z r.r.6.@.<.@.@.@.@.@.@.@.@.@.@.@.@.@.@.@.@.@.@.@.@.@.@.@.@.@.@.@.@.@.@.@.$.$.*.*.*.*.=.*.@.@.<.*.@.] ( ! J J U J J J J J J J J J J J J J J J J U U U J J I ; $ $ $ . = -.r.r.r.w.w.9.9.9.w.9.r.r.r.r.9.r.r.r.r.r.r.r.r.r.r.r.r.r.r.r.r.r.r.r.r.r.r.r.r.r.r.r.y.y.r.r.r.r.r.r.r.r.r.y.g.b . . . . $ $ . $ $ = $ % = = $ $ $ $ $ . $ $ . . . . $ $ $ $ $ $ $ $ $ $ $ $ $ $ $ $ $ $ $ $ $ $ $ $ $ $ $ $ $ $ $ $ $ $ $ $ $ $ $ $ $ $ $ $ $ $ $ $ $ $ $ $ $ $ $ $ $ $ $ $ $ $ $ $ $ $ $ $ $ $ $ $ $ $ $ $ $ $ $ $ $ $ $ $ $ $ $ $ $ $ $ $ $ $ $ $ $ $ $ $ $ $ $ $ $ . $ . . . . . . . $ $ $ . $ $ . $ . . . . . . $ $ $ . . . . . . $   . . . $ 1 b / P F ( ^ J J ! ^ ^ ^ @.@.@.@.@.@.@.@.@.@.@.@.@.@.@.@.@.@.@.@.@.@.@.@.@.@.@.@.@.@.@.@.@.@.@.@.@.@.@.@.@.@.@.@.@.@.@.@.@.@.@.@.@.@.@.@.@.@.@.@.@.@.@.@.@.@.@.@.@.@.@.@.*. .6.g.j.5.                . $ $ $ . = } @.%.@.@.@.@.@.@.@.@.@.@.@.@.@.@.@.@.@.@.@.@.@.@.@.@.@.@.@.@.@.@.@.@.@.@.@.@.@.@.@.@.@.@.@.@.@.@.@.@.@.@.@.@.@.@.@.@.@.@.@.@.@.@.@.@.@.@.@.@.@.@.@.@.@.$.@.@.@.",
"@.@.@.@.@.@.@.@.@.@.@.@.@.@.@.@.@.@.@.@.@.@.@.@.@.@.@.@.@.@.@.@.@.@.@.@.@.@.@.@.@.@.@.@.@.@.@.@.@.@.=.F . . $ $ $ $ . | =.=.@.@ X X @..Xc.e.g.f.r.r.f.g.f.w.6.=.$.@.@.@.@.*.<.6.r.f.r.r.r.f.f.f.w.g.9.G..X_..X]   @ k f.f.6.=.O.@.@.@.@.@.@.@.@.@.@.@.@.@.@.@.@.@.@.@.@.@.@.@.@.@.@.@.@.*.*.$.$.@.@.@.$.@.@.@.@.] ( ! ! J J J J J J J J J J J J J J J J J J J J J J U U J J I ; $ $ $ . I y.6.<.e.6.6.6.9.e.e.e.6.6.6.6.6.6.6.6.6.6.6.6.6.6.6.6.6.6.6.6.6.6.6.6.6.6.6.6.8.6.8.6.8.8.8.8.8.8.8.6.6.6.8.6.r.6.. . . . $ $ .   $ $ . . . . . . . . . . . . . . . . . . . . . . . . . . . . . . . . . . . . . . . . . . . . . . . . . . . . . . . . . . . . . . . . . . . . . . . . . . . . . . . . . . . . . . . . . . . . . . . . . . . . . . . . . . . . . . . . . . . . . . . . . . . . . . . . . . . . . . . . . . . . . . . . . . . . . . . . .   $ = $ $ $ $ $ 4 I P K ^ ^ J ! ^ ^ ^ @.@.@.@.@.@.@.@.@.@.@.@.@.@.@.@.@.@.@.@.@.@.@.@.@.@.@.@.@.@.@.@.@.@.@.@.@.@.@.@.@.@.@.@.@.@.@.@.@.@.@.@.@.@.@.@.@.@.@.@.@.@.@.@.@.@.@.@.@.@.@.@.*.@.<.j.x.6.+               . $ $ $ . = } @.*.@.@.@.@.@.@.@.@.@.@.@.@.@.@.@.@.@.@.@.@.@.@.@.@.@.@.@.@.@.@.@.@.@.@.@.@.@.@.@.@.@.@.@.@.@.@.@.@.@.@.@.@.@.@.@.@.@.@.@.@.@.@.@.@.@.@.@.@.@.@.@.@.@.@.@.@.@.",
"@.@.@.@.@.@.@.@.@.@.@.@.@.@.@.@.@.@.@.@.@.@.@.@.@.@.@.@.@.@.@.@.@.@.@.@.@.@.@.@.@.@.@.@.@.@.@.@.@.@.=.F . . $ $ $ $ . | =.$.3     Z |.c.r.e.e.r.f.r.9.e.6.=.$.$.@.@.@.@.@.@.@.$.<.9.r.w.f.f.f.f.9.w.g.8.D.}._..XO.X   D j.r.@.@.@.@.@.@.@.@.@.@.@.@.@.@.@.@.@.@.@.@.@.@.@.@.@.@.@.@.@.@.=.=.$.@.@.@.@.@.( ^ ! J J J J J J J J J U U J J J J J J J J U U J J J J J J U U J J I ; $ $ $ . ` r.6.e.9.e.9.e.i.9.8.6.e.e.e.e.8.8.e.8.9.9.9.9.7.7.9.9.9.9.e.e.9.9.9.9.9.9.9.9.q.q.q.q.q.q.q.q.q.q.w.e.e.e.e.e.6.7.r   . . $ $ $ * $ . q S [ / / / / ^ ^ ^ T ^ ^ ^ ^ ^ ^ ^ ^ ^ ^ ^ ^ ^ ^ ^ ^ ^ ^ ^ ^ ^ ^ ^ ^ ^ ^ ^ ^ ^ ^ ^ ^ ^ T T T T ^ ^ ^ ^ ^ ^ ^ ^ ^ ^ ^ ^ ^ ^ ^ ^ ^ ^ ^ ^ ^ ^ ^ ^ ^ ^ ^ ^ ^ ^ ^ ^ / / / / P P T T T T R R T T T T T T T T ^ ^ ^ ^ ^ ^ ^ ^ T T T T ^ ^ ^ ^ P P P T T T T T T T T T P T / ^ ^ T / ^ T ^ ^ ^ T T T T ^ ^ ^ ^ ^ ^ ^ ^ N O   $ * * $ $ ; $ = n ) J H J ^ ^ ^ ^ ( @.@.@.@.@.@.@.@.@.@.@.@.@.@.@.@.@.@.@.@.@.@.@.@.@.@.@.@.@.@.@.@.@.@.@.@.@.@.@.@.@.@.@.@.@.@.@.@.@.@.@.@.@.@.@.@.@.@.@.@.@.@.@.@.@.@.@.@.@.@.@.$.@.=.x.x.r.:               . $ $ $ . = } @.*.@.@.@.@.@.@.@.@.@.@.@.@.@.@.@.@.@.@.@.@.@.@.@.@.@.@.@.@.@.@.@.@.@.@.@.@.@.@.@.@.@.@.@.@.@.@.@.@.@.@.@.@.@.@.@.@.@.@.@.@.@.@.@.@.@.@.@.@.@.@.@.@.@.@.@.$.@.",
"@.@.@.@.@.@.@.@.@.@.@.@.@.@.@.@.@.@.@.@.@.@.@.@.@.@.@.@.@.@.@.@.@.@.@.@.@.@.@.@.@.@.@.@.@.@.@.@.@.@.=.F . . $ $ $ $ . | >.x     t ).F.*.r.r.g.g.g.e.=.@.$.$.*.*.*.*.=.*.$.@.@.@.@.=.e.w.f.f.f.r.r.g.f.g.w.G.}.}.}.(     ( g.6.] @.@.@.@.@.@.@.@.@.@.@.@.@.@.@.@.@.@.@.@.@.@.@.@.@.@.@.@. .] ( ^ J J J J ^ ! J J U ! ! U U J J J J U J J J J J J J J U J J J J J J J U U J J I ; $ $ $ . } w.5.<.9.e.e.e.w.8.=.%.*.*.%.*.%.%.%.%.%.%.%.*.*.*.*.*.*.*.*.*.*.*.*.*.*.*.*.*.*.*.*.=.=.=.*.*.*.*.*.*.*.*.*.*.$...4 . . $ $ $ $ $   m g.b.b.c.b.b.b.b.c.c.c.c.c.c.c.c.M.b.c.c.c.c.c.c.c.c.c.c.c.c.m.m.c.c.c.c.b.b.b.b.b.b.b.b.c.c.c.c.b.b.b.c.c.c.c.c.M.b.c.c.c.c.c.c.c.c.c.c.c.b.b.b.b.b.b.b.b.b.b.b.b.b.b.b.b.b.b.b.b.m.m.m.m.c.c.m.M.M.c.c.c.c.c.c.c.c.c.c.c.c.b.c.b.b.b.b.c.c.c.c.c.c.c.c.c.c.c.c.c.c.M.M.M.c.M.b.c.b.b.b.c.c.c.c.b.b.b.b.b.c.c.c.c.9.n   . $ % $ $ $ $ = x J J H ^ ^ ^ ^ ^ ] @.@.@.@.@.@.@.@.@.@.@.@.@.@.@.@.@.@.@.@.@.@.@.@.@.@.@.@.@.@.@.@.@.@.@.@.@.@.@.@.@.@.@.@.@.@.@.@.@.@.@.@.@.@.@.@.@.@.@.@.@.@.@.@.@.@.@.@.@.@.@.*.*.x.c.g.5 X             . $ $ $ . = } @.*.@.@.@.@.@.@.@.@.@.@.@.@.@.@.@.@.@.@.@.@.@.@.@.@.@.@.@.@.@.@.@.@.@.@.@.@.@.@.@.@.@.@.@.@.@.@.@.@.@.@.@.@.@.@.@.@.@.@.@.@.@.@.@.@.@.@.@.@.@.@.@.@.@.$.$.$.$.",
"@.@.@.@.@.@.@.@.@.@.@.@.@.@.@.@.@.@.@.@.@.@.@.@.@.@.@.@.@.@.@.@.@.@.@.@.@.@.@.@.@.@.@.@.@.@.@.@.@.@.=.F . . $ $ $ $ % X.F X   @ W.c.=.f.g.r.e.6.=.@.O.@.@.@.@.@.$.$.*.$.$.@.@.@.@.@.@.@.6.8.r.r.9.w.w.r.g.e.A.'..X|.$.    ] r.5.@.=.=.@.$.$.$.$.$.@.@.@.@.@.*.*.*.*.*.*.=.@.] ] ( ( ^ ! ! U U U J J J J U U J J J J J J J J J J J J J J J J J J J J J J J J J J J J U U J J I ; $ $ $ . } 9.8.8.e.e.e.e.5.=.&.@.@.@.@.@.$.$.$.$.@.@.@.@.@.@.@.@.@.@.@.@.@.@.@.@.@.@.@.@.@.@.@.@.@.@.@.@.@.@.@.@.@.$.@.@.@.) 4   . $ $ $ % . 6 h.h.g.g.h.h.z.h.g.g.g.g.g.g.g.g.g.f.f.g.g.g.g.g.g.g.g.g.g.g.g.g.g.g.g.g.g.g.g.g.g.g.g.g.g.g.g.g.g.g.g.g.g.g.g.g.g.g.g.g.g.g.g.g.g.g.g.g.g.g.g.g.g.g.g.g.g.g.g.g.g.g.g.g.g.g.g.g.g.g.g.g.g.g.g.g.g.g.g.g.g.g.g.g.g.g.g.g.g.g.g.g.g.g.g.g.g.g.g.g.g.g.g.g.g.g.g.g.g.g.g.g.g.g.g.g.g.g.g.g.g.g.g.g.g.h.g.j.j.j.j.j.j.j.c.c.) . . . $ $ $ $ . . j J J ^ T J J H ] @.=.@.@.@.@.@.@.@.@.@.@.@.@.@.@.@.@.@.@.@.@.@.@.@.@.@.@.@.@.@.@.@.@.@.@.@.@.@.@.@.@.@.@.@.@.@.@.@.@.@.@.@.@.@.@.@.@.@.@.@.@.@.@.@.@.@.@.@.@.@.*.@.e.f.V.3               . $ $ $ . = } @.$.@.@.@.@.@.@.@.@.@.@.@.@.@.@.@.@.@.@.@.@.@.@.@.@.@.@.@.@.@.@.@.@.@.@.@.@.@.@.@.@.@.@.@.@.@.@.@.@.@.@.@.@.@.@.@.@.@.@.@.@.@.@.@.@.@.@.@.@.@.@.@.@.@.$.$.$.$.",
"@.@.@.@.@.@.@.@.@.@.@.@.@.@.@.@.@.@.@.@.@.@.@.@.@.@.@.@.@.@.@.@.@.@.@.@.@.@.@.@.@.@.@.@.@.@.@.@.@.@.=.F . . $ $ $ $ % I 3     g.C.e.g.r.8.=.@.@.@.@.*.*.*.@.@.@.5.=.@.@.$.$.$.$.$.$.$.$.@.=.6.w.r.r.f.r.g.x.e.c._.|.}.]   X  .g.$.O.@.*.$.$.$.$.@.@.@.@.=.*.$.@.] ] ] ] ( ^ J J U U ! ! U U U U U J J J J U J J J J J J J J J J J J J J J U J J J J J J J J J J P J U U J J I ; $ $ $ . } 9.8.8.e.e.e.e.=.*.&.&.@.@.@.@.$.$.$.$.@.@.@.@.@.@.@.@.@.@.@.@.@.@.@.@.@.@.@.@.@.@.@.@.@.@.@.@.@.@.@.@.@.$.@.@.@.) 4   . $ $ $ . . I b.g.k.k.g.h.h.l.g.g.g.g.g.g.g.g.g.g.g.g.g.g.g.j.j.j.j.x.x.x.x.x.c.g.g.g.g.z.z.c.c.c.c.c.c.c.c.c.c.c.c.c.c.c.c.c.c.x.x.x.x.c.c.x.x.c.c.c.c.x.x.x.x.x.x.x.x.x.x.x.x.x.x.x.x.g.g.g.g.c.c.c.c.c.c.c.c.c.c.c.c.x.x.x.x.x.x.x.x.j.x.j.j.c.c.c.c.x.x.j.x.c.c.x.c.c.c.c.c.x.j.j.j.j.j.j.j.j.j.j.j.g.g.g.g.g.g.j.g.j.g.g.g.j.i.g.c.>.$ $ $ $ $ . . . . z H J ^ ^ F J ( ] @.@.@.@.@.@.@.@.@.@.@.@.@.@.@.@.@.@.@.@.@.@.@.@.@.@.@.@.@.@.@.@.@.@.@.@.@.@.@.@.@.@.@.@.@.@.@.@.@.@.@.@.@.@.@.@.@.@.@.@.@.@.@.@.@.@.@.@.@.@.*.@.e.c.c.^ @             . $ $ $ . = } @.$.@.@.@.@.@.@.@.@.@.@.@.@.@.@.@.@.@.@.@.@.@.@.@.@.@.@.@.@.@.@.@.@.@.@.@.@.@.@.@.@.@.@.@.@.@.@.@.@.@.@.@.@.@.@.@.@.@.@.@.@.@.@.@.@.@.@.@.@.@.@.@.@.@.$.$.$.$.",
"@.@.@.@.@.@.@.@.@.@.@.@.@.@.@.@.@.@.@.@.@.@.@.@.@.@.@.@.@.@.@.@.@.@.@.@.@.@.@.@.@.@.@.@.@.@.@.@.@.@.=.F . $ $ $ $ $ $ r     $.M.e.g.=.@.*.$.@.@.@.@.*.*.=.*.@.O. .] ( ^ ^ ^ ^ ^ ] ] ] ] ]  .@.@.8.9.g.g.f.f.c.9.x.{. X.X] + + *.w.$.] *.$.$.$.*.*.*.@.@.' ' ( ^ H H H H J J J J J J U U U U U U U U J J J J J J J J J J J J J J J J J J U U J J J J J U U U J J P J U U J P I ; $ $ $ . } 9.8.8.e.e.e.e.=.*.*.*.@.@.@.@.$.$.$.$.@.@.@.@.@.@.@.@.@.@.@.@.@.@.@.@.@.@.@.@.@.@.@.@.@.@.@.@.@.@.@.@.@.$.@.@.@.( 4 . . $ $ $ $ $ F c.k.p.g.k.g.g.g.g.g.g.g.g.g.g.j.j.x.x.x.x.g.g.x.x.x.x.x.x.x.x.x.x.g.g.g.g.g.g.g.g.r.r.r.r.r.r.r.r.w.w.w.w.e.e.e.e.8.8.8.8.5.5.5.5.5.5.5.5.=.=.=.=.=.=.=.=.=.=.=.=.=.=.=.=.6.6.6.6.e.e.e.e.r.9.r.r.r.r.r.r.g.g.g.g.g.g.g.g.g.g.g.g.g.g.g.g.g.g.g.g.g.g.j.j.j.j.j.j.g.g.g.g.g.g.g.g.g.g.g.g.x.x.x.x.k.k.k.k.k.k.k.k.j.j.g.c.k.:.1 . $ $ . . . O o z T F F T ^ ^ ] @.@.@.@.@.@.@.@.@.@.@.@.@.@.@.@.@.@.@.@.@.@.@.@.@.@.@.@.@.@.@.@.@.@.@.@.@.@.@.@.@.@.@.@.@.@.@.@.@.@.@.@.@.@.@.@.@.@.@.@.@.@.@.@.@.@.@.@.@.@.*.@.e.x.g.c.e.5     X     . $ $ $ . = } @.$.@.@.@.@.@.@.@.@.@.@.@.@.@.@.@.@.@.@.@.@.@.@.@.@.@.@.@.@.@.@.@.@.@.@.@.@.@.@.@.@.@.@.@.@.@.@.@.@.@.@.@.@.@.@.@.@.@.@.@.@.@.@.@.@.@.@.@.@.@.@.@.@.@.$.$.$.$.",
"@.@.@.@.@.@.@.@.@.@.@.@.@.@.@.@.@.@.@.@.@.@.@.@.@.@.@.@.@.@.@.@.@.@.@.@.@.@.@.@.@.@.@.@.@.@.@.@.@.@.=.F . $ $ $ . * $ q   J j.<.*.@. .5.*.*.*.*.@.@.@.@.] ( ! H U U U J J J J J J J J J ^ ^ J H H ( O.@.=.8.=.<.8.r.R.).{.(   7 8.8.@.*.$.$.$.$.@. .( U H J U U U J U U U ! ! U J J J J J J U U J U J J J J J J J J J U U U J J U J J J U J J J J J U U J U J J P P U U J J I ; . $ $ . } 9.8.8.e.e.e.e.=.=.=.=.@.@.@.@.$.$.$.$.@.@.@.@.@.@.@.@.@.@.@.@.@.@.@.@.@.@.@.@.@.@.@.@.@.@.@.@.@.@.@.@.@.@.@.@.@.) 4 . . $ $ $ % . W g.g.h.h.g.g.g.j.g.g.g.g.g.g.g.g.g.8.8.8.8.8.6.6.6.6.5.5.<.<.=.=.=.*.*.*.*.@.@.@.@.@.@.@.@.@.@.@.@.@.@.@.@.@.@.@.@.@.@.@.@.$.$.@.@.$.$.$.$.@.@.@.@.@.@.@.@.@.@.@.@.@.@.@.@.@.@.@.@.@.@.@.@.@.@.@.@.$.$.$.$.@.@.@.@.@.@.@.@.@.@.@.@.$.$.$.$.@.@.@.@.=.=.=.=.=.=.=.=.=.=.=.=.=.=.=.=.=.=.=.=.=.=.=.=.<.<.<.<.<.<.<.<.g.j.r.g.y.n.:.- . . . . . . . o g F J F ^ ( ^ ] @.@.@.@.@.@.@.@.@.@.@.@.@.@.@.@.@.@.@.@.@.@.@.@.@.@.@.@.@.@.@.@.@.@.@.@.@.@.@.@.@.@.@.@.@.@.@.@.@.@.@.@.@.@.@.@.@.@.@.@.@.@.@.@.@.@.@.@.@.*.@.e.c.c.c.x.C.U :       . $ $ $ . = } @.$.@.@.@.@.@.@.@.@.@.@.@.@.@.@.@.@.@.@.@.@.@.@.@.@.@.@.@.@.@.@.@.@.@.@.@.@.@.@.@.@.@.@.@.@.@.@.@.@.@.@.@.@.@.@.@.@.@.@.@.@.@.@.@.@.@.@.@.@.@.@.@.@.@.$.$.$.$.",
"@.@.@.@.@.@.@.@.@.@.@.@.@.@.@.@.@.@.@.@.@.@.@.@.@.@.@.@.@.@.@.@.@.@.@.@.@.@.@.@.@.@.@.@.@.@.@.@.$.@.#.x . . $ $ ; $ $ $ 6 *.*...@.@.$.*.@.O.] ( J J J J U U U U U U U U U U J U J J J J U U U U J J J J ( ] @.@.] ] @.f.D.F.J X 3 ] ( J ( ( ( ( J J J J J J J J J J J J U U U U J J J J U U U U J J J J J J J J J U U J J J J J U U J J J J J J J J J J J J J J J J U U J J I ; . $ $ . } 9.8.8.e.e.e.e.=.*.*.&.@.@.@.@.$.$.$.$.@.@.@.@.@.@.@.@.@.@.@.@.@.@.@.@.@.@.@.@.@.@.@.@.@.@.@.@.@.@.@.@.@.@.@.@.@.^ 4 . . $ $ $ % . P b.g.g.h.g.l.l.N.l.r.e.6.6.=.*.&.&.@.@.@.@.@.@.@.@.@.@.@.@.@.@.@.@.@.@.@.@.@.@.@.@.@.@.@.@.@.@.@.@.@.@.@.@.@.@.@.@.@.@.@.@.@.@.@.@.@.@.@.@.@.@.@.@.@.@.@.@.@.@.@.@.@.@.@.@.@.@.@.@.@.@.@.@.@.@.@.@.@.@.@.@.@.@.@.@.@.@.@.@.@.@.@.@.@.@.@.@.@.@.@.@.@.@.@.@.@.@.@.@.@.@.@.@.@.@.@.@.@.@.@.@.@.@.@.@.@.@.@.@.@.@.@.@.6.g.c.c.g.h.h.>.=   = O . . . .   j T ) J ( J ( @.=.=.@.@.@.@.@.@.@.@.@.@.@.@.@.@.@.@.@.@.@.@.@.@.@.@.@.@.@.@.@.@.@.@.@.@.@.@.@.$.$.$.$.$.$.$.$.$.$.$.$.$.$.$.$.$.$.$.@.@.@.@.@.@.@.@.@.*.=.=.6.j.r.f.g.g.m.i.N + . . $ $ $ . = } @.*.@.@.@.@.@.@.@.@.@.@.@.@.@.@.@.@.$.*.*.@.@.@.@.@.@.@.@.@.@.$.$.@.@.@.@.@.@.@.@.@.@.@.@.@.@.@.@.@.@.@.@.@.@.@.@.@.@.@.@.@.@.@.@.@.@.@.@.@.@.@.@.@.@.$.$.$.$.",
"@.@.@.@.@.@.@.@.@.@.@.@.@.$.$.@.@.@.@.@.@.@.@.@.@.@.@.@.@.@.@.@.@.@.@.@.@.@.@.@.@.@.@.@.@.@.@.@...$.#.g . . $ $ % $ $ 1 ^ =. .] ] ( ( ^ U J H A J J J J U U U U U U U U J J J J J J J J U U U U U U U U U ^ ( ] ] ] ] @.f.V.G.J   8 ( H U U J J J J J J J J J J J J J J U U U U J J J J U U U U J J J J J J J J U U J J J J J J J J J J U U J J J J J J J J J J J P U U J J I ; . $ $ . } 9.8.8.e.e.e.e.=.*.*.&.@.@.@.@.$.$.$.$.@.@.@.@.@.@.@.@.@.@.@.@.@.@.@.@.@.@.@.@.@.@.@.@.@.@.@.@.@.@.@.@.@.@.@.@.@.^ 4 . $ $ $ $ % . P c.g.h.g.g.l.g.g.6.*.&.@.@.@.*.*.*.@.@.@.@.@.@.@.@.@.@.@.@.@.@.@.@.@.@.@.@.@.@.@.@.$.$.$.@.$.$.$.$.$.$.$.$.@.@.@.@.@.@.@.@.@.@.@.@.@.@.@.@.@.@.@.@.@.@.@.@.@.@.@.@.@.@.@.@.@.@.@.@.@.@.@.@.@.@.@.@.@.@.@.@.@.@.@.@.@.@.@.@.@.@.@.@.@.@.@.@.@.@.@.@.@.@.@.@.@.@.@.@.@.@.@.@.@.@.@.@.@.@.@.@.@.@.@.@.@.@.@.@.@.@.@.@.$.$.w.k.p.g.c.c.=.4   = . . . . .   x T ( H ( ^ ( @.*.*.*.$.@.@.@.@.@.@.@.@.@.@.@.@.@.@.@.@.@.@.@.@.@.@.@.@.@.@.@.@.@.@.@.@.@.@.$.$.$.$.$.$.$.$.$.$.$.$.$.$.$.$.$.$.$.@.@.@.@.@.@.@.@.@.@.$.*.=.g.j.g.g.9.j.k.g.] 6 . * $ $ . = } @.%.@.$.@.@.@.@.@.@.@.@.@.@.@.@.@.@.@.@.@.@.O.*.*.*.*.$.@.@.@.$.$.$.@.$.@.@.@.@.@.@.@.@.@.@.@.@.@.@.@.@.@.@.@.@.@.@.@.@.@.@.@.@.@.@.@.@.@.@.@.@.@.@.@.$.$.$.$.",
"@.@.@.@.@.@.@.@.@.@.@.@.@.@.@.@.@.@.@.@.@.@.@.@.@.@.@.@.@.@.@.@.@.@.@.@.@.@.@.@.@.@.@.@.@.@.@.@.......g . . $ $ $ $ . a ) ^ H D D D J U U U J J J J J J U U U U U U U U U J J J J J J J U U U U U U U U U U J U ^ ]  .]  .g.m.A.D   7 ^ J J J J J J J J J J J J J J J J U U U U J J J J U U U U J J J J U U J J J J J J J J J J J J J J U J J J J J U J J J J J J J U U J J I = . $ $ . } 9.8.8.e.e.e.e.=.*.*.&.@.@.@.@.$.$.$.$.@.@.@.@.@.@.@.@.@.@.@.@.@.@.@.@.@.@.@.@.@.@.@.@.@.@.@.@.@.@.@.@.@.@.@.@.@.T 4 . $ $ $ $ % . P c.g.j.j.g.g.l.g.*.@.&.$.*.*.*.$.$.$.$.@.@.@.@.@.@.@.@.@.@.@.@.@.@.@.@.@.@.@.@.@.@.$.$.$.$.$.$.$.$.$.$.$.$.@.@.@.@.@.@.@.@.@.@.@.@.@.@.@.@.@.@.@.@.@.@.@.@.@.@.@.@.@.@.@.@.@.@.@.@.@.@.@.@.@.@.@.@.@.@.@.@.@.@.@.@.@.@.@.@.@.@.@.@.@.@.@.@.@.@.@.@.@.@.@.@.@.@.@.@.@.@.@.@.@.@.$.$.@.@.@.@.@.@.@.@.@.@.@.@.@.@.@.@.@.@.*.w.j.c.g.i.c.>.= = . . . . . . . x P J ^ J J ' @.@.*.*.*.$.$.@.@.@.@.@.@.@.@.@.@.@.@.@.@.@.@.@.@.@.@.@.@.@.@.@.@.@.@.@.@.@.$.$.$.$.$.$.$.$.$.$.$.$.$.$.$.$.$.$.$.@.@.@.@.@.$.$.*.*.] ]  . .] 6.g.g.g.j.j.g.Z.S . % $ * . = } @.%.@.@.@.@.@.@.@.@.@.@.@.@.@.@.@.@.$.$.@.@...@.@.@.@.@.@.@.@.@.@.@.@.*.*.*.*.*.*.*.$.@.@.@.@.@.@.@.@.@.@.@.@.@.@.@.@.@.@.@.@.@.@.@.@.@.@.@.@.@.@.@.@.$.$.$.$.",
"@.@.@.@.@.@.@.@.@.@.@.@.@.@.$.@.@.@.@.@.@.@.@.@.@.@.@.@.@.@.@.@.@.@.@.@.@.@.@.@.@.@.@.@.@.@.@.@.$.( ( x . . $ ; . $ . C F D J H U J J J J J U U J J J J U U U U U U U U J J U U J J J J U U U U U U U U ~ ~ U J D ( ] ] ]  .i.C.C.D   8 U U U U J U J J J J J J J J J J U U U U J J J J U U U U U J J J U J J J J J J J J J J J J J J J J J J J J J U U U J J J J U U U J J I = . $ $ . } 9.8.8.e.e.e.e.=.*.*.@.@.@.@.@.$.$.$.$.@.@.@.@.@.@.@.@.@.@.@.@.@.@.@.@.@.@.@.@.@.@.@.@.@.@.@.@.@.@.@.@.@.@.@.@.@.T 4 . $ $ $ $ % . P c.g.j.j.g.g.c.c.2.O.@.@.*.*.$.$.$.@.@.@.@.@.@.@.@.@.@.@.@.@.@.@.@.@.@.@.@.@.@.@.@.$.$.$.$.$.$.$.$.$.$.$.$.@.@.@.@.@.@.@.@.@.@.@.@.@.@.@.@.@.@.@.@.@.@.@.@.@.@.@.@.@.@.@.@.@.@.@.@.@.@.@.@.@.@.@.@.@.@.@.@.@.@.@.@.@.@.@.@.@.@.@.@.@.@.@.@.@.@.@.@.@.@.@.@.@.@.@.@.@.@.@.@.@.@.$.$.@.@.@.@.@.@.@.@.@.@.@.@.@.@.@.@.@.=.*.@.6.g.j.g.g.c.r.4 . . $ . . . $ . g T J T ^ ( ( ( ] @.*.*.*.$.$.@.@.@.@.@.@.@.@.@.@.@.@.@.@.@.@.@.@.@.@.@.@.@.@.@.@.@.@.@.$.$.$.$.$.$.$.$.$.$.$.$.$.$.$.$.$.$.$.@.@.@.@.@.] ] ] ] ^ ^ ^ ^ H J ( @.g.g.g.p.k.I . . $ $ . = } @.%.@.@.@.@.@.@.@.@.@.@.@.@.@.@.@.@.@.) ( ^ ^ ! ! ! ! U J U U U U U U ^ ^ ^ ^ ] ] ] ] @.@.@.@.@.@.@.@.@.@.@.@.@.@.@.@.@.@.@.@.@.@.@.@.@.@.@.@.@.@.@.@.$.@.@.@.",
"@.@.@.@.@.@.@.@.@.@.@.@.@.@.@.@.@.@.@.@.@.@.@.@.@.@.@.@.@.@.@.@.@.@.@.@.@.@.@.@.@.@.@.@.@...) ^ Y J J j . . $ $ . * . a F J Y J J J H H H J Y J J J J J D H H H H H H H D D D D D D D D H H H H H H H H J J J J H H H J ] @. .9.C.A.D   f ( U Y Y J Y Y Y Y U U U U U U J J J J U U U U J J J J U U U U U U U U U U U U U U U U U U U U U U U U U U U U J J J J J J J J P I F $ . $ $ . } 9.8.8.e.e.e.e.=.$.$.@.@.@.@.@.*.*.*.$.@.@.@.@.@.@.@.@.@.@.@.@.@.@.@.@.@.@.@.@.@.@.@.@.@.@.@.@.@.@.@.@.@.@.@.@.] ^ 6 . $ $ $ $ % . P b.g.g.g.g.g.l.g.*.$.$.$.$.@.$.$.$.@.@.@.@.@.@.@.@.@.@.@.@.@.@.@.@.@.@.@.@.@.@.@.@.@.@.@.@.@.@.@.@.@.@.@.@.@.@.@.@.@.@.@.@.@.@.@.@.@.@.@.@.@.@.@.@.@.@.@.@.@.@.@.@.@.@.@.@.@.@.@.@.@.@.@.@.@.@.@.@.@.@.@.@.@.@.@.@.@.@.@.@.@.@.@.@.@.@.@.@.@.@.@.@.@.@.@.@.@.@.@.@.@.@.@.@.@.@.@.@.@.@.@.@.@.@.@.@.@.@.@.@.@.@.@.@.@.@.@.@.*.=.r.c.g.h.b.7.r * . $ . . . .   j ( T J ! H U U U U U ' ' ' ' @.@.@.@.@.$.$.*.*.*.*.*.*.*.*.*.%.$.$.$.@.@.@.@.@.@.@.@. .......] ] ] ] ] ] ] ] ] ] ] ) ` ` ] ) ^ T J J J J J J J J J J J J J J J ] 6.p.b.F . $ $ $ . . / @.@.*.@.@.@.@.@.@.#.@.*.*.$.@. .) T T T T J J J J J J J J J J J J J J J J J J J J J J J J J J J J J J ^ ( ^ ( ] ] ] ] @.@.....@.@.$.$.$.$.%.%.*.*.*.*.*.*.%.%.",
"@.@.@.@.@.$.$.$.$.$.$.$.$.$.@.@.$.$.@.@.@.@.@.@.@.@.@.@.@.@.@.@.@.@.@.@.@.@.@.@.@.@.@.@.) ^ J J ~ D ^ e . . $ $ $ $ $ 4 P ( U H U U U U U U ^ ^ U U U U U U U U U U U U J J J J J U U U U U U U U J J J T T T T J J J T J ^ T ] 9.m.m.M X x ^ H D D H H H H J J J J J J H H F F J J J J H F F F J J J J J J J J J J J J J J J J J J J J J J J J J J J J F F J J J J J J F ^ g . . $ $ . ..9.8.8.e.e.e.e.=.$.$.@.@.@.&.@.*.*.*.*.@.@.@.@.@.@.@.@.@.@.@.@.@.@.@.@.@.@.@.@.@.@.@.@.@.@.@.@.@.@.@.@.@.@.@.@.] ^ 6 . . $ $ $ % . P b.g.g.g.g.g.l.g.*.$.$.$.$.@.@.@.@.@.@.@.@.@.@.@.@.@.@.@.@.@.@.@.@.@.@.@.@.@.@.@.@.@.@.@.@.@.@.@.@.@.@.@.@.@.@.@.@.@.@.@.@.@.@.@.@.@.@.@.@.@.@.@.@.@.@.@.@.@.@.@.@.@.@.@.@.@.@.@.@.@.@.@.@.@.@.@.@.@.@.@.@.@.@.@.@.@.@.@.@.@.@.@.@.@.@.@.@.@.@.@.@.@.@.@.@.@.@.@.@.@.@.@.@.@.@.@.@.@.@.@.@.@.@.@.@.@.@.@.@.@.@.@.@.@.@.@.@.@.@.*.w.h.z.h.h.h.1 $ ; . $ . . . = g ^ J U ^ H J J J J U U T T ^ ^ ^ ^ ] ] ] ] ] ) ( ( ( ( ( ( ( ^ ^ ^ ( ^ ( ^ ! J J J J J J J J J J J ^ ^ ^ ^ ^ T T T T T T T J J J J J J J J J J J J J J J J J T ^ ] >.S . * $ . . . A F F ( ) ) ) ) @.@. . . .] ^ J T T J J J J J J J J J J J J J J J J J J J J J J J J J J J J J J J J J J J H H F H H H H H H J J ^ ^ ^ ^ ^ ^ ^ ( @.@.@.@.@.@.@.@.",
"( ( ( ( ( ( ( ( ^ ^ ^ ^ ( ( ^ ^ ^ ^ ~ ~ ~ ~ ~ ~ ~ ~ U U ~ ~ ~ ~ ~ ~ ~ ~ ~ ! U U U U U U U J J J ^ J ^ 4 . $ $ $ $ $ $ . g S J ( T T T T T T ^ ^ T T T T T T T T T T T T T T T T T T T T T T T T T T T T T T T T T T T T T F T T ) p.C.g.f X f T T T T T T T T T T T T T T T T T T T T T T T T T T T T T T T T T T T T T T T T T T T T T T T T T T T T T T T T T P J J J F b . $ $ $ $ . } 9.8.8.e.e.e.e.=.$.$.@.&.&.&.&.*.*.*.*.@.@.@.@.@.@.@.@.@.@.@.@.@.@.@.@.@.@.@.@.@.@.@.@.@.@.@.@.@.@.@.@.@.@.@.@.] ^ 6 . . $ $ $ % . W B.g.g.g.g.l.l.g.*.$.$.$.$.@.@.@.@.@.@.@.@.@.@.@.@.@.@.@.@.@.@.@.@.@.@.@.@.@.@.@.@.@.@.@.@.@.@.@.@.@.@.@.@.@.@.@.@.@.@.@.@.@.@.@.@.@.@.@.@.@.@.@.@.@.@.@.@.@.@.@.@.@.@.@.@.@.@.@.@.@.@.@.@.@.@.@.@.@.@.@.@.@.@.@.@.@.@.@.@.@.@.@.@.@.@.@.@.@.@.@.@.@.@.@.@.@.@.@.@.@.@.@.@.@.@.@.@.@.@.@.@.@.@.@.@.@.@.@.@.@.@.@.@.@.@.@.@.@.@.@.*.q.g.g.g.c.y.r . . . $ . $   = n ( J J P J J J J U J U U J J J J J J J J J J U J U U U U U U U U J J U U ! ! T T T T T U U J J J J J J J J J J J J J J J J J J J J J J J J J J J J J J U U J J U T e $ $ $ . . o F J F F J J J J J J J J J H J J J J J J J J J J J J J J J J J J J J J J J J J J J J J J J J J J J J U U U U U U U J J J J J J J J J J J J J J J J J U U ! ^ T T ",
"H H J J J J J J J J J J J J J J H J H H H H H H D D D D H H H H H H J J J J J J J J J J J J J J F T F = . $ $ ; % $ * . . = 3 4 6 6 6 6 6 6 6 6 6 6 6 6 6 6 6 6 6 6 6 6 4 4 4 4 4 4 4 4 6 6 6 6 6 6 6 6 6 6 6 6 6 6 6 6 4 4 e 6 > y g g g o   6 4 4 6 6 6 6 6 6 6 6 6 6 6 6 4 4 6 6 6 6 6 6 4 6 6 6 6 6 6 6 6 6 6 6 6 6 6 6 6 6 6 6 6 6 6 6 6 6 6 6 6 6 q q 6 6 7 7 7 6 4 = . . $ $ $ . } 9.8.8.e.e.e.e.=.$.$.@.&.&.&.&.*.*.*.*.@.@.@.@.@.@.@.@.@.@.@.@.@.@.@.@.@.@.@.@.@.@.@.@.@.@.@.@.@.@.@.@.@.@.@.@.] ^ 6 . $ $ $ $ % . W B.g.g.g.g.l.l.g.*.$.$.$.$.@.@.@.@.@.@.@.@.@.@.@.@.@.@.@.@.@.@.@.@.@.@.@.@.@.@.@.@.@.@.@.@.@.@.@.@.@.@.@.@.@.@.@.@.@.@.@.@.@.@.@.@.@.@.@.@.@.@.@.@.@.@.@.@.@.@.@.@.@.@.@.@.@.@.@.@.@.@.@.@.@.@.@.@.@.@.@.@.@.@.@.@.@.@.@.@.@.@.@.@.@.@.@.@.@.@.@.@.@.@.@.@.@.@.@.@.@.@.@.@.@.@.@.@.@.@.@.@.@.@.@.@.@.@.@.@.@.@.@.@.@.@.@.@.] *.=.*.} 6.g.c.r.c.7.= . . . . $ . . 4 n ) P P P W P P J J I I P J T P T T T T P P J J J J U U U U U J P P T T U U J U U U U U T T U U U U J J J J J J J J J J J J U U J J J J J J J J J J J J J J T T A o . . $ . . o f P ^ J J J J J J J J J ^ U H D J J J J J J J J J J J J J J J J J J J J J J J J J J J J J J J J J J J J J J J J J J J J H H J J J J J J U U U U J U J J J J J J ",
"T T T T T T T T T T T T T T T T T T T T ^ ^ T T T T T T T T T T T T T T ^ ^ T T T T T T T T T T T F 6   . $ $ $ * $ $ $ . . . . . . . . . . . . . . . . . . . . . . . . . . . . . . . . . . . . . . . . . . . . . . . . . . . . . . . . . . . . . . . . . . . . . . . . . . . . . . . . . . . . . . . . . . . . . . . . . . . . . . . . . . . . . . . . $ $ . . o X o o . . . . $ $ $ . ..9.8.e.e.e.e.e.=.$.$.@.&.&.&.&.*.*.*.*.@.@.@.@.@.@.@.@.@.@.@.@.@.@.@.@.@.@.@.@.@.@.@.@.@.@.@.@.@.@.@.@.@.@.@.@.( T 4 . . $ $ $ % . W B.g.g.g.g.l.l.f.$.$.$.$.$.$.$.$.$.@.@.@.@.@.@.@.@.@.@.@.@.@.@.@.@.@.@.@.@.@.@.@.@.@.@.@.@.@.@.@.@.@.@.@.@.@.@.@.@.@.@.@.@.@.@.@.@.@.@.@.@.@.@.@.@.@.@.@.@.@.@.@.@.@.@.@.@.@.@.@.@.@.@.@.@.@.@.@.@.@.@.@.@.@.@.@.@.@.@.@.@.@.@.@.@.@.@.@.@.@.@.@.@.@.@.@.@.@.@.@.@.@.@.@.@.@.@.@.@.@.@.@.@.@.@.@.@.@.@.@.@.@.@.@.@.@.@.@.@.@.@.@.@.@.@.6.g.c.g.c.>.o $ = $ $ $ $ $ = n / P W W P P ^ ^ / / ^ ^ T ^ ^ ^ ^ ^ ^ ^ ^ ^ ^ ^ ^ ^ ^ ^ ^ T ^ ^ ^ ^ ^ ^ T T T T T T T T T T T T ^ ^ ^ ^ ^ ^ ^ ^ T T ^ ^ ^ ^ ^ ^ ^ ^ ^ ^ ^ ^ ^ ^ T T T ` T v 3 . . $ $ . . o . g F J W W W P W W W ^ ^ ^ J J J J T T T T ^ ^ ^ ^ ^ ^ ^ ^ ^ ^ ^ ^ T T ^ ^ ^ ^ ^ ^ ^ ^ ^ ^ T T T T T T T T T T ^ ^ T T ^ ^ T T T T T T ^ ^ ^ T T T ^ T ^ W T T ",
"3 3 3 3 3 4 4 4 3 4 4 4 4 4 4 4 4 4 4 4 4 4 4 4 4 4 4 4 4 4 4 4 4 4 4 4 4 4 4 4 4 3 4 4 4 4 4 4 = $ . % $ $ $ $ $ $ $ $ $ $ $ $ $ $ $ $ $ $ $ $ . . . . . . . . . . . . . . . . . . . . $ $ $ $ $ $ $ $ . $ $ . . . . $ $ $ $ $ $ $ $ $ $ $ $ $ . . . . . . . . . . . . $ $ $ $ $ $ $ $ $ $ $ $ $ $ $ $ $ $ $ $ $ $ $ $ $ $ $ $ $ $ $ $ $ $ $ $ $ $ $ $ $ $ $ $ o o o . . . . $ $ $ $ . ..9.8.8.e.e.e.e.=.$.$.@.&.&.&.&.*.*.*.*.@.@.@.@.@.@.@.@.@.@.@.@.@.@.@.@.@.@.@.@.@.@.@.@.@.@.@.@.@.@.@.@.@.@.@.@.( T 4 . $ $ $ $ % . W B.g.g.g.g.l.l.f.@.$.$.$.$.$.$.$.$.@.@.@.@.@.@.@.@.@.@.@.@.@.@.@.@.@.@.@.@.@.@.@.@.@.@.@.@.@.@.@.@.@.@.@.@.@.@.@.@.@.@.@.@.@.@.@.@.@.@.@.@.@.@.@.@.@.@.@.@.@.@.@.@.@.@.@.@.@.@.@.@.@.@.@.@.@.@.@.@.@.@.@.@.@.@.@.@.@.@.@.@.@.@.@.@.@.@.@.@.@.@.@.@.@.@.@.@.@.@.@.@.@.@.@.@.@.@.@.@.@.@.@.@.@.@.@.@.@.@.@.@.@.@.@.@.@.@.@.@.@.@.@.@.@.@.@.6.r.c.g.c.)   $ $ $ $ $ $ $ 1 4 4 4 4 4 4 4 4 4 4 4 4 4 4 4 4 4 4 4 4 4 4 4 4 4 4 6 6 4 4 4 4 4 4 4 4 4 4 4 4 4 4 4 4 4 4 4 4 4 4 4 4 6 6 6 4 4 4 6 6 6 6 6 6 6 6 6 6 6 6 6 6 4 4 4 r 4 . . . . $ $ . . .   . = 6 4 3 3 3 4 4 4 4 4 3 3 3 3 3 3 3 3 3 3 3 3 4 4 4 3 3 3 3 3 3 3 3 4 4 3 3 3 3 3 3 3 3 3 3 3 3 4 4 3 3 3 3 3 3 3 3 3 3 3 3 3 3 3 3 3 3 3 3 3 3 3 4 4 4 4 4 ",
". . . . . . . . . . . . . . . . . . . . . . . . . . . . . . . . . . . . . . . . . . . . . . . . * $ % $ $ $ $ $ $ $ $ $ $ $ $ $ $ $ $ $ $ $ $ $ $ $ $ $ $ $ $ $ $ $ $ $ $ $ $ $ $ $ $ $ $ $ $ $ $ $ $ $ $ $ $ $ $ $ $ $ $ $ $ $ $ $ $ $ $ $ $ $ $ $ $ $ $ $ $ $ $ $ $ $ $ $ $ $ $ $ $ $ $ $ $ $ $ $ $ $ $ $ $ $ $ $ $ $ $ $ $ $ $ $ $ $ $ $ $ $ $ $ $ $ $ $ $ $ . . o . . . $ $ $ $ $ . ..9.e.e.e.e.e.e.=.$.$.@.&.&.&.&.*.*.*.*.@.@.@.@.@.@.@.@.@.@.@.@.@.@.@.@.@.@.@.@.@.@.@.@.@.@.@.@.@.@.@.@.@.@.@.@.( T 4 . $ $ $ $ % . W B.g.g.g.g.l.l.i.@.$.$.$.$.$.$.$.$.@.@.@.@.@.@.@.@.@.@.@.@.@.@.@.@.@.@.@.@.@.@.@.@.@.@.@.@.@.@.@.@.@.@.@.@.@.@.@.@.@.@.@.@.@.@.@.@.@.@.@.@.@.@.@.@.@.@.@.@.@.@.@.@.@.@.@.@.@.@.@.@.@.@.@.@.@.@.@.@.@.@.@.@.@.@.@.@.@.@.@.@.@.@.@.@.@.@.@.@.@.@.@.@.@.@.@.@.@.@.@.@.@.@.@.@.@.@.@.@.@.@.@.@.@.@.@.@.@.@.@.@.@.@.@.@.@.@.@.@.@.@.@.@.@.@.@.@.*.c.j.g.c.g   $ $ $ $ $ $ . . . . . . . . . . $ $ . . . . . . . $ $ $ $ . . . . $ $ $ $ . . . . . $ $ $ $ $ $ $ $ $ $ $ $ $ $ $ $ $ $ $ $ $ $ $ $ $ $ $ $ $ $ $ $ $ $ $ $ $ $ $ $ $ . . . . . $ $ . . . $ . . $ . . . . . . . . . . . . . . . . . . . . . . . . . . . . . . . . . . . . . . . . . . . . . . . . . . . . . . . . . . . . . . . . . . . . . . . . . . . . ",
". . . . . . . . . $ . . $ $ $ $ . $ $ $ $ $ . $ $ $ $ $ $ $ $ $ . . $ . $ $ $ . . . . . . . . . $ $ $ $ $ $ $ $ $ $ $ $ $ $ $ $ $ $ $ $ $ $ $ $ $ $ $ $ $ $ $ $ $ $ $ $ $ $ $ $ $ $ $ $ $ $ $ $ $ $ $ $ $ $ $ $ $ $ $ $ $ $ $ $ $ $ $ $ $ $ $ $ $ $ $ $ $ $ $ $ $ $ $ $ $ $ $ $ $ $ $ $ $ $ $ $ $ $ $ $ $ $ $ $ $ $ $ $ $ $ $ $ $ $ $ $ $ $ $ $ $ $ $ $ $ $ $ $ . o . . . $ $ $ $ $ $ . ..9.e.e.e.e.e.e.=.$.$.@.@.&.&.&.*.*.*.*.@.@.@.@.@.@.@.@.@.@.@.@.@.@.@.@.@.@.@.@.@.@.@.@.@.@.@.@.@.@.@.@.@.@.@.@.( T 4 . $ $ $ $ % . W B.g.g.g.g.l.l.r.@.$.$.$.$.$.$.$.$.@.@.@.@.@.@.@.@.@.@.@.@.@.@.@.@.@.@.@.@.@.@.@.@.@.@.@.@.@.@.@.@.@.@.@.@.@.@.@.@.@.@.@.@.@.@.@.@.@.@.@.@.@.@.@.@.@.@.@.@.@.@.@.@.@.@.@.@.@.@.@.@.@.@.@.@.@.@.@.@.@.@.@.@.@.@.@.@.@.@.@.@.@.@.@.@.@.@.@.@.@.@.@.@.@.@.@.@.@.@.@.@.@.@.@.@.@.@.@.@.@.@.@.@.@.@.@.@.@.@.@.@.@.@.@.@.@.@.@.@.@.@.@.@.@.@.$.@.] 6.c.r.g.r.r . $ $ $ $ . % % . . . . . . . . . . . . . . . . . $ $ . . . . . . . $ $ $ $ $ $ $ $ $ $ $ $ $ $ $ $ $ $ $ $ $ $ $ $ $ $ $ $ $ $ $ $ $ $ $ $ $ $ $ $ $ $ $ $ $ $ $ . . . . . . . . . . . . . . . $ * * * * * * * * * * . . . $ $ . . . . . . . . . . . . . . . . . . . . . . . . . . . . . . . . . . . . . . . . . . . . . . . . . . . . . . . . . * * $ * ",
"$ $ $ $ . $ $ . . $ . * * * * * * $ $ $ $ $ $ $ $ $ $ $ $ $ $ $ $ $ $ $ $ $ $ $ $ $ $ = . . . $ * . . ; $ $ $ $ % $ ; $ $ . . . . . . . . . . . . . $ $ $ $ $ $ $ $ $ $ $ $ $ $ $ $ $ $ $ $ $ $ $ $ $ $ $ $ $ $ $ $ $ $ $ $ * $ $ $ $ $ $ $ $ $ $ $ $ $ $ $ $ $ $ $ $ $ $ $ $ $ $ $ $ $ $ $ $ $ $ $ $ $ $ $ $ $ $ $ $ $ $ $ * $ $ $ $ $ $ $ $ $ $ $ $ $ $ $ $ . . . . . . $ % % $ $ $ . ..9.e.e.e.e.e.e.=.$.$.@.@.@.@.@.$.$.$.$.@.@.@.@.@.@.@.@.@.@.@.@.@.@.@.@.@.@.@.@.@.@.@.@.@.@.@.@.@.@.@.@.@.@.@.@.T ^ 4 . . $ $ $ $ . P c.g.j.j.g.g.c.r.@.$.$.$.$.@.@.@.@.@.@.@.@.@.@.@.@.@.@.@.@.@.@.@.@.@.@.@.@.@.@.@.@.@.@.@.@.@.@.@.@.@.@.@.@.@.@.@.@.@.@.@.@.@.@.@.@.@.@.@.@.@.@.@.@.@.@.@.@.@.@.@.@.@.@.@.@.@.@.@.@.@.@.@.@.@.@.@.@.@.@.@.@.@.@.@.@.@.@.@.@.@.@.@.@.@.@.@.@.@.@.@.@.@.@.@.@.@.@.@.@.@.@.@.@.@.@.@.@.@.@.@.@.@.@.@.@.@.@.@.@.@.@.@.@.@.@.@.@.@.@.@.@.@.@.@.@.@.=.f.x.g.C.} . $ $ $ $ $ . . * * * * * * O . . * * * * * * * * O O O O O $ $ $ * * * * * * * * * * * * % $ . . $ $ $ $ . $ $ $ . . . = $ $ $ $ $ $ $ $ $ $ $ $ $ $ . $ $ $ $ $ $ $ $ $ . . . . $ $ . . . $ $ . $ $ $ $ $ $ = = = & & & & & & = = = & & & = = = & & & = = = & & & & & = = = & = = = & & & = = = & & & = = = = = = = = & = = = = $ . . . = O   . . * % $ ",
"$ $ $ $ $ . . = v R | } } } } } } } } } } } } } } } ` ` } } } } } } } } } } } } } } ` ] ` ` ` ` ` F w . $ $ % % % $ ; . 4 =.C.Y.J.J.J.J.J.Z.Z.Z.Z.Z.Z.Z.Z.Z.Z.Z.Z.Z.Z.Z.Z.Z.Z.Z.Z.Z.Z.Z.Z.Z.Z.Z.Z.Z.Z.Z.Z.Z.Z.Z.Z.Z.Z.Z.Z.Z.G.G.Z.Z.Z.Z.Z.Z.Z.Z.Z.Z.Z.Z.Z.Z.Z.Z.Z.Z.Z.Z.Z.Z.Z.Z.Z.Z.Z.Z.Z.Z.Z.Z.Z.Z.Z.Z.Z.Z.Z.Z.Z.Z.Z.Z.Z.Z.G.G.Z.Z.Z.Z.Z.Z.Z.Z.Z.Z.Z.Z.Z.Z.Z.Z.Z.Z.Z.Z.t.w . $ $ $ $ . ..9.e.e.e.e.e.e.=.$.$.@.@.@.@.@.$.$.$.$.@.@.@.@.@.@.@.@.@.@.@.@.@.@.@.@.@.@.@.@.@.@.@.@.@.@.@.@.@.@.@.@.@.@.@.@.T ^ 4 . . $ $ $ $ . P c.g.j.j.g.g.c.r.@.$.$.$.$.@.@.@.@.@.@.@.@.@.@.@.@.@.@.@.@.@.@.@.@.@.@.@.@.@.@.@.@.@.@.@.@.@.@.@.@.@.@.@.@.@.@.@.@.@.@.@.@.@.@.@.@.@.@.@.@.@.@.@.@.@.@.@.@.@.@.@.@.@.@.@.@.@.@.@.@.@.@.@.@.@.@.@.@.@.@.@.@.@.@.@.@.@.@.@.@.@.@.@.@.@.@.@.@.@.@.@.@.@.@.@.@.@.@.@.@.@.@.@.@.@.@.@.@.@.@.@.@.@.@.@.@.@.@.@.@.@.@.@.@.@.@.@.@.@.@.@.@.@.@.@.@.@.$.8.g.g.g.r.6 $ $ $ $   g } q.q.q.q.q.7.7.7.7.7.7.7.7.7.7.7.q.7.7.7.7.7.7.7.7.7.7.7.7.7.7.7.7.7.7.7.7.t.4.S $ . $ $ $ $ $ ; . $ n #.>.>.>.>.:.:.=.=.=.-.-.-.-.-.-.-.-.-.-.-.-.-.-.=.=.:.=.:.:.=.-.=.=.:.:.:.:.-.-.=.:.:.:.:.>.>.:.:.:.>.:.:.>.>.>.:.:.:.:.:.:.:.:.:.:.>.>.:.:.:.:.:.:.:.:.:.>.>.>.:.:.:.:.:.:.:.:.>.>.>.>.>.>.:.:.:.:.>.>.>.>.>.>.>.:.:.#.#.Q 1 . $ ; ",
"$ $ $ $ . . $ n >.#.#.-.=.=.=.=.=.=.*.*.%.*.*.*.*.*.*.*.*.*.%.%.*.*.*.*.%.*.*.*.%.%.*.=.=.=.%.%.=.>.X.4 $ $ % $ $ $ . $ Z..X|.}.XXXXXX|.|.|.|.|.}.}.}.}.|.|.|.|.|.|.|.|.|.|.|.|.|.|.|.|.|.|.|.|.|.|.|.|.|.|.|.|.|.|.|.|.|.|.|.|.|.|.|.|.|.|.|.|.|.|.|.|.|.|.|.|.|.|.|.|.|.|.|.|.|.|.|.|.|.|.|.|.|.|.|.|.|.|.|.|.|.|.|.|.|.|.|.|.|.|.|.|.|.|.|.|.|.|.|.|.|.|.|.|.|.|.|.|.}.OXj . $ % $ . ..9.e.e.e.e.e.e.=.$.$.@.@.@.@.@.$.$.$.$.@.@.@.@.@.@.@.@.@.@.@.@.@.@.@.@.@.@.@.@.@.@.@.@.@.@.@.@.@.@.@.@.@.@.@.@.T ^ 3 . . $ $ $ $ . P c.g.j.j.g.g.c.r.@.$.$.$.$.@.@.@.@.@.@.@.@.@.@.@.@.@.@.@.@.@.@.@.@.@.@.@.@.@.@.@.@.@.@.@.@.@.@.@.@.@.@.@.@.@.@.@.@.@.@.@.@.@.@.@.@.@.@.@.@.@.@.@.@.@.@.@.@.@.@.@.@.@.@.@.@.@.@.@.@.@.@.@.@.@.@.@.@.@.@.@.@.@.@.@.@.@.@.@.@.@.@.@.@.@.@.@.@.@.@.@.@.@.@.@.@.@.@.@.@.@.@.@.@.@.@.@.@.@.@.@.@.@.@.@.@.@.@.@.@.@.@.@.@.@.@.@.@.@.@.@.@.@.@.@.@.*.@.=.g.g.z.c.A $ $ $ $ e r.D.c.c.c.c.c.c.c.j.j.c.c.c.c.z.c.c.c.c.c.c.c.c.z.j.j.x.x.x.x.x.x.x.x.x.x.x.z.z.b.b.Q . $ $ $ % $ ; $ P h.g.9.9.9.9.9.9.9.r.r.9.9.9.9.9.9.9.9.9.9.9.9.9.9.w.w.9.9.9.9.w.w.9.w.w.9.9.9.9.9.9.9.9.9.9.e.8.8.8.8.6.6.6.6.8.8.8.8.8.8.8.8.6.6.6.6.e.e.8.8.8.8.8.8.6.6.6.6.e.8.8.8.8.8.8.8.6.6.6.6.9.9.9.9.6.6.6.6.9.9.9.9.9.9.9.9.r.y.q.z.#.1 . ; ",
"$ $ $ $ . $ 4 | #.....#.$.$.$.$.@.@.@.@.@.@.@.@.$.@.@.@.@.@.@.@.@.@.@.@.@.@.@.@.$.@.@.@.@.@.@.@.@.} 3.Q $ $ % $ ; $   -..X(.{.).).)._._._._._._._._.)._._._._._._._._._._._._._._._._._._._._._._._._._._._._._._._._._._._._._._._._._._._._._._._._._._._._._._._._._._._._._._._._._._._._._._._._._._._._._._._._._._._._._._._._._._._._._._._._._._.].].]._._._._._..XH.. $ % $ . ..9.e.e.e.e.e.e.=.$.$.@.@.@.@.@.$.$.$.$.@.@.@.@.@.@.@.@.@.@.@.@.@.@.@.@.@.@.@.@.@.@.@.@.@.@.@.@.@.@.@.@.@.@.@.@.P ^ 3 . . $ $ $ $ . P c.g.j.j.g.g.c.9.@.$.$.$.$.@.@.@.@.@.@.@.@.@.@.@.@.@.@.@.@.@.@.@.@.@.@.@.@.@.@.@.@.@.@.@.@.@.@.@.@.@.@.@.@.@.@.@.@.@.@.@.@.@.@.@.@.@.@.@.@.@.@.@.@.@.@.@.@.@.@.@.@.@.@.@.@.@.@.@.@.@.@.@.@.@.@.@.@.@.@.@.@.@.@.@.@.@.@.@.@.@.@.@.@.@.@.@.@.@.@.@.@.@.@.@.@.@.@.@.@.@.@.@.@.@.@.@.@.@.@.@.@.@.@.@.@.@.@.@.@.@.@.@.@.@.@.@.@.@.@.@.@.@.@.@.@.*.@.$.8.g.r.C./ $ $ $ $ 6.c.g.g.g.g.g.g.g.g.g.g.g.g.g.g.g.g.g.g.g.g.g.g.g.g.g.g.f.g.g.g.g.g.g.g.g.g.g.g.z.q.v.b.4 $ $ $ $ $ $ r y.>.9.e.9.9.9.w.e.e.e.e.e.e.e.e.e.e.e.e.e.e.e.e.e.e.e.e.e.e.e.e.e.e.e.e.e.9.9.9.e.e.8.8.e.e.8.8.6.6.6.6.6.6.6.6.6.6.6.6.6.8.6.6.6.6.6.6.8.8.6.6.6.e.6.6.6.6.6.6.6.6.6.6.6.8.6.6.6.6.6.6.8.8.e.e.8.6.6.6.e.e.e.e.e.e.w.9.w.q.r.7.t.m . - ",
"$ $ $ $ $ . v ,.@.@.@.@.@.@.@.@.$.$.$.$.$.$.$.$.$.@.@.@.@.$.$.$.$.$.$.$.$.$.$.$.$.@.@.@.@.@.@.@.@.@.=.} = $ $ $ $ $ . Z.|._.].].]._._._._._._._._._._._.[.[.[.[.[.[.[.[.[.[._._._._._._._._._._._.[.[.[.[.[._._._._._._._._._._._.[.[.[.[.[._._._._._._._._._._._.[.[.[.[.[._._._._._._._._._._._.[.[.[.[.[._._._._._._._._._._._.[.[.[.[.[._._._._._._._._._._.{.{.{.[.{.[.(.4 . % $ . } w.e.e.e.e.e.e.=.$.$.@.@.@.@.@.$.$.$.$.@.@.@.@.@.@.@.@.@.@.@.@.@.@.@.@.@.@.@.@.@.@.@.@.@.@.@.@.@.@.@.@.@.@.@. .J ^ > . . $ $ $ ; . P b.g.g.l.g.g.c.9.@.$.$.$.$.@.@.@.@.@.@.@.@.@.@.@.@.@.@.@.@.@.@.@.@.@.@.@.@.@.@.@.@.@.@.@.@.@.@.@.@.@.@.@.@.@.@.@.@.@.@.@.@.@.@.@.@.@.@.@.@.@.@.@.@.@.@.@.@.@.@.@.@.@.@.@.@.@.@.@.@.@.@.@.@.@.@.@.@.@.@.@.@.@.@.@.@.@.@.@.@.@.@.@.@.@.@.@.@.@.@.@.@.@.@.@.@.@.@.@.@.@.@.@.@.@.@.@.@.@.@.@.@.@.@.@.@.@.@.@.@.@.@.@.@.@.@.@.@.@.@.@.@.@.@.@.@.$.$.$.<.c.g.k.#.$ $ $ = g.j.j.g.g.g.g.g.g.g.j.j.g.g.j.j.g.g.x.x.g.g.g.g.x.g.f.i.g.g.g.g.j.j.j.g.g.g.g.x.c.g.g.b.n . $ $ $ $ . C y.6.e.8.e.e.e.e.e.8.6.8.8.8.8.6.8.8.8.8.6.6.6.6.8.8.8.8.8.6.6.6.8.8.8.8.8.8.6.6.6.6.6.6.6.6.6.6.8.8.8.8.6.6.6.6.8.8.8.8.8.8.6.6.8.8.8.8.6.6.6.6.8.8.8.8.8.6.6.6.8.8.8.8.8.8.6.6.6.6.6.6.e.e.e.e.6.6.6.6.6.6.6.8.8.6.6.e.e.=.@.@./ r . 1 ",
"$ $ $ $ $ . v ,.@.@.@.@.@.@.@.@.$.$.$.$.$.$.$.$.$.$.@.@.$.$.$.$.$.$.$.$.$.$.$.$.$.$.@.@.@.@.@.@.@.@.*.} = $ $ $ $ $ . Z.|.).].].]._._._.[.[._._._._._._.[.[.[.[.[.[.[.[.[.[._._._._._._._._._._.[.[.[.[.[.[._._._._._._._._._._.[.[.[.[.[.[._._._._._._._._._._.[.[.[.[.[.[._._._._._._._._._._.[.[.[.[.[.[._._._._._._._._._._.[.[.[.[.[.[._._._._._._._._._._.[.[.[.[.[.[.(.4 . % $ . } w.e.e.e.e.e.e.=.$.$.@.@.@.@.@.$.$.$.$.@.@.@.@.@.@.@.@.@.@.@.@.@.@.@.@.@.@.@.@.@.@.@.@.@.@.@.@.@.@.@.@.@.@.@...P ^ = . . $ $ $ % . P b.g.g.l.g.g.c.9.@.$.$.$.$.@.@.@.@.@.@.@.@.@.@.@.@.@.@.@.@.@.@.@.@.@.@.@.@.@.@.@.@.@.@.@.@.@.@.@.@.@.@.@.@.@.@.@.@.@.@.@.@.@.@.@.@.@.@.@.@.@.@.@.@.@.@.@.@.@.@.@.@.@.@.@.@.@.@.@.@.@.@.@.@.@.@.@.@.@.@.@.@.@.@.@.@.@.@.@.@.@.@.@.@.@.@.@.@.@.@.@.@.@.@.@.@.@.@.@.@.@.@.@.@.@.@.@.@.@.@.@.@.@.@.@.@.@.@.@.@.@.@.@.@.@.@.@.@.@.@.@.@.@.@.@.@.$.$.$.=.r.c.p.7.$ $ $ = g.j.j.g.g.g.g.g.g.g.j.j.g.g.g.g.g.g.j.j.g.g.g.g.j.j.x.x.c.g.r.w.8.8.8.8.x.x.x.g.x.g.g.c.n . $ $ $ $ . n y.6.e.8.e.e.e.e.6.<.$.@.@.@.@.@.@.@.@.@.@.@.@.@.@.@.@.@.@.@.@.@.@.@.@.@.@.@.@.@.@.@.@.@.@.@.@.@.@.@.@.@.@.@.@.@.@.@.@.@.@.@.@.@.@.@.@.@.@.@.@.@.@.@.@.@.@.@.@.@.@.@.@.@.@.@.@.@.@.@.@.@.@.@.@.@.@.@.@.@.@.@.@.@.$.=.@.' ^ ! H F ^ 4 . 1 ",
"$ $ $ $ $ . v ,.#.@.@.@.@.@.@.@.$.$.$.$.$.$.$.$.$.$.$.$.$.$.$.$.$.$.$.$.$.$.$.$.$.$.$.$.$.$.$.$.@.@.=.} = . % $ $ $ . Z.XX_.]._._._._._.[.[._._._._._._.[.[.[.[.[.[.[.[.[.[._._._._._._._._._._.[.[.[.[.[.[._._._._._._._._._._.[.[.[.[.[.[._._._._._._._._._._.[.[.[.[.[.[._._._._._._._._._._.[.[.[.[.[.[._._._._._._._._._._.[.[.[.[.[.[._._._._._._._._._._.[.[.[.[.oXoX`.1 . * $ . } 9.e.e.e.e.e.e.=.$.$.@.@.@.@.@.$.$.$.$.@.@.@.@.@.@.@.@.@.@.@.@.@.@.@.@.@.@.@.@.@.@.@.@.@.@.@.@.@.@.@.@.@.@.$...P ^ = . . $ $ $ % . P b.g.j.j.g.g.c.9.@.$.$.$.$.@.@.@.@.@.@.@.@.@.@.@.@.@.@.@.@.@.@.@.@.@.@.@.@.@.@.@.@.@.@.@.@.@.@.@.@.@.@.@.@.@.@.@.@.@.@.@.@.@.@.@.@.@.@.@.@.@.@.@.@.@.@.@.@.@.@.@.@.@.@.@.@.@.@.@.@.@.@.@.@.@.@.@.@.@.@.@.@.@.@.@.@.@.@.@.@.@.@.@.@.@.@.@.@.@.@.@.@.@.@.@.@.@.@.@.@.@.@.@.@.@.@.@.@.@.@.@.@.@.@.@.@.@.@.@.@.@.@.@.@.@.@.@.@.@.@.@.@.@.@.@.@.@.$.$.@.=.c.g.y.$ $ $ - p.j.j.g.g.g.g.g.g.g.j.j.g.j.g.x.x.c.c.c.x.g.g.j.g.r.e.6.5.=.@.@.@.@.@.@.=.8.g.x.x.g.k.c.n . $ $ $ . . n y.6.e.e.e.e.e.e.=.$.@. .$.$.$.@.@.@.@.@.@.@.@.@.@.@.@.@.@.@.@.@.@.@.@.@.$.@.@.@.@.@.@.@.@.@.@.@.@.@.@.@.@.@.@.@.@.@.@.@.@.@.@.@.@.@.@.@.@.@.@.@.@.@.@.@.@.@.@.@.@.@.@.@.@.@.@.@.@.@.@.@.$.$.$.$.@.@.@.@.@.@.@.@...^ U T U J H F P = o = ",
"$ $ $ $ $ . v ,.#.#.#.#.#.#.#.#.#.#.#.#.%.$.$.$.$.$.$.$.$.$.$.$.$.$.$.$.$.$.$.$.$.$.$.$.$.$.$.$.@.@.=.} = . % $ $ $ . Z.XX).]._._._._._.[.[._._._._._._.[.[.[.[.[.[.[.[.[.[._._._._._._._._._._.[.[.[.[.[.[._._._._._._._._._._.[.[.[.[.[.[._._._._._._._._._._.[.[.[.[.[.[._._._._._._._._._._.[.[.[.[.[.[._._._._._._._._._._.[.[.[.[.[.[._._._._._._._._._._.[.[.[.[.oXoX`.1 . * $ . } w.e.e.e.e.e.e.=.$.$.@.@.@.@.@.$.$.$.$.@.@.@.@.@.@.@.@.@.@.@.@.@.@.@.@.@.@.@.@.@.@.@.@.@.@.@.@.@.@.@.@.@.@.$. .P ^ = . . $ $ $ % . P b.g.j.j.g.g.z.9.@.$.$.$.$.@.@.@.@.@.@.@.@.@.@.@.@.@.@.@.@.@.@.@.@.@.@.@.@.@.@.@.@.@.@.@.@.@.@.@.@.@.@.@.@.@.@.@.@.@.@.@.@.@.@.@.@.@.@.@.@.@.@.@.@.@.@.@.@.@.@.@.@.@.@.@.@.@.@.@.@.@.@.@.@.@.@.@.@.@.@.@.@.@.@.@.@.@.@.@.@.@.@.@.@.@.@.@.@.@.@.@.@.@.@.@.@.@.@.@.@.@.@.@.@.@.@.@.@.@.@.@.@.@.@.@.@.@.@.@.@.@.@.@.@.@.@.@.@.@.@.@.@.@.@.@.@.@.$.$.@.@.g.c.q.$ . $ - g.k.k.g.g.g.g.g.g.g.g.g.g.g.g.g.r.r.r.r.6.6.6.6.*.*.$.@.$.@.@.@.@.@.@.@.@.@.$.<.f.g.j.b.n . $ $ . . . n y.6.e.e.e.9.9.9.%.%.$.$.$.$.@.@.@.@.@.@.@.@.@.@.@.@.@.@.@.@.@.@.@.@.@.@.@.@.@.@.@.@.@.@.@.@.@.@.@.@.@.@.@.@.@.@.@.@.@.@.@.@.@.@.@.@.@.@.@.@.@.@.@.@.@.@.@.@.@.@.@.@.@.@.@.@.@.@.@.@.@.@.@.@.@.@.@.@.@.@.@.@.@.@.H J J J J ! ! ^ H o o = ",
"$ $ $ $ $ . b *.@.@.@.@.@.@.@.@.@.@.@.@.@.@.@.@.@.@.@.@.@.@.@.@.@.@.@.@.@.@.@.@.@.@.@.@.@.@.@.@.@.@.=.} = . $ $ . $ . Z.XX).{._.[.[.[.[._.}.{.)._._._._._._._._._._._._._._._._._._._._._._._._._._._._._._._._._._._._._._._._._._._._._._._._._._._._._._._._._._._._._._._._._._._._._._._._._._._._._._._._._._._._._._._._._._._._._._._._._._._._._._._._._._._._.).}.(.4 . $ $ . } r.9.9.e.e.e.e.=.$.$.@.@.@.@.@.$.$.$.$.@.@.@.@.@.@.@.@.@.@.@.@.@.@.@.@.@.@.@.@.@.@.@.@.@.@.@.@.@.@.@.@.$.@.$.] T ^ 3 . . $ $ $ % . P c.g.j.j.g.g.x.9.@.$.$.$.$.@.@.@.@.@.@.@.@.@.@.@.@.@.@.@.@.@.@.@.@.@.@.@.@.@.@.@.@.@.@.@.@.@.@.@.@.@.@.@.@.@.@.@.@.@.@.@.@.@.@.@.@.@.@.@.@.@.@.@.@.@.@.@.@.@.@.@.@.@.@.@.@.@.@.@.@.@.@.@.@.@.@.@.@.@.@.@.@.@.@.@.@.@.@.@.@.@.@.@.@.@.@.@.@.@.@.@.@.@.@.@.@.@.@.@.@.@.@.@.@.@.@.@.@.@.@.@.@.@.@.@.@.@.@.@.@.@.@.@.@.@.@.@.@.@.@.@.@.@.@.@.@.@.@.@.$.@.>.k.t.; . $ - g.j.j.g.g.x.c.c.f.r.8.5.=.=.=.=.*.@.@.@.@.@.@.@.@.@.@.@.@.@.@.@.@.@.@.@.@.@.@.@.@.*.9.c.A o .   . o   6 A A A A D A J ..*.=.@.@.$.$.$.$.$.$.$.$.$.$.$.$.$.$.$.$.$.$.$.$.$.$.$.$.$.$.$.$.#.#.@.@.@.@.@.@.@.@.$.$.$.$.$.$.$.$.$.$.$.$.$.$.@.@.$.$.$.$.$.$.$.$.$.$.$.$.$.$.@.@.$.$.$.$.$.$.$.$.$.$.@.@.@.@.@.@.@.@.$.O.^ J J Y Y J J J H ( A X . = ",
"$ $ $ $ $ . x *.@.@.@.@.@.@.@.@.@.@.@.@.@.@.@.@.@.@.@.@.@.@.@.@.@.@.@.@.@.@.@.@.@.@.@.@.@.@.@.@.@.@.=.} = . $ $ . . . Z.|.).{._.[.[.[.[._.{.{.{.{.{.].].{.{.{.{.].].].].[.[.[.[.[.[._.[.[.[.[.[._._._._.{.{.{.{.{.{.].{.{.{.{.{.].].].{.[.[.[.[.[.[._._.[.[.[.[.[.[._._.[.[.[.[.[.[._.[.[.[.[.[._._._._.{.{.{.{.{.{.].{.{.{.{.{.].].].].{.{.{.{.{.{.].].].].].].].].]._.).XX(.= . $ $ . } r.9.9.e.e.e.e.=.$.$.@.@.@.@.@.$.$.$.$.@.@.@.@.@.@.@.@.@.@.@.@.@.@.@.@.@.@.@.@.@.@.@.@.@.@.@.@.@.@.@.@.$.@.$.] T ^ 3 . . $ $ $ * . P c.g.j.j.g.g.x.9.@.$.$.$.$.@.@.@.@.@.@.@.@.@.@.@.@.@.@.@.@.@.@.@.@.@.@.@.@.@.@.@.@.@.@.@.@.@.@.@.@.@.@.@.@.@.@.@.@.@.@.@.@.@.@.@.@.@.@.@.@.@.@.@.@.@.@.@.@.@.@.@.@.@.@.@.@.@.@.@.@.@.@.@.@.@.@.@.@.@.@.@.@.@.@.@.@.@.@.@.@.@.@.@.@.@.@.@.@.@.@.@.@.@.@.@.@.@.@.@.@.@.@.@.@.@.@.@.@.@.@.@.@.@.@.@.@.@.@.@.@.@.@.@.@.@.@.@.@.@.@.@.@.@.@.@.@.@.@.@.$.@.=.p.9.= $ $ - p.j.j.g.g.r.8.=.=.*.@.@.@.@.@.@.@.@.@.@.@.@.@.@.@.@.@.@.@.@.@.@.@.@.@.@.@.@.@.@.@.@.@.6.j   .     .   = t t t t t y f f ( =.@.@.@.@.@.@.@.@.@.@.@.@.@.@.@.@.@.@.@.@.@.@.@.@.@.@.@.@.@.@.@.@.@.@.@.@.@.@.@.@.@.@.@.@.@.@.@.@.@.@.@.@.@.@.@.@.@.@.@.@.@.@.@.@.@.@.@.@.@.@.@.@.@.@.@.@.@.@.@.@.@.@.@.@.@.@.@.@.@.@.@.@.U J Y Y Y J J J H ( z   . = ",
". $ $ $ $ . x =.@.@.@.@.@.@.@.@.@.@.@.@.@.@.@.@.@.@.@.@.@.@.@.@.@.@.@.@.@.@.@.@.@.@.@.@.@.@.@.@.@.@.=.} = . $ $ . . . Z.XX).{._.[.[.[.[.{.[._.[._._._._._._._._._._._._._._._._._._._._._._._._._._._._._._._._._._._._._._._._._._._._._._._._._._._._._._._._._._._._._._._._._._._._._._._._._._._._._._._._._._._._._._._._._._._._._._._._._._._._._._._._._._._._._.}.(.4 . . $ . } r.9.9.e.e.e.e.=.$.$.@.@.@.@.@.$.$.$.$.@.@.@.@.@.@.@.@.@.@.@.@.@.@.@.@.@.@.@.@.@.@.@.@.@.@.@.@.@.@.@.@.$.$.%.] T ^ 3 . . $ $ $ * . P c.g.j.j.g.g.x.r.$.$.$.$.$.@.@.@.@.@.@.@.@.@.@.@.@.@.@.@.@.@.@.@.@.@.@.@.@.@.@.@.@.@.@.@.@.@.@.@.@.@.@.@.@.@.@.@.@.@.@.@.@.@.@.@.@.@.@.@.@.@.@.@.@.@.@.@.@.@.@.@.@.@.@.@.@.@.@.@.@.@.@.@.@.@.@.@.@.@.@.@.@.@.@.@.@.@.@.@.@.@.@.@.@.@.@.@.@.@.@.@.@.@.@.@.@.@.@.@.@.@.@.@.@.@.@.@.@.@.@.@.@.@.@.@.@.@.@.@.@.@.@.@.@.@.@.@.@.@.@.@.@.@.@.@.@.@.@.@.$.%.#.1.9.= $ $ - p.j.j.g.8.=.@. .*.$.@.@.@.@.@.@.@.@.@.@.@.@.@.@.@.@.@.@.@.@.@.@.@.@.@.@.@.@.@.@.@.O.O.*.j   .         = f f f f f h j 8 f @.=.@.@.@.@.@.@.@.@.@.@.@.@.@.@.@.@.@.@.@.@.@.@.@.@.@.@.@.@.@.@.@.@.@.@.@.@.@.@.@.@.@.@.@.@.@.@.@.@.@.@.@.@.@.@.@.@.@.@.@.@.@.@.@.@.@.@.@.@.@.@.@.@.@.@.@.@.@.@.@.@.@.@.@.@.@.@.@.@.@.@.@.Y Y Y Y Y J J W H ( 8   . = ",
". $ $ $ $ . x =.@.@.@.@.@.@.@.@.@.@.@.@.@.@.@.@.@.@.@.@.@.@.@.@.@.@.@.@.@.@.@.@.@.@.@.@.@.@.@.@.@.@.=.} = . $ $ . . . Z.XX).{._.[.{.[.[.U.D.c.c.V.V.V.V.V.V.V.V.V.V.V.V.V.V.V.V.V.V.V.V.V.V.V.V.V.V.V.V.V.V.V.V.V.V.V.V.V.V.V.V.V.V.V.V.V.V.V.V.V.V.V.V.V.V.V.V.V.V.V.V.V.V.V.V.V.V.V.V.V.V.V.V.V.V.V.V.V.V.V.V.V.V.V.V.V.V.V.V.V.V.V.V.V.V.V.V.V.V.V.V.V.V.V.V.V.V.V.V.C.C.k.O . . $ . } r.9.9.e.e.e.e.=.$.$.@.@.@.@.@.$.$.$.$.@.@.@.@.@.@.@.@.@.@.@.@.@.@.@.@.@.@.@.@.@.@.@.@.@.@.@.@.@.@.@.@.$.$.%.] T / 4 . . $ $ $ * . P c.g.j.j.g.g.j.w.$.$.*.*.$.@.@.@.@.@.@.@.@.@.@.@.@.@.@.@.@.@.@.@.@.@.@.@.@.@.@.@.@.@.@.@.@.@.@.@.@.@.@.@.@.@.@.@.@.@.@.@.@.@.@.@.@.@.@.@.@.@.@.@.@.@.@.@.@.@.@.@.@.@.@.@.@.@.@.@.@.@.@.@.@.@.@.@.@.@.@.@.@.@.@.@.@.@.@.@.@.@.@.@.@.@.@.@.@.@.@.@.@.@.@.@.@.@.@.@.@.@.@.@.@.@.@.@.@.@.@.@.@.@.@.@.@.@.@.@.@.@.@.@.@.@.@.@.@.@.@.@.@.@.@.@.@.@.@.@.$.%.#.=.>.- $ $ - p.j.j.g.@.@.$.$.$.@.$.$.@.@.@.@.@.@.@.@.@.@.@.@.@.@.@.@.@.@.@.@.@.@.@.@.@.@.@.@. . .@.=.f             = g f f f f f j j 3 ( =.@.@.@.@.@.@.@.@.@.@.@.@.@.@.@.@.@.@.@.@.@.@.@.@.@.@.@.@.@.@.@.@.@.@.@.@.@.@.@.@.@.@.@.@.@.@.@.@.@.@.@.@.@.@.@.@.@.@.@.@.@.@.@.@.@.@.@.@.@.@.@.@.@.@.@.@.@.@.@.@.@.@.@.@.@.@.@.@.@.@. .J ~ Y Y Y J J W H ( 7   O = ",
". $ $ $ $ . b =.@.@.@.@.@.@.@.@.@.@.@.@.&.&.@.@.@.@.@.@.@.@.@.@.@.@.@.@.&.&.@.@.@.@.@.@.@.@.@.@.@.@.=.} = . $ $ . . . Z.|.).{.[.{.{.[.F.l.l.l.l.g.g.g.g.g.g.g.g.g.g.g.g.g.g.g.g.g.g.g.g.g.g.g.g.g.g.g.g.g.g.g.g.x.f.f.x.g.g.g.g.g.g.g.g.g.g.g.g.g.g.g.g.g.g.g.g.g.g.g.g.g.g.g.g.g.g.g.g.g.g.g.g.g.g.g.g.g.g.g.g.g.g.g.g.g.g.g.g.g.g.g.g.g.g.g.g.g.g.g.g.g.g.g.g.g.g.g.g.g.h.r.= . . $ . ` w.9.8.r.6.5.6.=.@.@.$.$.$.$.$.$.$.$.$.@.@.@.@.@.@.@.@.@.@.@.@.@.@.@.@.@.@.@.@.@.@.@.@.@.@.@.@.@.@.@.@.@.$.$.^ P T = . . . $ $ $ . I c.g.j.j.g.g.j.w.$.$.$.$.$.@.@.@.@.@.@.@.@.@.@.@.@.@.@.@.@.@.@.@.@.@.@.@.@.@.@.@.@.@.@.@.@.@.@.@.@.@.@.@.@.@.@.@.@.@.@.@.@.@.@.@.@.@.@.@.@.@.@.@.@.@.@.@.@.@.@.@.@.@.@.@.@.@.@.@.@.@.@.@.@.@.@.@.@.@.@.@.@.@.@.@.@.@.@.@.@.@.@.@.@.@.@.@.@.@.@.@.@.@.@.@.@.@.@.@.@.@.@.@.@.@.@.@.@.@.@.@.@.@.@.@.@.@.@.@.@.@.@.@.@.@.@.@.@.@.@.@.@.@.@.@.@.@.@.@.@.$.@.%...* $ . - p.j.g.e.@.@.@.@.@.@.@.@.@.@.@.@.@.@.@.@.@.@.@.@.@.@.@.@.@.@.@.@.@.@.@.@.$.$.@.@.@.O.@.=.h             = f f f f f f f f 8 ^ *.@.@.@.@.@.&.&.@.@.@.@.@.@.@.@.@.@.@.@.@.@.&.&.@.@.@.@.@.@.@.@.@.@.@.@.@.@.&.&.@.@.@.@.@.@.@.@.@.@.@.@.@.@.&.&.@.@.@.@.@.@.@.@.@.@.@.@.@.@.&.&.@.@.@.@.@.@.@.@.@.@.@.@.@.@.&.&.@.@.@.] J J U U Y J J J D ( >   * ; ",
". $ $ $ $ . v =.@.@.@.@.@.@.@.@.@.@.@.@.&.&.@.@.@.@.@.@.@.@.@.@.@.@.@.@.&.&.@.@.@.@.@.@.@.@.@.@.@.@.=.} = . $ $ . $ . Z.|.).[.[.{.{.^.l.l.l.l.l.g.g.g.g.g.g.g.g.g.g.g.g.g.g.g.g.g.g.g.g.g.g.g.g.g.g.g.g.g.g.g.g.l.c.c.l.g.g.g.g.g.g.g.g.g.g.g.g.g.g.g.g.g.g.g.g.g.g.g.g.g.g.g.g.g.g.g.g.g.g.g.g.g.g.g.g.g.g.g.g.g.g.g.g.g.g.g.g.g.g.g.g.g.g.g.g.g.g.g.g.g.g.g.g.g.g.g.g.g.h.r.= . . . . } g.8.9.f.w.e.r.=.$.@.@.$.$.$.$.$.$.$.$.@.@.@.@.@.@.@.@.@.@.@.@.@.@.@.@.@.@.@.@.@.@.@.@.@.@.@.@.@.@.@.@.@.$.$.^ P T = . . $ $ $ $ . I c.g.j.j.g.g.g.e.@.$.$.$.$.@.@.@.@.@.@.@.@.@.@.@.@.@.@.@.@.@.@.@.@.@.@.@.@.@.@.@.@.@.@.@.@.@.@.@.@.@.@.@.@.@.@.@.@.@.@.@.@.@.@.@.@.@.@.@.@.@.@.@.@.@.@.@.@.@.@.@.@.@.@.@.@.@.@.@.@.@.@.@.@.@.@.@.@.@.@.@.@.@.@.@.@.@.@.@.@.@.@.@.@.@.@.@.@.@.@.@.@.@.@.@.@.@.@.@.@.@.@.@.@.@.@.@.@.@.@.@.@.@.@.@.@.@.@.@.@.@.@.@.@.@.@.@.@.@.@.@.@.@.@.@.@.@.@.@.@.@.@.%...* . . - y.j.g.e.@.@.@.@.@.@.@.@.@.@.@.@.@.@.@.@.@.@.@.@.@.@.@.@.@.@.@.@.@.@.@.@.$.$.@.@.@.O.@.=.h           . = f f f f f f f f 8 ^ $.@.@.@.@.@.&.&.@.@.@.@.@.@.@.@.@.@.@.@.@.@.&.&.@.@.@.@.@.@.@.@.@.@.@.@.@.@.&.&.@.@.@.@.@.@.@.@.@.@.@.@.@.@.&.&.@.@.@.@.@.@.@.@.@.@.@.@.@.@.&.&.@.@.@.@.@.@.@.@.@.@.@.@.@.@.&.&.@.@.$.] J J U U Y J J P J ^ O   $ - ",
". $ $ $ $ . j =.@.@.@.@.@.@.@.@.@.@.@.@.&.&.@.@.@.@.@.@.@.@.@.@.@.@.@.@.&.&.@.@.@.@.@.@.@.@.@.@.@.@.=.} = . $ $ . $ . Z.|.).[.[.{.{.U.f.l.l.l.l.g.g.g.g.j.j.j.j.g.g.g.g.g.g.g.g.g.g.g.g.g.g.g.g.g.g.g.g.g.g.g.g.f.x.x.f.g.g.g.g.g.g.g.g.g.g.g.g.l.l.l.l.g.g.g.g.g.g.g.g.g.g.g.g.g.g.g.g.g.g.g.g.g.g.g.g.g.g.g.g.g.g.g.g.g.g.g.g.g.g.g.g.g.g.g.g.g.g.g.g.g.g.g.g.g.g.g.g.g.h.r.= . . . . ) %...@.*.@.$.=.=.*.$.*.@.@.@.@.$.$.$.$.@.@.@.@.@.@.@.@.@.@.@.@.@.@.@.@.@.@.@.@.@.@.@.@.@.@.@.@.@.@.@.@.@.$.$.^ P ^ = . . $ $ $ $ . I c.g.j.j.g.g.g.e.$.$.$.$.$.@.@.@.@.@.@.@.@.@.@.@.@.@.@.@.@.@.@.@.@.@.@.@.@.@.@.@.@.@.@.@.@.@.@.@.@.@.@.@.@.@.@.@.@.@.@.@.@.@.@.@.@.@.@.@.@.@.@.@.@.@.@.@.@.@.@.@.@.@.@.@.@.@.@.@.@.@.@.@.@.@.@.@.@.@.@.@.@.@.@.@.@.@.@.@.@.@.@.@.@.@.@.@.@.@.@.@.@.@.@.@.@.@.@.@.@.@.@.@.@.@.@.@.@.@.@.@.@.@.@.@.@.@.@.@.@.@.@.@.@.@.@.@.@.@.@.@.@.@.@.@.@.@.@.@.@.@.@.$...* . . 4 y.j.j.e.@.@.@.@.@.@.@.@.@.@.@.@.@.@.@.@.@.@.@.@.@.@.@.@.@.@.@.@.@.@.@.$.$.$.@.@.@.O.@.=.h             = f f f f f f f f 8 ^ *.@.@.@.@.@.&.&.@.@.@.@.@.@.@.@.@.@.@.@.@.@.&.&.@.@.@.@.@.@.@.@.@.@.@.@.@.@.&.&.@.@.@.@.@.@.@.@.@.@.@.@.@.@.&.&.@.@.@.@.@.@.@.@.@.@.@.@.@.@.&.&.@.@.@.@.@.@.@.@.@.@.@.@.@.@.&.&.@.@.$.] J J U Y Y J J P ^ J     $ = ",
". $ $ $ $ . x =.@.@.@.@.@.@.@.@.@.@.@.@.&.&.@.@.@.@.@.@.@.@.@.@.@.@.@.@.&.&.@.@.@.@.@.@.@.@.@.@.@.@.=.} = . $ $ . . . Z.|.).[.[.[.{.Y.l.l.l.l.l.g.g.g.g.j.j.j.j.g.g.g.g.g.g.g.g.g.g.g.g.g.g.g.g.g.g.g.g.g.g.g.g.f.r.r.f.g.g.g.g.g.g.g.g.g.g.g.g.l.l.l.l.g.g.g.g.g.g.g.g.g.g.g.g.g.g.g.g.g.g.g.g.g.g.g.g.g.g.g.g.g.g.g.g.g.g.g.g.g.g.g.g.g.g.g.g.g.g.g.g.g.g.g.g.g.g.g.g.g.g.r.= . . . . 6 7 f 8 d 8 f z ( @.*.=.@.@.@.@.$.$.$.$.@.@.@.@.@.@.@.@.@.@.@.@.@.@.@.@.@.@.@.@.@.@.@.@.@.@.@.@.@.@.@.@.@.$.@.^ P ^ = . . $ $ $ $ . I c.g.j.j.g.g.g.e.@.$.$.$.$.@.@.@.@.@.@.@.@.@.@.@.@.@.@.@.@.@.@.@.@.@.@.@.@.@.@.@.@.@.@.@.@.@.@.@.@.@.@.@.@.@.@.@.@.@.@.@.@.@.@.@.@.@.@.@.@.@.@.@.@.@.@.@.@.@.@.@.@.@.@.@.@.@.@.@.@.@.@.@.@.@.@.@.@.@.@.@.@.@.@.@.@.@.@.@.@.@.@.@.@.@.@.@.@.@.@.@.@.@.@.@.@.@.@.@.@.@.@.@.@.@.@.@.@.@.@.@.@.@.@.@.@.@.@.@.@.@.@.@.@.@.@.@.@.@.@.@.@.@.@.@.@.@.@.@.@.@.@.$.} * . . 4 y.j.j.e.@.@.@.@.@.@.@.@.@.@.@.@.@.@.@.@.@.@.@.@.@.@.@.@.@.@.@.@.@.@.@.$.$.$.@.@.@.O.@.=.h             = f f f f f f f f 8 ^ *.@.@.@.@.@.&.&.@.@.@.@.@.@.@.@.@.@.@.@.@.@.&.&.@.@.@.@.@.@.@.@.@.@.@.@.@.@.&.&.@.@.@.@.@.@.@.@.@.@.@.@.@.@.&.&.@.@.@.@.@.@.@.@.@.@.@.@.@.@.&.&.@.@.@.@.@.@.@.@.@.@.@.@.@.@.&.&.@.@.$.] J U U U Y J J J ( H     $ % ",
". $ $ $ $ . v =.@.@.@.@.@.&.&.&.@.@.@.@.@.@.@.@.@.@.@.@.@.@.@.@.@.@.@.@.@.@.@.@.@.@.@.@.@.@.@.@.@.@.=.} = . $ $ . . . Z.|.).[.[.[.|.I.g.l.l.l.l.l.l.g.g.g.g.g.g.l.l.l.l.l.l.l.l.l.l.l.l.l.l.l.l.l.l.l.l.l.l.l.l.f.0.*.O.@.w.c.l.l.x.l.f.l.l.l.l.l.l.l.l.l.l.l.l.l.l.l.l.l.l.l.l.l.l.l.l.l.l.l.l.l.l.l.l.l.l.l.l.l.l.l.l.l.l.l.l.l.l.l.l.l.l.l.l.l.l.l.l.l.l.l.l.g.g.g.g.l.c.r.= . . .   8 f f d f f f f 8 ] @.O.@.@.@.@.@.@.@.@.@.@.@.@.@.@.@.@.@.@.@.@.@.@.@.@.@.@.@.@.@.@.@.@.@.@.@.@.@.@.@.@.@.$.@.J P T = . . $ $ $ * . P b.g.g.g.g.g.g.<.@.@.@.@.@.@.@.@.@.@.@.@.@.@.@.@.@.@.@.@.@.@.@.@.@.@.@.@.@.@.@.@.@.@.@.@.@.@.@.@.@.@.@.@.@.@.@.@.@.@.@.@.@.@.@.@.@.@.@.@.@.@.@.@.@.@.@.@.@.@.@.@.@.@.@.@.@.@.@.@.@.@.@.@.@.@.@.@.@.@.@.@.@.@.@.@.@.@.@.@.@.@.@.@.@.@.@.@.@.@.@.@.@.@.@.@.@.@.@.@.@.@.@.@.@.@.@.@.@.@.@.@.@.@.@.@.@.@.@.@.@.@.@.@.@.@.@.@.@.@.@.@.@.@.@.@.@.@.@.@.@.$.@.@.} $ . . - p.g.j.e.@.@.@.@.@.@.@.@.@.@.@.@.@.@.@.@.@.@.@.@.@.@.@.@.@.@.@.@.@.@.@.@.@.@.@.@.@.O.@.<.h       .   . = f f f f f f g f 8 ^ *.@.@.@.@.@.@.@.@.@.@.@.@.@.@.@.@.@.@.@.@.@.@.@.@.@.@.@.@.@.@.@.@.@.@.@.@.@.@.@.@.@.@.@.@.@.@.@.@.@.@.@.@.@.@.@.@.@.@.@.@.@.@.@.@.@.@.@.@.@.@.@.@.@.@.@.@.@.@.@.@.@.@.@.@.@.@.@.*.*.@.] ^ J J J J J J F ( j     . % ",
". $ $ $ $ . v =.@.@.@.@.&.&.&.&.@.@.@.@.@.@.@.@.@.@.@.@.@.@.@.@.@.@.@.@.@.@.@.@.@.@.@.@.@.@.@.@.@.@.=.} = . $ $ . . . Z.|.).[.[.[.|.I.g.l.l.l.l.l.l.g.g.g.g.g.g.l.l.l.l.l.l.l.l.l.l.l.l.l.l.l.l.l.l.l.l.l.l.l.l.l.f.0.5.] H E @.0.l.N.x.c.c.c.x.l.l.l.l.l.l.l.l.l.l.l.l.l.l.l.l.l.l.l.l.l.l.l.l.l.l.l.l.l.l.l.l.l.l.l.l.l.l.l.l.l.l.l.l.l.l.l.l.l.l.l.l.l.l.l.l.g.g.g.g.l.c.r.= . .     8 f f d f f f f f x <.O.@.@.@.@.@.@.@.@.@.@.@.@.@.@.@.@.@.@.@.@.@.@.@.@.@.@.@.@.@.@.@.@.@.@.@.@.@.@.@.@.@.$.@.J J T = . . $ $ $ * . P b.g.g.g.g.g.g.<.@.@.@.@.@.@.@.@.@.@.@.@.@.@.@.@.@.@.@.@.@.@.@.@.@.@.@.@.@.@.@.@.@.@.@.@.@.@.@.@.@.@.@.@.@.@.@.@.@.@.@.@.@.@.@.@.@.@.@.@.@.@.@.@.@.@.@.@.@.@.@.@.@.@.@.@.@.@.@.@.@.@.@.@.@.@.@.@.@.@.@.@.@.@.@.@.@.@.@.@.@.@.@.@.@.@.@.@.@.@.@.@.@.@.@.@.@.@.@.@.@.@.@.@.@.@.@.@.@.@.@.@.@.@.@.@.@.@.@.@.@.@.@.@.@.@.@.@.@.@.@.@.@.@.@.@.@.@.@.@.@.$.@.@.] $ . . - p.g.j.e.@.@.@.@.@.@.@.@.@.@.@.@.@.@.@.@.@.@.@.@.@.@.@.@.@.@.@.@.@.@.@.@.@.@.@.@.@.O.@.=.h           . = f f f f f f f f 8 ^ *.@.@.@.@.@.@.@.@.@.@.@.@.@.@.@.@.@.@.@.@.@.@.@.@.@.@.@.@.@.@.@.@.@.@.@.@.@.@.@.@.@.@.@.@.@.@.@.@.@.@.@.@.@.@.@.@.@.@.@.@.@.@.@.@.@.@.@.@.@.@.@.@.@.@.@.@.@.@.@.@.@.@.@.@.@.*.@.@.( ^ U J J J J J J P P J 8   . . % ",
". $ $ $ $ . x =.@.@.@.@.&.&.&.&.@.@.@.@.@.@.@.@.@.@.@.@.@.@.@.@.@.@.@.@.@.@.@.@.@.@.@.@.@.@.@.@.@.@.=.} = . $ $ . . . Z.|.).[.[.[.|.I.g.l.l.l.l.l.l.g.g.g.g.g.g.l.l.l.l.l.l.l.l.l.l.l.l.l.l.l.l.l.l.l.l.l.l.l.l.l.l.g.f.=.=.] A z Z O.r.c.c.l.l.l.l.l.l.l.l.l.l.l.l.l.l.l.l.l.l.l.l.l.l.l.l.l.l.l.l.l.l.l.l.l.l.l.l.l.l.l.l.l.l.l.l.l.l.l.l.l.l.l.l.l.l.l.l.l.l.g.g.g.g.g.c.r.= . .     8 f f d d d f f 8 x =.$.@.@.@.@.@.@.@.@.@.@.@.@.@.@.@.@.@.@.@.@.@.@.@.@.@.@.@.@.@.@.@.@.@.@.@.@.@.@.@.@.@.$.@.J J T = . . $ $ $ * . P c.g.g.g.g.g.g.<.@.@.@.@.@.@.@.@.@.@.@.@.@.@.@.@.@.@.@.@.@.@.@.@.@.@.@.@.@.@.@.@.@.@.@.@.@.@.@.@.@.@.@.@.@.@.@.@.@.@.@.@.@.@.@.@.@.@.@.@.@.@.@.@.@.@.@.@.@.@.@.@.@.@.@.@.@.@.@.@.@.@.@.@.@.@.@.@.@.@.@.@.@.@.@.@.@.@.@.@.@.@.@.@.@.@.@.@.@.@.@.@.@.@.@.@.@.@.@.@.@.@.@.@.@.@.@.@.@.@.@.@.@.@.@.@.@.@.@.@.@.@.@.@.@.@.@.@.@.@.@.@.@.@.@.@.@.@.@.@.@.$.@.@.] $ . . , p.g.k.e.@.@.@.@.@.@.@.@.@.@.@.@.@.@.@.@.@.@.@.@.@.@.@.@.@.@.@.@.@.@.@.@.@.@.@.@.@.O.@.=.h           . = f f f f f f f f 8 ^ =.@.@.@.@.@.@.@.@.@.@.@.@.@.@.@.@.@.@.@.@.@.@.@.@.@.@.@.@.@.@.@.@.@.@.@.@.@.@.@.@.@.@.@.@.@.@.@.@.@.@.@.@.@.@.@.@.@.@.@.@.@.@.@.@.@.@.@.@.@.@.@.@.@.@.@.@.@.@.@.@.@.@.@.@.@.@.@.( H J J J J J J J J T g       . $ % ",
". $ $ $ $ . x =.@.@.@.@.&.&.&.&.@.@.@.@.@.@.@.@.@.@.@.@.@.@.@.@.@.@.@.@.@.@.@.@.@.@.@.@.@.@.@.@.@.@.=.} = . $ $ . . . Z.|.).[.[.[.|.I.g.l.l.l.l.l.l.g.g.g.g.g.g.l.l.l.l.l.l.l.l.l.l.l.l.l.l.l.l.l.l.l.l.l.l.l.g.g.g.l.x.c.f.6.*.;.J k 8 L @.0.g.l.l.l.l.l.l.l.l.l.l.l.l.l.l.l.l.l.l.l.l.l.l.l.l.l.l.l.l.l.l.l.l.l.l.l.l.l.l.l.l.l.l.l.l.l.l.l.l.l.l.l.l.l.l.l.l.g.g.g.g.g.c.r.@ . .     8 f f d d f f f 9 x =.O.@.@.@.@.@.@.@.@.@.@.@.@.@.@.@.@.@.@.@.@.@.@.@.@.@.@.@.@.@.@.@.@.@.@.@.@.@.@.@.@.@.$.@.J P T = . . $ $ $ * . P c.g.g.g.g.g.g.<.@.@.@.@.@.@.@.@.@.@.@.@.@.@.@.@.@.@.@.@.@.@.@.@.@.@.@.@.@.@.@.@.@.@.@.@.@.@.@.@.@.@.@.@.@.@.@.@.@.@.@.@.@.@.@.@.@.@.@.@.@.@.@.@.@.@.@.@.@.@.@.@.@.@.@.@.@.@.@.@.@.@.@.@.@.@.@.@.@.@.@.@.@.@.@.@.@.@.@.@.@.@.@.@.@.@.@.@.@.@.@.@.@.@.@.@.@.@.@.@.@.@.@.@.@.@.@.@.@.@.@.@.@.@.@.@.@.@.@.@.@.@.@.@.@.@.@.@.@.@.@.@.@.@.@.@.@.@.@.@.@.$.@.@.) $ . . , p.g.k.e.@.@.@.@.@.@.@.@.@.@.@.@.@.@.@.@.@.@.@.@.@.@.@.@.@.@.@.@.@.@.@.@.@.@.@.@.@.O.@.=.h           . = f f f f f f f f 8 W =.@.@.@.@.@.@.@.@.@.@.@.@.@.@.@.@.@.@.@.@.@.@.@.@.@.@.@.@.@.@.@.@.@.@.@.@.@.@.@.@.@.@.@.@.@.@.@.@.@.@.@.@.@.@.@.@.@.@.@.@.@.@.@.@.@.@.@.@.@.@.@.@.@.@.@.@.@.@.@.@.@.@.@.@.@.' ^ J H J J J J J J J J >   +     . $ * ",
". $ $ $ $ . x =.@.@.@.@.&.&.&.&.@.@.@.@.@.@.@.@.@.@.@.@.@.@.@.@.@.@.@.@.@.@.@.@.@.@.@.@.@.@.@.@.@.@.=.} = . $ $ . . . Z.|._.[.[.[.|.I.g.l.l.l.l.l.l.g.g.g.g.g.g.l.l.l.l.l.l.l.l.l.l.l.l.l.l.l.l.l.l.l.l.l.l.l.g.l.l.l.l.l.x.l.a.=.=.O.! x 2 9 L ] 6.g.c.c.x.l.x.x.g.f.l.l.l.l.l.l.l.l.l.l.l.l.l.l.l.l.l.l.l.l.l.l.l.x.x.l.l.l.l.l.l.l.l.l.l.l.l.l.g.g.g.c.c.c.c.c.c.c.c.c.c.s.@         8 h h f f f f f 8 x =.@.@.@.@.@.@.@.@.@.@.@.@.@.@.@.@.@.@.@.@.@.@.@.@.@.@.@.@.@.@.@.@.@.@.@.@.@.@.@.@.@.@.$. .J J T = . . $ $ $ % . P c.g.g.g.g.g.g.<.@.@.@.@.@.@.@.@.@.@.@.@.@.@.@.@.@.@.@.@.@.@.@.@.@.@.@.@.@.@.@.@.@.@.@.@.@.@.@.@.@.@.@.@.@.@.@.@.@.@.@.@.@.@.@.@.@.@.@.@.@.@.@.@.@.@.@.@.@.@.@.@.@.@.@.@.@.@.@.@.@.@.@.@.@.@.@.@.@.@.@.@.@.@.@.@.@.@.@.@.@.@.@.@.@.@.@.@.@.@.@.@.@.@.@.@.@.@.@.@.@.@.@.@.@.@.@.@.@.@.@.@.@.@.@.@.@.@.@.@.@.@.@.@.@.@.@.@.@.@.@.@.@.@.@.@.@.@.@.@.@.$.@.@.] $ . . - p.g.k.e.@.@.@.@.@.@.@.@.@.@.@.@.@.@.@.@.@.@.@.@.@.@.@.@.@.@.@.@.@.@.@.@.@.@.@.@.=.@.@.@.7       . . . = f f h f f f f f 8 ! =.@.@.@.@.@.@.@.@.@.@.@.@.@.@.@.@.@.@.@.@.@.@.@.@.@.@.@.@.@.@.@.@.@.@.@.@.@.@.@.@.@.@.@.@.@.@.@.@.@.@.@.@.@.@.@.@.@.@.@.@.@.@.@.@.@.@.@.@.@.@.@.@.@.@.@.@.@.$.$.@.@.*.O.' J J J J ! U J H J ^ A t           X   $ - ",
". $ $ $ $ . j =.@.@.@.@.&.&.&.&.@.@.@.@.@.@.@.@.@.@.@.@.@.@.@.@.@.@.@.@.@.@.@.@.@.@.@.@.@.@.@.@.@.@.=.} = . $ $ . . . Z.|._.[.[.[.|.I.g.l.l.l.l.l.l.g.g.g.g.g.g.l.l.l.l.l.l.l.l.l.l.l.l.l.l.l.l.l.l.l.l.l.l.l.l.l.l.l.l.l.l.l.x.N.r.2.*.@.' A 9 9 8 A ( =.r.c.c.x.c.c.g.l.l.l.l.l.l.l.l.l.l.l.l.l.l.l.l.l.l.l.l.l.l.x.x.x.x.l.l.l.l.l.l.g.g.g.g.c.c.c.c.g.g.g.g.r.r.r.r.8.=.*.O         8 h h f f f f f 8 x =.@.@.@.@.@.@.@.@.@.@.@.@.@.@.@.@.@.@.@.@.@.@.@.@.@.@.@.@.@.@.@.@.@.@.@.@.@.@.@.@.@.@.$. .J J T = . . $ $ $ % . P c.g.g.g.g.g.g.<.@.@.@.@.@.@.@.@.@.@.@.@.@.@.@.@.@.@.@.@.@.@.@.@.@.@.@.@.@.@.@.@.@.@.@.@.@.@.@.@.@.@.@.@.@.@.@.@.@.@.@.@.@.@.@.@.@.@.@.@.@.@.@.@.@.@.@.@.@.@.@.@.@.@.@.@.@.@.@.@.@.@.@.@.@.@.@.@.@.@.@.@.@.@.@.@.@.@.@.@.@.@.@.@.@.@.@.@.@.@.@.@.@.@.@.@.@.@.@.@.@.@.@.@.@.@.@.@.@.@.@.@.@.@.@.@.@.@.@.@.@.@.@.@.@.@.@.@.@.@.@.@.@.@.@.@.@.@.@.@.@.$.@.@.] $ . . - p.g.k.e.@.@.@.@.@.@.@.@.@.@.@.@.@.@.@.@.@.@.@.@.@.@.@.@.@.@.@.@.@.@.@.@.@.@.@.@.@.$.@.] 7       .   . = f f h h f f f f 8 ! =.@.@.@.@.@.@.@.@.@.@.@.@.@.@.@.@.@.@.@.@.@.@.@.@.@.@.@.@.@.@.@.@.@.@.@.@.@.@.@.@.@.@.@.@.@.@.@.@.@.@.@.@.@.@.@.@.@.@.@.@.@.@.@.@.@.@.@.@.@.@.@.@.@.@.@.@.@.@.@.$.*.] ( J H J J J J J J ! ( x 3                 . - ",
". $ $ $ $ . j =.@.@.@.@.@.@.@.@.@.@.@.@.@.@.@.@.@.@.@.@.@.@.@.@.@.@.@.@.@.@.@.@.@.@.@.@.@.@.@.@.@.@.=.} = . $ $ . . . Z.|._.[.[.[.|.I.g.l.l.l.l.l.l.g.g.g.g.g.g.l.l.l.l.l.l.l.l.l.l.l.l.l.l.l.l.l.l.l.l.l.l.l.l.l.l.l.l.l.l.l.l.g.c.x.w.=.=.*.&.E f 0 3 d k ! *.e.l.N.l.l.l.l.l.l.l.l.l.l.l.l.l.l.l.l.l.l.l.l.l.c.c.c.c.c.x.x.l.l.g.g.g.f.f.f.f.6.6.6.6.=.=.*.*.*.*.#.@.@.] } O         8 h h f f f f f 8 x =.@.@.@.@.@.@.@.@.@.@.@.@.@.@.@.@.@.@.@.@.@.@.@.@.@.@.@.@.@.@.@.@.@.@.@.@.@.@.@.@.@.@.*. .J J ^ = . . $ $ $ * . P c.g.g.g.g.g.g.<.@.@.@.@.@.@.@.@.@.@.@.@.@.@.@.@.@.@.@.@.@.@.@.@.@.@.@.@.@.@.@.@.@.@.@.@.@.@.@.@.@.@.@.@.@.@.@.@.@.@.@.@.@.@.@.@.@.@.@.@.@.@.@.@.@.@.@.@.@.@.@.@.@.@.@.@.@.@.@.@.@.@.@.@.@.@.@.@.@.@.@.@.@.@.@.@.@.@.@.@.@.@.@.@.@.@.@.@.@.@.@.@.@.@.@.@.@.@.@.@.@.@.@.@.@.@.@.@.@.@.@.@.@.@.@.@.@.@.@.@.@.@.@.@.@.@.@.@.@.@.@.@.@.@.@.@.@.@.@.@.@.$.@.@.] * . . - p.g.k.e.@.@.@.@.@.@.@.@.@.@.@.@.@.@.@.@.@.@.@.@.@.@.@.@.@.@.@.@.@.@.@.@.@.@.@.@.@.@.] ^ 3     .     . = f h h f f f f f 8 ! =.@.@.@.@.@.@.@.@.@.@.@.@.@.@.@.@.@.@.@.@.@.@.@.@.@.@.@.@.@.@.@.@.@.@.@.@.@.@.@.@.@.@.@.@.@.@.@.@.@.@.@.@.@.@.@.@.@.@.@.@.@.@.@.@.@.@.@.@.@.@.@.@.@.@.@.@.@.$.@.] ( ! U J U J J J J U ^ Z 3   X               = $ ; ",
". $ $ $ $ . j =.@.@.@.@.@.@.@.@.@.@.@.@.@.@.@.@.@.@.@.@.@.@.@.@.@.@.@.@.@.@.@.@.@.@.@.@.@.@.@.@.@.@.=.} = . $ $ . . . Z.|.).{.[.[.|.I.g.l.l.l.l.l.l.g.g.g.g.g.g.l.l.l.l.l.l.l.l.l.l.l.l.l.l.l.l.l.l.l.l.l.l.l.l.l.l.l.l.l.l.l.l.l.g.l.c.g.a.=.*.&.@.J z 9 8 8 8 k J @.6.f.l.l.l.l.l.l.l.l.l.l.l.l.l.l.l.l.l.l.l.r.r.r.r.8.8.8.8.2.2.=.=.*.*.*.&.&.&.&.&.&.&.&.&.@.@.*.*.*.@.@.O         8 f f d d d d d 8 x *.@.@.@.@.@.@.@.@.@.@.@.@.@.@.@.@.@.@.@.@.@.@.@.@.@.@.@.@.@.@.@.@.@.@.@.@.@.@.@.@.@.@.*. .J P ^ = . . $ $ $ * . P c.g.g.g.g.g.g.<.@.@.@.@.@.@.@.@.@.@.@.@.@.@.@.@.@.@.@.@.@.@.@.@.@.@.@.@.@.@.@.@.@.@.@.@.@.@.@.@.@.@.@.@.@.@.@.@.@.@.@.@.@.@.@.@.@.@.@.@.@.@.@.@.@.@.@.@.@.@.@.@.@.@.@.@.@.@.@.@.@.@.@.@.@.@.@.@.@.@.@.@.@.@.@.@.@.@.@.@.@.@.@.@.@.@.@.@.@.@.@.@.@.@.@.@.@.@.@.@.@.@.@.@.@.@.@.@.@.@.@.@.@.@.@.@.@.@.@.@.@.@.@.@.@.@.@.@.@.@.@.@.@.@.@.@.@.@.@.@.@.$.@.@.] $ . . - p.g.k.e.@.@.@.@.@.@.@.@.@.@.@.@.@.@.@.@.@.@.@.@.@.@.@.@.@.@.@.@.@.@.@.@.@.@.@.@.$.] ^ ^ 3   . .       = f h f f f f f f 8 ! =.@.@.@.@.@.@.@.@.@.@.@.@.@.@.@.@.@.@.@.@.@.@.@.@.@.@.@.@.@.@.@.@.@.@.@.@.@.@.@.@.@.@.@.@.@.@.@.@.@.@.@.@.@.@.@.@.@.@.@.@.@.@.@.@.@.@.@.@.@.@.@.@.@.@.@.@.@.' ( U J H J ^ ( J J J J U f +                   P } . * ",
". $ $ $ $ . j =.@.@.@.@.@.@.@.@.@.@.@.@.@.@.@.@.@.@.@.@.@.@.@.@.@.@.@.@.@.@.@.@.@.@.@.@.@.@.@.@.@.@.=.} = . $ $ . . . Z.|.).{._.[.}.I.g.l.l.j.j.g.g.g.g.g.g.g.g.l.l.l.l.l.l.l.l.l.l.l.l.l.l.l.l.l.l.l.l.l.l.l.l.l.l.l.l.l.l.l.l.l.l.l.l.x.l.g.w.=.=.=.@.' Z 8 t 3 3 8 k A  .5.9.f.g.g.f.f.f.f.f.8.8.8.8.=.=.=.=.@.@.@.@.@.@.@.@.@.@.@.@.@.@.@.@.@.@.@.@.&.&.&.&.@.@.@.@.@.@.] @         8 f f d d d d d 8 x *.@.@.@.@.@.@.@.@.@.@.@.@.@.@.@.@.@.@.@.@.@.@.@.@.@.@.@.@.@.@.@.@.@.@.@.@.@.@.@.@.@.@.*.( J T ^ 4 . . $ $ $ * . P c.g.g.g.g.g.j.<.@.@.@.@.@.@.@.@.@.@.@.@.@.@.@.@.@.@.@.@.@.@.@.@.@.@.@.@.@.@.@.@.@.@.@.@.@.@.@.@.@.@.@.@.@.@.@.@.@.@.@.@.@.@.@.@.@.@.@.@.@.@.@.@.@.@.@.@.@.@.@.@.@.@.@.@.@.@.@.@.@.@.@.@.@.@.@.@.@.@.@.@.@.@.@.@.@.@.@.@.@.@.@.@.@.@.@.@.@.@.@.@.@.@.@.@.@.@.@.@.@.@.@.@.@.@.@.@.@.@.@.@.@.@.@.@.@.@.@.@.@.@.@.@.@.@.@.@.@.@.@.@.@.@.@.@.@.@.@.@.@.$.@.@.) $ . . - p.g.k.e.@.@.@.@.@.@.@.@.@.@.@.@.@.@.@.@.@.@.@.@.@.@.@.@.@.@.@.@.@.@.@.@.@.@.@.@.*.( J z @   .       . = f h f f f f f f 8 ! =.@.@.@.@.@.@.@.@.@.@.@.@.@.@.@.@.@.@.@.@.@.@.@.@.@.@.@.@.@.@.@.@.@.@.@.@.@.@.@.@.@.@.@.@.@.@.@.@.@.@.@.@.@.@.@.@.@.@.@.@.@.@.@.@.@.@.@.@.@.@.O.@.=.*.@.] ' U U U U J H H H H A H x 3 @         +       f 6.c.>.. = ",
". $ $ $ $ . j -.@.@.@.@.@.@.@.@.@.@.@.@.@.@.@.@.@.@.@.@.@.@.@.@.@.@.@.@.@.@.@.@.@.@.@.@.@.@.@.@.@.@.=.} = . $ $ . . . Z.|.).{._.[.}.I.g.l.l.j.j.g.g.g.g.g.g.g.g.l.l.l.l.l.l.l.l.l.l.l.l.l.l.l.l.l.l.l.l.l.l.l.l.l.l.l.l.l.l.l.l.l.l.l.l.l.x.x.l.N.e.*.*.*.*.] Z 7 f 8 3 9 f k J ] @.=.=.=.*.*.*.$.@.@.@.@.$.$.$.*.*.*.*.*.*.=.=.*.*.=.=.=.=.=.=.=.=.=.=.=.=.=.=.=.=.=.=.*.=.@.O         8 f f d d d d d 8 x *.@.@.@.@.@.@.@.@.@.@.@.@.@.@.@.@.@.@.@.@.@.@.@.@.@.@.@.@.@.@.@.@.@.@.@.@.@.@.@.@.@.@.*.( J T ^ 4 . . . $ $ $ . P c.g.g.g.g.g.j.<.@.@.@.@.@.@.@.@.@.@.@.@.@.@.@.@.@.@.@.@.@.@.@.@.@.@.@.@.@.@.@.@.@.@.@.@.@.@.@.@.@.@.@.@.@.@.@.@.@.@.@.@.@.@.@.@.@.@.@.@.@.@.@.@.@.@.@.@.@.@.@.@.@.@.@.@.@.@.@.@.@.@.@.@.@.@.@.@.@.@.@.@.@.@.@.@.@.@.@.@.@.@.@.@.@.@.@.@.@.@.@.@.@.@.@.@.@.@.@.@.@.@.@.@.@.@.@.@.@.@.@.@.@.@.@.@.@.@.@.@.@.@.@.@.@.@.@.@.@.@.@.@.@.@.@.@.@.@.@.@.@.%.@.@.) $ . . - p.g.k.e.@.@.@.@.@.@.@.@.@.@.@.@.@.@.@.@.@.@.@.@.@.@.@.@.@.@.@.@.@.@.@.@.@.@.@.@.@.] H 7 @   .       . = h h f f f f f f 8 ! =.@.@.@.@.@.@.@.@.@.@.@.@.@.@.@.@.@.@.@.@.@.@.@.@.@.@.@.@.@.@.@.@.@.@.@.@.@.@.@.@.@.@.@.@.@.@.@.@.@.@.@.@.@.@.@.@.@.@.@.@.@.@.@.@.@.@.@.@.@.@.*.*.@.] ' ^ U U U U J J ! ^ ^ ! J 9             +     3 @.c.c.c.>.. = ",
". $ $ $ $ . j -.@.@.@.@.@.@.@.@.@.@.@.@.@.@.@.@.@.@.@.@.@.@.@.@.@.@.@.@.@.@.@.@.@.@.@.@.@.@.@.@.@.@.=.} = . $ $ . . . Z.|.).{._.[.}.G.g.j.j.j.j.g.g.g.g.g.g.g.g.l.l.l.l.l.l.l.l.l.l.l.l.l.l.l.l.l.l.l.l.l.l.l.l.l.l.l.l.l.l.l.l.l.l.l.l.l.l.l.x.g.x.l.0.=.=.=.$.] H h 8 8 8 7 8 8 k x x x x x x x x x x x x x x x x x x x x x x x x x x x x x x x x x x x x x x x x z z x x x o         8 f f d f f d d 8 x *.@.@.@.@.@.@.@.@.@.@.@.@.@.@.@.@.@.@.@.@.@.@.@.@.@.@.@.@.@.@.@.@.@.@.@.@.@.@.@.@.@.$.*.( J T ^ 3 . . . $ $ * . P c.g.g.g.g.g.j.<.@.@.@.@.@.@.@.@.@.@.@.@.@.@.@.@.@.@.@.@.@.@.@.@.@.@.@.@.@.@.@.@.@.@.@.@.@.@.@.@.@.@.@.@.@.@.@.@.@.@.@.@.@.@.@.@.@.@.@.@.@.@.@.@.@.@.@.@.@.@.@.@.@.@.@.@.@.@.@.@.@.@.@.@.@.@.@.@.@.@.@.@.@.@.@.@.@.@.@.@.@.@.@.@.@.@.@.@.@.@.@.@.@.@.@.@.@.@.@.@.@.@.@.@.@.@.@.@.@.@.@.@.@.@.@.@.@.@.@.@.@.@.@.@.@.@.@.@.@.@.@.@.@.@.@.@.@.@.@.@.@.$.@.@.) $ . . , p.g.k.e.@.@.@.@.@.@.@.@.@.@.@.@.@.@.@.@.@.@.@.@.@.@.@.@.@.@.@.@.@.@.@.@.@.@.@.@.*.( x 3 @   .         = h f f f d d d d t ! =.@.@.@.@.@.@.@.@.@.@.@.@.@.@.@.@.@.@.@.@.@.@.@.@.@.@.@.@.@.@.@.@.@.@.@.@.@.@.@.@.@.@.@.@.@.@.@.@.@.@.@.@.@.@.@.@.@.@.@.@.@.@.@.@.@.@.@.@.@.@.$.O.( ^ U J J J J U U H D H ( f X X X         +   0 ! g.c.c.g.c.>.. = ",
". $ $ $ $ . v -.@.@.@.@.@.@.@.@.@.@.@.@.@.@.@.@.@.@.@.@.@.@.@.@.@.@.@.@.@.@.@.@.@.@.@.@.@.@.@.@.@.@.=.} & . $ $ . . . Z.|.).{._.[.}.G.g.j.j.j.j.g.g.g.g.g.g.g.g.l.l.l.l.l.l.l.l.l.l.l.l.l.l.l.l.l.l.l.l.l.l.l.l.l.l.l.l.l.l.l.l.l.l.l.l.l.l.l.l.l.l.l.x.g.8.*.@.=.*. .H z 9 8 8 5 8 8 5 5 9 9 9 7 8 8 8 8 8 8 8 d d d t 8 8 8 8 8 8 8 8 8 7 7 7 7 7 7 7 8 8 8 8 7 7 7 7 3 8 8           8 f f d f f d d 8 z *.@.@.@.@.@.@.@.@.@.@.@.@.@.@.@.@.@.@.@.@.@.@.@.@.@.@.@.@.@.@.@.@.@.@.@.@.@.@.@.@.@.$.%.( J T ^ 3 . . . $ $ * . P c.g.g.g.g.g.g.=.@.@.@.@.@.@.@.@.@.@.@.@.@.@.@.@.@.@.@.@.@.@.@.@.@.@.@.@.@.@.@.@.@.@.@.@.@.@.@.@.@.@.@.@.@.@.@.@.@.@.@.@.@.@.@.@.@.@.@.@.@.@.@.@.@.@.@.@.@.@.@.@.@.@.@.@.@.@.@.@.@.@.@.@.@.@.@.@.@.@.@.@.@.@.@.@.@.@.@.@.@.@.@.@.@.@.@.@.@.@.@.@.@.@.@.@.@.@.@.@.@.@.@.@.@.@.@.@.@.@.@.@.@.@.@.@.@.@.@.@.@.@.@.@.@.@.@.@.@.@.@.@.@.@.@.@.@.@.@.@.@.$.@.@.) $ . $ - p.g.k.e.@.@.@.@.@.@.@.@.@.@.@.@.@.@.@.@.@.@.@.@.@.@.@.@.@.@.@.@.@.@.@.@.@.@.@.@.$.( f 3 @             = h f f f d d d d t ! =.@.@.@.@.@.@.@.@.@.@.@.@.@.@.@.@.@.@.@.@.@.@.@.@.@.@.@.@.@.@.@.@.@.@.@.@.@.@.@.@.@.@.@.@.@.@.@.@.@.@.@.@.@.@.@.@.@.@.@.@.@.@.@.@.@.@.@.@.@.$.] U J J J J J J J U U ^ ( A 3                   A f.c.g.g.g.f.c.=.. = ",
". $ $ $ $ . x -.@.@.@.@.@.@.@.@.@.@.@.@.@.@.@.@.@.@.@.@.@.@.@.@.@.@.@.@.@.@.@.@.@.@.@.@.@.@.@.@.$.@.=...$ $ $ $ . . . Z.|.).{._.[.}.G.g.j.j.j.j.g.g.g.g.g.g.g.g.l.l.l.l.l.l.l.l.l.l.l.l.l.l.l.l.l.l.l.l.l.l.l.l.l.l.l.l.l.l.l.l.l.l.l.l.l.l.l.l.l.l.l.l.c.c.g.8.@. .=.*.$.J f 3 f 8 7 8 f 9 3 9 9 8 f 8 8 8 8 8 3 3 3 9 7 9 3 3 3 3 7 8 3 3 9 8 8 8 8 7 d d d d d f f f h z h X     X   8 h f f f f f f 8 x *.@.@.@.@.@.@.@.@.@.@.@.@.@.@.@.@.@.@.@.@.@.@.@.@.@.@.@.@.@.@.@.@.@.@.@.@.@.@.@.@.@.$.*.( J T ^ 3 . . . $ $ * . P c.g.g.g.g.j.g.=.@.@.@.@.@.@.@.@.@.@.@.@.@.@.@.@.@.@.@.@.@.@.@.@.@.@.@.@.@.@.@.@.@.@.@.@.@.@.@.@.@.@.@.@.@.@.@.@.@.@.@.@.@.@.@.@.@.@.@.@.@.@.@.@.@.@.@.@.@.@.@.@.@.@.@.@.@.@.@.@.@.@.@.@.@.@.@.@.@.@.@.@.@.@.@.@.@.@.@.@.@.@.@.@.@.@.@.@.@.@.@.@.@.@.@.@.@.@.@.@.@.@.@.@.@.@.@.@.@.@.@.@.@.@.@.@.@.@.@.@.@.@.@.@.@.@.@.@.@.@.@.@.@.@.@.@.@.@.@.@.@.$.@.@.` $ $ $ - p.g.k.e.@.@.@.@.@.@.@.@.@.@.@.@.@.@.@.@.@.@.@.@.@.@.@.@.@.@.@.@.@.@.@.@.@.@.@.@.$.^ h 3 @   .       X = f f f f f f f f 8 ! =.@.@.@.@.@.@.@.@.@.@.@.@.@.@.@.@.@.@.@.@.@.@.@.@.@.@.@.@.@.@.@.@.@.@.@.@.@.@.@.@.@.@.@.@.@.@.@.@.@.@.@.@.@.@.@.@.@.@.@.@.@.@.@.@.$.=.@.O.( ^ U J J J J J J H ! U ^ A t @         X   X X f <.c.l.N.l.l.l.j.c.=.. = ",
". $ $ $ $ . x =.@.@.@.@.@.@.@.@.@.@.@.@.@.@.@.@.@.@.@.@.@.@.@.@.@.@.@.@.@.@.@.@.@.@.@.@.@.@.@.@.=. .@...$ . $ $ . . . Z.|.).{._.[.}.G.g.j.j.j.j.g.g.g.g.g.g.g.g.l.l.l.l.l.l.l.l.l.l.l.l.l.l.l.l.l.l.l.l.l.l.l.l.l.l.l.l.l.l.l.l.l.l.l.l.l.l.l.l.l.l.l.l.g.x.c.c.x.6.@.*.@.D 8 d 8 7 9 8 f k A ! h 8 f 8 f 7 f Z U ( ( ] ( ( ] ] ] O.@.@.=.=.<.5.<.6.8.e.e.e.e.e.=.=.=.=.*.@.@.@         8 h f f f f f f 8 x *.@.@.@.@.@.@.@.@.@.@.@.@.@.@.@.@.@.@.@.@.@.@.@.@.@.@.@.@.@.@.@.@.@.@.@.@.@.@.@.@.@.$.%.^ J T ^ 3 . . $ $ $ * . P c.g.g.g.g.j.g.=.@.@.@.@.@.@.@.@.@.@.@.@.@.@.@.@.@.@.@.@.@.@.@.@.@.@.@.@.@.@.@.@.@.@.@.@.@.@.@.@.@.@.@.@.@.@.@.@.@.@.@.@.@.@.@.@.@.@.@.@.@.@.@.@.@.@.@.@.@.@.@.@.@.@.@.@.@.@.@.@.@.@.@.@.@.@.@.@.@.@.@.@.@.@.@.@.@.@.@.@.@.@.@.@.@.@.@.@.@.@.@.@.@.@.@.@.@.@.@.@.@.@.@.@.@.@.@.@.@.@.@.@.@.@.@.@.@.@.@.@.@.@.@.@.@.@.@.@.@.@.@.@.@.@.@.@.@.@.$.@.@.$.@.@.` $ $ $ = p.g.k.e.@.@.@.@.@.@.@.@.@.@.@.@.@.@.@.@.@.@.@.@.@.@.@.@.@.@.@.@.@.@.@.@.@.@.@.@.@.^ h 3 =   .         = f f f f f f f f 8 ! =.@.@.@.@.@.@.@.@.@.@.@.@.@.@.@.@.@.@.@.@.@.@.@.@.@.@.@.@.@.@.@.@.@.@.@.@.@.@.@.@.@.@.@.@.@.@.@.@.@.@.@.@.@.@.@.@.@.@.@.@.@.@.@.*.*.@.] ^ J J J J U J J J J ! J ^ x +     X X X     + 3 ' j.g.V.g.c.z.z.l.l.c.=.. * ",
". $ $ $ $ . x *.@.@.@.@.@.@.@.@.@.@.@.@.@.@.@.@.@.@.@.@.@.@.@.@.@.@.@.@.@.@.@.@.@.@.@.@.@.@.@.@. . .%...$ $ $ $ . $ . Z.|.).{._.[.}.G.g.j.j.j.j.g.g.g.g.g.g.g.g.l.l.l.l.l.l.l.l.l.l.l.l.l.l.l.l.l.l.l.l.l.l.l.l.l.l.l.l.l.l.l.l.l.l.l.l.l.l.l.l.l.l.l.l.j.g.g.g.r.<.*.$.x t d 8 H ] =.e.r.g.c.c.c.J 8 d 8 f 9 A D.c.c.c.c.c.m.V.V.V.c.c.c.c.x.j.r.9.e.6.5.5.5.5.@.@.@.@.@.*.@.@         8 h h f d d f f 8 x *.@.@.@.@.@.@.@.@.@.@.@.@.@.@.@.@.@.@.@.@.@.@.@.@.@.@.@.@.@.@.@.@.@.@.@.@.@.@.@.@.@.$.%.^ J T ^ 3 . . $ $ $ * . P c.g.g.g.g.x.g.=.@.@.@.@.@.@.@.@.@.@.@.@.@.@.@.@.@.@.@.@.@.@.@.@.@.@.@.@.@.@.@.@.@.@.@.@.@.@.@.@.@.@.@.@.@.@.@.@.@.@.@.@.@.@.@.@.@.@.@.@.@.@.@.@.@.@.@.@.@.@.@.@.@.@.@.@.@.@.@.@.@.@.@.@.@.@.@.@.@.@.@.@.@.@.@.@.@.@.@.@.@.@.@.@.@.@.@.@.@.@.@.@.@.@.@.@.@.@.@.@.@.@.@.@.@.@.@.@.@.@.@.@.@.@.@.@.@.@.@.@.@.@.@.@.@.@.@.@.@.@.@.@.$.@.@.@.@.$.$.@.@.$.@.@.` $ $ $ = p.g.k.e.@.@.@.@.@.@.@.@.@.@.@.@.@.@.@.@.@.@.@.@.@.@.@.@.@.@.@.@.@.@.@.@.@.@.@.@.$.( h 3 =   .         = h f f f f f f f 8 ! =.@.@.@.@.@.@.@.@.@.@.@.@.@.@.@.@.@.@.@.@.@.@.@.@.@.@.@.@.@.@.@.@.@.@.@.@.@.@.@.@.@.@.@.@.@.@.@.@.@.@.@.@.@.@.@.@.@.@.@.@.@.@.@.O. .^ J J J J U U U J J J J ' J 3               X @ H r.c.j.r.g.g.c.z.z.l.x.c.=.. * ",
". $ $ $ $ . x *.@.@.@.@.@.@.@.@.@.@.@.@.@.@.@.@.@.@.@.@.@.@.@.@.@.@.@.@.@.@.@.@.@.@.@.@.@.@.@.@.$.=.@.F = . $ $ . . . Z.|.).{._.[.}.G.g.j.j.j.j.g.g.g.g.g.g.g.g.l.l.l.l.l.l.l.l.l.l.l.l.l.l.l.l.l.l.l.l.l.l.l.l.l.l.l.l.l.l.l.l.l.l.l.l.l.l.l.l.l.l.l.l.m.x.r.e.@.@.*.A 3 d 3 J c.c.c.j.g.c.c.g.g.j.( 8 8 3 f 7 ] V.g.j.r.r.w.e.5.=.=.*.=.=.$.@.@.@.@.@.@.@.&.&.@.@.$.$.@.=.( @         8 h h f d d d d 8 x *.@.@.@.@.@.@.@.@.@.@.@.@.@.@.@.@.@.@.@.@.@.@.@.@.@.@.@.@.@.@.@.@.@.@.@.@.@.@.@.@.@.$.$.^ J P ^ 3 . . $ $ $ * . P c.g.g.g.g.x.g.=.@.@.@.@.@.@.@.@.@.@.@.@.@.@.@.@.@.@.@.@.@.@.@.@.@.@.@.@.@.@.@.@.@.@.@.@.@.@.@.@.@.@.@.@.@.@.@.@.@.@.@.@.@.@.@.@.@.@.@.@.@.@.@.@.@.@.@.@.@.@.@.@.@.@.@.@.@.@.@.@.@.@.@.@.@.@.@.@.@.@.@.@.@.@.@.@.@.@.@.@.@.@.@.@.@.@.@.@.@.@.@.@.@.@.@.@.@.@.@.@.@.@.@.@.@.@.@.@.@.@.@.@.@.@.@.@.@.@.@.@.@.@.@.@.@.@.@.@.@.@.@.@.$.@.@.@.@.$.$.@.@.$.@.@.` $ $ $ = p.g.k.e.@.@.@.@.@.@.@.@.@.@.@.@.@.@.@.@.@.@.@.@.@.@.@.@.@.@.@.@.@.@.@.@.@.@.@.@.$.( h 3 =   .         = h f f f f f f f 8 ! =.@.@.@.@.@.@.@.@.@.@.@.@.@.@.@.@.@.@.@.@.@.@.@.@.@.@.@.@.@.@.@.@.@.@.@.@.@.@.@.@.@.@.@.@.@.@.@.@.@.@.@.@.@.@.*.@.@.@.@.@.@.$. .( J D H J U U U U U J J J J h @     + X X       k =.c.g.j.f.g.g.x.l.z.z.l.l.c.=.. = ",
". $ $ $ $ . j =.@.@.@.@.@.@.@.@.@.@.@.@.@.@.@.@.@.@.@.@.@.@.@.@.@.@.@.@.@.@.@.@.@.@.@.@.@.O.@.@.$.=.A o = . $ $ . . . Z.|.).{._.{.}.I.f.l.l.l.l.l.l.l.l.l.l.l.l.l.l.l.l.l.l.l.l.l.l.l.l.l.l.l.l.l.l.l.l.l.l.l.l.l.l.l.l.l.l.l.l.l.l.l.l.l.l.l.l.x.g.f.l.f.6.=.*.*.$.A 3 k 8 H c.c.g.r.g.g.x.c.x.c.r.g.] 8 8 9 5 3 6.g.c.w.@.=.@.@.@.@.@.$.$.$.$.@.@.@.@.&.&.&.&.$.$.$.$.@.$.( X         8 f h f f f f f 8 x *.@.@.@.@.@.@.@.@.@.@.@.@.@.@.@.@.@.@.@.@.@.@.@.@.@.@.@.@.@.@.@.@.@.@.@.@.@.@.@.@.@.$.$.^ J T ^ 3 . . $ $ $ * . P c.g.g.g.g.g.g.=.@.@.@.@.@.@.@.@.@.@.@.@.@.@.@.@.@.@.@.@.@.@.@.@.@.@.@.@.@.@.@.@.@.@.@.@.@.@.@.@.@.@.@.@.@.@.@.@.@.@.@.@.@.@.@.@.@.@.@.@.@.@.@.@.@.@.@.@.@.@.@.@.@.@.@.@.@.@.@.@.@.@.@.@.@.@.@.@.@.@.@.@.@.@.@.@.@.@.@.@.@.@.@.@.@.@.@.@.@.@.@.@.@.@.@.@.@.@.@.@.@.@.@.@.@.@.@.@.@.@.@.@.@.@.@.@.@.@.@.@.@.@.@.@.@.@.@.@.@.@.@.@.@.@.@.@.@.@.@.@.$.$.@.@.] $ $ $ - g.g.c.e.@.@.@.@.@.@.@.@.@.@.@.@.@.@.@.@.@.@.@.@.@.@.@.@.@.@.@.@.@.@.@.@.@.@.@.@.@.( h 3 =   .       . = h f f f f f f f 8 ! =.@.@.@.@.@.@.@.@.@.@.@.@.@.@.@.@.@.@.@.@.@.@.@.@.@.@.@.@.@.@.@.@.@.@.@.@.@.@.@.@.@.@.@.@.@.@.@.@.@.@.@.@.@.=.*.*.@.@.$.*.$.] ( J J J J J J H ^ ( U U U A 2                 9 ] C.j.g.g.g.g.g.g.l.l.l.l.l.l.c.=.. = ",
". $ $ $ $ . j =.@.@.@.@.@.@.@.@.@.@.@.@.@.@.@.@.@.@.@.@.@.@.@.@.@.@.@.@.@.@.@.@.@.@.@.@.O.=.O.*.6.y 4 #.= . $ $ . . . Z.|.).{._.{.}.I.f.l.l.l.l.l.l.l.l.l.l.l.l.l.l.l.l.l.l.l.l.l.l.l.l.l.l.l.l.l.l.l.l.l.l.l.l.l.l.l.l.l.l.l.l.l.l.l.l.l.l.l.l.l.c.g.r.5.*.@.=.@.H t d 3 Z c.j.x.c.c.c.x.g.g.g.r.g.j.x.@.8 8 t d x f.f.g.*.@.=.@.@.@.@.$.$.$.$.@.@.@.@.&.&.&.&.$.$.$.$.@.$.J           8 f h f f f f f 8 x *.@.@.@.@.@.@.@.@.@.@.@.@.@.@.@.@.@.@.@.@.@.@.@.@.@.@.@.@.@.@.@.@.@.@.@.@.@.@.@.@.@.$.@.^ J T ^ 3 . . $ $ $ * . P c.g.g.g.g.g.g.=.@.@.@.@.@.@.@.@.@.@.@.@.@.@.@.@.@.@.@.@.@.@.@.@.@.@.@.@.@.@.@.@.@.@.@.@.@.@.@.@.@.@.@.@.@.@.@.@.@.@.@.@.@.@.@.@.@.@.@.@.@.@.@.@.@.@.@.@.@.@.@.@.@.@.@.@.@.@.@.@.@.@.@.@.@.@.@.@.@.@.@.@.@.@.@.@.@.@.@.@.@.@.@.@.@.@.@.@.@.@.@.@.@.@.@.@.@.@.@.@.@.@.@.@.@.@.@.@.@.@.@.@.@.@.@.@.@.@.@.@.@.@.@.@.@.@.@.@.@.@.@.@.@.@.@.@.@.@.@.@.$.$.@.@.] $ $ $ - g.g.c.e.@.@.@.@.@.@.@.@.@.@.@.@.@.@.@.@.@.@.@.@.@.@.@.@.@.@.@.@.@.@.@.@.@.@.@.@.@.( z 3 =   .       . = h h f f f f f f 8 ! =.@.@.@.@.@.@.@.@.@.@.@.@.@.@.@.@.@.@.@.@.@.@.@.@.@.@.@.@.@.@.@.@.@.@.@.@.@.@.@.@.@.@.@.@.@.@.@.@.@.@.@.@.@.@.$.*.*.*.@.] ^ J J J J J J J J H ^ ( J U 8 X             X @ ^ f.c.r.f.g.g.g.g.g.g.l.l.l.l.l.l.c.=.. = ",
". $ $ $ $ . j =.@.@.@.@.@.@.@.@.@.@.@.@.@.@.@.@.@.@.@.@.@.@.@.@.@.@.@.@.@.@.@.@.@.@.@.@.@.$.5. .3 h g.9.= . $ $ . . . Z.|.).{._.{.}.G.f.l.l.l.l.l.l.l.l.l.l.l.l.l.l.l.l.l.l.l.l.l.l.l.l.l.l.l.l.l.l.l.l.l.l.l.l.l.l.l.l.l.l.l.l.l.l.l.l.l.l.l.l.c.g.6.@.@.@.*.*.U 3 f f k 9.c.j.f.j.j.r.e.=.@.@. .6.e.c.g.6.x 3 t 3 H c.j.g. .5.@.@.@.@.$.$.$.$.@.@.@.@.&.&.&.&.$.$.$.$.@.@.Z           8 f h f f f f f 8 x *.@.@.@.@.@.@.@.@.@.@.@.@.@.@.@.@.@.@.@.@.@.@.@.@.@.@.@.@.@.@.@.@.@.@.@.@.@.@.@.@.@.$.@.^ J T ^ 3 . . $ $ $ * . P c.g.g.g.g.g.c.*.@.@.@.$.@.@.@.@.@.@.@.@.@.@.@.@.@.@.@.@.@.@.@.@.@.@.@.@.@.@.@.@.@.@.@.@.@.@.@.@.@.@.@.@.@.@.@.@.@.@.@.@.@.@.@.@.@.@.@.@.@.@.@.@.@.@.@.@.@.@.@.@.@.@.@.@.@.@.@.@.@.@.@.@.@.@.@.@.@.@.@.@.@.@.@.@.@.@.@.@.@.@.@.@.@.@.@.@.@.@.@.@.@.@.@.@.@.@.@.@.@.@.@.@.@.@.@.@.@.@.@.@.@.@.@.@.@.@.@.@.@.@.@.@.@.@.@.@.@.@.@.@.@.@.@.@.@.@.@.@.$.%.#.@.} $ $ $ - g.j.c.e.@.@.@.@.@.@.@.@.@.@.@.@.@.@.@.@.@.@.@.@.@.@.@.@.@.@.@.@.@.@.@.@.@.@.@.@.@.( z 3 =   .       . = h f f f f f f f 8 ! =.@.@.@.@.@.@.@.@.@.@.@.@.@.@.@.@.@.@.@.@.@.@.@.@.@.@.@.@.@.@.@.@.@.@.@.@.@.@.@.@.@.@.@.@.@.@.@.@.@.@.@.@.@.@.@.@.@.] ( U J J U U U J J J J J ! ! H + X   X       X   k 5.D.j.j.g.g.g.g.g.g.g.g.l.l.l.l.l.l.c.=.. = ",
". $ $ $ $ . j =.@.@.@.@.@.@.@.@.@.@.@.@.@.@.@.@.@.@.@.@.@.@.@.@.@.@.@.@.@.@.@.@.@.@.@.@.=.*.D 5 T p.#.` = . $ $ . . . Z.|.).{._.{.}.G.f.l.l.l.l.l.l.l.l.l.l.l.l.l.l.l.l.l.l.l.l.l.l.l.l.l.l.l.l.l.l.l.l.l.l.l.l.l.l.l.l.l.l.l.l.l.l.l.l.l.l.l.l.0.=.@.*.O.$.@.J 8 t 3 d 8.c.f.c.g.8.*.@.@.@.@.@.@.@.*.9.g.c.6.Z 8 7 8 @.c.g.e.@.@.@.@.@.$.$.$.$.@.@.@.@.&.&.&.&.$.$.@.@.*.@.k           8 f h f f f f f 8 x *.@.@.@.@.@.@.@.@.@.@.@.@.@.@.@.@.@.@.@.@.@.@.@.@.@.@.@.@.@.@.@.@.@.@.@.@.@.@.@.@.@.$.@.T J T ^ 3 . . $ $ $ * . P c.g.g.g.g.g.c.*.@.@.@.$.@.@.@.@.@.@.@.@.@.@.@.@.@.@.@.@.@.@.@.@.@.@.@.@.@.@.@.@.@.@.@.@.@.@.@.@.@.@.@.@.@.@.@.@.@.@.@.@.@.@.@.@.@.@.@.@.@.@.@.@.@.@.@.@.@.@.@.@.@.@.@.@.@.@.@.@.@.@.@.@.@.@.@.@.@.@.@.@.@.@.@.@.@.@.@.@.@.@.@.@.@.@.@.@.@.@.@.@.@.@.@.@.@.@.@.@.@.@.@.@.@.@.@.@.@.@.@.@.@.@.@.@.@.@.@.@.@.@.@.@.@.@.@.@.@.@.@.@.@.@.@.@.@.@.@.@.$.%.#.@.} $ $ $ - g.j.k.e.@.@.@.@.@.@.@.@.@.@.@.@.@.@.@.@.@.@.@.@.@.@.@.@.@.@.@.@.@.@.@.@.@.@.@.@.@.( z 4 =   .       . = h f f f f f f f 8 ! =.@.@.@.@.@.@.@.@.@.@.@.@.@.@.@.@.@.@.@.@.@.@.@.@.@.@.@.@.@.@.@.@.@.@.@.@.@.@.@.@.@.@.@.@.@.@.@.@.@.@.@.@.@.<.$.] ( H J ! ^ ^ ! U U J J J J ( A 9     X + +     X 3 *.c.j.r.c.j.j.f.g.g.g.g.g.g.l.l.z.l.l.l.c.=.. = ",
". $ $ $ $ . b =.@.@.@.@.&.&.&.&.@.@.@.@.@.@.@.@.@.@.@.@.@.@.@.@.@.@.@.@.@.@.@.@.@.*.@.=.=.d 8 6.*...#.} = . $ * . $ . Z. X).{.{.{.}.I.g.l.l.l.l.l.l.l.l.l.l.l.l.l.l.l.l.l.l.l.l.l.l.l.l.l.l.l.l.l.l.l.l.l.l.l.l.l.l.l.l.l.l.l.l.r.g.c.c.f.f.w.=.@.*.=.&.@.@.H 8 t 8 9 @.c.j.c.e.$.$.$.@.@.@.@.@.@.@.@.@.9.g.c.g.A 2 8 f =.c.r.=.@.@.@.@.$.$.$.$.$.$.$.$.*.*.&.&.@.@.@.@.*.] 8           8 f f p f f f f 8 x *.@.@.@.@.@.@.@.@.@.@.@.@.@.@.@.@.@.@.@.@.@.@.@.@.@.@.@.@.@.@.@.@.@.@.@.@.@.@.@.@.@.@. .J J T ^ 3 . . $ $ $ * . P c.g.g.g.g.g.g.@.@.@.@.@.@.@.@.@.@.@.@.@.@.@.@.@.@.@.@.@.@.@.@.@.@.@.@.@.@.@.@.@.@.@.@.@.@.@.@.@.@.@.@.@.@.@.@.@.@.@.@.@.@.@.@.@.@.@.@.@.@.@.@.@.@.@.@.@.@.@.@.@.@.@.@.@.@.@.@.@.@.@.@.@.@.@.@.@.@.@.@.@.@.@.@.@.@.@.@.@.@.@.@.@.@.@.@.@.@.@.@.@.@.@.@.@.@.@.@.@.@.@.@.@.@.@.@.@.@.@.@.@.@.@.@.@.@.@.@.@.@.@.@.@.@.@.@.@.@.@.@.@.@.@.@.@.@.@.@.@.@.%.#.@.} $ $ $ - p.j.j.w.@.@.@.@.@.@.@.@.@.@.@.@.@.@.@.@.@.@.@.@.@.@.@.@.@.@.@.@.@.@.@.@.@.@.@.@.@.( z 4 =   .         = f f f f f f f f 8 ! =.@.@.@.@.@.@.@.@.@.@.@.@.@.@.@.@.@.@.@.@.@.@.@.@.@.@.@.@.@.@.@.@.@.@.@.@.@.@.@.@.@.@.@.@.@.@.@.@.@.$.$.$.$.O.] ^ ! J J J U U U U J J ^ ^ J f 3           X X @ ] g.g.g.g.g.g.g.g.g.g.g.g.g.x.g.g.l.g.q.w.l.c.=.. = ",
". $ $ $ $ . b =.@.@.@.@.&.&.&.&.@.@.@.@.@.@.@.@.@.@.@.@.@.@.@.@.@.@.@.@.@.@.@.@.O.=.<.J @ x e.=.*...#.} = . $ * . $ . Z. X).{.[.[.}.G.g.l.l.l.l.l.l.l.l.l.l.l.l.l.l.l.l.l.l.l.l.l.l.l.l.l.l.l.l.l.l.l.l.l.l.l.l.l.l.l.l.l.l.l.l.c.g.g.c.r.2.@.*.5.&.@.@.*.! 9 f 8 3 @.c.g.c.e.O.$.$.$.@.@.@.@.@.@.@.@.@.@.*.8.c.g.^ 8 5 z r.x.e.@.@.@.@.$.$.$.$.$.$.$.$.*.*.&.&.@.@.@.@.*.( 8 X         8 f g e f f f f 8 x *.@.@.@.@.@.@.@.@.@.@.@.@.@.@.@.@.@.@.@.@.@.@.@.@.@.@.@.@.@.@.@.@.@.@.@.@.@.@.@.@.@.$. .J J P ^ 3 . . $ $ $ * . P c.g.g.g.g.g.g.@.@.@.@.@.@.@.@.@.@.@.@.@.@.@.@.@.@.@.@.@.@.@.@.@.@.@.@.@.@.@.@.@.@.@.@.@.@.@.@.@.@.@.@.@.@.@.@.@.@.@.@.@.@.@.@.@.@.@.@.@.@.@.@.@.@.@.@.@.@.@.@.@.@.@.@.@.@.@.@.@.@.@.@.@.@.@.@.@.@.@.@.@.@.@.@.@.@.@.@.@.@.@.@.@.@.@.@.@.@.@.@.@.@.@.@.@.@.@.@.@.@.@.@.@.@.@.@.@.@.@.@.@.@.@.@.@.@.@.@.@.@.@.@.@.@.@.@.@.@.@.@.@.@.@.@.@.@.@.@.@.@.%.#.@.} $ $ $ - p.j.j.w.@.@.@.@.@.@.@.@.@.@.@.@.@.@.@.@.@.@.@.@.@.@.@.@.@.@.@.@.@.@.@.@.@.@.@.@.@.( z 4 =             = h f f f f f f f 8 ^ =.@.@.@.@.@.@.@.@.@.@.@.@.@.@.@.@.@.@.@.@.@.@.@.@.@.@.@.@.@.@.@.@.@.@.@.@.@.@.@.@.@.@.@.@.@.@.@.@.@.*.@.] ( ^ ! J J J J J J H J J J ^ U x 2   X X         X Z f.c.x.g.g.g.g.g.g.g.g.g.g.g.g.g.j.g.r.2.=.8.l.c.=.. = ",
". $ $ $ $ . b =.@.@.@.@.@.@.@.@.@.@.@.@.@.@.@.@.@.@.@.@.@.@.@.@.@.@.@.@.@.@.@.@.=. .f 2 ] 6.=.] *...#.} = . $ * . $ . Z. X).{.[.[.}.I.g.l.l.l.l.l.l.l.l.l.l.l.l.l.l.l.l.l.l.l.l.l.l.l.l.l.l.l.l.l.l.l.l.l.l.l.l.l.l.l.l.l.l.l.l.l.c.g.6.2.&.@.*.@.@.&.5.' 8 7 d 8 ] C.g.c.r.@.@.$.$.$.@.@.@.@.@.@.@.@.@.=.@.@.<.x.c.] 8 3 H g.j.=.@.@.@.$.$.$.$.$.$.$.$.*.*.&.&.@.@.@.@.*.H 8 X         8 f f 8 f f f f 8 x *.@.@.@.@.@.@.@.@.@.@.@.@.@.@.@.@.@.@.@.@.@.@.@.@.@.@.@.@.@.@.@.@.@.@.@.@.@.@.@.@.@.$. .J J P / 3 . . $ $ $ * . P c.g.g.g.g.g.g.@.@.@.@.@.@.@.@.@.@.@.@.@.@.@.@.@.@.@.@.@.@.@.@.@.@.@.@.@.@.@.@.@.@.@.@.@.@.@.@.@.@.@.@.@.@.@.@.@.@.@.@.@.@.@.@.@.@.@.@.@.@.@.@.@.@.@.@.@.@.@.@.@.@.@.@.@.@.@.@.@.@.@.@.@.@.@.@.@.@.@.@.@.@.@.@.@.@.@.@.@.@.@.@.@.@.@.@.@.@.@.@.@.@.@.@.@.@.@.@.@.@.@.@.@.@.@.@.@.@.@.@.@.@.@.@.@.@.@.@.@.@.@.@.@.@.@.@.@.@.@.@.@.@.@.@.@.@.@.@.@.@.%.#.#.} $ $ $ - p.k.j.w.@.@.@.@.@.@.@.@.@.@.@.@.@.@.@.@.@.@.@.@.@.@.@.@.@.@.@.@.@.@.@.@.@.@.@.@.@.( z 4 =   .         = f f f f f f f f 8 ! =.@.@.@.@.@.@.@.@.@.@.@.@.@.@.@.@.@.@.@.@.@.@.@.@.@.@.@.@.@.@.@.@.@.@.@.@.@.@.@.@.@.@.@.@.@.@.@.@.@.] ] ^ J J J J J J J J J D J U H D 8 X   X     X   X x 5.V.x.g.c.g.g.g.g.g.g.g.g.g.g.g.g.g.f.6.@.@.@.5.l.c.=.. $ ",
". $ $ $ $ . x =.@.@.@.@.@.@.@.@.@.@.@.@.@.@.@.@.@.@.@.@.@.@.@.@.@.@.@.@.@.@.@.@.J 2 d *.6.@.O.$.*...#.} = . $ $ . . . Z.|.).{._.[.}.G.g.l.l.l.l.l.l.l.l.l.l.l.l.l.l.l.l.l.l.l.l.l.l.l.l.l.l.l.l.l.l.l.l.l.l.l.l.l.l.l.l.l.l.l.l.l.w.=.*.@.=.=.&.&.=.=.@.7 d t 3 J c.g.j.f.=.<.=.$.$.$.@.@.@.@.@.@.@.@.@.@.*.$.O.*.f.V.] 8 8 ] V.e.@.@.@.$.$.$.$.$.$.$.$.*.*.&.&.@.@.@.@.$.Z 8 +         8 f f 8 f f f f 8 z *.@.@.@.@.@.@.@.@.@.@.@.@.@.@.@.@.@.@.@.@.@.@.@.@.@.@.@.@.@.@.@.@.@.@.@.@.@.@.@.@.@.$. .J J P / 4 . . $ $ $ * . P c.g.g.g.g.g.g.@.@.@.@.@.@.@.@.@.@.@.@.@.@.@.@.@.@.@.@.@.@.@.@.@.@.@.@.@.@.@.@.@.@.@.@.@.@.@.@.@.@.@.@.@.@.@.@.@.@.@.@.@.@.@.@.@.@.@.@.@.@.@.@.@.@.@.@.@.@.@.@.@.@.@.@.@.@.@.@.@.@.@.@.@.@.@.@.@.@.@.@.@.@.@.@.@.@.@.@.@.@.@.@.@.@.@.@.@.@.@.@.@.@.@.@.@.@.@.@.@.@.@.@.@.@.@.@.@.@.@.@.@.@.@.@.@.@.@.@.@.@.@.@.@.@.@.@.@.@.@.@.@.@.@.@.@.@.@.@.@.$.$.#.#.` $ $ $ - p.k.j.w.@.@.@.@.@.@.@.@.@.@.@.@.@.@.@.@.@.@.@.@.@.@.@.@.@.@.@.@.@.@.@.@.@.@.@.@.@.( z 4 =   .         = h f f f f f f f 8 ! =.@.@.@.@.@.@.@.@.@.@.@.@.@.@.@.@.@.@.@.@.@.@.@.@.@.@.@.@.@.@.@.@.@.@.@.@.@.@.@.@.@.@.@.@.@.@.@.@.@.J J J J J J J J J J J J J ( ! x +     X         9 O.x.x.f.j.f.j.g.g.g.g.g.g.g.g.g.g.g.g.5.*.@.@.=.&.5.g.c.*.. $ ",
". $ $ $ $ . v =.@.@.@.@.@.@.@.@.@.@.@.@.@.@.@.@.@.@.@.@.@.@.@.@.=.@. .@.@.=.=.k   A 6.=.@.=.@.@.@...%.@.. . $ $ . . . Z.|.).{._.[.}.G.g.l.l.l.l.l.l.l.l.l.l.l.l.l.l.l.l.l.l.l.l.l.l.l.l.l.l.l.l.l.l.l.l.l.l.l.l.c.g.g.c.f.c.c.f.6.=.@.@.@.@.@.@.] =.O.h 3 8 5 A g.c.f.g.*.*.*.$.$.@.@.@.@.@.@.@.@.@.@.@.@.@.@.@.@.$.e.m.8.9 8 6.c.8.@.@.$.$.$.$.$.$.$.$.*.*.*.*.@.@.@.@.@.z 8 X         8 f f 8 f f f f 8 x *.@.@.@.@.@.@.@.@.@.@.@.@.@.@.@.@.@.@.@.@.@.@.@.@.@.@.@.@.@.@.@.@.@.@.@.@.@.@.@.@.@.$.) U J T ^ 3 . . $ $ $ * . P c.g.g.g.g.c.6.@.@.@.@.@.@.@.@.@.@.@.@.@.@.@.@.@.@.@.@.@.@.@.@.@.@.@.@.@.@.@.@.@.@.@.@.@.@.@.@.@.@.@.@.@.@.@.@.@.@.@.@.@.@.@.@.@.@.@.@.@.@.@.@.@.@.@.@.@.@.@.@.@.@.@.@.@.@.@.@.@.@.@.@.@.@.@.@.@.@.@.@.@.@.@.@.@.@.@.@.@.@.@.@.@.@.@.@.@.@.@.@.@.@.@.@.@.@.@.@.@.@.@.@.@.@.@.@.@.@.@.@.@.@.@.@.@.@.@.@.@.@.@.@.@.@.@.@.@.@.@.@.@.@.@.@.@.@.@.@.@.$.$.%.%.` $ $ $ = p.k.j.w.@.@.@.@.@.@.@.@.@.@.@.@.@.@.@.@.@.@.@.@.@.@.@.@.@.@.@.@.@.@.@.@.@.@.@.@.@.( z 4 O             = f f f f f f f f 8 ! =.@.@.@.@.@.@.@.@.@.@.@.@.@.@.@.@.@.@.@.@.@.@.@.@.@.@.@.@.@.@.@.@.@.@.@.@.@.@.@.@.@.*.@.@.=.=.O.( H J J J J J J J J H D H J ! Z 9     X X     X 3 ! g.g.g.g.g.g.g.g.g.g.g.g.c.g.g.c.g.w.5.=.@.@.&.&.@.&.*.f.c.*.. $ ",
". $ $ $ $ . v -.@.@.@.@.@.@.@.@.@.@.@.@.@.@.@.@.@.@.@.@.@.@.@.@.@.$.@.@.*.( : @ @.=.*.O.*.] @.@.$.*.*.... . $ $ . . . Z.}.)._._.[.}.G.g.l.l.l.l.l.l.l.l.l.l.l.l.l.l.l.l.l.l.l.l.l.l.l.l.l.l.l.l.l.l.l.l.l.l.l.l.N.c.x.c.x.g.e.=.@.@.@.@.@.@.@.@.=.( h 8 d @ k g.c.g.g.=.*.*.*.$.$.@.@.@.@.@.@.@.@.@.@.@.@.@.@.@.@.$.=.<.V.e.z f g.c.@.*.$.$.$.$.$.$.$.$.*.*.*.*.@.@.@.@.] f 7 X         8 f f 8 f f f f 8 x *.@.@.@.@.@.@.@.@.@.@.@.@.@.@.@.@.@.@.@.@.@.@.@.@.@.@.@.@.@.@.@.@.@.@.@.@.@.@.@.@.@.$.) U J T ^ 3 . . $ $ $ $ . P c.g.g.g.g.g.=.O.@.@.@.@.@.@.@.@.@.@.@.@.@.@.@.@.@.@.@.@.@.@.@.@.@.@.@.@.@.@.@.@.@.@.@.@.@.@.@.@.@.@.@.@.@.@.@.@.@.@.@.@.@.@.@.@.@.@.@.@.@.@.@.@.@.@.@.@.@.@.@.@.@.@.@.@.@.@.@.@.@.@.@.@.@.@.@.@.@.@.@.@.@.@.@.@.@.@.@.@.@.@.@.@.@.@.@.@.@.@.@.@.@.@.@.@.@.@.@.@.@.@.@.@.@.@.@.@.@.@.@.@.@.@.@.@.@.@.@.@.@.@.@.@.@.@.@.@.@.@.@.@.@.@.@.@.@.@.@.@.$.@.%.%.` $ $ $ = p.k.j.w.@.@.@.@.@.@.@.@.@.@.@.@.@.@.@.@.@.@.@.@.@.@.@.@.@.@.@.@.@.@.@.@.@.@.@.@.@.( z 4 O       .   . = f f f f f f f f 8 ! =.@.@.@.@.@.@.@.@.@.@.@.@.@.@.@.@.@.@.@.@.@.@.@.@.@.@.@.@.@.@.@.@.@.@.@.@.@.@.@.@.@.@.*.*.@.' ( U J J J J J J J J J J J J J h @     X X       x 8.c.g.g.g.g.g.g.g.g.g.g.g.g.g.c.g.r.5.=.@.@.@.@.&.&.@.&.*.f.c.=.. $ ",
". $ $ $ $ . x -.@.@.@.@.@.@.@.@.@.@.@.@.@.@.@.@.@.@.@.@.@.@.@.@.$.@.$.*.A   h =.*.$.O.=.=.@.=.$.=.] N g . $ $ $ . . . Z.|.).{._.[.}.G.g.l.l.l.l.l.l.l.l.l.l.l.l.l.l.l.l.l.l.l.l.l.l.l.l.l.l.l.l.l.l.l.l.l.l.l.g.g.l.c.x.w.=.@.@.@.@.$.$.@.@.@.@. .h 5 8 7 x r.c.f.j.=.$.*.*.*.$.$.@.@.@.@.@.@.@.@.@.@.@.@.@.@.@.@.@.*.*.=.c.f.k x c.e.@.$.$.$.$.$.$.$.$.*.*.*.*.@.@.@.@.J 8 7 X         8 f f 8 f f f f 8 x *.@.@.@.@.@.@.@.@.@.@.@.@.@.@.@.@.@.@.@.@.@.@.@.@.@.@.@.@.@.@.@.@.@.@.@.@.@.@.@.@.@.$.] U T T ^ 3 . . . $ $ $ . P c.g.g.g.g.e.@.@.@.@.@.@.@.@.@.@.@.@.@.@.@.@.@.@.@.@.@.@.@.@.@.@.@.@.@.@.@.@.@.@.@.@.@.@.@.@.@.@.@.@.@.@.@.@.@.@.@.@.@.@.@.@.@.@.@.@.@.@.@.@.@.@.@.@.@.@.@.@.@.@.@.@.@.@.@.@.@.@.@.@.@.@.@.@.@.@.@.@.@.@.@.@.@.@.@.@.@.@.@.@.@.@.@.@.@.@.@.@.@.@.@.@.@.@.@.@.@.@.@.@.@.@.@.@.@.@.@.@.@.@.@.@.@.@.@.@.@.@.@.@.@.@.@.@.@.@.@.@.@.@.@.@.@.@.@.@.@.@.$.@.%.=.` $ $ $ = g.c.j.9.@.@.@.@.@.@.@.@.@.@.@.@.@.@.@.@.@.@.@.@.@.@.@.@.@.@.@.@.@.@.@.@.@.@.@.@.@.( z 4 O           . = f f f f d d f f t ! =.@.@.@.@.@.@.@.@.@.@.@.@.@.@.@.@.@.@.@.@.@.@.@.@.@.@.@.@.@.@.@.@.@.@.@.@.@.@.@.@.@.O.@.] ( J J U ^ U J J J J J J J ! ! x :   X     X   X t *.j.c.g.g.g.g.g.g.g.g.g.g.g.g.g.j.g.6.@.@.@.$.$.@.@.&.&.@.&.*.f.c.=.. & ",
". $ $ $ $ . x -.@.@.@.@.@.@.@.@.@.@.@.@.@.@.@.@.@.@.@.@.@.@.@.@.] =.( 3   ! $.@.] <.5.$.*.=.J d : X     . . $ $ . . . Z.|.).{._.[.}.G.g.l.l.l.l.l.l.l.l.l.l.l.l.l.l.l.l.l.l.l.l.l.l.l.l.l.l.l.l.l.l.l.l.l.l.l.l.c.c.r.2.@.O.@.=.$.$.$.$.@.@.@.@.h 8 8 8 d 6.c.g.g.=.$.@.$.$.$.$.$.@.@.@.@.@.@.@.@.@.@.@.@.@.@.@.@.@.@.@.@.@.9.c.x U C.<.$.$.$.$.$.$.$.$.*.*.*.*.@.$.@.@.D 3 7 X         8 f f 8 f f f f 8 x *.@.@.@.@.@.@.@.@.@.@.@.@.@.@.@.@.@.@.@.@.@.@.@.@.@.@.@.@.@.@.@.@.@.@.@.@.@.@.@.@.@.$.] U T T ^ 3 . . . $ $ $ . J c.g.g.g.g.6.@.@.@.@.@.@.@.@.@.@.@.@.@.@.@.@.@.@.@.@.@.@.@.@.@.@.@.@.@.@.@.@.@.@.@.@.@.@.@.@.@.@.@.@.@.@.@.@.@.@.@.@.@.@.@.@.@.@.@.@.@.@.@.@.@.@.@.@.@.@.@.@.@.@.@.@.@.@.@.@.@.@.@.@.@.@.@.@.@.@.@.@.@.@.@.@.@.@.@.@.@.@.@.@.@.@.@.@.@.@.@.@.@.@.@.@.@.@.@.@.@.@.@.@.@.@.@.@.@.@.@.@.@.@.@.@.@.@.@.@.@.@.@.@.@.@.@.@.@.@.@.@.@.@.@.@.@.@.@.@.@.@.$.@.%.=.` $ $ $ - g.c.j.9.@.@.@.@.@.@.@.@.@.@.@.@.@.@.@.@.@.@.@.@.@.@.@.@.@.@.@.@.@.@.@.@.@.@.@.@.@.( z 3 O           . = f f f f d d d f 8 ! =.@.@.@.@.@.@.@.@.@.@.@.@.@.@.@.@.@.@.@.@.@.@.@.@.@.@.@.@.@.@.@.@.@.@.@.@.@.@.@.@.@.] ^ J J J U U U U U J J J J J J H 8 +   X         3 ' c.m.g.j.x.g.g.g.g.g.g.g.g.g.g.g.g.6.=.@.$.$.$.$.$.@.@.&.&.@.&.*.f.c.=.. $ ",
". $ $ $ $ . x -.@.@.@.@.@.@.@.@.@.@.@.@.@.@.@.@.@.@.@.@.@.*.$.$.=.k   8 ] <.*.=.=.@.] f @       f J 6.7.- . $ $ . . . Z.|.).{._.[.|.G.g.z.l.l.l.l.l.l.l.l.l.l.l.l.l.l.l.l.l.l.l.l.l.l.l.l.l.l.l.l.l.l.l.c.g.g.c.g.6.=.=.@.@.@.@.$.$.$.$.@.=. .x 7 d 8 8 5.c.r.g.<.*.$.*.$.$.$.@.@.@.@.@.@.@.@.@.@.@.@.@.@.@.@.@.@.@.@.@.*.$.@.=.x.U ' g.@.@.$.*.$.@.@.@.*.*.*.*.@.$.@.=.z 6 7 X         8 f f f f f f f 8 x *.@.@.@.@.@.@.@.@.@.@.@.@.@.@.@.@.@.@.@.@.@.@.@.@.@.@.@.@.@.@.@.@.@.@.@.@.@.@.@.@.@.@.^ T J P ^ = . . . $ $ $ . J c.g.j.c.c.=.@.@.@.@.@.@.@.@.@.@.@.@.@.@.@.@.@.@.@.@.@.@.@.@.@.@.@.@.@.@.@.@.@.@.@.@.@.@.@.@.@.@.@.@.@.@.@.@.@.@.@.@.@.@.@.@.@.@.@.@.@.@.@.@.@.@.@.@.@.@.@.@.@.@.@.@.@.@.@.@.@.@.@.@.@.@.@.@.@.@.@.@.@.@.@.@.@.@.@.@.@.@.@.@.@.@.@.@.@.@.@.@.@.@.@.@.@.@.@.@.@.@.@.@.@.@.@.@.@.@.@.@.@.@.@.@.@.@.@.@.@.@.@.@.@.@.@.@.@.@.@.@.@.@.@.@.@.@.@.@.@.@.@.@.@.%./ $ $ $ = g.c.j.9.@.@.@.@.@.@.@.@.@.@.@.@.@.@.@.@.@.@.@.@.@.@.@.@.@.@.@.@.@.@.@.@.@.@.@.@.$.] x 3 O   .       . = f f f f d d f f t U =.@.@.@.@.@.@.@.@.@.@.@.@.@.@.@.@.@.@.@.@.@.@.@.@.@.@.@.@.@.@.@.@.@.$.$.*.*.*.@.] ( U J J J J J U J H H J ^ H ( ! h @   X   X X     D 8.C.g.g.g.g.g.g.g.g.g.c.g.g.j.g.9.<.@.@.@.@.@.$.$.$.$.$.$.*.*.@.&.*.r.c.=.. $ ",
". $ $ $ $ . j =.@.@.@.@.@.@.@.@.@.@.@.@.@.@.@.@.@.@.@.@.=.@.<.' 3   x 5.6.$.] A d X   3 x ] g.A.Y.G.G.Z.- . $ $ . $ . Z.|.).{._.[.|.G.g.z.l.l.l.l.l.l.l.l.l.l.l.l.l.l.l.l.l.l.l.l.l.l.l.l.l.l.l.l.l.l.l.l.c.l.r.=.=.&.O.@.@.@.@.$.$.$.$.=. .x 3 7 t 9 =.c.g.x.*.*.$.*.$.$.@.@.@.@.@.@.@.@.@.@.@.@.@.@.@.@.@.@.@.@.@.$.$.*.*.*.$.*.c. .@.6.@.O.$.@.@.@.@.*.*.*.*.@.$.@.@.g 6 7           8 f f f f f f f 8 x *.@.@.@.@.@.@.@.@.@.@.@.@.@.@.@.@.@.@.@.@.@.@.@.@.@.@.@.@.@.@.@.@.@.@.@.@.@.@.@.@.@.@.^ T J P ^ = . . . $ $ $ . J c.g.x.c.g.$.@.@.@.@.@.@.@.@.@.@.@.@.@.@.@.@.@.@.@.@.@.@.@.@.@.@.@.@.@.@.@.@.@.@.@.@.@.@.@.@.@.@.@.@.@.@.@.@.@.@.@.@.@.@.@.@.@.@.@.@.@.@.@.@.@.@.@.@.@.@.@.@.@.@.@.@.@.@.@.@.@.@.@.@.@.@.@.@.@.@.@.@.@.@.@.@.@.@.@.@.@.@.@.@.@.@.@.@.@.@.@.@.@.@.@.@.@.@.@.@.@.@.@.@.@.@.@.@.@.@.@.@.@.@.@.@.@.@.@.@.@.@.@.@.@.@.@.@.@.@.@.@.@.@.@.@.@.@.@.@.$.@.$.@.@.%./ $ $ $ = p.c.j.9.@.@.@.@.@.@.@.@.@.@.@.@.@.@.@.@.@.@.@.@.@.@.@.@.@.@.@.@.@.@.@.@.@.@.@.@.@.] Z 3 O           . = f f f f d d f f t U =.@.@.@.@.@.@.@.@.@.@.@.@.@.@.@.@.@.@.@.@.@.@.@.@.@.@.@.@.@.@.@.@.$.*.*.*.*.O.] ^ J J J J U U U U J J J J H ! x 3 X X   X X     h 5.c.g.g.g.g.g.g.g.g.g.g.g.x.c.g.r.e.<.@.O.@.@.@.@.$.$.$.$.$.$.*.*.@.&.&.r.c.=.. $ ",
". $ $ $ $ . j =.@.@.@.@.@.@.@.@.@.@.@.@.@.@.@.@.@.@.@.@.*.@.D @ @ D  .A : 2 : d U 6.c.U.E.Y.D.f.e.%.=.p.- . * $ . $ . Z. X).{.[.[.|.G.g.l.z.l.l.l.l.l.l.l.l.l.l.l.l.l.l.l.l.l.l.l.l.l.l.l.l.l.l.l.l.l.l.l.g.6.@.O.&.*.@.@.@.@.@.$.$.$.$.@.Z 8 5 9 8 @.c.x.g.e.@.$.*.*.$.$.@.@.@.@.@.@.@.@.@.@.@.@.@.@.@.@.@.@.@.@.@.$.$.*.*.*.*.@.O.r.*.6.@.@.<.@.@.@.@.*.*.*.*.@.@.*.] 8 8 7           8 f f f f f f f 8 x *.@.@.@.@.@.@.@.@.@.@.@.@.@.@.@.@.@.@.@.@.@.@.@.@.@.@.@.@.@.@.@.@.@.@.@.@.@.@.@.@.@.@.T U J P ^ = . . . $ $ $ . J c.g.c.x.e.@.@.@.@.@.@.@.@.@.@.@.@.@.@.@.@.@.@.@.@.@.@.@.@.@.@.@.@.@.@.@.@.@.@.@.@.@.@.@.@.@.@.@.@.@.@.@.@.@.@.@.@.@.@.@.@.@.@.@.@.@.@.@.@.@.@.@.@.@.@.@.@.@.@.@.@.@.@.@.@.@.@.@.@.@.@.@.@.@.@.@.@.@.@.@.@.@.@.@.@.@.@.@.@.@.@.@.@.@.@.@.@.@.@.@.@.@.@.@.@.@.@.@.@.@.@.@.@.@.@.@.@.@.@.@.@.@.@.@.@.@.@.@.@.@.@.@.@.@.@.@.@.@.@.@.@.@.@.@.@.@.@.@.$.@.@.=./ $ $ $ = g.c.k.9.@.$.$.$.@.@.@.@.@.@.@.@.@.@.@.@.@.@.@.@.@.@.@.@.@.@.@.@.@.@.@.@.@.@.@.@.@.] Z 3 O   .         = f f f f f f f f t U =.@.@.@.@.@.@.@.@.@.@.@.@.@.@.@.@.@.@.@.@.@.@.@.@.@.@.@.@.@.@.@.@.@.*.@.@.] ^ U J J J U U U U U U U H ( ( J 8 X   X   +     f @.c.C.r.g.x.g.g.g.g.g.g.g.g.g.g.g.w.=.O.@.*.=.@.@.@.@.$.$.$.$.$.$.*.*.@.&.@.w.c.>.. = ",
". $ $ $ $ . j =.@.@.@.@.@.@.@.@.@.@.@.@.@.@.@.@.@.@.@.@.] 3     8 t t D  .w.G.Y.E.G.c.e.=.@.O.@. .@.=.9.- . * $ . $ . Z. X).{.[.[.|.G.g.l.z.l.l.l.l.l.l.l.l.l.l.l.l.l.l.l.l.l.l.l.l.l.l.l.l.l.l.l.l.l.l.6.=.@.*.*.@.@.*.@.@.@.@.$.$.$.$.A 8 7 f 9 ] C.g.x.6.@.@.*.*.*.$.$.@.@.@.@.@.@.@.@.@.@.@.@.@.@.@.@.@.@.@.@.@.$.$.*.*.*.*.$.@.@.=.e.6.*.@.@.@.@.@.*.*.*.*.@.@.*.! 9 8 7           8 f f f f f f f 8 x *.@.@.@.@.@.@.@.@.@.@.@.@.@.@.@.@.@.@.@.@.@.@.@.@.@.@.@.@.@.@.@.@.@.@.@.@.@.@.@.@.@.@.T U J P ^ = . . . $ $ $ . J c.g.x.j.6.@.@.@.@.@.@.@.@.@.@.@.@.@.@.@.@.@.@.@.@.@.@.@.@.@.@.@.@.@.@.@.@.@.@.@.@.@.@.@.@.@.@.@.@.@.@.@.@.@.@.@.@.@.@.@.@.@.@.@.@.@.@.@.@.@.@.@.@.@.@.@.@.@.@.@.@.@.@.@.@.@.@.@.@.@.@.@.@.@.@.@.@.@.@.@.@.@.@.@.@.@.@.@.@.@.@.@.@.@.@.@.@.@.@.@.@.@.@.@.@.@.@.@.@.@.@.@.@.@.@.@.@.@.@.@.@.@.@.@.@.@.@.@.@.@.@.@.@.@.@.@.@.@.@.@.@.@.@.@.@.@.@.@.@.@.@.=./ $ $ $ = p.c.k.9.@.@.$.$.@.@.@.@.@.@.@.@.@.@.@.@.@.@.@.@.@.@.@.@.@.@.@.@.@.@.@.@.@.@.@.@.@.] A 3 O             = f f f f f f f f t U =.@.@.@.@.@.@.@.@.@.@.@.@.@.@.@.@.@.@.@.@.@.@.@.@.@.@.@.@.@.@.@.@.@.@.] ( ^ H H J ! ! U U J U U U U U ! Z 3       X     : ! f.x.c.g.r.x.c.g.g.g.g.g.g.g.g.g.r.<.@.@.*.*.$.@.@.@.@.@.$.$.$.$.$.$.*.*.@.&.@.w.c.>.. = ",
". $ $ $ $ . j =.@.@.@.@.@.@.@.@.@.@.@.@.@.@.@.@.@.$.@. .@ @ Z @.9.c.Y.Y.G.F.g.6.$.@.@.@.@.@.@.@.$.@.@.#.= . $ $ . . . Z.|.).{._._.}.G.f.c.x.g.g.g.g.g.g.g.g.g.g.g.g.g.g.g.j.c.c.x.x.x.x.x.x.x.x.j.r.8.6.$.$.$.$.@.@.@.@.=.@.$.@.*.=.*.H 8 8 8 5  .c.x.f.8.*.@.$.@.@.@.@.@.@.@.@.@.@.@.@.@.@.@.@.@.@.@.@.@.@.@.@.@.@.@.@.@.@.@.@.@.@.@.@.*.*.*.*.@.@.@.@.@.@.@.@.@.@.$.H 8 8 8           8 f g f f f f f 8 x *.@.@.@.@.@.@.@.@.@.@.@.@.@.@.@.@.@.@.@.@.@.@.@.@.@.@.@.@.@.@.@.@.@.@.@.@.@.@.@.@.@.@.^ U J T ^ 3 . . . $ $ $ . J c.g.g.c.<.@.@.@.@.@.@.@.@.@.@.@.@.@.@.@.@.@.@.@.@.@.@.@.@.@.@.@.@.@.@.@.@.@.@.@.@.@.@.@.@.@.@.@.$.@.@.@.@.@.@.@.@.@.@.@.@.@.@.@.@.$.$.$.$.$.$.$.$.$.$.$.$.*.*.*.*.$.$.$.@.@.@.@.@.@.@.@.@.@.@.@.@.@.@.@.@.@.@.@.@.@.@.@.@.@.@.@.@.@.@.@.@.@.@.@.@.@.@.@.@.@.@.@.@.@.@.@.@.@.@.@.@.@.@.@.@.@.@.@.@.@.@.@.@.@.@.@.@.@.@.@.@.@.@.@.@.@.@.@.@.@.@.@.@.@.@.=.) $ $ $ = y.k.j.r.@.@.@.@.@.@.@.@.@.@.@.@.@.@.@.@.@.@.@.@.@.@.@.@.@.@.@.@.@.@.@.@.@.@.@.@.@. .A 3 @             = h h f f f f f d 8 U =.@.@.@.@.@.@.@.@.@.@.@.@.@.@.@.@.@.@.@.@.@.@.@.@.@.@.@.@.@.@.$.$.@.O.( J ! J J J J U U ! J J J U U H 8 X X           k 8.G.g.g.g.g.j.j.j.g.m.j.g.j.c.f.6.@.@.@.@.$.$.$.@.@.@.@.@.@.@.@.@.@.@.@.&.&.@.&.@.6.c.>.. = ",
". $ $ $ $ . j =.@.@.@.@.@.@.@.@.@.@.@.@.@.@.@.@.=.@.=.x @ x.E.G.m.j.w.5.@.$.@.] @.@.$.$.@.@.@.@.@.@.@.#.= . $ $ . . . Z.|.).{._._.}.G.f.c.c.j.g.j.x.c.c.c.c.c.c.c.c.c.c.c.c.j.g.g.g.g.g.8.8.8.8.=.*.@.@.$.$.$.$.@.@.@.@.O.*. .@.=.] h 8 7 5 8 J c.g.g.8.*.@.$.*.@.@.@.@.@.@.@.@.@.@.@.@.@.@.@.@.@.@.@.@.@.@.@.@.@.@.@.@.@.@.@.@.@.@.@.@.$.$.$.$.@.@.@.@.@.@.@.@.@.@.@.Z 8 t 8           8 f f f f f f f 8 x *.@.@.@.@.@.@.@.@.@.@.@.@.@.@.@.@.@.@.@.@.@.@.@.@.@.@.@.@.@.@.@.@.@.@.@.@.@.@.@.@.@.@.^ U J T ^ 3 . . . $ $ * . J c.g.g.g.=.@.@.@.@.@.@.@.@.@.@.@.@.@.@.@.@.@.@.@.@.@.@.@.@.@.@.@.@.@.@.@.@.@.@.@.@.@.@.@.$.$.$.@.@.=.@.O.] ] ] ] ] ] ] ] ] ] ] ] ] ] ] ] ] ] ] ] ] ] ] ] ] ] ] ] ] ] ] ] ] @.@.@.@.=.=.=.=.@.@.@.@.$.$.$.$.*.*.*.*.@.@.@.@.@.@.@.@.@.@.@.@.@.@.@.@.@.@.@.@.@.@.@.@.@.@.@.@.@.@.@.@.@.@.@.@.@.@.@.@.@.@.@.@.@.@.@.@.@.@.@.@.@.@.@.@.@.@.@.@.@.@.@.@.@.@.=.) $ $ $ = y.k.j.r.@.@.@.@.@.@.@.@.@.@.@.@.@.@.@.@.@.@.@.@.@.@.@.@.@.@.@.@.@.@.@.@.@.@.@.@.@. .A 3 @       .     = f h f f f f f d 8 U =.@.@.@.@.@.@.@.@.@.@.@.@.@.@.@.@.@.@.@.@.@.@.@.@.@.@.@.@.@.*.*.@.@.' U H J J J J J J J U ! J ^ J Z X     X @ +   t @.g.c.g.g.g.g.g.j.j.j.j.c.c.c.x.e.<.*.@.@.$.$.$.$.$.@.@.@.@.@.@.@.@.@.@.@.@.&.&.@.&.&.6.c.=.. = ",
". $ $ $ $ . j =.@.@.@.@.@.@.@.@.@.@.@.@.@.@.@.@.=.@.@.@ ] E.8.=.*.@.@.*.@.$.*.$.$.$.$.$.@.@.@.@.@.@.$.#.= . $ $ . $ . Z. X).{._._.}.G.f.c.c.x.g.g.g.g.g.r.r.r.r.8.8.8.8.=.=.=.*.@.@.@.@.$.@.@.@.@.@.@.@.@.$.$.$.@.@.@.@.O.@.=.] A 8 7 8 3 f  .x.c.j.r.@.@.$.*.*.@.@.@.@.@.@.@.@.@.@.@.@.@.@.@.@.@.@.@.@.@.@.@.@.@.@.@.@.@.@.@.@.@.@.@.@.@.@.@.@.@.@.@.@.@.@.@.@.@.*.@.f 8 t 8           8 f h f f f f f 8 x *.@.@.@.@.@.@.@.@.@.@.@.@.@.@.@.@.@.@.@.@.@.@.@.@.@.@.@.@.@.@.@.@.@.@.@.@.@.@.@.@.@.@.U J J T ^ 3 . . . $ $ * . J c.g.c.9.@.@.@.@.@.@.@.@.@.@.@.@.@.@.@.@.@.@.@.@.@.@.@.@.@.@.@.@.@.@.@.@.@.@.@.@.@.@.@.@.@.$.@. .] ] ( ! J J J J J J J J J J J J J J J J J J J J J J J J J U U U U J J J J ( ( ( ( ] ] ] ] @.@.@.@.*.*.*.*.$.$.$.$.@.@.@.@.@.@.@.@.@.@.@.@.@.@.@.@.@.@.@.@.@.@.@.@.@.@.@.@.@.@.@.@.@.@.@.@.@.@.@.@.@.@.@.@.@.@.@.@.@.@.@.@.@.@.@.@.@.@.@.@.@.@.@.@.@.@.=./ $ $ $ = y.j.j.i.@.@.@.@.@.@.@.@.@.@.@.@.@.@.@.@.@.@.@.@.@.@.@.@.@.@.@.@.@.@.@.@.@.@.@.@.@. .A 3 @             = f h f f f f f d 8 J =.@.@.@.@.@.@.@.@.@.@.@.@.@.@.@.@.@.@.@.@.@.@.@.@.@.@.@.@.@.=.@.' J U J J J J J J J J J J J ' A 9             3 ] g.C.c.r.x.g.g.g.g.j.j.j.j.c.x.r.=.@.@.$.*.*.$.@.@.$.$.@.@.@.@.@.@.@.@.@.@.@.@.&.&.@.&.&.6.c.=.. = ",
". $ $ $ $ . v =.@.@.@.@.@.@.@.@.@.@.@.@.@.@.@.@.@.$.k @ G.g.*.$.@.*.=.*.]  .@.$.@.$.$.$.@.@.@.@.@.@.$.#.= . $ $ . $ . Z. X).{._._.}.G.f.e.8.6.6.=.=.=.=.@.@.@.@.@.@.@.@.@.@.$.*.@.@.@.@.$.$.$.$.@.@.@.@.$.$.$.$.@.@.@.@.*.*.J t 3 8 8 h ] r.c.r.x.9.@.@.$.$.$.$.@.@.@.@.@.@.@.@.@.@.@.@.@.@.@.@.@.@.@.@.@.@.@.@.@.@.@.@.@.@.@.@.@.@.@.@.@.@.@.@.@.@.@.@.@.@.@.@.$.=. .7 8 8 8           8 h h f f f f f 8 x *.@.@.@.@.@.@.@.@.@.@.@.@.@.@.@.@.@.@.@.@.@.@.@.@.@.@.@.@.@.@.@.@.@.@.@.@.@.@.@.@.@.@.U J J P ^ 3 . . . $ $ * . J c.g.c.8.@.@.@.@.@.@.@.@.@.@.@.@.@.@.@.@.@.@.@.@.@.@.@.@.@.@.@.@.@.@.@.@.@.@.@.@.@.@.@.@.@. .] ( U ^ ^ ^ ^ ^ ^ ^ ^ ^ ^ ^ ^ ^ ^ ^ ^ ^ ^ ^ ^ ^ ^ ^ ^ ^ ^ ^ ^ ^ ! ! ! ^ ^ ^ ! U J J J J J U U ! ! ^ ! ( ( ( (  . . . .@.@.@.@.@.@.@.@.@.@.@.@.@.@.@.@.@.@.@.@.@.@.@.@.@.@.@.@.@.@.@.@.@.@.@.@.@.@.@.@.@.@.@.@.@.@.@.@.@.@.@.@.@.@.@.@.@.@.@.@.@.@.@.@.@.@.=./ $ $ $ = y.j.j.i.@.@.@.@.@.@.@.@.@.@.@.@.@.@.@.@.@.@.@.@.@.@.@.@.@.@.@.@.@.@.@.@.@.@.@.@.@.O.A 3 @       .     = f h f f f f f d 8 J =.@.@.@.@.@.@.@.@.@.@.@.@.@.@.@.@.@.@.@.@.@.@.@.@.@.@.@.@.@.^ J J J H J ^ J J J J J J J J J 8 X   X @     + A w.V.x.g.g.c.g.g.g.g.g.j.j.j.j.e.=.@.@.@.$.*.$.$.@.@.@.$.$.@.@.@.@.@.@.@.@.@.@.@.@.&.&.@.&.@.6.c.>.. = ",
". $ $ $ $ . x =.@.@.@.@.&.&.&.&.@.@.@.@.@.@.@.@.$.] + 5.G.=.@.=.@.@.@.@.@.@.@.@.@.@.$.$.$.$.$.$.$.@.%.} = . $ $ $ $ $ Z..X_.{.{.[..XG.6.@.@.@.@.@.@.@.@.@.@.@.@.@.@.@.@.@.@.@.@.@.@.@.@.@.@.@.@.@.@.@.$.*.@.@.$.*.$.$.*.( k 3 8 5 x ] r.j.j.j.j.8.$.@.@.@.$.$.$.@.@.@.@.@.@.@.@.@.@.@.@.@.@.@.@.@.@.@.@.@.@.@.@.@.@.@.@.@.@.@.@.@.@.@.@.@.@.@.@.@.@.@.@.@.@.@.@.@.*.U 8 8 8 8           8 f h f f f f f 8 x *.@.@.@.@.@.@.@.@.@.@.@.@.@.@.@.@.@.@.@.@.@.@.@.@.@.@.@.@.@.@.@.@.@.@.@.@.@.@.@.@.@.@.^ J J P ^ = . . . $ $ $ . J c.g.g.=.@.@.@.@.@.$.@.@.@.@.@.@.@.@.@.@.@.@.@.@.@.@.@.@.@.@.@.@.@.@.@.@.@.$.$.*.*.=.*.@. .! ! ! ! U U U U U U U U U U U U U U U U U U U U ! U U U U U U U U U U U ! ! ! ! U U U U U U U U ! ! ! ! ! ! ! ! U U U U ^ ^ ^ ^ ( ( ( ( O.O.O.O.@.@.@.@.@.@.@.@.$.$.$.$.$.$.$.$.@.@.@.@.@.@.@.@.$.$.$.$.$.@.@.@.@.@.@.@.@.@.@.@.@.@.@.@.@.@.@.@.@.@.@.@.@.@.=./ $ $ $ = y.j.j.i.@.@.@.@.@.@.@.@.@.@.@.@.@.@.@.@.@.@.@.@.@.@.@.@.@.@.@.@.@.@.@.@.@.@.@.@.@.@.H 3 @             = f h f f f f f d 8 U =.@.@.@.@.@.@.@.@.@.@.@.@.@.*.$.@.@.*.$.@. .@.@.*.*.] ( U J J J J J J J J J J U U J ( ! x @ @   X     X f =.g.g.g.g.g.g.g.x.c.x.x.c.m.g.e.=.@.@.@.@.$.$.$.$.$.$.$.$.$.$.@.@.@.@.@.@.@.@.@.@.@.@.&.&.&.&.&.*.c.>.. = ",
". $ $ $ $ . x =.@.@.@.@.&.@.&.&.@.@.@.@.@.@.@.@.6.h 8 Y.f.$.@.=.@.@.@.@.@.@.@.@.$.$.$.$.$.$.$.$.$.@.%.} = . $ $ $ $ $ Z..X_.[.).[./.f. .@.@.@.@.@.@.@.@.@.@.@.@.@.@.@.@.@.@.@.@.@.@.@.@.@.@.@.@.@.@.@.@.@.=.*.O.<.$.' A d 5 7 Z  .r.D.c.g.r.e.8.$.@.@.@.@.@.@.@.@.@.@.@.@.@.@.@.@.@.@.@.@.@.@.@.@.@.@.@.@.@.@.@.@.@.@.@.@.@.@.@.@.@.@.@.@.@.@.@.@.@.@.@.@.@.@.@.@.@.D 8 8 8 8           8 f h f f f f f 8 x *.@.@.@.@.@.@.@.@.@.@.@.@.@.@.@.@.@.@.@.@.@.@.@.@.@.@.@.@.@.@.@.@.@.@.@.@.@.@.@.@.@.@.^ J J P ^ = . . . $ $ $ . J c.g.r.*.@.@.@.@.@.$.$.@.@.@.@.@.@.@.@.@.@.@.@.@.@.@.@.@.@.@.@.@.@.@.@.@.@.$.$.@.@.O.] ^ J ! ! ! ! U U U U U U U U U U U U U U U U U U U U ! U U U U U U U U U U U ! ! ! ! U U U U U U U U ! ! ! ! ! ! ! ! J J J J J J J J U U U U U U U U ( ( ( ( ] ] ] ] @.@.@.@.$.$.$.$.*.*.*.*.@.@.@.@.$.$.$.$.$.$.$.@.@.@.@.@.@.@.@.@.@.@.@.@.@.@.@.@.@.@.@.@.@.@.=./ $ $ $ = y.g.g.i.@.@.@.@.@.@.@.@.@.@.@.@.@.@.@.@.@.@.@.@.@.@.@.@.@.@.@.@.@.@.@.@.@.@.@.@.@.@.H 3 @       .   . = f h f f f f f d 8 U =.@.@.@.@.@.@.@.@.@.@.@.@.@.@.$.*.*.$.@.$.*.@. .( ! U J J J J J J J J J J J ^ H H U J 9       X   X 3 O.x.c.g.g.g.g.g.g.g.g.g.g.c.c.9.6.$.$.@.@.@.@.$.$.$.$.$.$.$.$.$.$.@.@.@.@.@.@.@.@.@.@.@.@.&.&.&.&.&.$.k.>.. = ",
". $ $ $ $ . x *.@.@.@.@.@.@.@.@.@.@.@.@.@.@.@.@.] X 8.A.=.*.*.@.@.@.@.@.@.@.@.@.$.$.$.$.$.$.$.$.$.@.%.} = . $ $ $ $ $ Z.|.{.{.).Y.D.e.@.@.@.@.@.@.@.@.@.@.@.@.@.@.@.@.@.@.@.@.@.@.@.@.@.@.@.@.@.@.@.@.@.O.] @.6.@.U h 8 8 D *.9.D.c.r.e.=.*.@. .@.@.@.@.@.@.@.@.@.@.@.@.@.@.@.@.@.@.@.@.@.@.@.@.@.@.@.@.@.@.@.@.@.@.@.@.@.@.@.@.@.@.@.@.@.@.@.@.@.@.@.@.@.@.@.@.@.@.x 9 t 8 8           8 f f f f f f f 8 x *.@.@.@.@.@.@.@.@.@.@.@.@.@.@.@.@.@.@.@.@.@.@.@.@.@.@.@.@.@.@.@.@.@.@.@.@.@.@.@.@.@.@.^ J U P ^ = . . . $ $ $ . J c.g.w.@.@.@.@.@.@.$.$.@.@.@.@.@.@.@.@.@.@.@.@.@.@.@.@.@.@.@.@.$.$.$.$.*.*.@.O.] ] ^ J H H ! ! ! ! U U U U U U J U U U U U U U U U U U U U U U U U U U U U U U U U ! ! ! ! U U U U U U U U ! ! ! ! ! ! ! ! J J J J J J J J J J J J U U U U J J J J J J J J ^ ^ ^ ^ ( ( ( (  . . . .@.@.@.@.*.*.*.*.*.*.$.$.@.@.@.@.@.@.@.@.@.@.@.@.@.@.@.@.@.@.@.@.@.@.<./ $ $ $ = y.g.j.i.@.@.@.@.@.@.@.@.@.@.@.@.@.@.@.@.@.@.@.@.@.@.@.@.@.@.@.@.@.@.@.@.@.@.@.@.$.$.J 3 @   .       . = f h f f f f f d 8 U =.@.@.@.@.@.@.@.@.@.@.@.@.@.=.*.*.$.@.] ( ^ J J H H J J U U J J J J J J J J ( ( H k X     X     @ D g.m.V.f.g.g.g.g.g.g.g.g.g.c.f.=.@.@.$.$.$.@.@.@.$.$.$.$.$.$.$.$.$.$.@.@.@.@.@.@.@.@.@.@.@.@.&.&.&.&.@.@.k.>.. = ",
". $ $ $ $ . x *.@.@.@.@.@.@.@.@.@.@.@.@.$.@.@.@.8 k Y.*.@.@.@.$.$.@.@.@.@.@.@.@.$.$.$.$.$.$.$.$.$.@.%.} = . $ $ $ $ . Z..X_.W.V.c.C.r.O.@.@.@.@.@.@.@.@.@.@.@.@.@.@.@.@.@.@.@.@.@.@.@.@.@.@.@.@.@.@.@.@.=.=.@.] f 3 t J 5.c.V.r.8.=.@.@.@.@.@.@.@.@.@.@.@.@.@.@.@.@.@.@.@.@.@.@.@.@.@.@.@.@.@.@.@.@.@.@.@.@.@.@.@.@.@.@.@.@.@.@.@.@.@.@.@.@.@.@.@.@.@.@.@.@.@.@.$.@.f 3 8 8 8           8 f f f f f f f 8 x *.@.@.@.@.@.@.@.@.@.@.@.@.@.@.@.@.@.@.@.@.@.@.@.@.@.@.@.@.@.@.@.@.@.@.@.@.@.@.@.@.@.@.^ J T P ^ = . . . $ $ $ . J c.g.8.@.@.@.@.@.@.$.$.@.@.@.@.@.@.@.@.@.@.@.@.@.@.@.@.@.@.@.@.@.@.] ] ] ] ] ( U H ! ! ! ! ! ! ! ! U U U U U U U U U U U U U U U U U U U U U U U U U U U U U U U U ! ! ! ! U U U U U U U U ! ! ! ! ! ! ! ! J J J J J J J J J J J J J J J J U U U U ! ! ! ! J J J J J J J J J J J J ( ( ( ( ] ] ] ] @.@.*.*.@.@.@.@.@.@.@.@.@.@.@.@.@.@.@.@.@.@.@.@.@.@.=./ . $ $ = p.g.g.i.@.@.@.@.@.@.@.@.@.@.@.@.@.@.@.@.@.@.@.@.@.@.@.@.@.@.@.@.@.@.@.@.@.@.@.@.$.$.J 3 @   .         = f h f f f f f d 8 U =.@.@.@.@.@.@.@.@.@.@.@.@.@.@.] ( ! J J J H ^ U J J J U U U J J J J J J J J ( x 2     X X X + z 8.C.g.r.g.V.g.g.g.g.g.g.g.g.r.=.*.=.O.@.@.*.$.@.@.@.$.$.$.$.$.$.$.$.$.$.@.@.@.@.@.@.@.@.@.@.@.@.&.&.&.&.@.@.k.>.. = ",
". $ $ $ $ . j =.@.@.@.@.@.@.@.@.@.@.@.@.*.@.$. .X g.c.@.@.@.@.@.$.@.@.@.@.@.@.@.$.$.$.$.$.$.$.$.$.@.%.} = . $ $ . . . K._.G.c.x.c.C.e.@.@.@.@.@.@.@.@.@.@.@.@.@.@.@.@.@.@.@.@.@.@.@.@.@.@.@.@.$.$.$.$.*.<. .z 9 h ( r.c.g.e.=.=.$.$.$.$.$.$.$.$.@.@.@.@.@.@.@.@.@.@.@.@.@.@.@.@.@.@.@.@.@.@.@.@.@.@.@.@.@.@.@.@.@.@.@.@.@.@.@.@.@.@.@.@.@.@.@.@.@.@.@.@.@.@.@.@.=.( 8 8 8 8 8           8 f f f f f f f 8 x *.@.@.@.@.@.@.@.@.@.@.@.@.@.@.@.@.@.@.@.@.@.@.@.@.@.@.@.@.@.@.@.@.@.@.@.@.@.@.@.@.@.=.] J J T ^ 3 . . . $ $ $ . J c.g.=.@.#.@.@.@.@.@.@.@.@.@.@.@.@.@.@.@.@.@.*.=.$.=.@.O.] ] ] ( ( ^ ! J J U U U U ! ! ! ! ! ! ! ! U U U U U U U U U U U U U U U U ! ! ! ! ! ! ! ! U U U U ! U U U ! ! ! ! ! ! ! ! ! ! ! ! ! ! ! ! ! ! ! ! U U U U U U U U U U U U U U U U U U U U ! ! ! ! U U U U U U U U U U U U U U U U ! ! ! ! ! U U U ( ( ( ( O.O.O.O.@.@.@.$.$.*.*.*.*.$.$.$.@.=.<.) . $ . = p.g.g.i.@.@.@.@.@.@.@.@.@.@.@.@.@.@.@.@.@.@.@.@.@.@.@.@.@.@.@.@.@.@.@.@.@.@.@.@.*.*.J 3 @   .       . = f h h f f f f d d U =.*.=.=.@.@.=.@.@.] ] ( ( ( ! U J J U J J J J J J J U U U U H J U ! J ^ ^ J h         X   8 *.g.V.r.g.g.g.g.g.g.g.g.c.g.r.6.$.$.$.$.@.@.@.@.@.@.@.@.$.$.$.$.$.$.$.$.$.$.@.@.@.@.@.@.@.@.@.@.@.@.@.@.@.@.@.@.i.>.. & ",
". $ $ $ $ . j -.@.@.@.@.@.@.@.@.@.@.@.@.$.@.6.9 H Y.@.*.@.@.@.@.@.@.@.@.@.@.@.@.$.$.$.$.$.$.$.$.$.@.%.} = . $ $ $ = $ u.A.x.V.D.c.C.e.@.@.@.@.@.@.@.@.@.@.@.@.@.@.@.@.@.@.@.@.@.@.@.@.@.@.@.@.@.@.=.*.@.A t Z ' f.f.9.=.*.$.@.*.$.$.$.$.$.$.$.$.@.@.@.@.@.@.@.@.@.@.@.@.@.@.@.@.@.@.@.@.@.@.@.@.@.@.@.@.@.@.@.@.@.@.@.@.@.@.@.@.@.@.@.@.@.@.@.@.@.@.@.@.@.@.@.@.=.J 7 8 8 8 8           8 f f f f f f f 8 x *.@.@.@.@.@.@.@.@.@.@.@.@.@.@.@.@.@.@.@.@.@.@.@.@.@.@.@.@.@.@.@.@.@.@.@.@.@.@.@.@.@.=.] J U T ^ 3 . . . $ $ $ . J c.r.*.@.#.@.@.@.@.@.@.@.@.@.@.@.@.@.@.$.$.*.@.O.] ' ( ^ ( ! U U U J J U U U U U U ! ! ! ! ! ! ^ ^ ^ ^ ^ ^ ^ ^ ^ ^ ^ ^ ^ ^ ^ ^ ^ ^ ( ( ( ( ( ( ( ( U U U U ! U U U ! ! ! ! ! ! ! ! ! ! ! ! ! ! ! ! ! ! ! ! U U U U U U U U U U U U U U U U U U U U ! ! ! ! U U U U U U U U U U U U U U U U U U U U U U U U U U U U ! ! ! ! ( ( ( ( ] ] ] ] @.@.@.@.@.$.=.} . $ . 1 p.j.j.i.@.@.$.@.@.@.@.@.@.@.@.@.@.@.@.@.@.@.@.@.@.@.@.@.@.@.@.@.@.@.@.@.@.@.@.@.*.$.J 3 @   .       . = f h f f f f f f 8 ( <.O. .] ( ! ( ^ U J H H J J J J U J U U J J J J J U U U U U J ^ ( ! ! J k @     X   X : ( j.C.f.r.c.g.g.g.g.c.c.x.j.r.6.*.@.$.$.$.$.@.@.@.@.@.@.@.@.$.$.$.$.$.$.$.$.$.$.@.@.@.@.@.@.@.@.@.@.@.@.@.@.@.@.@.@.i.>.. & ",
". $ $ $ $ . j -.@.@.@.@.@.@.@.@.@.@.@.@.@.*.] 3 c.w.@.@.@.@.@.@.@.@.@.@.@.@.@.@.$.$.$.$.$.$.$.$.$.@.*.} = . * $ $ * $ >.C.x.V.c.c.C.e.@.@.@.@.@.@.@.@.@.@.@.@.@.@.@.@.@.@.@.@.@.@.@.@.@.@.@.@.@.@.@.( f x =.f.g.6.*.@.O.@.@.*.*.$.$.$.$.$.$.$.$.@.@.@.@.@.@.@.@.@.@.@.@.@.@.@.@.@.@.@.@.@.@.@.@.@.@.@.@.@.@.@.@.@.@.@.@.@.@.@.@.@.@.@.@.@.@.@.@.@.@.@.@.@.@.@.@.*.A 7 d 8 8 8           8 g h f f f f f 8 x *.@.@.@.@.@.@.@.@.@.@.@.@.@.@.@.@.@.@.@.@.@.@.@.@.@.@.@.@.@.@.@.@.@.@.@.@.@.@.@.@.@.=.) U U T ^ 3 . . . $ $ $ . J c.6.@.@.*.@.@.@.@.@.@.@.@.@.@.@.@.*.$.@.@.( ! J U J U U U J J J J J J ! ! U U U U ! ! ! ! ! ! ! ! U U U U U U U U U U U U U U U U ! ! ! ! ! ! ! ! U U J U U U U U ! ! ! ! ! ! ! ! ! ! ! ! ! ! ! ! ! ! ! ! U U U U U U U U U U U U U U U U U U U U ! ! ! ! U U U U U U U U U U U U U U U U U U U U U U U U U U U U ! ! ! ! ^ ^ ! ! ! ! U U ! ! U U ) )  .` . $ . = y.g.g.i.@.@.@.@.@.@.@.@.@.@.@.@.@.@.@.@.@.@.@.@.@.@.@.@.@.@.@.@.@.@.@.@.@.@.@.@.*.*.J 7 =   .         = f h f f f f f f 9 J @.( H J U ! ^ ! ! ! U U U U U J J J U U J J J J J U U U U U H H U ( A 7 X         X x w.V.c.f.g.g.g.g.g.g.g.x.g.r.9.*.@.@.@.@.$.$.$.@.@.@.@.@.@.@.@.$.$.$.$.$.$.$.$.$.$.@.@.@.@.@.@.@.@.@.@.@.@.@.@.@.@.@.@.i.1.. & ",
". $ $ $ $ . j -.@.@.@.@.@.@.@.@.@.@.@.@. .6.9 ] c.@.@.O.@.@.@.@.@.@.@.@.@.@.@.@.$.$.$.$.$.$.$.$.$.@.%.} = . * $ $ . $ 4.b.c.V.c.c.C.e.@.@.@.@.@.@.@.@.@.@.@.@.@.@.@.@.@.@.@.@.@.@.@.@.@.@.@.@.@.( A H $.j.6.*.@.O.@.$.*.$.@.@.@.$.$.$.$.$.$.$.$.@.@.@.@.@.@.@.@.@.@.@.@.@.@.@.@.@.@.@.@.@.@.@.@.@.@.@.@.@.@.@.@.@.@.@.@.@.@.@.@.@.@.@.@.@.@.@.@.@.@.@.@.@.@.@.@.$.k 7 f 8 8 7           8 f h f f f f f 8 x *.@.@.@.@.@.@.@.@.@.@.@.@.@.@.@.@.@.@.@.@.@.@.@.@.@.@.@.@.@.@.@.@.@.@.@.@.@.@.@.@.@.*.) U U T ^ 3 . . . $ $ $ . P c.6.@.@.*.@.@.@.@.@.@.@.@.@.@.@.@.O.] ( J J J ! ^ ! ! ! ! ! ! ! ! ! ! ! ! U U U U ! ! ! ! ! ! ! ! H H H H H H H H H H H H H H H H H H H H H H H H U U U U U U U U ! ! ! ! ! ! ! ! ! ! ! ! ! ! ! ! ! ! ! ! U U U U U U U U U U U U U U U U U U U U ! ! ! ! U U U U U U U U U U U U U U U U U U U U U U U U U U U U U U U U J J J J U U U U ! ! U U J F ^ T . $ . - p.j.j.i.@.@.@.@.@.@.@.@.@.@.@.@.@.@.@.@.@.@.@.@.@.@.@.@.@.@.@.@.@.@.@.@.@.@.@.@.*.$.J 7 @   .       . = h h f f f f f f 3 x ^ H U U U J J J J ! J J J J J J J J J J J J J J J J ! U U U D ( J d X     X     8 6.g.g.c.g.j.x.g.g.g.g.g.g.w.6.=.@.@.@.*.=.$.$.$.$.@.@.@.@.@.@.@.@.$.$.$.$.$.$.$.$.$.$.@.@.@.@.@.@.@.@.@.@.@.@.@.@.@.@.@.@.i.1.. & ",
". $ $ $ $ . v %.@.@.@.@.@.@.@.@.=.*.=.@.5.A @ G.5.$.@.$.@.@.@.@.@.@.@.@.@.@.@.@.$.$.$.$.$.$.$.$.$.@.%.} = . * $ . $ . >.D.c.C.V.c.C.e.@.@.@.@.@.@.@.@.@.@.@.@.@.@.@.@.@.@.@.@.@.@.@.@.@.*.$. .( ( @.<.=.@.@.@.@.@.@.@.@.@.@.@.@.$.$.$.$.$.$.$.$.$.$.$.$.$.$.$.$.@.@.@.@.@.@.@.@.@.@.@.@.@.@.@.@.@.@.@.@.@.@.@.@.@.@.@.@.@.@.@.@.@.@.@.@.@.@.@.@.@.@.@.@.@.*.@.$.] 8 6 f 8 8 7           8 f h f f f f f 8 x *.@.@.@.@.@.@.@.@.@.@.@.@.@.@.@.@.@.@.@.@.@.@.@.@.@.@.@.@.@.@.@.@.@.@.@.@.@.@.@.@.@.$.@.U J P T = . . . $ $ $ . P c.*.@.@.$.*.@.@.@.@.@.$.*.@.@.] ( ^ ! J J U U U U ! ! ! ! ! ! ! ! ! ! ! ! ! ! ! ! J J ^ ( J H A Z x x x x x x x x x x x x x x x x x x L L L L x x x x L L Z Z Z Z Z A A A ! ! ! ! ! ! ^ ^ ^ ^ ^ ^ ! ! ! ! U U J J J J J J U U U U U U U U U U U U ! ! ! ! ! ! ! ! ! ! ! ! ! ! ! ! ! ! ! ! ! ! ! ! ! ! ! ! ! ! ! ! ! ! ! ! J U U U U U U U ! ! U U J F ^ I . $ $ - y.g.g.i.@.@.@.@.@.@.@.@.@.@.@.@.@.@.@.@.@.@.@.@.@.@.@.@.@.@.@.@.@.@.@.@.@.@.@.@.@.$.( 7 @   . .       = l h f f d d d t 3 x ! U J U U J U U U J J J J J J J J J J J J J J J J J ^ H H U ( Z 2   X X     8 @.j.g.x.x.x.j.g.g.j.x.g.g.f.8.@.@.@.@.@.@.@.@.$.$.$.$.$.$.$.$.$.$.$.$.$.$.$.$.$.$.$.$.$.$.@.@.@.@.@.@.@.@.@.@.@.@.@.@.@.@.@.@.8.1.. ; ",
". $ $ $ $ . v =.@.@.@.@.@.@.@.@.*. .$.*.d   w.c.$.@.$.$.$.@.@.@.@.@.@.@.@.@.@.@.$.$.$.$.$.$.$.$.$.@.%.} = . * $ . * . >.D.c.C.V.c.C.e.@.@.@.@.@.@.@.@.@.@.@.@.@.@.@.@.@.@.@.@.@.@.@.@.@.@.@.O.@.=.=.@.] @.@.@.@.@.@.@.@.@.@.@.@.$.$.$.$.$.$.$.$.$.$.$.$.$.$.$.$.@.@.@.@.@.@.@.@.@.@.@.@.@.@.@.@.@.@.@.@.@.@.@.@.@.@.@.@.@.@.@.@.@.@.@.@.@.@.@.@.@.@.@.@.@.*.@.$.( 7 8 8 8 8 7           8 f h f f f f f 8 x *.@.@.@.@.@.@.@.@.@.@.@.@.@.@.@.@.@.@.@.@.@.@.@.@.@.@.@.@.@.@.@.@.@.@.@.@.@.@.@.@.@.$.@.U J P T = . . $ $ $ $ . T c.*.@.@.@.@.@.$.*.*.@.@.@. .' ! J J J U U U U U U ! ! ! ! ! ! ! ! ! ! ! ! ! ! ! ! ^ J H D A Z x x x x x x x x x x x x x x x x x x x x x x L L x x x x L x L Z x x x x Z Z Z Z Z Z D D D D J J J J U U U U ^ ^ ^ ^ ^ ^ ^ ^ ! U U U U U U U U U U U ! ! ! ! ! ! ! ! ! ! ! ! ! ! ! ! ! ! ! ! ! ! ! ! ! ! ! ! ! ! ! ! ! ! ! ! J U U U U U U U ! ! U U U J T I . $ $ = y.g.g.i.@.@.@.@.@.@.@.@.@.@.@.@.@.@.@.@.@.@.@.@.@.@.@.@.@.@.@.@.@.@.@.@.@.@.@.@.@.@.( 7 =   .         = g f f t 8 8 8 8 3 x ! U J U U J U J U J J U J U J J J J J J J J J J J J U ! J D d X   @     X ^ r.x.c.g.x.x.x.x.c.x.j.g.f.6.*.*.@.@.@.@.@.@.@.@.$.$.$.$.$.$.$.$.$.$.$.$.$.$.$.$.$.$.$.$.$.$.@.@.@.@.@.@.@.@.@.@.@.@.@.@.@.@.@.@.e.1.. ; ",
". $ $ $ $ . j =.@.@.@.@.@.@.@.@.@.*.@.3 @ =.C.] @.$.*.$.$.@.@.@.@.@.@.@.@.@.@.@.$.$.$.$.$.$.$.$.$.@.%.} = . * $ . * . 4.D.c.C.V.N.C.e.@.@.@.@.@.@.@.@.@.@.@.@.@.@.@.@.@.@.@.@.@.@.@.@.@.@.@.@.*.*.@.@.@.$.@.@.@.@.@.@.@.@.@.@.@.$.$.$.$.$.$.$.$.$.$.$.$.$.$.$.$.@.@.@.@.@.@.@.@.@.@.@.@.@.@.@.@.@.@.@.@.@.@.@.@.@.@.@.@.@.@.@.@.@.@.@.@.@.@.@.@.@.@.@.@.@.*.@.$.J 7 8 8 8 8 8           8 f f f f f f f 8 x *.@.@.@.@.@.@.@.@.@.@.@.@.@.@.@.@.@.@.@.@.@.@.@.@.@.@.@.@.@.@.@.@.@.@.@.@.@.@.@.@.@.$.@.U J P ^ = . . $ $ $ $ . / h.@.@.@.@.@.@.$.*.@. .' ( ( ^ J J U U U U U U U U ! ! ! ! ! ! ! ! ! ! ! ! ! ! ! ! U H A x x x x x x x x x x x x x x x x x x x x x x x x x L L L x x x x x L L L x x x x x x x x x Z Z Z Z x x x x D D D D H J U U U U U U ! ! ! U U U U U U U U U ! ! ! ! ! ! ! ! ! ! ! ! ! ! ! ! ! ! ! ! ! ! ! ! ! ! ! ! ! ! ! ! ! ! ! ! U U U U U U U U ! ! U U J J T F . $ $ - y.g.g.i.@.@.@.@.@.@.@.@.@.@.@.@.@.@.@.@.@.@.@.@.@.@.@.@.@.@.@.@.@.@.@.@.@.@.@.@.@.$.( 7 =   .         = f f 8 8 8 8 8 8 3 x ! U J U U J J J J J J J J J J J J J J J J J J J J J J ^ x @ X   + X   k =.c.c.x.j.x.c.x.x.x.j.g.r.w.$.@.@.=.@.@.@.@.@.@.@.@.$.$.$.$.$.$.$.$.$.$.$.$.$.$.$.$.$.$.$.$.$.$.@.@.@.@.@.@.@.@.@.@.@.@.@.@.@.@.@.@.e.1.. ; ",
". $ $ $ $ . x =.@.@.@.@.@.@.@.@.$.( X 8 m.x.@.@.$.*.*.$.$.@.@.@.@.@.@.@.@.@.@.@.$.$.$.$.$.$.$.$.$.@.%.} = . * $ . * . 4.D.c.C.V.N.C.e.@.@.@.@.@.@.@.@.@.@.@.@.@.@.@.@.@.@.@.@.@.@.@.@.@.$.*.*.@.=.@.O.$.@.@.@.@.@.@.@.@.@.@.@.@.$.$.$.$.$.$.$.$.$.$.$.$.$.$.$.$.@.@.@.@.@.@.@.@.@.@.@.@.@.@.@.@.@.@.@.@.@.@.@.@.@.@.@.@.@.@.@.@.@.@.@.@.@.@.@.@.@.@.@.@.@.*.@.$.D 7 8 7 8 8 8           8 f f f f f f f 8 z *.@.@.@.@.@.@.@.@.@.@.@.@.@.@.@.@.@.@.@.@.@.@.@.@.@.@.@.@.@.@.@.@.@.@.@.@.@.@.@.@.@.$.@.U J P ^ = . . $ $ $ . . ) g.@.$.@.@.*.@.@.@.] ( J H U U U U U U U U U U U U ! ! ! ! ! ! ! ! ! ! ! ! ! ! ! ! D A Z x x x x x x x x x x x x x x x x x x x x x x x x x L L L x x x x x L L x x x x Z Z Z Z Z Z Z x x x x x x x x x x x x x A D D D D D H J ! ! U U U U U U U U ! ! ! ! ! ! ! ! ! ! ! ! ! ! ! ! ! ! ! ! ! ! ! ! ! ! ! ! ! ! ! ! ! ! ! ! U U U U U U U U ! ! U U U J T F $ $ $ - y.g.g.i.@.@.@.@.@.@.@.@.@.@.@.@.@.@.@.@.@.@.@.@.@.@.@.@.@.@.@.@.@.@.@.@.@.@.@.@.@.$.( 7 =   .         = p 8 8 7 7 7 7 9 3 x ! U J U U J J J J J J J J J J J J J ! J J J J J J J H 8 X X       3 *.C.c.g.f.j.x.g.x.x.x.x.r.w.6.=.@.*.*.@.@.@.@.@.@.@.@.@.$.$.$.$.$.$.$.$.$.$.$.$.$.$.$.$.$.$.$.$.$.$.@.@.@.@.@.@.@.@.@.@.@.@.@.@.@.@.@.@.e.1.. ; ",
". $ $ $ $ . b =.@.@.@.@.*. .@.=.A   A C.g.@.@.$.$.$.$.$.$.$.$.$.@.@.@.@.@.@.@.@.@.@.@.@.@.@.@.@.$.@.*.} = . $ . . * $ >.D.c.C.V.c.C.e.@.@.@.@.@.@.@.@.@.@.@.@.@.@.@.@.@.@.@.@.@.@.@.@.@.@.@.@.@.@.@.@.@.@.@.@.@.@.@.@.@.@.@.@.@.@.@.@.@.@.@.@.@.@.@.@.@.@.@.@.@.@.@.@.@.@.@.@.@.@.@.@.@.@.@.@.@.@.@.@.@.@.@.@.@.@.@.@.@.@.@.@.@.@.@.@.@.@.@.@.@.@.@.@.@.@.*.@.O.h 8 8 8 8 8 8           8 h h f f f f f 8 x *.@.@.@.@.@.@.@.@.@.@.@.@.@.@.@.@.@.@.@.@.@.@.@.@.@.@.@.@.@.@.@.@.@.@.@.@.@.@.@.@.@.@.@.) J P T = . . $ $ $ . . P 9.@.*.*.$.O.] ( ! ! ! ! ! U U ! ! ! ! ! ! ! ! ! ! ! ! ! ! ! ! ! U ^ ( ( ( ! H A A Z Z x x Z Z L x x x L L x x x x x L L L x x x x x L L L x x x x x L L L x x x x x L L L x x x x x L L L x x x x x x L L x x x x x x x x x Z Z Z Z A A A J J J J J J U U ! ! U U U U J J U U U U U U U U U U U U U U U U ! ! ! ! ! ! ! ! ! ! ! ! ! ! ! ! ! ! U U U J T F $ $ $ - y.g.g.i.@.@.@.@.@.@.@.@.@.@.@.@.@.@.@.@.@.@.@.@.@.@.@.@.@.@.@.@.@.@.@.@.@.@.@.@.@.$.] 4 @   .         = r 6 7 5 9 7 7 5 3 x U J J J J J J J J J J U J J J U U U ! ( ^ J U U J d X     X X @ ^ r.g.g.g.j.x.x.j.g.c.c.g.8.=.*.$.$.@.@.@.@.@.@.@.@.@.@.@.@.@.@.@.@.@.@.@.@.@.@.@.@.@.@.@.@.@.@.@.@.@.@.@.@.@.@.@.@.@.@.@.@.@.@.&.&.&.&.@.@.<.%.. - ",
". $ $ $ $ . v =.@.@.@.@.@.=.O.3   ( G.5.@.=.$.@.$.$.$.$.$.$.$.$.@.@.@.@.@.@.@.@.@.@.@.@.@.@.@.@.$.@.*.} = . $ . . * $ >.D.c.C.V.N.C.e.@.@.@.@.@.@.@.@.@.@.@.@.@.@.@.@.@.@.@.@.@.@.@.@.@.@.@.@.@.@.@.@.@.@.@.@.@.@.@.@.@.@.@.@.@.@.@.@.@.@.@.@.@.@.@.@.@.@.@.@.@.@.@.@.@.@.@.@.@.@.@.@.@.@.@.@.@.@.@.@.@.@.@.@.@.@.@.@.@.@.@.@.@.@.@.@.@.@.@.@.@.@.@.@.@.@.$.$.] f 8 8 8 8 8 8           8 h h f f f f f 8 x *.@.@.@.@.@.@.@.@.@.@.@.@.@.@.@.@.@.@.@.@.@.@.@.@.@.@.@.@.@.@.@.@.@.@.@.@.@.@.@.@.@.@.@.) J P T = . . $ $ $ $ . F >.@.@.] ' ( ! U U U U ! ! ! U U ! ! ! ! ! ! ! ! U U U U ! ^ ^ ! J H H H H D A Z x x x x x Z Z Z x x L L L x x x x x L L L x x x x x L L L x x x x x L L L x x x x x L L L x x x x x L L L x x x x x L L Z x x x x x x L x x x x x Z x x x x x Z Z Z Z A A J J J J J J ! ! ! ! ^ ^ ^ ^ ^ ^ ^ ^ ^ ^ ! ! U U ! ! ! ! ! ! ! ! ! ! ! ! ! ! ! ! ! ! U U U J T F $ $ $ - y.g.g.i.@.@.@.@.@.@.@.@.@.@.@.@.@.@.@.@.@.@.@.@.@.@.@.@.@.@.@.@.@.@.@.@.@.@.@.@.@.$.] 4 @   .         = 8 7 5 3 9 7 7 9 3 x U J J J J J J J J J J U J J J J J ! U J J J ^ x @ X         Z e.m.f.g.g.g.g.c.c.g.g.g.6.$.@.$.@.$.@.@.@.@.@.@.@.@.@.@.@.@.@.@.@.@.@.@.@.@.@.@.@.@.@.@.@.@.@.@.@.@.@.@.@.@.@.@.@.@.@.@.@.@.@.@.@.&.&.&.&.@.@.<.%.. - ",
". $ $ $ $ . x =.@.@.@.@.5.H X @ 6.D.$.@.@.$.O.*.$.$.$.$.$.$.$.$.@.@.@.@.@.@.@.@.@.@.@.@.@.@.@.@.$.@.*.} = . $ . . * . 4.D.c.C.V.N.C.e.@.@.@.@.@.@.@.@.@.@.@.@.@.@.@.@.@.@.@.@.@.@.@.@.@.@.@.@.@.@.@.@.@.@.@.@.@.@.@.@.@.@.@.@.@.@.@.@.@.@.@.@.@.@.@.@.@.@.@.@.@.@.@.@.@.@.@.@.@.@.@.@.@.@.@.@.@.@.@.@.@.@.@.@.@.@.@.@.@.@.@.@.@.@.@.@.@.@.@.@.@.@.@.@.@.@.@.*.^ 8 8 8 8 8 8 8           8 h h f f f f f 8 z *.@.@.@.@.@.@.@.@.@.@.@.@.@.@.@.@.@.@.@.@.@.@.@.@.@.@.@.@.@.@.@.@.@.@.@.@.@.@.@.@.@.@.@.( J J T = . . $ $ $ $ . N ..] ] ( J J J U U U U ! ! ! ! ! ! ! ! ! ! ! ! ^ ! ^ ^ ^ ^ J D A A A Z Z Z Z Z x M x x x x Z L x x x x Z L x L x x x x Z Z x x x x x x L L x x x x x x L L x x x x x x L L x x x x x x Z L x x x x Z Z Z Z Z Z Z Z Z Z Z Z Z Z Z Z Z Z Z x z z x x x x x x x x M x x x Z Z H H H H J J U U U U U U U U U U ! ! ! ! ! ! ! ! ! ! ! ! ! ! ! ! ! ! U U U J T F $ $ $ - g.j.j.i.@.@.@.@.@.@.@.@.@.@.@.@.@.@.@.@.@.@.@.@.@.@.@.@.@.@.@.@.@.@.@.@.@.@.@.@.@.*.] 4 @ . . .       = 8 7 9 3 9 7 7 9 3 x U J J J J J J J J J J J J J J J J J J ! ^ J 8           h =.V.V.f.c.g.g.g.g.j.g.9.8.@.@.@.=.$.@.@.@.@.@.@.@.@.@.@.@.@.@.@.@.@.@.@.@.@.@.@.@.@.@.@.@.@.@.@.@.@.@.@.@.@.@.@.@.@.@.@.@.@.@.@.@.@.@.&.&.&.&.@.@.=.%.. - ",
". $ $ $ $ . x =.@.@.@.@.k   8 c.c.@.$.@.$.O.*.@.$.@.$.$.$.$.$.$.@.@.@.@.@.@.@.@.@.@.@.@.@.@.@.@.$.@.*.} = . $ . . * . 4.D.c.C.V.N.C.e.@.@.@.@.@.@.@.@.@.@.@.@.@.@.@.@.@.@.@.@.@.@.@.@.@.@.@.@.@.@.@.@.@.@.@.@.@.@.@.@.@.@.@.@.@.@.@.@.@.@.@.@.@.@.@.@.@.@.@.@.@.@.@.@.@.@.@.@.@.@.@.@.@.@.@.@.@.@.@.@.@.@.@.@.@.@.@.@.@.@.@.@.@.@.@.@.@.@.@.@.@.@.@.@.@.@.@.=.J 8 8 8 3 8 8 8           8 h h f f f f f 7 x *.@.@.@.@.@.@.@.@.@.@.@.@.@.@.@.@.@.@.@.@.@.@.@.@.@.@.@.@.@.@.@.@.@.@.@.@.@.@.@.@.@.@.@.( J J T = . . $ $ $ $ . x ) J U U J J J U U U U ! ! ! ! ! ! ! ! ! ! ! ! ! ! D D D D x x x x x x L L L L x x x x L L L L x x x x Z Z L L x x x x Z Z L L x x x x L L L L x x x x Z Z L L x x x x L L L L x x x x Z Z L L x x Z Z Z Z Z Z Z Z Z Z Z Z Z Z Z Z Z Z Z x x x x x Z Z Z Z Z x x x x x x x x x x x x Z D D D D D D U U U U ! ! ! ! ! ! ! ! U U U U U U U U U U U U J U T F . $ $ - g.j.j.i.@.@.@.@.@.@.@.@.@.@.@.@.@.@.@.@.@.@.@.@.@.@.@.@.@.@.@.@.@.@.@.@.@.@.@.@.@.*.] 4 = . .         = 8 7 9 3 9 7 7 9 3 x U J J J J J J J J U J J J J J J J J ! ( x X   @     + ( g.c.x.x.g.g.g.g.g.g.r.e.=.$.@.*.=.@.@.@.@.@.@.@.@.@.@.@.@.@.@.@.@.@.@.@.@.@.@.@.@.@.@.@.@.@.@.@.@.@.@.@.@.@.@.@.@.@.@.@.@.@.@.@.@.@.@.@.&.&.&.&.@.@.=.#.. - ",
". $ $ $ $ . j =.@.*.] 9   L C.f.$.$.$.$.@.@.@.@.$.$.$.$.$.$.$.$.@.@.@.@.@.@.@.@.@.@.@.@.@.@.@.@.$.@.%.} = . $ . . * . 4.C.c.C.V.c.C.e.@.@.@.@.@.@.@.@.@.@.@.@.@.@.@.@.@.@.@.@.@.@.@.@.@.@.@.@.@.@.@.@.@.@.@.@.@.@.@.@.@.@.@.@.@.@.@.@.@.@.@.@.@.@.@.@.@.@.@.@.@.@.@.@.@.@.@.@.@.@.@.@.@.@.@.@.@.@.@.@.@.@.@.@.@.@.@.@.@.@.@.@.@.@.@.@.@.@.@.@.@.@.@.@.@.@.@.*.A 7 8 8 8 8 8 8           8 f f f f f f f 8 x *.@.@.@.@.@.@.@.@.@.@.@.@.@.@.@.@.@.@.@.@.@.@.@.@.@.@.@.@.@.@.@.@.@.@.@.@.@.@.@.@.@.$.@.@.J T ^ 3 . . $ $ $ $ . g ` ^ J J J J J U U U U ! ! ^ ^ ^ ^ ^ ^ ^ ^ ( J A x Z Z Z Z x x x x x x x x x x x x x L L L x x x x Z Z Z Z Z Z Z Z Z Z Z Z Z Z Z Z Z Z Z Z M M Z M Z Z Z Z Z Z Z Z Z Z Z Z M M Z M Z Z Z Z Z Z Z Z Z Z Z Z Z Z Z Z Z Z Z Z Z Z Z Z Z Z Z Z Z Z Z Z Z Z Z Z Z Z Z Z Z Z Z Z Z Z Z Z x x x x x x x x x x x L Z A H ^ ! ! ! U U J J J J J J J J U U U U J F S . $ $ - p.j.j.i.@.@.@.@.@.@.@.@.@.@.@.@.@.@.@.@.@.@.@.@.@.@.@.@.@.@.@.@.@.@.@.@.@.@.@.@.@.*.@.4 = . . . .     = 7 7 5 5 9 7 7 3 3 x ! U J J J J J J U U J J J J J J ! ( D 3         + J r.V.g.g.x.g.g.g.g.g.g.9.$.$.$.$.$.$.$.$.@.@.@.@.@.@.@.@.@.@.@.@.@.@.@.@.@.@.@.@.@.@.@.@.@.@.@.@.@.@.@.@.@.@.@.@.@.@.@.@.@.@.@.@.@.@.@.@.@.@.&.&.&.&.&.@.*.@.. $ ",
". $ $ $ * . j >.*.K +   ( D.2.O.$.$.$.$.@.@.@.@.$.$.$.$.$.$.$.$.@.@.@.@.@.@.@.@.@.@.@.@.@.@.@.@.$.@.%.} = . $ . . * . 4.C.c.C.V.c.C.e.@.@.@.@.@.@.@.@.@.@.@.@.@.@.@.@.@.@.@.@.@.@.@.@.@.@.@.@.@.@.@.@.@.@.@.@.@.@.@.@.@.@.@.@.@.@.@.@.@.@.@.@.@.@.@.@.@.@.@.@.@.@.@.@.@.@.@.@.@.@.@.@.@.@.@.@.@.@.@.@.@.@.@.@.@.@.@.@.@.@.@.@.@.@.@.@.@.@.@.@.@.@.@.@.@.@.@.*.A 7 8 8 8 8 8 8           8 f f f f f f f 8 x *.@.@.@.@.@.@.@.@.@.@.@.@.@.@.@.@.@.@.@.@.@.@.@.@.@.@.@.@.@.@.@.@.@.@.@.@.@.@.@.@.@.$.$.@.J T ^ 3 . . $ $ $ $ . r ) ^ J J J J J J J ! ! ! ! ^ ^ ^ ^ ( ^ J D A Z Z x Z Z Z Z x x x x x x x x x x x x L Z L L x x x x Z Z Z Z Z Z Z Z Z Z Z Z Z Z Z Z Z Z Z Z Z Z Z Z Z Z Z Z Z Z Z Z Z Z Z Z Z Z Z Z Z Z Z Z Z Z Z Z Z Z Z Z Z Z Z Z Z Z Z Z Z Z Z Z Z Z Z Z Z Z Z Z Z Z Z Z Z Z Z Z Z Z Z Z Z Z Z Z Z Z x x x x x x x x x x x x D ^ ^ ! ! ! U U U U U U U U U U U U U J T N . $ $ - p.j.j.i.@.@.@.@.@.@.@.@.@.@.@.@.@.@.@.@.@.@.@.@.@.@.@.@.@.@.@.@.@.@.@.@.@.@.@.@.*.=.] 8 @ .   . .     @ 7 7 5 9 9 7 7 3 3 x ! U J J J J J J U J J J J J H ( J k @ X   X X z 5.c.c.f.r.m.g.g.x.c.r.8.=.$.$.$.$.$.$.$.$.$.@.@.@.@.@.@.@.@.@.@.@.@.@.@.@.@.@.@.@.@.@.@.@.@.@.@.@.@.@.@.@.@.@.@.@.@.@.@.@.@.@.@.@.@.@.@.@.@.@.@.&.&.&.&.&.@.*.@.. $ ",
". $ $ $ $ $ v %.h   @ $.A.=.@.@.$.$.$.$.@.@.@.@.$.$.$.$.$.$.$.$.@.@.@.@.@.@.@.@.@.@.@.@.@.@.@.@.$.@.%.} = . $ . . * . 4.D.x.V.V.c.C.e.@.@.@.@.@.@.@.@.@.@.@.@.@.@.@.@.@.@.@.@.@.@.@.@.@.@.@.@.@.@.@.@.@.@.@.@.@.@.@.@.@.@.@.@.@.@.@.@.@.@.@.@.@.@.@.@.@.@.@.@.@.@.@.@.@.@.@.@.@.@.@.@.@.@.@.@.@.@.@.@.@.@.@.@.@.@.@.@.@.@.@.@.@.@.@.@.@.@.@.@.@.@.@.@.@.@.@.*.A 7 8 d 8 8 8 8           8 f f f f f f f 8 x *.@.@.@.@.@.@.@.@.@.@.@.@.@.@.@.@.@.@.@.@.@.@.@.@.@.@.@.@.@.@.@.@.@.@.@.@.@.@.@.@.@.$.$.@.J T ^ 3 . . $ $ $ $ $ = A ^ Y U U T U J J J J U U T T T T U J D M x x M M M M M M M M M M M M M M M M M M M M M M M M M M M M M M M M M M M M M M M M M M Z Z Z Z Z Z Z Z Z Z Z Z Z Z M M Z Z Z Z Z Z Z Z Z Z Z Z Z Z M M M M M M M M M M M M Z M M M M M M M M M M M M M M M M M M M M M M M M M M M M M M M M M M M M M M M M M A M A U T T U U T T T T T T T T T T T T ^ J J e . $ $ - g.j.j.g.@.@.@.@.@.@.@.@.@.@.@.@.@.@.@.@.@.@.@.@.@.@.@.@.@.@.@.@.@.@.@.@.@.@.@.@.*.=.( 8 @ o   . .   . @ 7 7 5 9 9 7 7 3 3 x ! U J J J J J J J U J J J J J z 3 @ X   X 2 @.c.m.g.g.g.c.g.g.f.r.r.=.$.@.@.$.$.$.$.$.$.$.$.@.@.@.@.@.@.@.@.@.@.@.@.@.@.@.@.@.@.@.@.@.@.@.@.@.@.@.@.@.@.@.@.@.@.@.@.@.@.@.@.@.@.@.@.@.@.@.@.@.@.&.&.&.&.@.@.*.@.. $ ",
". $ $ $ $ $ 6 8   : 6.m.O.@.O.$.$.$.$.$.@.@.@.@.$.$.$.$.$.$.$.$.@.@.@.@.@.@.@.@.@.@.@.@.@.@.@.@.$.@.%.} = . $ . . $ . 4.D.x.V.V.c.C.e.@.@.@.@.@.@.@.@.@.@.@.@.@.@.@.@.@.@.@.@.@.@.@.@.@.@.@.@.@.@.@.@.@.@.@.@.@.@.@.@.@.@.@.@.@.@.@.@.@.@.@.@.@.@.@.@.@.@.@.@.@.@.@.@.@.@.@.@.@.@.@.@.@.@.@.@.@.@.@.@.@.@.@.@.@.@.@.@.@.@.@.@.@.@.@.@.@.@.@.@.@.@.@.@.@.@.@.*.A 7 8 t 8 8 8 8           8 f f f f f f f 8 x *.@.@.@.@.@.@.@.@.@.@.@.@.@.@.@.@.@.@.@.@.@.@.@.@.@.@.@.@.@.@.@.@.@.@.@.@.@.@.@.@.@.@.$.@.J P ^ 3 . . $ $ $ . $ . 3 F T ^ ^ ^ ^ T T T T T T T T T T A A A A A A N x N M N N x M x x x x x x x x x x x x x x M M M x N N N N N N N N N N N N M M M M N A A A A A A A A A A A Z Z M N A A A A A A A A A A A A M Z M M N N N N N N N N N N N N N N N N N N N N N N N N N N N N N N N N N N N N N N N N N N N N N x M x x x x x F A D J T T T T ^ ^ ^ ^ ^ ^ ^ ^ ^ ^ ^ ^ ^ ^ g . . $ . - g.j.j.g.@.@.@.@.@.@.@.@.@.@.@.@.@.@.@.@.@.@.@.@.@.@.@.@.@.@.@.@.@.@.@.@.@.@.$.@.@.@.H 7 @ .   . .   . = 7 7 5 5 9 7 7 3 3 x ! U J J J J J J J J J J J J 3 X       @ J g.c.j.c.g.j.g.c.g.g.w.=.@.@.@.@.@.$.$.$.$.$.$.$.$.@.@.@.@.@.@.@.@.@.@.@.@.@.@.@.@.@.@.@.@.@.@.@.@.@.@.@.@.@.@.@.@.@.@.@.@.@.@.@.@.@.@.@.@.@.@.@.@.@.@.&.&.&.&.@.@.*.@.. $ ",
". $ $ $ $ . .   h x.g.] $.$.$.$.$.$.$.$.$.$.$.$.$.$.$.$.$.$.$.$.@.@.@.@.@.@.@.@.@.@.@.@.@.@.@.@.$.@.*.} = . $ . . $ . 4.D.x.V.V.c.C.e.@.@.@.@.@.@.@.@.@.@.@.@.@.@.@.@.@.@.@.@.@.@.@.@.@.@.@.@.@.@.@.@.@.@.@.@.@.@.@.@.@.@.@.@.@.@.@.@.@.@.@.@.@.@.@.@.@.@.@.@.@.@.@.@.@.@.@.@.@.@.@.@.@.@.@.@.@.@.@.@.@.@.@.@.@.@.@.@.@.@.@.@.@.@.@.@.@.@.@.@.@.@.@.@.@.$.@.*.A 9 8 t 8 8 8 8           8 f f f f f f f 8 x *.@.@.@.@.@.@.@.@.@.@.@.@.@.@.@.@.@.@.@.@.@.@.@.@.@.@.@.@.@.@.@.@.@.@.@.@.@.@.@.@.@.@.@.@.U T ^ 4 . . $ $ $ . . . . . = 6 e r r 6 6 6 6 8 8 6 6 6 6 6 6 6 4 4 4 4 4 4 4 4 4 4 4 4 4 4 4 4 4 4 4 4 4 4 4 4 4 4 4 4 4 4 4 3 3 3 3 3 4 4 4 4 4 4 3 3 3 4 4 3 3 3 3 3 3 4 4 4 4 3 3 3 4 4 4 3 3 3 3 3 3 4 4 4 4 4 4 3 3 4 4 4 4 4 4 4 4 4 4 4 4 4 4 4 4 4 4 4 4 4 4 4 4 4 4 4 4 4 4 4 4 4 4 4 4 4 4 4 4 4 4 4 4 4 4 4 4 4 4 4 4 4 4 4 4 6 6 6 6 8 6 8 8 6 6 6 6 6 8 6 r 4 = $ * . $ . = p.j.j.i.@.@.@.@.@.@.@.@.@.@.@.@.@.@.@.@.@.@.@.@.@.@.@.@.@.@.@.@.@.@.@.@.@.$.*.*.O.! j 7 8     .     . O 8 8 8 5 5 7 7 3 3 A ( H J J J J H H J D ^ ^ k X       X k 5.D.j.g.g.g.g.g.g.g.r.6.=.@.@.@.@.@.@.$.$.$.$.$.$.$.$.$.$.$.$.@.@.@.@.@.@.@.@.@.@.@.@.@.@.@.@.@.@.@.@.@.@.@.@.@.@.@.@.@.@.@.@.@.@.@.@.@.@.@.@.@.@.@.@.@.@.@.@.@.@.$.$.%.^ . ; ",
". $ $ $ $ .   F C.e.] =.$.$.$.$.$.$.$.$.$.$.$.$.$.$.$.$.$.$.$.$.@.@.@.@.@.@.@.@.@.@.@.@.@.@.@.@.$.@.*.} = . $ . . $ . >.D.x.V.V.N.C.e.@.@.@.@.@.@.@.@.@.@.@.@.@.@.@.@.@.@.@.@.@.@.@.@.@.@.@.@.@.@.@.@.@.@.@.@.@.@.@.@.@.@.@.@.@.@.@.@.@.@.@.@.@.@.@.@.@.@.@.@.@.@.@.@.@.@.@.@.@.@.@.@.@.@.@.@.@.@.@.@.@.@.@.@.@.@.@.@.@.@.@.@.@.@.@.@.@.@.@.@.@.@.@.@.@.$.@.*.A 7 8 t 8 8 8 8           8 f f f f f f f 8 x *.@.@.@.@.@.@.@.@.@.@.@.@.@.@.@.@.@.@.@.@.@.@.@.@.@.@.@.@.@.@.@.@.@.@.@.@.@.@.@.@.@.@.@.@.U T ^ , . . . $ . . . $ . . . . . . . . . . . . .     . . . . . . . . . . . . . . . . . . . . . . . . . . . . . . . . . . . . . . . . . . . . . . . . . . . . . . . . . . . . . . . . . . . . . . . . . . . . . . . . . . . . . . . . . . . . . . . . . . . . . . . . . . . . . . . . . . . . . . . . . . . . . . . . . . . . . . . . . . . . . . . . . . . . . . . . . . . $ * * . $ . - g.j.j.p.@.@.@.@.@.@.@.@.@.@.@.@.@.@.@.@.@.@.@.@.@.@.@.@.@.@.@.@.@.@.@.@.@.$.*.*.' U 8 f 8     .       O 7 7 5 3 8 8 8 6 @ x ^ U U U U U J ! H ( D 3 X   +   d $.c.g.g.g.g.j.x.x.g.w.5.=.@.@.@.@.@.@.@.@.$.$.$.$.$.$.$.$.$.$.$.$.@.@.@.@.@.@.@.@.@.@.@.@.@.@.@.@.@.@.@.@.@.@.@.@.@.@.@.@.@.@.@.@.@.@.@.@.@.@.@.@.@.@.@.@.@.@.@.@.@.@.$.@.%.^ . ; ",
". $ $ $ $ . I Z.=...=.@.$.$.$.$.$.$.$.$.$.$.$.$.$.$.$.$.$.$.$.$.@.@.@.@.@.@.@.@.@.@.@.@.@.@.@.@.$.@.*.} = . $ . . * . >.D.x.V.V.N.C.e.@.@.@.@.@.@.@.@.@.@.@.@.@.@.@.@.@.@.@.@.@.@.@.@.@.@.@.@.@.@.@.@.@.@.@.@.@.@.@.@.@.@.@.@.@.@.@.@.@.@.@.@.@.@.@.@.@.@.@.@.@.@.@.@.@.@.@.@.@.@.@.@.@.@.@.@.@.@.@.@.@.@.@.@.@.@.@.@.@.@.@.@.@.@.@.@.@.@.@.@.@.@.@.@.@.$.@.*.A 7 8 t 8 8 8 8           8 f f d f f f f 8 x *.@.@.@.@.@.@.@.@.@.@.@.@.@.@.@.@.@.@.@.@.@.@.@.@.@.@.@.@.@.@.@.@.@.@.@.@.@.@.@.@.@.@.@.@.T T / , . . . . . . $ $ $ * * $ $ $ $ $ $ $ $ $ $ . . . . . . . . $ $ $ $ $ $ $ $ $ $ $ $ $ $ $ $ $ $ $ $ $ $ $ $ $ $ $ $ $ $ $ $ $ $ $ $ $ $ $ $ $ $ $ $ $ $ $ $ $ $ $ $ $ $ $ $ $ $ $ $ $ $ $ $ $ $ $ $ $ $ $ $ $ $ $ $ $ $ $ $ $ $ $ $ $ $ $ $ $ $ $ $ $ $ $ $ $ $ $ $ $ $ $ $ $ $ $ $ $ $ $ $ $ $ $ $ $ $ $ $ $ $ $ $ $ $ $ $ . . . . $ $ $ $ $ $ $ $ $ $ $ $ $ $ $ $ $ $ $ $ . $ . - p.j.j.p.@.@.@.@.@.@.@.@.@.@.@.@.@.@.@.@.@.@.@.@.@.@.@.@.@.@.@.@.@.@.@.@.@.$.*.O.! A 2 x 8     o       O 7 7 5 3 8 8 8 6 9 x ! ! J J J J H J J t     X   3 ] c.c.g.c.x.g.j.g.g.r.6.=.@.@.@.@.$.$.@.@.@.@.$.$.$.$.$.$.$.$.$.$.$.$.@.@.@.@.@.@.@.@.@.@.@.@.@.@.@.@.@.@.@.@.@.@.@.@.@.@.@.@.@.@.@.@.@.@.@.@.@.@.@.@.@.@.@.@.@.@.@.@.@.@.@.@.%.T . ; ",
". $ $ $ ; . S 1... .$.@.$.$.$.$.$.$.$.$.$.$.$.$.$.$.$.$.$.$.$.$.@.@.@.@.@.@.@.@.@.@.@.@.@.@.@.@.$.@.*.} = . $ . . $ . >.D.x.V.V.N.C.e.@.@.@.@.@.@.@.@.@.@.@.@.@.@.@.@.@.@.@.@.@.@.@.@.@.@.@.@.@.@.@.@.@.@.@.@.@.@.@.@.@.@.@.@.@.@.@.@.@.@.@.@.@.@.@.@.@.@.@.@.@.@.@.@.@.@.@.@.@.@.@.@.@.@.@.@.@.@.@.@.@.@.@.@.@.@.@.@.@.@.@.@.@.@.@.@.@.@.@.@.@.@.@.@.@.$.@.*.A 7 8 t 8 8 8 8           8 f f d f f f f 8 x *.@.@.@.@.@.@.@.@.@.@.@.@.@.@.@.@.@.@.@.@.@.@.@.@.@.@.@.@.@.@.@.@.@.@.@.@.@.@.@.@.@.@.@.@.T T / , . . . . . $ $ $ $ $ $ $ $ $ $ $ $ $ $ $ $ . . . . $ $ $ $ $ $ $ $ $ $ $ $ $ $ $ $ $ $ $ $ $ $ $ $ $ $ $ $ $ $ $ $ $ $ $ $ $ $ $ $ $ $ $ $ $ $ $ $ $ $ $ $ $ $ $ $ $ $ $ $ $ $ $ $ $ $ $ $ $ $ $ $ $ $ $ $ $ $ $ $ $ $ $ $ $ $ $ $ $ $ $ $ $ $ $ $ $ $ $ $ $ $ $ $ $ $ $ $ $ $ $ $ $ $ $ $ $ $ $ $ $ $ $ $ $ $ $ $ $ $ $ $ $ $ $ $ $ $ $ $ $ $ $ $ $ $ $ $ $ $ $ $ $ $ $ $ . $ . = p.j.j.i.@.@.@.@.@.@.@.@.@.@.@.@.@.@.@.@.@.@.@.@.@.@.@.@.@.@.@.@.@.@.@.@.@.@.*.J J f : Z 8     .       O @ @ X   X X X     @ 3 3 2 2 2 2 @ 3 +   +   X H g.x.c.j.j.x.c.c.g.r.8.<.@.@.$.*.*.$.$.$.@.@.@.@.$.$.$.$.$.$.$.$.$.$.$.$.@.@.@.@.@.@.@.@.@.@.@.@.@.@.@.@.@.@.@.@.@.@.@.@.@.@.@.@.@.@.@.@.@.@.@.@.@.@.@.@.@.@.@.@.@.@.@.@.@.@.@.@.%.T . ; ",
". $ $ $ $ . x -.$.$.$.$.$.$.$.$.$.$.$.$.$.$.$.$.$.$.$.$.$.$.$.$.@.@.@.@.@.@.@.@.@.@.@.@.@.@.@.@.$.@.%.} = . $ . . $ . 4.D.x.V.V.c.C.e.@.@.@.@.@.@.@.@.@.@.@.@.@.@.@.@.@.@.@.@.@.@.@.@.@.@.@.@.@.@.@.@.@.@.@.@.@.@.@.@.@.@.@.@.@.@.@.@.@.@.@.@.@.@.@.@.@.@.@.@.@.@.@.@.@.@.@.@.@.@.@.@.@.@.@.@.@.@.@.@.@.@.@.@.@.@.@.@.@.@.@.@.@.@.@.@.@.$.$.@.@.@.@.$.*.*.@.=.Z 8 8 8 8 8 8 8 X         8 h h f f f f f 8 x *.@.@.@.@.@.@.@.@.@.@.@.@.@.@.@.@.@.@.@.@.@.@.@.@.@.@.@.@.@.@.@.@.@.@.@.@.@.@.@.@.@.@.@.@.T T / , . . . . $ $ $ $ $ $ . . . $ $ $ $ $ $ . . . . $ $ $ $ $ $ $ $ $ $ $ $ $ $ $ $ $ $ $ $ $ $ $ $ $ $ $ $ $ $ $ $ $ $ $ $ $ $ $ $ $ $ $ $ $ $ $ $ $ $ $ $ $ $ $ $ $ $ $ $ $ $ $ $ $ $ $ $ $ $ $ $ $ $ $ $ $ $ $ $ $ $ $ $ $ $ $ $ $ $ $ $ $ $ $ $ $ $ $ $ $ $ $ $ $ $ $ $ $ $ $ $ $ $ $ $ $ $ $ $ $ $ $ $ $ $ $ $ $ $ $ $ $ $ $ $ $ $ $ $ $ $ $ $ $ $ $ $ $ $ $ $ $ $ * $ . $ $ $ . = p.j.j.i.@.@.@.@.@.@.@.@.@.@.@.@.@.@.@.@.@.@.@.@.@.@.@.@.@.@.@.@.@.@.@.@.*.*.( ~ A 5 @ A 8     .                                                   f =.c.j.g.f.f.j.g.g.w.@.@.@.@.@.@.@.@.$.$.$.$.$.$.$.$.$.$.$.$.$.$.$.$.$.$.$.$.@.@.@.@.@.@.@.@.@.@.@.@.@.@.@.@.@.@.@.@.@.@.@.@.@.@.@.@.@.@.@.@.@.@.@.@.@.@.@.@.@.@.@.@.@.@.@.@.@.@.@.@.%.^ . ; ",
". $ $ $ $ . x =.@.$.$.$.$.$.$.$.$.$.$.$.$.$.$.$.$.$.$.$.$.$.$.$.@.@.@.@.@.@.@.@.@.@.@.@.@.@.@.@.$.@.%.} = . $ . . $ . 4.D.x.V.V.c.C.e.@.@.@.@.@.@.@.@.@.@.@.@.@.@.@.@.@.@.@.@.@.@.@.@.@.@.@.@.@.@.@.@.@.@.@.@.@.@.@.@.@.@.@.@.@.@.@.@.@.@.@.@.@.@.@.@.@.@.@.@.@.@.@.@.@.@.@.@.@.@.@.@.@.@.@.@.@.@.@.@.@.@.@.@.@.@.@.@.@.@.@.@.@.@.@.@.@.@.@.$.*.*.$.@.@.@.*.=.x 8 8 8 8 8 8 8 X         8 h h f f f f f 8 x *.@.@.@.@.@.@.@.@.@.@.@.@.@.@.@.@.@.@.@.@.@.@.@.@.@.@.@.@.@.@.@.@.@.@.@.@.@.@.@.@.@.@.@.@.T T / , . . . $ $ $ $ $ $ * $ . $ $ $ . . . . . . . . . . $ $ $ $ . . . . . . . . $ . . . $ $ $ $ . . . . . $ $ $ . . . . $ $ $ $ . . . . . . $ $ $ . . . $ $ $ $ . . . . . $ $ $ . . . . $ $ $ $ . . . . . . $ $ $ $ . . $ $ $ $ . . . . . $ $ $ . . . . $ $ $ $ . . . . . . $ $ $ $ $ . . . . . $ $ . . . . . . $ $ . . . . . . . . $ $ $ $ $ . . . . . . . . . . . . . . * = * $ * . 1 g.k.k.g.@.@.@.@.@.@.@.@.@.@.@.@.@.@.@.@.@.@.@.@.@.@.@.@.@.@.@.@.@.@.@.@.*.@.~ ~ x 3 2 H 8     .                                 +   X @ @     5 @.c.x.c.x.x.c.c.g.9.5.*.@.@.@.@.@.@.@.@.$.$.$.$.$.$.$.$.$.$.$.$.$.$.$.$.$.$.$.$.@.@.@.@.@.@.@.@.@.@.@.@.@.@.@.@.@.@.@.@.@.@.@.@.@.@.@.@.@.@.@.@.@.@.@.@.@.@.@.@.@.@.@.@.@.@.@.@.@.@.@.@.*.T . ; ",
". $ $ $ $ . x =.@.@.@.@.$.$.$.$.$.$.$.$.$.$.$.$.$.$.$.$.$.$.$.$.@.@.@.@.@.@.@.@.@.@.@.@.@.@.@.@.$.@.%.} = . $ . . $ . 7.D.x.V.V.c.C.e.@.@.@.@.@.@.@.@.@.@.@.@.@.@.@.@.@.@.@.@.@.@.@.@.@.@.@.@.@.@.@.@.@.@.@.@.@.@.@.@.@.@.@.@.@.@.@.@.@.@.@.@.@.@.@.@.@.@.@.@.@.@.@.@.@.@.@.@.@.@.@.@.@.@.@.@.@.@.@.@.@.@.@.@.@.@.@.@.@.@.@.@.@.@.@.@.@.*.$.@.@.@.@.*.=.*.=.=.A 8 8 8 8 8 8 8 X         8 h h f f f f f 8 x *.@.@.@.@.@.@.@.@.@.@.@.@.@.@.@.@.@.@.@.@.@.@.@.@.@.@.@.@.@.@.@.@.@.@.@.@.@.@.@.@.@.@.@.@.T T ^ > . . . $ $ . . . . . q 4 r w w r w w w 6 6 6 6 6 6 q q q 6 6 6 6 6 4 4 4 4 q q 6 6 q q 6 6 6 6 6 6 q q q q q q 6 4 q q q 6 6 6 6 6 q q q q q 6 6 6 q q q q 6 6 6 6 q q q q q q 6 6 q q q q 6 6 6 6 6 6 q q q 6 6 6 q q 6 6 6 6 6 6 q q q q q q 6 6 q q 6 6 6 6 6 6 6 6 6 q q q 6 6 6 6 6 6 q q q q 6 6 6 6 q q q 6 6 6 6 6 6 6 6 q q w w 6 6 6 6 6 6 4 4 4 6 6 6 6 $ $ . * $ * . - g.k.k.g.@.@.@.@.@.@.@.@.@.@.@.@.@.@.@.@.@.@.@.@.@.@.@.@.@.@.@.@.@.@.@.@.*.O.! D t 2 7 ^ 8                                         X X     @ J g.c.g.f.g.c.c.g.r.5.*.@.@.@.@.@.@.@.@.@.@.$.$.$.$.$.$.$.$.$.$.$.$.$.$.$.$.$.$.$.$.@.@.@.@.@.@.@.@.@.@.@.@.@.@.@.@.@.@.@.@.@.@.@.@.@.@.@.@.@.@.@.@.@.@.@.@.@.@.@.@.@.@.@.@.@.@.@.@.@.@.@.@.=.T . - ",
". $ $ $ $ . x =.@.@.@.@.$.$.$.$.$.$.$.$.$.$.$.$.$.$.$.$.$.$.$.$.@.@.@.@.@.@.@.@.@.@.@.@.@.@.@.@.$.@.%.} = $ $ $ . $ . 7.D.x.V.V.c.C.e.@.@.@.@.@.@.@.@.@.@.@.@.@.@.@.@.@.@.@.@.@.@.@.@.@.@.@.@.@.@.@.@.@.@.@.@.@.@.@.@.@.@.@.@.@.@.@.@.@.@.@.@.@.@.@.@.@.@.@.@.@.@.@.@.@.@.@.@.@.@.@.@.@.@.@.@.@.@.@.@.@.@.@.@.@.@.@.@.@.@.@.@.@.@.@.@.@.@.@.$.$.$.$.$.] ( J H f 8 8 8 8 8 8 8 X         8 h h f f f f f 8 x *.@.@.@.@.@.@.@.@.@.@.@.@.@.@.@.@.@.@.@.@.@.@.@.@.@.@.@.@.@.@.@.@.@.@.@.@.@.@.@.@.@.@.@.@.T T ^ > . . . $ $ . . . . I y.d.g.h.h.h.h.h.h.h.h.g.g.p.p.g.g.g.g.g.g.g.g.g.g.g.g.g.g.g.g.g.g.g.g.g.g.g.g.g.g.g.g.g.g.g.g.g.g.g.g.g.g.g.g.g.g.g.g.g.g.g.g.g.g.g.g.g.g.g.g.g.g.g.g.g.g.g.g.g.g.g.g.g.g.g.g.g.g.g.g.g.g.g.g.g.g.g.g.g.g.g.g.g.g.g.g.g.g.g.g.g.g.g.g.g.g.g.g.g.g.g.g.g.g.g.g.g.p.p.p.g.g.g.g.g.g.g.g.g.g.g.g.g.g.g.g.g.g.g.g.g.g.g.g.g.g.g.g.g.g.g.g.g.g.p.p.y.S . $ $ $ . = p.j.j.i.@.@.@.@.@.@.@.@.@.@.@.@.@.@.@.@.@.@.@.@.@.@.@.@.@.@.@.@.@.@.@.@.@.] J Z 2 2 t ' 8                                           X h @.9.c.j.r.g.c.c.c.f.<.@.@.@.@.@.@.@.@.@.@.@.@.@.$.$.$.$.$.$.$.$.$.$.$.$.$.$.$.$.$.$.$.$.@.@.@.@.@.@.@.@.@.@.@.@.@.@.@.@.@.@.@.@.@.@.@.@.@.@.@.@.@.@.@.@.@.@.@.@.@.@.@.@.@.@.@.@.@.@.@.@.@.@.@.@.=.T . ; ",
". $ $ $ $ . j =.@.@.@.@.@.@.@.@.@.@.@.@.@.@.@.@.@.@.@.@.@.@.@.@.@.@.@.@.@.@.@.@.@.@.@.@.@.@.@.@. .@.*.` = $ * $ . & . 7.D.x.V.V.N.D.w.@.@.@.@.@.@.@.@.@.@.@.@.@.@.@.@.@.@.@.@.@.@.@.@.@.@.@.@.@.@.@.@.@.@.@.@.@.@.@.@.@.@.@.@.@.@.@.@.@.@.@.@.@.@.@.@.@.@.@.@.@.@.@.@.@.@.@.@.@.@.@.@.@.@.@.@.@.@.@.@.@.@.@.$.$.@.@.@.@.@.@.@.@.<.=.$.@.O.] ^ H L k f f 8 6 7 8 8 8 8 8 8 8 8           8 f f f d f f f 8 x =.@.@.@.@.@.@.@.@.@.@.@.@.@.@.@.@.@.@.@.@.@.@.@.@.@.@.@.@.@.@.@.@.@.@.@.@.@.@.@.@.@.@.@.@.T T ^ > . . . $ $ $ .   I c.g.g.g.g.g.g.g.g.g.h.h.g.g.g.g.k.c.c.c.g.g.g.g.l.l.l.l.l.l.l.l.h.g.g.g.c.c.c.c.c.c.c.c.c.c.c.c.c.c.c.c.c.c.c.c.g.l.l.g.l.g.g.l.g.g.g.g.l.g.g.l.g.g.g.h.g.g.g.g.g.g.g.g.g.g.c.c.c.g.g.g.g.g.g.g.h.g.g.g.g.g.g.g.g.g.l.z.g.g.g.g.g.g.g.g.g.g.c.c.c.g.g.g.g.g.g.g.j.k.k.k.g.g.g.g.g.k.h.k.g.g.g.g.l.g.h.h.l.l.l.g.g.g.g.g.c.l.l.l.g.g.g.g.g.g.h.h.h.b.S . . $ . = g.j.j.f.@.@.@.@.@.@.@.@.@.@.@.@.@.@.@.@.@.@.@.@.@.@.@.@.@.@.@.@.@.@.@.@.*.@.J 8 3 3 f ( 8                                     X 8 ^ r.g.j.j.j.j.c.g.f.r.<.*.@.@.@.@.@.@.@.@.@.@.@.@.@.@.$.$.$.$.$.$.$.$.$.$.$.$.$.$.$.$.$.$.$.$.$.$.$.$.$.$.$.$.$.$.$.$.$.$.$.$.@.@.@.@.@.@.@.@.@.@.@.@.@.@.@.@.@.@.@.@.@.@.@.@.@.@.@.@.@.@.&.&.&.&.@.@.=.N . - ",
". $ $ $ $ . j =.@.@.@.@.@.@.@.@.@.@.@.@.@.@.@.@.@.@.@.@.@.@.@.@.@.@.@.@.@.@.@.@.@.@.@.@.@.@.@.@.=.@.#.} = $ * $ . & . 7.D.x.V.V.N.D.w.@.@.@.@.@.@.@.@.@.@.@.@.@.@.@.@.@.@.@.@.@.@.@.@.@.@.@.@.@.@.@.@.@.@.@.@.@.@.@.@.@.@.@.@.@.@.@.@.@.@.@.@.@.@.@.@.@.@.@.@.@.@.@.@.@.@.@.@.@.@.@.@.@.@.@.@.@.@.@.@.O.$.$.@.@.=.=.*.$.@.] ( ( H A x h 8 8 8 9 9 9 7 7 6 8 8 8 8 8 8 8 8 8 8           8 f f f d d f f 8 x =.@.@.@.@.@.@.@.@.@.@.@.@.@.@.@.@.@.@.@.@.@.@.@.@.@.@.@.@.@.@.@.@.@.@.@.@.@.@.@.@.@.@.@.@.T T ^ > . . . $ $ $ . - y.c.g.g.g.j.j.j.j.j.j.j.j.j.j.j.j.g.g.g.g.j.j.j.l.l.l.l.l.l.l.l.l.l.l.l.l.g.g.g.g.g.g.g.g.g.g.g.g.g.g.g.g.g.g.g.g.l.l.l.l.l.l.l.l.g.l.l.l.l.l.l.l.l.l.l.l.l.l.l.l.g.g.g.g.g.g.g.g.l.l.l.l.l.l.l.l.g.l.l.l.l.l.l.l.l.l.l.l.l.l.l.l.g.g.g.g.g.g.g.g.g.g.g.g.g.g.g.g.g.j.j.j.g.g.g.g.g.g.g.g.g.g.g.g.g.g.g.g.g.g.g.g.g.g.g.g.x.x.x.x.j.j.j.j.j.j.j.j.g.c.q.* . $ . = g.x.x.g.@.@.@.@.@.@.@.@.@.@.@.@.@.@.@.@.@.@.@.@.@.@.@.@.@.@.@.@.@.@.@.@.*.@.H 8 3 3 z ( 8                       X X X     3 H 8.c.c.c.c.x.g.r.w.r.8.=.*.$.@.@.@.@.@.@.@.@.@.@.@.@.@.@.@.$.$.$.$.$.$.$.$.$.$.$.$.$.$.$.$.$.$.$.$.$.$.$.$.$.$.$.$.$.$.$.$.$.$.$.$.@.@.@.@.@.@.@.@.@.@.@.@.@.@.@.@.@.@.@.@.@.@.@.@.@.@.@.@.@.@.&.&.&.&.@.@.@.N . = ",
". $ $ $ $ . j =.@.@.@.@.@.@.@.@.@.@.@.@.@.@.@.@.@.@.@.@.@.@.@.@.@.@.@.@.@.@.@.@.@.@.@.@.@.@.@.@.@.@.*.` $ $ * $ . $ . 7.D.x.V.V.N.D.w.@.@.@.@.@.@.@.@.@.@.@.@.@.@.@.@.@.@.@.@.@.@.@.@.@.@.@.@.@.@.@.@.@.@.@.@.@.@.@.@.@.@.@.@.@.@.@.@.@.@.@.@.@.@.@.@.@.@.@.@.@.@.@.@.@.@.@.@.@.@.@.@.@.@.@.@.@.*.*.=.=.*.@.@.] ( U D x k f 8 8 8 8 d f 8 8 t d f d d 8 8 8 8 8 8 8 8 8 8 8 8           8 h f f d d f f 8 x =.@.@.@.@.@.@.@.@.@.@.@.@.@.@.@.@.@.@.@.@.@.@.@.@.@.@.@.@.@.@.@.@.@.@.@.@.@.@.@.@.@.@.@.@.T P T > . . . $ $ $ $ w h.c.g.g.g.j.j.j.j.j.x.j.j.j.j.j.j.g.g.g.g.j.j.j.l.l.l.l.l.l.l.l.l.l.l.l.l.g.g.g.g.g.g.g.g.g.g.g.g.g.g.g.g.g.g.g.g.l.l.l.l.l.l.l.l.l.l.l.l.l.l.l.l.l.l.l.l.l.l.l.l.g.g.g.g.g.g.g.g.l.l.l.l.l.l.l.l.l.l.l.l.l.l.l.l.l.l.l.l.l.l.l.l.g.g.g.g.g.g.g.g.g.g.g.g.g.g.g.g.g.g.j.j.g.g.g.g.g.g.g.g.g.g.g.g.g.g.g.g.g.g.g.g.g.g.g.g.j.j.j.j.j.j.j.j.j.x.j.j.g.c.y.4 . $ . = g.x.x.g.@.@.@.@.@.@.@.@.@.@.@.@.@.@.@.@.@.@.@.@.@.@.@.@.@.@.@.@.@.@.@.@.@.] D 5 3 3 D ^ e     .                     @ 8 4 =.D.g.j.r.8.6.6.=.*.@.@.@.@.$.$.$.@.@.@.@.@.@.@.@.@.@.@.@.@.@.$.$.$.$.$.$.$.$.$.$.$.$.$.$.$.$.$.$.$.$.$.$.$.$.$.$.$.$.$.$.$.$.$.$.$.$.@.@.@.@.@.@.@.@.@.@.@.@.@.@.@.@.@.@.@.@.@.@.@.@.@.@.@.@.@.@.&.&.&.&.@.@.] N $ $ ",
". $ $ $ $ . j =.@.@.@.@.@.@.@.@.@.@.@.@.@.@.@.@.@.@.@.@.@.@.@.@.@.@.@.@.@.@.@.@.@.@.@.@.@.@.@.@.=.=.} p $ $ $ $ . $ . >.D.x.V.V.N.D.w.@.@.@.@.@.@.@.@.@.@.@.@.@.@.@.@.@.@.@.@.@.@.@.@.@.@.@.@.@.@.@.@.@.@.@.@.@.@.@.@.@.@.@.@.@.@.@.@.@.@.@.@.@.@.@.@.@.@.@.@.@.@.@.@.@.@.@.@.@.@.@.@.@.@.@.@.@. .( J A x h t 7 3 5 7 8 8 8 8 t d d d t t t t 8 t t d 8 8 8 8 8 8 8 8 8 8 8 8           8 f f f f f f f 8 x =.@.@.@.@.@.@.@.@.@.@.@.@.@.@.@.@.@.@.@.@.@.@.@.@.@.@.@.@.@.@.@.@.@.@.@.@.@.@.@.@.@.@.@.@.U J T >   . . $ $ . . r v.c.g.g.g.j.j.j.j.j.j.x.j.j.j.j.j.c.c.c.c.j.j.j.l.l.l.l.l.l.l.l.l.l.l.l.l.c.c.c.c.x.c.x.x.x.c.c.c.c.c.c.c.x.c.x.x.x.x.x.x.x.x.l.l.x.x.x.x.x.x.l.l.x.x.x.x.x.x.x.x.x.x.x.x.x.x.x.x.x.x.x.x.x.x.x.x.x.x.x.x.x.l.l.x.x.x.x.x.x.x.x.x.x.x.x.x.x.x.x.x.x.x.x.x.x.x.x.x.j.j.j.j.j.j.j.j.j.j.j.x.x.x.x.x.x.x.x.x.x.x.x.x.j.g.g.g.j.j.j.j.j.j.j.j.g.g.x.j.i.g.v.4 . $ . = g.j.j.f.@.@.@.@.@.@.@.@.@.@.@.@.@.@.@.@.@.@.@.@.@.@.@.@.@.@.@.@.@.@.@.@.@.] A 3 3 5 H ^ 8                       @ f x x f ] 8.>.$.@.@.@.@.@.@.@.$.$.@.@.$.*.$.$.$.$.@.@.@.@.@.@.@.@.@.@.$.$.$.$.$.$.$.$.$.@.@.@.$.$.$.$.$.$.$.$.$.$.$.$.$.@.@.@.$.$.$.$.$.$.$.$.@.@.@.@.@.@.@.@.@.@.@.@.@.@.@.@.@.@.@.@.@.@.@.@.@.@.@.@.@.@.&.&.&.&.@.@.( N . $ ",
". $ $ $ $ . b =.@.@.@.@.@.@.@.@.@.@.@.@.@.@.@.@.@.@.@.@.@.@.@.@.@.@.@.@.@.@.@.@.@.@.@.@.$.@.O.=.*.H <     . * $ . . . >.A.c.V.V.c.C.e.@.*.*.*.*.$.$.$.$.$.$.$.@.@.@.$.*.$.@.@.@.$.$.$.$.$.$.$.$.@.@.$.$.$.$.*.*.$.$.$.$.@.@.@.@.@.@.@.@.@.@.@.@.=.=.=.*.*.*.*.*.*.*.*.*.5.=.@.O.@.] ^ J A x h h t 8 8 8 8 8 8 8 8 8 8 8 8 8 8 8 8 8 8 8 8 8 8 8 8 8 8 8 8 8 8 8 8 8 8 8 8 8 8           8 h h f g f f f 8 x =.*.@.@.@.@.@.@.@.@.@.@.@.@.@.@.@.@.@.@.@.@.@.@.@.@.@.@.@.@.@.@.$.$.$.$.*.*.*.@.] ' ( ^ U T J T =   . . $ $ $ $ r h.g.g.g.l.l.l.x.c.l.g.g.r.r.r.r.9.r.r.r.r.r.r.r.r.a.a.a.a.a.a.a.a.r.r.r.r.8.8.0.0.8.0.8.8.8.6.8.8.0.0.0.8.8.8.8.8.6.6.6.6.6.6.6.6.8.6.6.6.6.6.6.6.6.6.6.6.8.8.6.6.6.6.6.6.8.8.8.8.f.f.f.f.g.g.g.g.g.g.g.g.g.g.g.g.g.g.g.g.g.g.g.g.g.g.g.g.g.g.g.g.g.g.g.g.g.g.g.g.g.g.g.g.g.g.g.g.g.g.g.g.g.g.g.g.f.f.f.a.a.a.a.a.c.l.l.g.g.g.g.g.g.g.g.g.l.l.g.g.g.g.p.4 . $ . = g.j.j.f.@.@.@.@.@.@.@.@.@.@.@.@.@.@.@.@.@.@.@.@.@.@.@.@.@.@.@.@.@.@.@.@.@.] A @ 3 3 H J 6               O @ 7 f f f f f 3 ^ *.@.@.@.@.@.@.@.@.@.@.@.@.@.$.$.$.$.$.$.$.$.@.@.@.@.@.@.@.@.$.$.$.$.$.$.$.@.@.@.@.@.@.@.@.@.$.$.$.$.$.$.$.@.@.@.@.@.@.@.@.@.$.$.@.$.$.$.$.$.$.$.$.$.$.$.$.$.$.$.$.$.$.$.$.$.$.$.$.$.$.$.$.$.$.$.*.*.&.&.=. .J A . = ",
". $ $ $ $ . b =.@.@.@.@.@.@.@.@.@.@.@.@.@.@.@.@.@.@.@.@.@.@.@.@.@.@.@.@.@.@.@.@.@.@.@.@.@.@.*.~ 8     o . . $ $ . . . >.D.x.V.V.c.V.8.@.@.@.@.@.@.@.@.@.@.@.@.@.@.@.$.*.*.$.*.*.$.$.*.*.*.*.=.=.=.=.=.=.=.=.=.=.=.=.=.=.*.*.*.*.$.@.@.@.O.O.O.O.( ( ( ( H H H H H H D D Z x z h 8 8 8 8 8 8 8 7 7 8 8 8 8 8 8 8 8 8 8 8 8 8 8 8 8 8 8 8 8 8 8 8 8 8 8 8 8 8 8 8 8 8 8 8 8 8 8           8 h h f h h h h 8 x =.@.$.$.$.$.@.$.$.$.$.$.$.$.$.$.$.$.$.$.$.$.$.$.$.$.$.$.$.$.=.*.@.O.' ( ' ' ( ^ U U U U U U J ^ >   . . . $ $ $ r h.g.g.g.l.c.x.l.g.r.6.*.@.@.@.@.@.@.@.@.@.@.@.@.@.&.&.&.&.&.&.@.@.@.@.@.@.@.@.@.@.@.&.@.&.@.@.&.&.&.&.@.@.@.@.@.@.@.@.@.@.@.@.@.@.@.@.@.@.@.@.@.@.@.@.@.@.@.@.@.@.@.@.@.@.@.@.@.@.=.*.*.*.*.*.*.*.*.*.*.*.*.*.*.*.*.&.*.*.*.*.*.*.*.*.*.*.*.*.*.*.*.*.*.*.$.$.$.$.$.$.$.$.$.$.$.$.$.$.$.$.*.*.*.*.*.*.*.*.*.*.*.*.&.=.0.r.g.l.c.c.l.l.x.x.l.l.g.g.g.g.g.4 . $ . = g.g.g.f.@.@.@.@.@.@.@.@.@.@.@.@.@.@.@.@.@.@.@.@.@.@.@.@.@.@.@.@.@.@.@.@.@.] x @ 3 3 H ^ 6             X f f f f f f f f 3 ^ *.@.@.@.@.@.@.@.@.@.@.@.@.@.@.@.@.@.@.@.@.@.@.@.@.@.@.@.@.@.$.$.$.$.$.$.$.@.@.@.@.@.@.@.@.@.$.$.$.$.$.$.$.@.@.@.@.@.@.@.@.@.$.$.$.$.$.$.$.$.$.$.$.$.$.$.$.$.$.$.$.$.$.$.$.$.$.$.$.$.$.$.$.$.$.$.*.*.&.@.*.] J A . = ",
". $ $ $ $ . b *.@.@.@.@.@.@.@.@.@.@.@.@.@.@.@.@.@.@.@.@.@.@.@.@.@.@.@.@.@.@.@.@.@.@.@.@.*.=.x X       3 = $ $ $ . $ . 6.D.x.V.V.C.A.r.*.*.*.*.*.$.$.*.*.*.*.*.*.=.*.$.@.@.@.@.@.@.@.@.@.] ] ] ] ( ( ( ( H H H H Z Z Z Z h h h h f f f f 8 8 8 8 9 9 9 9 9 9 7 7 8 8 8 8 7 9 5 3 8 t f f f t 8 8 8 8 8 8 8 8 8 8 8 8 8 8 8 8 8 8 8 8 8 8 8 8 8 8 8 8 8 8 8 8 8 8 8 8 8 8 8 8 8           7 f f 8 e e 8 8 8 z @.]  . . . .]  .]  . . . . . . . . . . . . . . . . . . . . .] ( ^ J J J J J J J Y Y J J U U T ^ 3 . . . . $ $ $ r h.g.g.g.g.c.g.e.6.@.@.@.*.$.$.$.$.@.@.$.$.$.$.$.*.&.&.&.&.&.&.&.&.*.*.*.*.*.*.*.*.*.*.*.*.*.*.*.*.*.*.*.*.*.*.*.*.*.*.*.*.&.&.&.&.*.*.*.*.&.&.&.&.&.*.&.&.&.*.*.*.@.@.@.@.@.@.@.@.*.*.*.*.@.@.@.@.@.@.@.@.@.@.@.@.@.@.@.@.@.@.@.@.@.@.@.@.@.@.@.@.@.@.@.@.@.@.@.@.@.@.@.@.@.@.@.@.@.@.@.@.@.@.@.&.&.*.*.*.*.*.*.*.@.@.&.&.@.=.8.r.g.l.c.N.l.l.g.g.g.g.g.4 $ $ . = s.g.g.i.@.@.@.@.@.@.@.@.@.@.@.@.@.@.@.@.@.@.@.@.@.@.@.@.@.@.@.@.@.@.@.@.*.} h 3 7 7 H ^ 8             @ f f f f f f f f 3 ^ *.@.@.@.@.@.@.@.$.$.$.$.*.*.*.*.*.*.*.*.*.*.$.@.@.@.@.@.@.@.*.*.*.*.$.$.$.@.@.@.@.@.@.@.@.@.$.$.$.$.$.$.$.@.@.@.@.@.@.@.@.@.$.$.$.$.$.$.$.$.*.*.$.$.$.$.$.$.$.$.$.$.$.$.$.$.$.$.$.$.$.$.$.$.$.$.*.*.*.@.@.( J A . = ",
"$ $ $ $ $ . x *.@.@.@.@.@.@.@.@.@.@.@.@.@.@.@.@.@.@.@.@.@.@.@.@.@.@.@.@.@.@.@.@.@.@.@.@.@.8   X + A r.C.4 $ . $ . $ . 7.C.x.V.V.j.c.6.] ] ] ] ] ( ( ( ( H H H H D A x x k k k k f f f f 8 8 8 8 8 8 7 7 9 9 7 7 7 7 8 8 8 8 8 8 8 8 8 8 8 8 8 8 8 8 t t t t d d t t t 8 8 8 8 8 8 8 8 8 8 8 8 8 8 8 8 8 8 8 8 8 8 8 8 8 8 8 8 8 8 8 8 8 8 8 8 8 8 8 8 8 8 8 8 8 8 8 8 8 8 8 8           3 6 6 3 7 7 7 9 3 f ] J ^ ^ ^ ^ E W W ^ ^ ^ ^ ^ T T U T T T T T T T T T T T T T J J J J J J J J J U U U J J J J T / , . . . $ . $ $ r h.g.g.g.g.g.w.=.@.@.&.$.$.$.@.@.@.@.@.@.@.@.@.@.@.*.*.*.*.&.&.&.&.&.&.&.&.&.&.&.&.&.&.&.&.&.&.&.&.&.&.&.&.&.&.&.&.@.@.@.@.@.@.&.@.@.@.@.@.@.@.@.@.&.&.@.@.@.@.@.@.@.@.@.@.$.$.$.$.&.&.&.&.&.&.&.&.&.&.&.&.&.&.&.&.&.&.&.&.&.&.&.&.&.&.&.&.&.&.&.&.&.&.&.&.@.@.@.@.@.@.@.@.@.@.@.@.@.@.$.$.&.&.&.&.*.*.*.*.*.*.*.&.@.@.@.&.&.@.@.@.@.=.5.8.l.l.g.g.g.g.g.4 $ $ . = y.g.g.i.@.@.@.@.@.@.@.@.@.@.@.@.@.@.@.@.@.@.@.@.@.@.@.@.@.@.@.@.@.@.@.@.*.@.f 3 7 7 H ^ e           X @ f f h h h f f f 3 ^ *.@.@.@.@.@.@.@.@.@.] ] ] ] ] ] ] ] ] ] ] ] @.@.@.@.@.@.@.@.*.*.*.*.$.$.$.@.@.@.@.@.@.@.@.@.$.$.$.$.$.$.$.@.@.@.@.@.@.@.@.@.$.$.@.@.$.$.$.$.*.*.$.$.$.$.$.$.$.$.$.$.$.$.$.$.$.$.$.$.$.$.$.$.$.$.$.*.=.O.O.U J A . = ",
"$ $ $ $ $ . x *.$.$.@.@.$.$.$.$.$.$.$.$.$.$.$.$.$.$.$.$.$.$.$.$.$.$.$.$.&.&.@.@. .@.<.F +       =.^.S.1.. . . $ . $ = g ^ A D Z H D l 6 8 8 8 8 8 8 8 8 9 9 9 9 8 8 8 8 8 8 8 8 8 8 8 8 8 8 8 8 8 8 8 8 8 8 8 8 8 8 8 8 8 8 8 8 8 8 8 8 8 8 8 8 8 8 8 8 8 8 8 8 8 8 8 8 8 8 8 8 8 8 8 8 8 8 8 8 t t t t t t t t t t t t 8 8 8 8 t t t t t t t t t t t t 8 8 8 8 8 8 8 8 6 f 7 X         = 6 6 7 7 7 7 7 > f ^ J ^ ^ ^ ^ ^ ^ ^ ^ T T T T T T T T T T T T T T T T T T T T P P P P T T T T T T T T J J P P / P = . . $ $ $ $ . r g.g.j.j.j.c.=.@.$.@.@.@.@.@.@.@.@.@.@.@.@.@.@.@.@.@.&.&.&.&.&.&.@.@.@.@.@.@.@.@.@.@.@.@.@.@.@.@.@.@.@.@.@.@.@.@.@.@.@.@.@.@.@.@.@.@.@.@.@.@.@.@.@.@.@.@.@.@.@.@.@.@.@.@.@.@.@.@.@.@.@.@.@.@.@.@.@.@.@.@.@.@.@.@.@.@.@.@.@.@.@.@.@.@.@.@.@.@.@.@.@.@.@.@.@.@.@.@.@.@.@.@.@.@.@.@.@.@.@.@.@.@.@.@.@.@.@.*.*.@.@.@.@.@.@.@.@.@.@.@.@.@.@.@.@.@.=.6.8.r.b.h.q . . * = r.j.x.e.@.@.@.@.@.@.@.@.@.@.@.@.@.@.@.@.@.@.@.$.$.$.$.$.=.*.$.@.=.$.@. .@.W h 3 = f H ^ e   .       X : g y f z f f f f 7 U *.=.*.*.=.@.@. .( ^ J H H J J J J J J J J J E E E E ( ( ~ ~ ' ] ] ] ] ] ]  .O.O.O.O.@.@.@.@.$.$.*.*.*.*.*.$.$.@.@.@.$.$.$.@.@.@.@.@.@.@.&.&.@.@.@.@.@.&.@.@.@.@.@.@.@.@.@.@.@.@.@.@.@.@.@.@.=.=.=.@.] ~ Y J F v = ; ",
"$ $ $ $ $ . g ..$.@.@.@.*.*.$.$.$.$.$.$.$.$.$.$.$.$.$.$.$.$.$.$.$.$.$.$.&.&.@.@.@.=.M         y G.k.%.} . . . . . $ $ O 6 x h z h l f 8 8 8 e 8 8 8 8 t t t t t t t t 8 8 8 8 8 t t t t t t t t 8 8 8 8 t t t t t t t 8 8 8 8 8 8 8 8 8 8 8 8 8 f p p p t t t t 8 8 8 8 8 8 8 t 8 8 8 t t t t 8 t t t t t t t t t t t t t t t t t t t t t t t t t t t t t t t t 8 8 8 8 y 6 +           o 3 r e 7 7 7 7 3 f ^ T T T T P T T ^ ^ T T ^ ^ ^ ^ ^ ^ ^ ^ ^ T T T T T T T ^ ^ T T T T ^ ^ ^ ^ ^ ^ ^ ^ T T T T P v . $ . $ $ $ $ . r g.g.j.j.j.g.*.@.$.@.@.@.@.@.@.@.@.@.@.@.@.@.@.@.@.@.@.@.@.@.@.@.@.@.@.@.@.@.@.@.@.@.@.@.@.@.@.@.@.@.@.@.@.@.@.@.@.@.@.@.@.@.@.@.@.@.@.@.@.@.@.@.@.@.@.@.@.@.@.@.@.@.@.@.@.@.@.@.@.@.@.@.@.@.@.@.@.@.@.@.@.@.@.@.@.@.@.@.@.@.@.@.@.@.@.@.@.@.@.@.@.@.@.@.@.@.@.@.@.@.@.@.@.@.@.@.@.@.@.@.@.@.@.@.@.$.*.*.*.@.@.*.*.@.@.@.@.@.@.@.@.@.@.@.@.$.$.@.@.@.:.-.- . $ $ = r.c.k.i.@.@.@.@.@.@.@.@.@.@.@.@.@.@.@.@.@.@.@.@.*.*.*.*.*.@.] ] ' ( ^ ( W F A h @ 8 H J 4   .       X @ e e y f f f f f t ( =.=. .' ' ' J H D H H J J J J J J J J J J J E E E E E E E E J J J J J J H H H H J J J J U U ( ( ( ( O.O.O.O.O.@.@.@.@.@.@.@.*.*.*.*.=.=.=.=.=.=.=.=.=.=.*.*.=.=.=.=.=.=.=.*.*.*.$.*.*.*.*.*.@.] ( ~ Y Y J J T B . ; ",
"$ $ $ $ $ . y #.%.$.$.$.$.$.$.$.$.$.$.$.$.$.$.$.$.$.$.$.$.$.$.$.@.@.@.@.@.@.@.@.$.@.@   X     %.h./ =.T . . $ $ $ $ . o O t t f x x f 9 6 6 6 6 6 6 8 8 8 8 8 8 8 8 8 7 9 9 9 9 7 8 7 7 8 8 8 8 9 9 7 7 7 8 7 7 8 8 8 8 7 7 6 6 8 8 8 8 7 7 7 7 8 8 8 8 8 8 8 8 8 8 8 7 7 7 7 8 9 9 9 8 8 8 8 8 8 8 8 8 8 8 8 8 8 8 8 8 8 8 8 8 8 8 8 8 8 8 8 8 8 8 8 8 8 8 8 8 7 6 7 7 4 O               o 4 4 7 7 7 7 6 8 F D F F F F F F F F F F I I I I I I I I I F F F F F F F I I F F F F I I I I I I I I F F F I 6 . . % . $ $ $ $ . r g.g.j.j.j.9.@.$.@.@.@.@.@.@.@.@.@.@.@.@.@.@.@.@.@.@.@.@.@.@.@.@.@.@.@.@.@.@.@.@.@.@.@.@.@.@.@.@.@.@.@.@.@.@.@.@.@.@.@.@.@.@.@.@.@.@.@.@.@.@.@.@.@.@.@.@.@.@.@.@.@.@.@.@.@.@.@.@.@.@.@.@.@.@.@.@.@.@.@.@.@.@.@.@.@.@.@.@.@.@.@.@.@.@.@.@.@.@.@.@.@.@.@.@.@.@.@.@.@.@.@.@.@.@.@.@.@.@.@.@.@.@.@.@.$.*.*.$.$.@.@.*.=.=.*.*.@.@.@.#.@.$.$.*.*.*.@...] @.#.X.- . $ $ $ -.c.k.9.@.@.@.#.#.#.#.@.@.@.@.@.@.@.@.@.=.=.@.@.O.O.O.O.( ^ J J J J J J F F H K 8 3 K ^ o .           X 6 8 e 8 6 6 6 6 3 D ` ] H D D D J U U U U J J J J J J J J J J J J J J J J J J J J J J J J J J J J J J J U U U U J J J J J J J J U J T T T T T ^ @...@.@.@.@.@.@.@.@.@.@.@.@.@.@.@.@.@.@.@.@.@..... .............^ J F F J J U J J g . ; ",
"$ $ $ $ $ . . S -.#.#.#.#.#.#.#.#.#.#.#.#.#.#.#.#.#.#.#.#.#.#.#.#.#.#.#.#.#.#.#.%.@.3 X   X y g.-.>.#., . $ $ $ $ $ . . .   + @   O O               X X                                                                                         X X X X X X X X                         X X X X X X X X X X X X X X X X X X X X X X X X X X X X X X X X X X X X                                 X       +   = O o o O O O O . . . . . . . . . . . . . . . . . . . . . . . . . . . . . . . . . . o o o . . . * . $ $ $ $ $ . r g.g.g.j.j.6.@.*.@.@.@.@.@.@.@.@.@.@.@.@.@.@.@.@.@.@.@.@.@.@.@.@.@.@.@.@.@.@.@.@.@.@.@.@.@.@.@.@.@.@.@.@.@.@.@.@.@.@.@.@.@.@.@.@.@.@.@.@.@.@.@.@.@.@.@.@.@.@.@.@.@.@.@.@.@.@.@.@.@.@.@.@.@.@.@.@.@.@.@.@.@.@.@.@.@.@.@.@.@.@.@.@.@.@.@.@.@.@.@.@.@.@.@.@.@.@.@.@.@.@.@.@.@.@.@.@.@.@.@.@.@.@.@.@.@.] H f 2 @ @ 3 7 z A J ( @.@.@.*.*.*.*.*.*.$.@.@.-.:.#.. . $ $ . g p.C.k.#.#.#.#.#.#.#.#.@.@.@.@.@.@.@.#.@.} ` ^ ^ ^ ^ ! ^ J J P ^ ^ ^ ^ ^ ^ ^ ^ H A W f   .           X 3 8 e 6 6 6 6 6 < V ^ P T T J J T T T J J J J J J J J J J J J J P P J J J J J J J J T ^ ^ ^ ^ J J J J J J J T T J J J J T T T J P J J J P J J J P P W P W W ^ ^ ^ ^ ^ ^ ^ T T T T T T T T T T T T P P P P P P P P I J J J J J I n & . = ",
"$ $ $ $ $ $ . . g P / / ` ` { ` / / / / / / [ [ / / / / / / [ [ / / / / [ [ / / ` / >   .   N | [ n - $ $ $ $ $ $ . . . o o . . . . . . . . . .                                                                                                                                                                                                                   .                                             . . . . . . . . . . . . . . . . . . . . . . . . . . . . . . . . . . . . . . . . . . . . . $ $ $ $ $ $ $ $ . r g.c.g.c.j.*.$.*.$.$.$.$.$.$.$.$.$.@.@.@.@.@.@.@.@.@.@.@.@.@.@.@.@.@.@.@.@.@.@.@.@.@.@.@.@.@.@.@.@.@.@.@.@.@.@.@.@.@.@.@.@.@.@.@.@.@.@.@.@.@.@.@.@.@.@.@.@.@.@.@.@.@.@.@.@.@.@.@.@.@.@.@.@.@.@.@.@.@.@.@.@.@.@.@.@.@.@.@.@.@.@.@.@.@.@.@.@.@.@.@.@.@.@.@.@.@.@.@.$.*.$.@.@.@.@.@.@.$.$.@.@.] H d 3                         @ @ 3 8 z A J ' O.@.$.*.=.:.,.4 . . $ $ $ q } >.[ [ [ [ [ / / ) ) ( ( ( ( ( ( ) P P P P F F F F A A A A A A A A A A A A A A 8                     o > 7 3 3 3 4 = x F F A A N N N N N N N N N N N N N N N N N N B C N N A A A A A N A A N N N N N N N N N N N N N N N N N N N N N N N N B B B B B S S S A A S S S S S S S B B B B B B B B B B B N N B B B B B B B B N N N N N B . . $ ; ",
"$ $ $ $ $ $ . . $ $ $ . . . . . . . . . . . . . . . . . . . . . . . . . . . . . . . . . $ . . $ . . $ $ $ $ $ $ $ . . . . . . . . . . . . . . .                                                                                                                                                                                                                 . .                                             . . . . . . . . . . . . . . . . . . . . . . . . . . . . . . . . . . . . . . . . . . . $ $ $ $ $ $ $ $ $ $ . r g.g.g.c.f.$.$.$.*.*.$.$.$.$.$.$.$.@.@.@.@.@.@.@.@.@.@.@.@.@.@.@.@.@.@.@.@.@.@.@.@.@.@.@.@.@.@.@.@.@.@.@.@.@.@.@.@.@.@.@.@.@.@.@.@.@.@.@.@.@.@.@.@.@.@.@.@.@.@.@.@.@.@.@.@.@.@.@.@.@.@.@.@.@.@.@.@.@.@.@.@.@.@.@.@.@.@.@.@.@.@.@.@.@.@.@.@.@.@.$.$.$.$.*.*. .O.@.@.@.@.@.@.=.*.$.@.] J k 9 X X                             @           X X   @ 7 f j N S - . . $ $ * . $ . $ $ $ . . . .                   . . . .                                 X                             o             . o . . . . . . . . . . . . . . . . . . . . . . . . . . . . . . . . . . . . . . . . . . . . . . . . . . . . . . . . . . . . . . . . . . . . . . . . . . . . . . . . . . . . . . . . . . . . . . . . . . . . $ . $ ; ",
"$ $ $ $ $ $ . $ $ $ $ $ $ $ $ $ $ $ $ $ $ $ $ $ $ $ $ $ $ $ $ $ $ $ $ $ $ $ $ $ $ $ $ ; $ $ $ * % $ $ $ $ $ $ $ $ . . . . . . . . . . . . . . . . . .                                                                                                                                                   . . .           . . . .     . .               . . .   .                                                 . . . . . . . . . . . . . . . . . . . . . . . . . . . . . . . . . . . . $ . . . . . . $ $ $ $ $ $ $ $ $ $ . r g.g.g.j.8.@.@.@.*.*.$.$.$.$.$.$.$.@.@.@.@.@.@.@.@.@.@.@.@.@.@.@.@.@.@.@.@.@.@.@.@.@.@.@.@.@.@.@.@.@.@.@.@.@.@.@.@.@.@.@.@.@.@.@.@.@.@.@.@.@.@.@.@.@.@.@.@.@.@.@.@.@.@.@.@.@.@.@.@.@.@.@.@.@.@.@.@.@.@.@.@.@.@.@.@.@.@.@.@.@.@.@.@.$.$.$.$.@.$.$.$.@.@.@.@.=.=.=.=.*.<.=.@.] J k 7 X             +                                       X             . . . . $ $ $ . * ; $ $ $ $ . . . .                   . . .                             X X     X                                     . . . . . . . . . . . . . . . $ $ $ $ $ $ $ $ $ $ $ $ $ $ . . . . . . . . . . . . . . . . . . . . . . . . . . $ $ $ $ $ $ $ $ $ $ $ $ $ $ $ $ $ $ $ $ $ $ $ $ $ $ $ $ $ $ $ $ $ $ $ $ $ $ $ $ $ $ $ $ . . . . $ . . = ",
". $ $ $ $ $ . $ . ; $ $ $ $ $ $ $ $ $ $ $ $ $ $ $ $ $ $ $ $ $ $ $ $ $ $ $ $ $ $ $ $ $ $ $ . $ * . . . . $ $ $ $ . . . . . . . . . . . . . . . . . .                                                                                                                                                     . . . .         . . . .     . .         . .   . . .                                                     . . . . . . . . . . . . . . . . . . . . . . . . . . . . . . . . . . . . $ . . . . . . . $ $ $ $ $ $ $ $ $ $ r g.g.g.g.<.@.@.$.*.*.$.$.$.$.$.$.$.@.@.@.@.@.@.@.@.@.@.@.@.@.@.@.@.@.@.@.@.@.@.@.@.@.@.@.@.@.@.@.@.@.@.@.@.@.@.@.@.@.@.@.@.@.@.@.@.@.@.@.@.@.@.@.@.@.@.@.@.@.@.@.@.@.@.@.@.@.@.@.@.@.@.@.@.@.@.@.@.@.@.@.@.@.@.@.@.@.@.@.@.=.=.=.=.=.=.=.=.*.*.*.*.@.@.@.@.] ( ! J Z D x 9 X X X           @     X                         f x z 7 @ @             o o .   . . . $ $ * $ . $ $ $ $ . . . . . .                                       X X X X X X X X                                       . . . . . $ . . $ $ $ $ $ $ $ $ $ $ $ $ $ $ $ $ $ $ $ $ $ $ $ $ $ $ $ $ $ $ $ $ $ $ $ $ $ $ $ $ . . . . $ $ $ $ $ $ $ $ $ $ $ $ $ $ $ $ $ $ $ $ $ $ $ $ $ $ $ $ $ $ $ $ $ $ $ $ $ $ $ $ $ $ $ $ $ $ $ $ $ $ $ $ $ . . = ",
". . . . . . . . . . . . . . . . . . . . . . . . . . . . . . . . . . . . . . . = $ $ ; $ $ $ $ $ $ . $ % ; ; ; ; = = 1 1 4 4 4 4 4 4 4 4 4 4 4 4 9 9 O O # # # # # # # # @ @ @ @ @ @ @ @ @ @ @ @ @ @ @ @ @ @ @ @ @ @ @ @ @ @ @ @ @ @ @ @ @ @ + + + + + + @ @ @ @ @ + @ + @ O O O O O O O O O O O O O O O O O O O O O O O O O O O o O O o o O O O O O O o O O O O o o o O O O O X # # # # X # o O X X X X X @ 3 X = = = = = = = = = = = = = = = * * O O * * * * * * * * O . . . . * $ . . . O * O o o o o . . ; $ $ $ $ $ % $ r h.g.x.g.@.@.@.@.@.$.$.$.$.$.$.$.$.@.@.@.@.@.@.@.@.@.@.@.@.@.@.@.@.@.@.@.@.@.@.@.@.@.@.@.@.@.@.@.@.@.@.@.@.@.@.@.@.@.@.@.@.@.@.@.@.@.@.@.@.@.@.@.@.@.@.@.@.@.@.@.@.@.$.*.*.@.$.*.=.@.$.*.=.=.=.=.=.=.=.=.<.<.=.=.=.=.$.O.] ] ( ! J H A x k f d 8 8 2 @ @ X           X     X X @ @ X X                     # #     3 l _ w.z.C.c.w.a.8.*. .J A z f = .     . . . . . $ . $ $ . . . . . . . O                                                                                                 . $ . $ . . . . $ $ $ $ $ $ $ $ $ $ $ . .     . . $ . $ $ $ $ $ . . = . . $ . . $ $ $ $ $ $ $ . . . . . . . . . . . . . . . . . . . . . . . . . . . . . . . . . . . . . . . . . . . . . . . . $ $ $ $ $ $ $ $ $ $ $ $ ",
"4.4.4.4.7.7.7.7.7.7.7.7.7.7.7.7.7.7.7.6.6.6.7.7.7.7.6.6.6.7.7.7.7.7.7.7.6.6.} r . % $ $ . . . . * . m 7.y.y.y.y.y.y.s.s.s.s.s.s.s.s.s.s.s.s.s.s.g.r.x h z z z z z z z z l l l l l l l l l l l l l l l l l l l l l l l l l l l l l l l l k k k k k k k k k k k k k k k k k k k k k k k k k k k k k k k k k k k k k k k k h h h h h g g g g g h h h h h h h h h h h h h h h h h h h h h h h h h h z z z z f U w.r.r.t.t.t.t.t.t.t.q.t.q.q.q.q.q.q.q.q.q.q.q.q.q.q.q.q.7.q.7.7.7.7.7.7.7.7.7.7.7.7.6.6.6.6.-.P . * $ $ $ $ % $ r g.g.x.r.@.@.@.@.@.$.$.$.$.$.$.$.$.@.@.@.@.@.@.@.@.@.@.@.@.@.@.@.@.@.@.@.@.@.@.@.@.@.@.@.@.@.@.@.@.@.@.@.@.@.@.@.@.@.@.$.$.$.@.$.@.@.@.@.@.@.@.@.@.@.@.@.@.@.@.=.=.*.*.=.=.=.=.*.*.@.@.@.O.] ] ( U J D x h f 8 5 3 : @ X X @ X                                                         @ 3 9 k ^ @.g.c.V @   @ @   A N.C.g.g.l.z.c.c.c.m.V.c.c.c.k.(   . . . . . . $ = I #.#.#.#.#.#.#.#.#.n 8 g f p p p p f f f f f f f f f f f f f f f f f f f f f f f f f f f f f f f f f 8 8 e p p p e 6 W #.} -.#.#.#.#.#.#.#.#.#.#.#.#.#.#.#.-.#.....r . * . $ $ $ $ $ * . . r / | | #.#.#.#.#.#.#.#.X.#.X.X.X.X.X.X.#.#.#.#.X.#.#.#.#.X.X.X.X.#.X.X.#.#.#.#.X.#.#.#.#.X.X.X.X.X.X.X.X.X.X.#.#.#.X.#.X.X.#.X.#.#.#.#.#.#.#.#.",
"c.c.c.c.c.c.c.c.c.c.c.c.c.c.c.c.k.k.c.c.c.c.c.c.c.c.c.c.c.c.c.c.c.c.c.c.k.k.m.g.r $ $ $ $ $ $ . o g g.b.h.h.h.h.z.z.c.c.z.z.z.z.z.z.z.z.z.z.z.c.c.g.x k x x x x x x x x k k k k k k k k k k k k k k k k k k k k k k k k k k k k k k k k k k k k k k k k k k k k k k k k k k k k k k k k k k k k k k k k k k k k k k k k z z z z h g g g g g g h h h h h k k k k h h h h h h h h k k k k h h z z z z z z f ( c.c.c.c.c.c.c.c.c.c.c.c.c.c.c.c.c.c.c.c.c.c.c.c.c.c.c.c.c.c.c.c.c.c.c.c.c.c.c.c.c.c.c.c.c.c.v.v.F $ $ $ $ $ % $ r g.c.j.8.@.@.@.@.@.$.$.$.$.$.$.$.$.@.@.@.@.@.@.@.@.@.@.@.@.@.@.@.@.@.@.@.@.@.@.@.@.@.@.@.@.@.@.@.@.@.@.@.@.@.@.@.@.@.@.@.@.@.@.@.@.@.@.@.@.@.$.@.@.$.$.$.$.] ] ' ( ! J A Z z k h f 9 5 3 3 @ @ X   X X             + X X X + + X X @ @ @ @ @ @ @ @ X + @ @ @ @ @ + X + + @ 8 k J ' 6.g.D.Y.W./.`._._._.OX] 0   # #   9 ;.N.c.l.l.g.g.g.g.g.g.g.j.k.g.4   . . . . . . #.9.y.r.r.r.r.r.r.r.r.W 8 z h h h h h h h h h h h h h h h h h h h h h h h h h h h h h h h h h h h h h h h f f g g g g r @.s.y.r.r.r.r.r.r.r.r.r.r.r.r.r.r.r.y.y.y.r.9.r.r . % $ $ $ $ % % . y y.p.7.7.9.9.9.9.9.9.9.9.9.9.9.9.9.9.9.9.9.9.9.9.9.9.9.9.9.9.9.9.9.9.9.9.9.9.9.9.9.9.9.9.9.9.9.9.9.9.9.9.9.9.9.9.9.9.9.9.9.9.9.9.9.9.9.9.r.r.9.r.",
"j.j.h.h.z.z.c.c.c.c.c.x.x.x.c.c.j.j.j.j.x.x.x.x.x.x.x.x.x.x.x.x.x.x.x.x.x.j.i.M.:.. * $ $ $ $ . o $.c.r.g.g.g.g.g.g.g.g.g.g.g.g.g.g.g.g.g.g.g.g.g.r.Z z z z z z z z k k k k k k k k k k k k k k k k k k k k k k k k k k k k k k k k z z z z x x x x x x x x x x x x x x x x x x x x x x x x x x x x x x x x x x x x x x z x z z z z z z x x z z z z z z z z z z k k k z z z z z z z z z z z z z z z z z f ^ c.r.g.g.g.g.g.g.g.g.g.g.g.g.g.g.g.g.g.g.g.g.g.g.g.g.g.g.g.g.g.g.g.g.g.g.g.g.g.g.g.g.c.c.c.c.g.b.7.$ $ $ $ % % $ r g.c.j.<.@.@.@.@.@.$.$.$.$.$.$.$.$.@.@.@.@.@.@.@.@.@.@.@.@.@.@.@.@.@.@.@.@.@.@.@.@.@.@.@.@.@.@.@.@.@.@.@.@.@.@.@.@.@.@.@.@.5.5.5.5.e.e.e.e.r.r.r.r.r.r.r.r.r.r.r.f.9.r.g.j.g.j.c.c.C.D.F.G.G.G.G.G.G.G.G.G.Y.L.G.A.G.G.G.G.G.G.G.G.U.G.D.C.D.A.G.G.D.D.G.G.A.A.D.D.D.F.G.G./.(.`.)._.).(./.(.(./.W.).OX(.[.c.h           f w.c.V.x.x.x.g.j.g.f.i.r.7.A . . . . . . S p.1.6.8.8.8.7.6.6.6.8.( 7 z f f f f f f f f f f f f f f f f f f f f f f f f f f f f f f f f h h h h f f f f f f f f f e ] 6.6.7.6.6.8.6.6.8.8.8.8.8.8.8.8.8.8.r.9.9.6.9.} $ $ $ $ $ $ $ $ = } y.r.r.6.8.8.8.8.9.e.e.e.e.e.e.e.8.8.e.8.e.8.8.8.8.8.e.e.e.e.8.8.8.8.e.e.e.e.8.8.8.8.e.e.e.e.8.8.e.8.8.8.8.8.8.e.e.e.e.e.8.6.6.6.9.7.7.7.9.9.9.8.",
"g.g.g.g.g.g.g.g.g.g.g.g.f.f.f.g.g.g.g.g.g.g.g.g.g.g.g.g.g.g.g.g.g.g.g.f.f.f.f.g.t.- . $ $ $ $ . e c.g.g.g.g.g.g.g.g.g.g.l.l.l.l.g.g.g.g.g.g.g.g.g.w.x x z z z z k k k k k k k k k k k k k k k k k k k k k k k k k k k k k k k k k k k k k k k k k k k k k k k k k k k k k k k k k k k k k k k k k k k k k k k k k k k k l l l l l l l l l l l l l l k k k k k k k k k k k k k k k k k k k k k k z z z k f J f.c.l.l.l.l.l.l.l.l.l.l.l.l.l.l.l.l.l.l.l.l.l.l.l.l.l.l.l.l.g.g.g.g.l.l.l.l.g.g.g.j.g.g.g.g.g.g.h.6 $ $ $ $ $ $ r g.c.r.@.*.$.$.$.$.$.$.$.$.$.$.$.$.@.@.@.@.@.@.@.@.@.@.@.@.@.@.@.@.=.=.=.=.=.=.=.*.=.=.=.5.=.5.8.e.w.w.w.w.r.f.g.g.g.g.j.j.j.j.x.x.j.j.j.g.g.g.g.g.g.g.g.g.g.g.j.j.j.j.j.j.c.c.c.c.c.c.C.C.C.C.C.C.C.D.G.G.U.U.Y.Y.W.W.W.W.W./.`.).).).).).).).`.).).)._._._._._._._._.).`././././.W.W.W.W.Q.Y.Y.Y.D.D.G.(.`.Q.]     # #   # A w.C.j.g.f.8.<.=.$...*.@.= . . . . . } r.8.9.w.w.w.w.w.6.8.w.H f f h h h f h h h h h f f t t d d d d d d d d d f f d d d d d d d d d d d d d f f f f f f f f f ] w.8.w.w.w.e.e.e.e.e.e.e.e.e.e.e.e.w.w.9.e.e.9.>.6 . $ $ $ $ $ . 6 r.9.9.9.9.9.e.e.e.e.8.8.6.8.8.8.e.8.8.8.8.6.8.6.6.6.8.6.8.8.8.8.6.6.8.8.8.6.8.6.6.6.8.6.8.8.8.8.6.8.8.6.6.8.8.8.8.6.6.6.6.8.8.8.8.6.6.6.6.8.8.8.8.",
"=.=.=.=.=.=.=.=.*.=.*.*.*.*.*.*.=.=.=.=.=.=.=.=.=.=.=.=.=.=.=.=.=.=.=.=.<.<.<.=.:.; $ % $ $ $ . D V.g.g.g.g.g.g.g.g.g.g.l.l.l.l.g.g.g.g.g.g.g.g.c.a.z k x x x x x x x x x x x x x x x x x x x x x x x x x x x x x x x x x x x x x x x x x x x x x x x x x x x x x x x x x x x x x x x x x x x x x x x x x x x x x x x x z z z z z z z z x x z z z z x x x x x x z z x x x x x x x x x x z z x x z z z z 8 ^ c.f.l.l.l.l.l.l.l.l.l.l.l.l.l.l.l.l.l.l.l.l.l.l.l.l.l.l.l.l.g.g.g.g.l.l.l.l.g.g.g.j.g.g.g.g.j.g.c.r $ $ $ $ $ $ r g.c.e.@.*.$.$.$.$.$.$.$.$.$.$.$.$.@.@.@.@.@.@.@.@.@.@.@.@.@.@.@.@.*.*.*.*.6.e.f.j.j.x.c.c.x.j.j.j.j.x.x.c.c.c.g.g.g.g.j.j.j.j.x.x.j.j.j.g.g.g.g.g.g.g.g.g.g.g.j.j.j.j.j.j.g.g.g.g.g.g.g.g.g.g.g.g.f.f.r.r.r.f.f.f.f.g.g.g.g.g.j.x.c.x.x.x.c.V.D.F.G.G.G.G.Y.Y.Y.U.U.U.G.G.D.D.D.D.c.c.c.c.c.x.x.l.g.g.a.c.G.`.XXl.3           3 E j.D.r. .O.@.@.=.%.=.g . . . . . } r.8.9.w.w.w.w.r.6.=.=.D 8 d d d d d d d d d d t 8 8 8 8 8 8 8 8 8 8 8 8 8 8 8 8 8 8 8 8 8 8 8 d d d t 8 t 8 t 8 8 8 8 3 J =.@.*.@.@.@.@.@.$.$.@.@.@.$.@.@.@.@.%.$.$.$.$.@.4 . . $ $ $ $ . 6 r.9.9.9.9.9.9.8.6.=.=.=.=.$.$.$.$.$.$.$.$.$.$.$.$.$.$.$.$.$.$.$.$.$.$.$.$.$.$.$.$.$.$.$.$.$.$.$.$.$.$.$.$.$.$.$.$.$.$.$.$.$.$.$.$.@.@.@.@.@.@.@.@.",
"@.@.@.@.#.#.@.@.@.@.@.@.@.@.@.@.$.$.$.$.$.$.$.$.$.$.@.$.$.$.$.$.$.$.$.$.$.@.@.@.X.% * * $ $ $ . ) C.g.g.g.g.g.g.g.g.g.g.l.l.l.l.g.g.g.g.g.g.g.g.x.x._ z z k k z k k k k k k k k k k k k k k k k k k k k k k k k k k k k k k k k k k k k k k k k k k k k k k k k k k k k k k k k k k k k k k k k k k k k k k k k k k k k l l l l l l l l l l l l l l k k k k k k k k k k k k k k k k k k k k k k k k k k z =.c.a.l.l.l.l.l.l.l.l.l.l.l.l.l.l.l.l.l.l.l.l.l.l.l.l.l.l.l.l.g.g.g.g.l.l.l.l.g.g.g.g.j.g.g.g.j.g.M.g . $ $ $ $ $ r g.g.6.@.$.$.$.$.$.$.$.$.$.$.$.$.$.@.@.@.@.@.@.@.@.@.@.@.@.@.@.@.@.$.$.$.$.@.@.$.*.=.=.5.6.6.8.9.f.g.g.g.g.c.c.j.g.g.g.j.j.j.j.x.x.j.j.j.g.g.g.g.g.g.g.g.g.g.g.j.j.j.j.x.x.c.c.c.c.x.j.x.j.j.g.g.j.c.c.j.g.g.g.j.j.g.g.g.g.g.g.g.g.g.g.g.j.x.j.g.g.g.g.g.g.g.f.f.r.j.g.g.f.f.g.g.g.g.g.g.g.g.g.g.g.g.c.a.s.l.C.Y.[.Y.L   X @ #     3 ] C.g.=.@.@.<.@.>./ . . . . . } y.7.9.q.q.w.q.0.=.$.*.A 8 8 t 8 8 8 8 8 8 8 8 8 8 8 8 8 8 8 8 8 8 8 8 8 8 8 8 8 8 8 8 8 8 8 8 8 8 8 8 8 8 8 8 8 8 8 8 8 ^ =.@.#.@.@.@.@.@.@.@.@.@.@.@.@.@.@.@.@.$.$.$...} 3 . . $ $ $ $ . 4 9.7.7.7.7.r.7.6.=.@.@.@.@.@.@.$.$.$.$.$.$.$.$.$.$.$.$.$.$.$.$.$.$.$.$.$.$.$.$.$.$.$.$.$.$.$.$.$.$.$.$.$.$.$.$.$.$.$.$.$.$.$.$.$.%.@.@.@.#.#.#.#.@.",
"@.@.@.@.@.@.@.@.@.@.@.@.@.@.@.@.@.@.@.@.@.@.@.@.@.@.@.@.@.@.@.@.@.@.@.@.$.$.*.*.#.; $ . $ $ $ . ) b.h.g.g.g.g.g.h.g.g.g.l.l.l.l.g.g.g.g.g.g.g.g.g.N.a.L f f f f d d d d d d d d d d d d d d d d d d d d d d d d d d d d d d d d d d d d d d d d d d d d d d d d d d d d d d d d d d d d d d d d d d d d d d d d d d d d f f f f f f p p p p f f f f d d d d d d d d d d d d d d d d d d d f f f f f f f _ l.s.g.l.l.l.l.l.z.l.l.z.z.l.l.l.l.l.l.l.l.l.l.l.l.l.l.l.l.l.l.g.g.g.g.l.l.z.l.g.g.g.g.g.g.g.g.j.g.C.g . $ $ $ $ $ r g.g.=.$.$.$.$.$.$.$.$.$.$.$.$.$.$.@.@.@.@.@.@.@.@.@.@.@.@.@.@.@.@.@.@.@.@.@.@.$.*.@.@.@.$.@.@.$.$.$.$.*.*.6.6.e.e.g.g.j.j.j.j.x.x.j.j.j.g.g.g.g.g.g.g.g.g.g.g.j.j.j.j.j.g.g.g.g.g.g.g.j.j.g.g.g.f.f.g.j.x.x.j.c.c.x.x.x.x.x.g.f.r.8.8.8.8.f.f.g.g.g.j.x.x.x.x.j.j.x.j.g.g.x.x.x.x.g.g.g.g.g.g.g.g.g.c.l.l.g.l.g.D.(._.5.0     # X   X 8 =.c.6.@.$.#...#.4 . . . . } y.7.9.q.q.w.w.=.@.@.=.A 8 8 t 8 8 8 8 8 8 8 8 8 8 8 8 8 8 8 8 8 8 8 8 8 8 8 8 8 8 8 8 8 8 8 8 8 8 8 8 8 8 8 8 8 8 8 8 8 ^ *.] @.@.@.@.@.@.@.@.@.@.@.@.@.@.@.@.@.@.@.@.%.@.4 . . $ $ $ $ . 4 9.7.7.7.7.9.7.>.=.#.@.@.@.@.@.@.@.@.@.@.@.@.@.@.@.@.@.@.@.@.@.@.@.@.@.@.@.@.@.@.@.@.@.@.@.@.@.@.@.@.@.@.@.@.@.@.@.@.@.@.@.@.@.@.@.@.@.@.@.@.@.@.@.",
"@.@.@.@.@.@.@.@.@.@.@.@.@.@.@.@.@.@.@.@.@.@.@.@.@.@.@.@.@.@.@.@.@.$.$.$.*.*.$.#.| $ $ $ $ $ $ . ^ c.k.g.g.l.l.l.z.l.l.l.l.l.l.l.l.l.l.l.l.l.l.l.l.l.l.l.;.] _ ( _ _ _ _ _ _ _ _ _ _ _ _ _ _ _ _ _ _ _ _ _ _ _ _ _ _ _ _ _ _ _ _ _ _ _ _ _ _ _ _ _ _ _ _ _ _ _ _ _ _ _ _ _ _ _ _ _ _ _ _ _ _ _ _ _ _ _ _ _ _ _ _ _ _ _ _ _ _ _ _ _ _ _ _ _ _ _ _ _ _ _ _ _ _ _ _ _ _ _ _ _ _ _ _ _ _ _ _ _ _ _ _ _ _ @.5.l.l.l.l.l.l.l.l.l.l.l.l.l.l.l.l.l.l.l.l.l.l.l.l.l.l.l.l.l.l.l.l.l.l.l.l.l.l.l.l.g.g.g.g.g.g.g.g.k.g.b.g $ $ $ $ % $ r g.g.@.@.@.@.@.@.@.@.@.@.@.@.@.@.@.@.@.@.@.@.@.@.@.@.@.@.@.@.@.@.@.@.@.@.@.@.@.@.@.@.@.@.@.$.$.$.$.@.@.@.@.$.$.$.$.$.@.@.@.6.6.6.6.r.r.r.r.g.g.g.g.c.c.g.g.g.g.g.g.j.g.g.g.j.x.x.c.c.j.g.f.x.x.x.x.j.x.c.c.j.g.g.g.r.e.6.=.@.@.@.@.@.@.@.@.*.*.*.*.9.f.g.g.g.g.g.g.g.g.g.g.g.g.l.l.l.g.g.g.g.g.g.g.l.l.l.l.z.z.l.l.l.Y.(.G.f     X X +   @ Z f.9.@.#.-.#.= . . . . } i.e.e.e.e.e.e.*.@.@.*.D 9 t t 8 8 8 8 8 8 8 8 8 8 8 8 8 8 8 8 8 8 8 8 8 8 8 8 8 8 8 8 8 8 8 8 8 8 8 8 8 8 8 8 8 8 8 8 d ^ =.@.@.@.@.@.@.@.@.@.@.@.@.@.@.@.@.@.@.@.@.@.%.@., . . $ $ $ $ . 4 9.9.e.e.e.w.8.6.@.@.@.@.@.@.@.@.@.@.@.@.@.@.@.@.@.@.@.@.@.@.@.@.@.@.@.@.@.@.@.@.@.@.@.@.@.@.@.@.@.@.@.@.@.@.@.@.@.@.@.@.@.@.@.@.@.$.$.$.$.@.@.@.@.",
"@.@.@.@.@.@.@.@.@.@.@.@.@.@.@.@.@.@.@.@.@.@.@.@.@.@.@.@.@.@.@.@.$.$.@.$.*.*.$.#.| $ $ $ $ $ $ . ^ c.j.x.l.l.l.l.l.l.l.l.l.l.l.l.l.l.l.l.l.l.l.l.l.l.l.l.N.c.c.c.c.c.c.c.c.c.c.c.c.c.x.c.c.c.c.c.c.c.c.c.c.c.c.c.c.c.c.c.c.c.x.x.c.c.c.c.c.x.c.c.c.c.c.c.c.c.x.x.c.c.c.c.c.x.c.c.c.c.c.c.c.c.x.x.c.c.c.c.x.x.c.c.c.c.c.c.c.c.x.x.c.c.c.c.c.c.c.c.c.c.c.c.c.c.c.c.c.c.c.c.c.c.c.c.c.c.c.c.c.c.c.c.c.c.c.N.l.l.l.l.l.l.l.l.l.l.l.l.l.l.l.l.l.l.l.l.l.l.l.l.l.l.l.l.l.l.l.l.l.l.l.l.l.l.l.l.g.g.g.g.g.g.g.g.k.g.c.g $ $ $ $ $ $ r g.g.@.@.@.@.@.@.@.@.@.@.@.@.@.@.@.@.@.@.@.@.@.@.@.@.@.@.@.@.@.@.@.@.@.@.@.@.@.@.@.@.@.@.@.$.$.$.$.@.@.@.@.@.@.@.@.@.@.@.@.@.@.@.$.*.*.*.=.<.<.<.<.r.r.g.g.x.x.x.j.g.g.j.x.x.x.x.x.j.x.c.c.g.g.g.g.9.e.8.6.*.$.$.@.@.@.O.] @.@.@.@.@.@.@.@.@.@.@.@.@.=.5.8.r.f.j.c.j.x.c.c.x.g.g.g.g.g.g.g.g.g.g.g.l.l.l.l.z.z.l.l.l.g.c.Y./.*.X @       @ @ @ U r.#.=.-.4 . . $ .  .i.e.8.e.e.e.e.*.@.@.*.D 7 d d 8 8 8 8 8 8 8 8 8 8 8 8 8 8 8 8 8 8 8 8 8 8 8 8 8 8 8 8 8 8 8 8 8 8 8 8 8 8 8 8 8 8 8 8 5 U *.@.@.@.@.@.@.@.@.@.@.@.@.@.@.@.@.@.@.@.@.@.%.@., . . $ $ $ $ . 4 9.e.e.8.e.e.e.5.$.@.@.@.@.@.@.@.@.@.@.@.@.@.@.@.@.@.@.@.@.@.@.@.@.@.@.@.@.@.@.@.@.@.@.@.@.@.@.@.@.@.@.@.@.@.@.@.@.@.@.@.@.@.@.@.@.@.@.@.@.@.@.@.@.",
"@.@.@.@.@.@.@.@.@.@.@.@.@.@.@.@.@.@.@.@.@.@.@.@.@.@.@.@.@.@.@.@.@.@.@.@.$.$.$.#.| $ $ $ $ $ . . ^ c.j.x.l.l.l.x.l.l.l.l.l.l.l.l.l.l.l.l.l.l.l.l.l.l.l.l.g.l.l.l.l.g.g.g.g.g.g.g.g.g.g.g.g.g.g.g.g.g.g.g.g.g.g.g.g.g.g.g.g.g.g.g.g.g.g.g.g.g.g.g.g.g.g.g.g.g.g.g.g.g.g.g.g.g.g.g.g.g.g.g.g.g.g.g.g.g.g.g.g.g.g.g.g.g.g.g.g.g.g.g.l.l.l.l.l.l.l.l.l.l.l.l.l.l.l.l.l.l.l.l.l.l.l.l.l.l.l.l.l.l.l.l.g.l.g.f.l.l.l.l.l.l.l.l.l.l.l.l.l.l.l.l.l.l.l.l.l.l.l.l.l.l.l.l.l.l.l.l.l.l.l.l.l.l.l.l.g.g.g.g.g.g.g.g.k.g.g.r . $ $ $ $ $ r h.g.@.@.@.@.@.@.@.@.@.@.@.@.@.@.@.@.@.@.@.@.@.@.@.@.@.@.@.@.@.@.@.@.@.@.@.@.@.@.@.@.@.@.@.$.$.$.$.@.@.@.@.@.@.@.@.@.@.@.@.@.@.@.@.@.@.@.@.@.@.@.@.@.@.@.$.=.=.=.=.8.9.f.r.g.g.g.g.g.r.e.6.*.*.*.*.@.@.*.=.$.@.@.@.@.@.@.@.@.@.@.@.@.@.@.@.@.@.@.@.@.@.O.$.@.*.<.6.f.g.x.c.c.c.l.g.g.g.g.g.g.g.g.g.l.l.l.l.z.l.l.c.c.x.g.l.I.(.N.d   X X X @     7 ` ..#.4 . . $ $ ..i.e.9.e.e.e.e.=.@.@.*.! t d 8 8 8 8 8 8 8 8 8 8 8 8 8 8 8 8 8 8 8 8 8 8 8 8 8 8 8 8 8 8 8 8 8 8 8 8 8 8 8 8 8 8 8 8 8 8 ( $.@.@.@.@.@.@.@.@.@.@.@.@.@.@.@.@.@.@.@.@.@.%.@., . . $ $ $ $ . 4 9.e.8.8.8.e.e.5.$.@.@.@.@.@.@.@.@.@.@.@.@.@.@.@.@.@.@.@.@.@.@.@.@.@.@.@.@.@.@.@.@.@.@.@.@.@.@.@.@.@.@.@.@.@.@.@.@.@.@.@.@.@.@.@.@.@.@.@.@.@.@.@.@.",
"@.@.@.@.@.@.@.@.@.@.@.@.@.@.@.@.@.@.@.@.@.@.@.@.@.@.@.@.@.@.@.@.@.@.@.@.$.$.$.#.| $ $ $ $ $ . . ^ c.j.j.l.l.l.l.l.l.l.l.l.l.l.l.l.l.l.l.l.l.l.l.l.l.l.l.g.g.x.c.x.l.l.l.l.l.l.l.l.l.l.l.l.l.l.l.l.l.l.l.l.l.l.l.l.l.l.l.l.l.l.l.l.l.l.l.l.l.l.l.l.l.l.l.l.l.l.l.l.l.l.l.l.l.l.l.l.l.l.l.l.l.l.l.l.l.l.l.l.l.l.l.l.l.l.l.l.l.l.l.l.l.l.l.l.l.l.l.l.l.l.l.l.l.l.l.l.l.l.l.l.l.l.l.l.l.l.l.l.l.l.l.g.c.c.x.l.l.l.l.l.l.l.l.l.l.l.l.l.l.l.l.l.l.l.l.l.l.l.l.l.l.l.l.l.l.l.l.l.l.l.l.l.l.l.l.g.g.g.g.g.g.g.g.k.k.r.6 . $ $ $ $ $ r g.g.@.@.@.@.@.@.@.@.@.@.@.@.@.@.@.@.@.@.@.@.@.@.@.@.@.@.@.@.@.@.@.@.@.@.@.@.@.@.@.@.@.@.@.$.$.$.$.@.@.@.@.@.@.@.@.@.@.@.@.@.@.@.@.@.@.@.@.@.@.@.@.=.*.@.@.@.@.@.@.@.$.@.@.=.=.=.=.@.@.@.@.@.@.@.@.*.*.$.$.$.$.@.@.@.@.@.$.$.@.@.@.@.@.@.@.@.@.@.@.$.$.@.@.@.@.@.@.@.@.=.6.a.g.c.x.g.g.g.g.g.g.g.g.l.l.l.l.z.z.l.l.x.g.g.c.a.l.E.W.( @     X   +     e / 4 . . $ . } i.8.e.e.e.e.e.=.@.@.*. .h t 2 8 8 8 8 8 8 8 8 8 8 8 8 8 8 8 8 8 8 8 8 8 8 8 8 8 8 8 8 8 8 8 8 8 8 8 8 8 8 8 8 8 8 8 8 x @.*.@.@.@.@.@.@.@.@.@.@.@.@.@.@.@.@.@.@.@.@.@.%.@., . . $ $ $ $ . 4 9.e.8.8.8.e.e.5.$.@.@.@.@.@.@.@.@.@.@.@.@.@.@.@.@.@.@.@.@.@.@.@.@.@.@.@.@.@.@.@.@.@.@.@.@.@.@.@.@.@.@.@.@.@.@.@.@.@.@.@.@.@.@.@.@.@.@.@.@.@.@.@.@.",
"@.@.@.@.@.@.@.@.@.@.@.@.@.@.@.@.@.@.@.@.@.@.@.@.@.@.@.@.@.@.@.@.@.@.@.@.*.*.$.#.| $ $ $ $ $ . . ^ c.j.j.l.l.l.l.l.l.l.l.l.l.l.l.l.l.l.l.l.l.l.l.l.l.l.l.l.l.l.l.l.l.l.l.l.l.l.l.l.l.l.l.l.l.l.l.l.l.l.l.l.l.l.l.l.l.l.l.l.l.l.l.l.l.l.l.l.l.l.l.l.l.l.l.l.l.l.l.l.l.l.l.l.l.l.l.l.l.l.l.l.l.l.l.l.l.l.l.l.l.l.l.l.l.l.l.l.l.l.l.l.l.l.l.l.l.l.l.l.l.l.l.l.l.l.l.l.l.l.l.l.l.l.l.l.l.l.l.l.l.l.l.l.l.l.l.l.l.l.l.l.l.l.l.l.l.l.l.l.l.l.l.l.l.l.l.l.l.l.l.l.l.l.l.l.l.l.l.l.l.l.l.l.l.l.l.g.g.g.g.l.l.l.g.k.p.6.r $ $ $ % $ * r g.g.=.@.@.$.$.@.@.@.@.@.@.@.@.@.@.@.@.@.@.@.@.@.@.@.@.@.@.@.@.@.@.@.@.@.@.@.@.@.@.@.@.@.@.$.$.$.$.$.$.$.$.$.$.$.$.$.$.$.@.@.@.@.@.@.@.@.@.@.@.@.@.@.@.@.@.@.@.@.@.@.@.@.@.@.@.@.@.$.$.$.$.@.@.@.@.$.$.$.$.$.$.$.$.@.@.@.@.@.@.@.@.@.@.@.@.@.@.@.@.@.@.@.@.@.@.@.@.@.@.@.@.O.@.=.5.g.g.l.g.l.g.l.N.z.l.l.l.l.l.l.l.l.l.l.l.x.x.g.c.W.g.3     X X @ X . . . . . $ . ] r.6.e.e.e.8.8.=.@.@.@.@.( Z t 8 8 8 8 8 8 8 8 8 8 8 8 8 8 8 8 8 8 8 8 8 8 8 8 8 8 8 8 8 8 8 8 8 8 8 8 8 8 8 8 d 5 8 x $.$.$.@.$.$.$.$.@.@.@.@.@.@.@.@.@.@.@.@.@.@.@.@.%.@., . . $ $ $ $ . 6 9.8.8.8.e.e.e.5.$.@.@.@.@.&.&.&.&.&.&.&.&.&.&.@.@.@.@.@.@.@.@.@.@.@.@.@.@.&.&.@.@.@.@.@.@.@.@.@.@.@.@.@.@.&.&.@.@.$.$.@.@.@.@.@.@.@.@.@.@.&.&.&.&.",
"@.@.@.@.@.@.@.@.@.@.@.@.@.@.@.@.@.@.@.@.@.@.@.@.@.@.@.@.@.@.@.@.@.@.@.@.*.*.$.#.| $ $ $ $ $ . . T c.j.g.l.l.l.l.l.l.l.l.x.l.l.l.l.l.l.l.l.l.l.l.l.l.l.l.l.l.l.l.l.l.l.l.l.l.l.l.l.l.l.l.l.l.l.l.l.l.l.l.l.l.l.l.l.l.l.l.l.l.l.l.l.l.l.l.l.l.l.l.l.l.l.l.l.l.l.l.l.l.l.l.l.l.l.l.l.l.l.l.l.l.l.l.l.l.l.l.l.l.l.l.l.l.l.l.l.l.l.l.l.l.l.l.l.l.l.l.l.l.l.l.l.l.l.l.l.l.l.l.l.l.l.l.l.l.l.l.l.l.l.l.l.l.l.l.l.l.l.l.l.l.l.l.l.l.l.l.l.l.l.l.l.l.l.l.l.l.l.l.l.l.l.l.l.l.l.l.l.l.l.l.l.l.l.l.g.g.g.g.l.l.l.l.c.9.>.r $ $ $ % $ $ w g.g.=.@.@.@.$.@.@.@.@.@.@.@.@.@.@.@.@.@.@.@.@.@.@.@.@.@.@.@.@.@.@.@.@.@.@.@.@.@.@.@.@.@.@.$.$.$.$.$.$.$.$.$.$.$.$.$.$.$.@.@.@.@.@.@.@.@.@.@.@.@.@.@.@.@.@.@.@.@.@.@.@.@.@.@.@.@.@.$.$.$.$.@.@.@.@.$.$.$.$.$.$.$.$.@.@.@.@.@.@.@.@.@.@.@.@.@.@.@.@.@.@.@.@.@.@.@.@.@.@.@.@.&.&.@.@.&.e.l.g.c.l.g.l.c.z.l.l.l.l.l.l.l.l.l.x.x.x.x.x.x.U.U.J             . . . $ $ . ] r.6.e.e.e.8.8.=.@.@.@.O.*.@.( ( ( ( ( ( ( ( ( ( ( ( ( ( ( ( ( ( ( ( ( ( ( ( ( ( ( ( ( ( ( ( ( ( ( ( ( ( ( ( ( ( ( ] =.$.$.$.$.$.$.$.$.@.@.@.@.@.@.@.@.@.@.@.@.@.@.@.@.%.@., . $ $ $ $ $ . 6 9.8.8.8.e.e.e.5.$.@.@.@.@.&.&.&.&.&.&.&.&.&.&.@.@.@.@.@.@.@.@.@.@.@.@.@.@.&.&.@.@.@.@.@.@.@.@.@.@.@.@.@.@.&.&.@.@.$.$.@.@.@.@.@.@.@.@.@.@.&.&.&.&.",
"@.@.@.@.@.@.@.@.@.@.@.@.@.@.@.@.@.@.@.@.@.@.@.@.@.@.@.@.@.@.@.@.@.@.@.@.*.*.$.#.| $ $ $ $ $ . . T c.j.g.l.l.l.l.l.l.x.l.l.l.l.l.l.l.l.l.l.l.l.l.l.l.l.l.l.l.l.l.l.l.l.l.l.l.l.l.l.l.l.l.l.l.l.l.l.l.l.l.l.l.l.l.l.l.l.l.l.l.l.l.l.l.l.l.l.l.l.l.l.l.l.l.l.l.l.l.l.l.l.l.l.l.l.l.l.l.l.l.l.l.l.l.l.l.l.l.l.l.l.l.l.l.l.l.l.l.l.l.l.l.l.l.l.l.l.l.l.l.l.l.l.l.l.l.l.l.l.l.l.l.l.l.l.l.l.l.l.l.l.l.l.l.l.l.l.l.l.l.l.l.l.l.l.l.l.l.l.l.l.l.l.l.l.l.l.l.l.l.l.l.l.l.l.l.l.l.l.l.l.l.l.l.l.l.g.g.g.g.l.l.l.l.c.6.%.r $ $ $ $ $ $ r h.g.=.@.@.@.@.@.@.@.@.@.@.@.@.@.@.@.@.@.@.@.@.@.@.@.@.@.@.@.@.@.@.@.@.@.@.@.@.@.@.@.@.@.@.$.$.$.$.$.$.$.$.$.$.$.$.$.$.$.@.@.@.@.@.@.@.@.@.@.@.@.@.@.@.@.@.@.@.@.@.@.@.@.@.@.@.@.@.$.$.$.$.@.@.@.@.$.$.$.$.$.$.$.$.@.@.@.@.@.@.@.@.@.@.@.@.@.@.@.@.@.@.@.@.@.@.@.@.@.@.@.@.=.*.@.O.@.@.=.r.l.c.l.g.l.c.l.l.l.l.l.l.l.l.l.x.x.x.x.x.x.g.c.G.6.X           . . $ $ . ] r.8.e.e.e.8.8.<.@.@.@.*.@.@.*.*.=.=.=.=.=.=.=.=.=.=.=.=.=.=.=.=.=.=.=.=.=.=.=.=.=.=.=.=.=.=.=.=.=.=.=.=.=.=.=.=.*.@.@.$.$.$.$.$.$.$.$.@.@.@.@.@.@.@.@.@.@.@.@.@.@.@.@.%.@.4 . $ $ $ $ $ . 4 9.8.e.e.e.e.e.5.$.@.@.@.@.&.&.&.&.&.&.&.&.&.&.@.@.@.@.@.@.@.@.@.@.@.@.@.@.&.&.@.@.@.@.@.@.@.@.@.@.@.@.@.@.&.&.@.@.$.$.@.@.@.@.@.@.@.@.@.@.&.&.&.&.",
"@.@.@.@.@.@.@.@.@.@.@.@.@.@.@.@.@.@.@.@.@.@.@.@.@.@.@.@.@.@.@.@.@.@.@.@.*.*.$.#.| $ $ $ $ $ $ . T c.g.g.l.l.l.l.l.l.l.l.l.l.l.l.l.l.l.l.l.l.l.l.l.l.l.l.l.l.l.l.l.l.l.l.l.l.l.l.l.l.l.l.l.l.l.l.l.l.l.l.l.l.l.l.l.l.l.l.l.l.l.l.l.l.l.l.l.l.l.l.l.l.l.l.l.l.l.l.l.l.l.l.l.l.l.l.l.l.l.l.l.l.l.l.l.l.l.l.l.l.l.l.l.l.l.l.l.l.l.l.l.l.l.l.l.l.l.l.l.l.l.l.l.l.l.l.l.l.l.l.l.l.l.l.l.l.l.l.l.l.l.l.l.l.l.l.l.l.l.l.l.l.l.l.l.l.l.l.l.l.l.l.l.l.l.l.l.l.l.l.l.l.l.l.l.l.l.l.l.l.l.l.l.l.l.l.g.g.g.l.l.l.l.l.c.1.@.r $ $ $ $ $ $ r h.g.=.@.@.@.@.@.@.@.@.@.@.@.@.@.@.@.@.@.@.@.@.@.@.@.@.@.@.@.@.@.@.@.@.@.@.@.@.@.@.@.@.@.@.$.$.$.$.$.$.$.$.$.$.$.$.$.$.$.@.@.@.@.@.@.@.@.@.@.@.@.@.@.@.@.@.@.@.@.@.@.@.@.@.@.@.@.@.$.$.$.$.@.@.@.@.$.$.$.$.$.$.$.$.@.@.@.@.@.@.@.@.@.@.@.@.@.@.@.@.@.@.@.@.@.@.@.@.@.@.@.@.&.@.&.@.&.*.@.@.=.a.c.l.g.l.c.l.l.l.l.l.l.l.x.x.x.x.x.x.c.9.g.j.D.j.x         . . . $ . ] r.8.e.e.e.8.8.<.@.@.@.@.@.@.@.$.@.@.@.@.@.@.@.@.@.@.@.@.@.@.@.@.@.@.@.@.@.@.@.@.@.@.@.@.@.@.@.@.@.@.@.@.@.@.@.@.$.*.$.$.$.$.$.$.$.$.$.@.@.@.@.@.@.@.@.@.@.@.@.@.@.@.@.%.@.4 . $ $ $ $ $ . 4 9.e.e.e.e.e.e.5.$.@.@.@.@.&.&.&.&.&.&.&.&.&.&.@.@.@.@.@.@.@.@.@.@.@.@.@.@.&.&.@.@.@.@.@.@.@.@.@.@.@.@.@.@.&.&.@.@.@.$.@.@.@.@.@.@.@.@.@.@.&.&.&.&.",
"@.@.@.@.@.@.@.@.@.@.@.@.@.@.@.@.@.@.@.@.@.@.@.@.@.@.@.@.@.@.@.@.@.@.@.@.$.$.$.#.#.* $ $ $ $ . . T c.g.g.l.l.l.l.l.l.l.l.l.l.l.l.l.l.l.l.l.l.l.l.l.l.l.l.l.l.l.l.l.l.l.l.l.l.l.l.l.l.l.l.l.l.l.l.l.l.l.l.l.l.l.l.l.l.l.l.l.l.l.l.l.l.l.l.l.l.l.l.l.l.l.l.l.l.l.l.l.l.l.l.l.l.l.l.l.l.l.l.l.l.l.l.l.l.l.l.l.l.l.l.l.l.l.l.l.l.l.l.l.l.l.l.l.l.l.l.l.l.l.l.l.l.l.l.l.l.l.l.l.l.l.l.l.l.l.l.l.l.l.l.l.l.l.l.l.l.l.l.l.l.l.l.l.l.l.l.l.l.l.l.l.l.l.l.l.l.l.l.l.l.l.l.l.l.l.l.l.l.l.l.l.l.l.l.l.l.l.l.l.l.l.l.g.*.#.e . $ $ $ $ $ r h.g.9.@.@.@.@.@.@.@.@.@.@.@.@.@.@.@.@.@.@.@.@.@.@.@.@.@.@.@.@.@.@.@.@.@.@.@.@.@.@.@.@.@.@.@.@.@.@.@.@.@.@.@.@.@.@.@.@.@.@.@.@.@.@.@.@.@.@.@.@.@.@.@.@.@.@.@.@.@.@.@.@.@.@.@.@.@.@.@.@.@.@.@.@.@.@.@.@.@.@.@.@.@.@.@.@.@.@.@.@.@.@.@.@.@.@.@.@.@.@.@.@.@.@.@.@.@.@.@.@.@.@.@.@.@.@.@.@.@.@.@.&.2.r.c.c.g.g.g.j.j.j.j.j.j.j.j.j.j.j.g.g.g.g.r.c.C.;.@   .   . . $ . } i.8.e.e.e.e.e.=.@.@.@.@.@.@.@.@.@.@.@.@.@.@.@.@.@.@.@.@.@.@.@.@.@.@.@.@.@.@.@.@.@.@.@.@.@.@.@.@.@.@.@.@.@.@.@.@.@.@.@.@.@.@.@.@.@.@.@.@.@.@.@.@.@.@.@.@.@.@.@.@.@.@.@.%.@.4 . $ $ $ $ $ . 6 9.8.8.8.8.q.q.6.=.@.@.@.@.@.@.@.@.@.@.@.@.@.@.@.@.@.@.@.@.@.@.@.@.@.@.@.@.@.@.@.@.@.@.@.@.@.@.@.@.@.@.@.@.@.@.@.@.@.@.@.@.@.@.@.@.$.$.$.$.$.$.$.$.",
"@.@.@.@.@.@.@.@.@.@.@.@.@.@.@.@.@.@.@.@.@.@.@.@.@.@.@.@.@.@.@.@.@.@.@.@.$.$.$.#.#.* $ $ $ $ . . T c.g.g.l.l.l.l.l.l.l.l.l.l.x.l.l.l.l.l.l.l.l.l.l.l.l.l.l.l.l.l.l.l.l.l.l.l.l.l.l.l.l.l.l.l.l.l.l.l.l.l.l.l.l.l.l.l.l.l.l.l.l.l.l.l.l.l.l.l.l.l.l.l.l.l.l.l.l.l.l.l.l.l.l.l.l.l.l.l.l.l.l.l.l.l.l.l.l.l.l.l.l.l.l.l.l.l.l.l.l.l.l.l.l.l.l.l.l.l.l.l.l.l.l.l.l.l.l.l.l.l.l.l.l.l.l.l.l.l.l.l.l.l.l.l.l.l.l.l.l.l.l.l.l.l.l.l.l.l.l.l.l.l.l.l.l.l.l.l.l.l.l.l.l.l.l.l.l.l.l.l.l.l.l.l.l.l.l.l.l.l.l.l.l.l.r.#.#.r . $ $ $ $ $ r h.g.9.@.@.@.@.@.@.@.@.@.@.@.@.@.@.@.@.@.@.@.@.@.@.@.@.@.@.@.@.@.@.@.@.@.@.@.@.@.@.@.@.@.@.@.@.@.@.@.@.@.@.@.@.@.@.@.@.@.@.@.@.@.@.@.@.@.@.@.@.@.@.@.@.@.@.@.@.@.@.@.@.@.@.@.@.@.@.@.@.@.@.@.@.@.@.@.@.@.@.@.@.@.@.@.@.@.@.@.@.@.@.@.@.@.@.@.@.@.@.@.@.@.@.@.@.@.@.@.@.@.@.@.@.@.@.@.@.@.@.&.&.@.&.9.f.j.j.g.j.j.j.j.j.j.j.j.j.j.j.g.g.g.g.x.c.g.A.6.e .   . . $ $ } i.8.e.e.e.e.e.=.@.@.@.@.@.@.@.@.@.@.@.@.@.@.@.@.@.@.@.@.@.@.@.@.@.@.@.@.@.@.@.@.@.@.@.@.@.@.@.@.@.@.@.@.@.@.@.@.@.@.@.@.@.@.@.@.@.@.@.@.@.@.@.@.@.@.@.@.@.@.@.@.@.@.@.%.@.4 . $ $ $ $ $ . 6 9.7.0.0.0.q.q.6.=.@.@.@.@.@.@.@.@.@.@.@.@.@.@.@.@.@.@.@.@.@.@.@.@.@.@.@.@.@.@.@.@.@.@.@.@.@.@.@.@.@.@.@.@.@.@.@.@.@.@.@.@.@.@.@.@.$.$.$.$.$.$.$.$.",
"@.@.@.@.@.@.@.@.@.@.@.@.@.@.@.@.@.@.@.@.@.@.@.@.@.@.@.@.@.@.@.@.@.@.@.@.$.$.$.#.#.* $ $ $ $ $ . T c.g.g.l.l.l.l.l.l.l.l.l.l.l.l.l.l.l.l.l.l.l.l.l.l.l.l.l.l.l.l.l.l.l.l.l.l.l.l.l.l.l.l.l.l.l.l.l.l.l.l.l.l.l.l.l.l.l.l.l.l.l.l.l.l.l.l.l.l.l.l.l.l.l.l.l.l.l.l.l.l.l.l.l.l.l.l.l.l.l.l.l.l.l.l.l.l.l.l.l.l.l.l.l.l.l.l.l.l.l.l.l.l.l.l.l.l.l.l.l.l.l.l.l.l.l.l.l.l.l.l.l.l.l.l.l.l.l.l.l.l.l.l.l.l.l.l.l.l.l.l.l.l.l.l.l.l.l.l.l.l.l.l.l.l.l.l.l.l.l.l.l.l.l.l.l.l.l.l.l.l.l.l.l.l.l.l.l.l.l.l.l.l.l.l.6.@.=.r $ $ $ $ $ $ r k.c.r.@.$.@.@.@.@.@.@.@.@.@.@.@.@.@.@.@.@.@.@.@.@.@.@.@.@.@.@.@.@.@.@.@.@.@.@.@.@.@.@.@.@.@.@.@.@.@.@.@.@.@.@.@.@.@.@.@.@.@.@.@.@.@.@.@.@.@.@.@.@.@.@.@.@.@.@.@.@.@.@.@.@.@.@.@.@.@.@.@.@.@.@.@.@.@.@.@.@.@.@.@.@.@.@.@.@.@.@.@.@.@.@.@.@.@.@.@.@.@.@.@.@.@.@.@.@.@.@.@.@.@.@.@.@.@.@.@.@.&.&.&.&. .=.w.j.j.g.j.j.j.j.j.j.j.j.j.j.g.g.g.g.c.g.c.f.g.g.F . . . $ $ } i.8.e.e.e.e.e.=.@.@.@.@.@.@.@.@.@.@.@.@.@.@.@.@.@.@.@.@.@.@.@.@.@.@.@.@.@.@.@.@.@.@.@.@.@.@.@.@.@.@.@.@.@.@.@.@.@.@.@.@.@.@.@.@.@.@.@.@.@.@.@.@.@.@.@.@.@.@.@.@.@.@.@.$.#.4 . $ $ $ $ $ . 6 9.7.0.0.0.q.q.6.=.@.@.@.@.@.@.@.@.@.@.@.@.@.@.@.@.@.@.@.@.@.@.@.@.@.@.@.@.@.@.@.@.@.@.@.@.@.@.@.@.@.@.@.@.@.@.@.@.@.@.@.@.@.@.@.@.$.$.$.$.$.$.$.$.",
"@.@.@.@.@.@.@.@.@.@.@.@.@.@.@.@.@.@.@.@.@.@.@.@.@.@.@.@.@.@.@.@.@.@.@.@.$.$.$.#.#.* $ $ $ $ $ . T c.j.g.l.l.l.l.l.l.l.l.l.l.l.l.l.l.l.l.l.l.l.l.l.l.l.l.l.l.l.l.l.l.l.l.l.l.l.l.l.l.l.l.l.l.l.l.l.l.l.l.l.l.l.l.l.l.l.l.l.l.l.l.l.l.l.l.l.l.l.l.l.l.l.l.l.l.l.l.l.l.l.l.l.l.l.l.l.l.l.l.l.l.l.l.l.l.l.l.l.l.l.l.l.l.l.l.l.l.l.l.l.l.l.l.l.l.l.l.l.l.l.l.l.l.l.l.l.l.l.l.l.l.l.l.l.l.l.l.l.l.l.l.l.l.l.l.l.l.l.l.l.l.l.l.l.l.l.l.l.l.l.l.l.l.l.l.l.l.l.l.l.l.l.l.l.l.l.l.l.l.l.l.l.l.l.l.l.l.l.l.l.l.l.l.=.@.=.r $ $ $ $ $ $ r h.c.r.@.$.@.@.@.@.@.@.@.@.@.@.@.@.@.@.@.@.@.@.@.@.@.@.@.@.@.@.@.@.@.@.@.@.@.@.@.@.@.@.@.@.@.@.@.@.@.@.@.@.@.@.@.@.@.@.@.@.@.@.@.@.@.@.@.@.@.@.@.@.@.@.@.@.@.@.@.@.@.@.@.@.@.@.@.@.@.@.@.@.@.@.@.@.@.@.@.@.@.@.@.@.@.@.@.@.@.@.@.@.@.@.@.@.@.@.@.@.@.@.@.@.@.@.@.@.@.@.@.@.@.@.@.@.@.@.@.@.&.&.&.&.@.@.@.$.r.j.g.j.j.j.j.j.j.j.j.j.g.g.g.g.f.x.c.m.g.c.g.6 . . $ $ } i.8.e.e.e.e.e.=.@.@.@.@.@.@.@.@.@.@.@.@.@.@.@.@.@.@.@.@.@.@.@.@.@.@.@.@.@.@.@.@.@.@.@.@.@.@.@.@.@.@.@.@.@.@.@.@.@.@.@.@.@.@.@.@.@.@.@.@.@.@.@.@.@.@.@.@.@.@.@.@.@.@.@.@.#.4 . $ $ $ $ $ . 6 9.7.0.0.0.q.q.6.*.@.@.@.@.@.@.@.@.@.@.@.@.@.@.@.@.@.@.@.@.@.@.@.@.@.@.@.@.@.@.@.@.@.@.@.@.@.@.@.@.@.@.@.@.@.@.@.@.@.@.@.@.@.@.@.@.$.$.$.$.$.$.$.$.",
"@.@.@.@.@.@.@.@.@.@.@.@.@.@.@.@.@.@.@.@.@.@.@.@.@.@.@.@.@.@.@.@.@.@.@.@.$.$.$.#.#.* $ $ $ $ . . T c.g.g.x.x.l.l.l.l.l.l.l.l.l.l.l.l.l.l.l.l.l.l.l.l.l.l.l.l.l.l.l.l.l.l.l.l.l.l.l.l.l.l.l.l.l.l.l.l.l.l.l.l.l.l.l.l.l.l.l.l.l.l.l.l.l.l.l.l.l.l.l.l.l.l.l.l.l.l.l.l.l.l.l.l.l.l.l.l.l.l.l.l.l.l.l.l.l.l.l.l.l.l.l.l.l.l.l.l.l.l.l.l.l.l.l.l.l.l.l.l.l.l.l.l.l.l.l.l.l.l.l.l.l.l.l.l.l.l.l.l.l.l.l.l.l.l.l.l.l.l.l.l.l.l.l.l.l.l.l.l.l.l.l.l.l.l.l.l.l.l.l.l.l.l.l.l.l.l.l.l.l.l.l.l.l.l.l.l.l.l.l.l.l.g.@.@.*.r $ $ $ $ $ $ r h.g.f.@.@.@.@.@.@.@.@.@.@.@.@.@.@.@.@.@.@.@.@.@.@.@.@.@.@.@.@.@.@.@.@.@.@.@.@.@.@.@.@.@.@.@.@.@.@.@.@.@.@.@.@.@.@.@.@.@.@.@.@.@.@.@.@.@.@.@.@.@.@.@.@.@.@.@.@.@.@.@.@.@.@.@.@.@.@.@.@.@.@.@.@.@.@.@.@.@.@.@.@.@.@.@.@.@.@.@.@.@.@.@.@.@.@.@.@.@.@.@.@.@.@.@.@.@.@.@.@.@.@.@.@.@.@.@.@.@.@.@.@.@.@.@.@.@.@.=.5.r.g.c.g.g.c.g.g.g.g.g.g.g.g.j.j.l.l.x.l.g.< . $ $ $ } r.8.w.w.w.e.e.=.@.@.@.@.@.@.@.@.@.@.@.@.@.@.@.@.@.@.@.@.@.@.@.@.@.@.@.@.@.@.@.@.@.@.@.@.@.@.@.@.@.@.@.@.@.@.@.@.@.@.@.@.@.@.@.@.@.@.@.@.@.@.@.@.@.@.@.@.@.@.@.@.@.@.@.@.#.4 . $ $ $ $ $ . 4 9.7.0.0.0.w.w.6.*.@.@.@.@.@.@.@.@.@.@.@.@.@.@.@.@.@.@.@.@.@.@.@.@.@.@.@.@.@.@.@.@.@.@.@.@.@.@.@.@.@.@.@.@.@.@.@.@.@.@.@.@.@.@.@.@.$.$.$.$.$.$.$.$.",
"@.@.@.@.@.@.@.@.@.@.@.@.@.@.@.@.@.@.@.@.@.@.@.@.@.@.@.@.@.@.@.@.@.@.@.@.$.$.$.#.#.* $ $ $ $ . . T c.g.g.l.x.l.l.l.l.l.l.l.l.l.l.l.l.l.l.l.l.l.l.l.l.l.l.l.l.l.l.l.l.l.l.l.l.l.l.l.l.l.l.l.l.l.l.l.l.l.l.l.l.l.l.l.l.l.l.l.l.l.l.l.l.l.l.l.l.l.l.l.l.l.l.l.l.l.l.l.l.l.l.l.l.l.l.l.l.l.l.l.l.l.l.l.l.l.l.l.l.l.l.l.l.l.l.l.l.l.l.l.l.l.l.l.l.l.l.l.l.l.l.l.l.l.l.l.l.l.l.l.l.l.l.l.l.l.l.l.l.l.l.l.l.l.l.l.l.l.l.l.l.l.l.l.l.l.l.l.l.l.l.l.l.l.l.l.l.l.l.l.l.l.l.l.l.l.l.l.l.l.l.l.l.l.l.l.l.l.l.l.l.l.r.@.@.%.e . $ $ $ $ . r g.g.g.@.@.@.@.@.@.@.@.@.@.@.@.@.@.@.@.@.@.@.@.@.@.@.@.@.@.@.@.@.@.@.@.@.@.@.@.@.@.@.@.@.@.@.@.@.@.@.@.@.@.@.@.@.@.@.@.@.@.@.@.@.@.@.@.@.@.@.@.@.@.@.@.@.@.@.@.@.@.@.@.@.@.@.@.@.@.@.@.@.@.@.@.@.@.@.@.@.@.@.@.@.@.@.@.@.@.@.@.@.@.@.@.@.@.@.@.@.@.@.@.@.@.@.@.@.@.@.@.@.@.@.@.@.@.@.@.@.@.@.@.@.@.@.@.@.@.@.$.=.6.f.c.m.c.g.g.g.g.g.g.g.g.j.j.l.l.x.l.g.< . $ $ $ } r.8.w.w.w.e.e.=.@.@.@.@.@.@.@.@.@.@.@.@.@.@.@.@.@.@.@.@.@.@.@.@.@.@.@.@.@.@.@.@.@.@.@.@.@.@.@.@.@.@.@.@.@.@.@.@.@.@.@.@.@.@.@.@.@.@.@.@.@.@.@.@.@.@.@.@.@.@.@.@.@.@.@.%.#.4 . $ $ $ $ $ . 4 9.7.0.0.0.w.w.6.*.@.@.@.@.@.@.@.@.@.@.@.@.@.@.@.@.@.@.@.@.@.@.@.@.@.@.@.@.@.@.@.@.@.@.@.@.@.@.@.@.@.@.@.@.@.@.@.@.@.@.@.@.@.@.@.@.$.$.$.$.$.$.$.$.",
"@.@.@.@.@.@.@.@.@.@.@.@.@.@.@.@.@.@.@.@.@.@.@.@.@.@.@.@.@.@.@.@.@.@.@.@.$.$.$.#.X.$ $ $ $ $ . . T c.j.g.l.x.l.l.l.l.l.l.l.l.x.l.l.l.l.l.l.l.l.l.l.l.l.l.l.l.l.l.l.l.l.l.l.l.l.l.l.l.l.l.l.l.l.l.l.l.l.l.l.l.l.l.l.l.l.l.l.l.l.l.l.l.l.l.l.l.l.l.l.l.l.l.l.l.l.l.l.l.l.l.l.l.l.l.l.l.l.l.l.l.l.l.l.l.l.l.l.l.l.l.l.l.l.l.l.l.l.l.l.l.l.l.l.l.l.l.l.l.l.l.l.l.l.l.l.l.l.l.l.l.l.l.l.l.l.l.l.l.l.l.l.l.l.l.l.l.l.l.l.l.l.l.l.l.l.l.l.l.l.l.l.l.l.l.l.l.l.l.l.l.l.l.l.l.l.l.l.l.l.l.l.l.l.l.l.l.l.l.g.c.g.6.@.@.#.6 . $ $ $ $ . r g.g.g.*.*.@.@.@.@.@.@.@.@.@.@.@.@.@.@.@.@.@.@.@.@.@.@.@.@.@.@.@.@.@.@.@.@.@.@.@.@.@.@.@.@.@.@.@.@.@.@.@.@.@.@.@.@.@.@.@.@.@.@.@.@.@.@.@.@.@.@.@.@.@.@.@.@.@.@.@.@.@.@.@.@.@.@.@.@.@.@.@.@.@.@.@.@.@.@.@.@.@.@.@.@.@.@.@.@.@.@.@.@.@.@.@.@.@.@.@.@.@.@.@.@.@.@.@.@.@.@.@.@.@.@.@.@.@.@.@.@.@.@.@.@.@.@.@.@.=.*.@.@.=.r.g.g.g.g.g.g.g.g.g.g.j.j.l.l.x.l.g.3 . $ $ $ } r.8.w.w.w.e.e.=.@.@.@.@.@.@.@.@.@.@.@.@.@.@.@.@.@.@.@.@.@.@.@.@.@.@.@.@.@.@.@.@.@.@.@.@.@.@.@.@.@.@.@.@.@.@.@.@.@.@.@.@.@.@.@.@.@.@.@.@.@.@.@.@.@.@.@.@.@.@.@.@.@.@.@.=...- . $ $ $ $ $ . 4 9.7.0.0.0.w.w.6.*.@.@.@.@.@.@.@.@.@.@.@.@.@.@.@.@.@.@.@.@.@.@.@.@.@.@.@.@.@.@.@.@.@.@.@.@.@.@.@.@.@.@.@.@.@.@.@.@.@.@.@.@.@.@.@.@.$.$.$.$.$.$.$.$.",
"@.@.@.@.@.@.@.@.@.@.@.@.@.@.@.@.@.@.@.@.@.@.@.@.@.@.@.@.@.@.@.@.@.@.@.@.$.$.$.#.X.$ $ $ $ $ . . T c.g.g.j.x.x.l.l.l.l.l.l.l.l.l.l.l.l.l.l.l.l.l.l.l.l.l.l.l.l.l.l.l.l.l.l.l.l.l.l.l.l.l.l.l.l.l.l.l.l.l.l.l.l.l.l.l.l.l.l.l.l.l.l.l.l.l.l.l.l.l.l.l.l.l.l.l.l.l.l.l.l.l.l.l.l.l.l.l.l.l.l.l.l.l.l.l.l.l.l.l.l.l.l.l.l.l.l.l.l.l.l.l.l.l.l.l.l.l.l.l.l.l.l.l.l.l.l.l.l.l.l.l.l.l.l.l.l.l.l.l.l.l.l.l.l.l.l.l.l.l.l.l.l.l.l.l.l.l.l.l.l.l.l.l.l.l.l.l.l.l.l.l.l.l.l.l.l.l.l.l.l.l.l.l.l.l.l.l.l.l.g.c.g.=.@.@.#.6 . $ $ $ $ . r g.c.g.*.*.@.@.@.@.@.@.@.@.@.@.@.@.@.@.@.@.@.@.@.@.@.@.@.@.@.@.@.@.@.@.@.@.@.@.@.@.@.@.@.@.@.@.@.@.@.@.@.@.@.@.@.@.@.@.@.@.@.@.@.@.@.@.@.@.@.@.@.@.@.@.@.@.@.@.@.@.@.@.@.@.@.@.@.@.@.@.@.@.@.@.@.@.@.@.@.@.@.@.@.@.@.@.@.@.@.@.@.@.@.@.@.@.@.@.@.@.@.@.@.@.@.@.@.@.@.@.@.@.@.@.@.@.@.@.@.@.@.@.@.@.@.@.@.@.@.@.*.*.*.@.*.8.g.g.g.g.g.g.g.g.j.j.l.l.x.g.g.3 . . $ . } r.8.w.w.w.e.e.=.@.@.@.@.@.@.@.@.@.@.@.@.@.@.@.@.@.@.@.@.@.@.@.@.@.@.@.@.@.@.@.@.@.@.@.@.@.@.@.@.@.@.@.@.@.@.@.@.@.@.@.@.@.@.@.@.@.@.@.@.@.@.@.@.@.@.@.@.@.@.@.@.@.@.@.=...= $ $ $ $ $ $ . 4 9.8.0.0.0.w.w.6.*.@.@.@.@.@.@.@.@.@.@.@.@.@.@.@.@.@.@.@.@.@.@.@.@.@.@.@.@.@.@.@.@.@.@.@.@.@.@.@.@.@.@.@.@.@.@.@.@.@.@.@.@.@.@.@.@.$.$.$.$.$.$.$.$.",
"@.@.@.@.@.@.@.@.@.@.@.@.@.@.@.@.@.@.@.@.@.@.@.@.@.@.@.@.@.@.@.@.@.@.@.@.$.$.$.#.#.* $ $ $ $ $ . T c.g.g.g.g.g.g.x.x.j.j.l.l.l.l.l.l.l.l.l.l.l.l.l.l.l.l.l.l.l.l.l.l.l.l.l.l.l.l.l.l.l.l.l.l.l.l.l.l.l.l.l.l.l.l.l.l.l.l.l.l.l.l.l.l.l.l.l.l.l.l.l.l.l.l.l.l.l.l.l.l.l.l.l.l.l.l.l.l.l.l.l.l.l.l.l.l.l.l.l.l.l.l.l.l.l.l.l.l.l.l.l.l.l.l.l.l.l.l.l.l.l.l.l.l.l.l.l.l.l.l.l.l.l.l.l.l.l.l.l.l.l.l.l.l.l.l.l.l.l.l.l.l.l.l.l.l.l.l.l.l.l.l.l.l.l.l.l.l.l.l.l.l.l.l.l.l.l.l.l.l.l.l.l.l.l.l.g.g.g.l.g.N.w.@.@.@.*.6 . $ $ $ $ . r g.c.g.=.@.$.@.@.@.@.@.@.@.@.@.@.@.@.@.@.@.@.@.@.@.@.@.@.@.@.@.@.@.@.@.@.@.@.@.@.@.@.@.@.@.@.@.@.@.@.@.@.@.@.@.@.@.@.@.@.@.@.@.@.@.@.@.@.@.@.@.@.@.@.@.@.@.@.@.@.@.@.@.@.@.@.@.@.@.@.@.@.@.@.@.@.@.@.@.@.@.@.@.@.@.@.@.@.@.@.@.@.@.@.@.@.@.@.@.@.@.@.@.@.@.@.@.@.@.@.@.@.@.@.@.@.@.@.@.@.@.@.@.@.@.@.@.@.@.$.$.$.$.$.$.$.$.=.r.x.c.c.x.g.g.g.g.g.g.g.g.g.1 . . . . ` r.8.w.w.w.e.e.=.@.@.@.@.@.@.@.@.@.@.@.@.@.@.@.@.@.@.@.@.@.@.@.@.@.@.@.@.@.@.@.@.@.@.@.@.@.@.@.@.@.@.@.@.@.@.@.@.@.@.@.@.@.@.@.@.@.@.@.@.@.@.@.@.@.@.@.@.@.@.@.@.@.@.@.=.) = . $ $ $ $ $ . 6 9.e.8.8.8.e.e.6.$.@.&.&.&.&.&.&.&.@.@.@.@.@.@.@.@.@.@.@.@.@.@.@.@.@.@.@.@.@.@.@.@.@.@.@.@.@.@.@.@.@.@.@.@.@.@.@.@.@.@.@.@.@.@.@.@.$.$.$.$.$.$.$.$.",
"@.@.@.@.@.@.@.@.@.@.@.@.@.@.@.@.@.@.@.@.@.@.@.@.@.@.@.@.@.@.@.@.@.@.@.@.$.$.$.#.X.$ $ $ $ $ $ . ^ C.k.r.g.g.g.g.x.x.j.j.l.l.l.l.l.l.l.l.l.l.l.l.l.l.l.l.l.l.l.l.l.l.l.l.l.l.l.l.l.l.l.l.l.l.l.l.l.l.l.l.l.l.l.l.l.l.l.l.l.l.l.l.l.l.l.l.l.l.l.l.l.l.l.l.l.l.l.l.l.l.l.l.l.l.l.l.l.l.l.l.l.l.l.l.l.l.l.l.l.l.l.l.l.l.l.l.l.l.l.l.l.l.l.l.l.l.l.l.l.l.l.l.l.l.l.l.l.l.l.l.l.l.l.l.l.l.l.l.l.l.l.l.l.l.l.l.l.l.l.l.l.l.l.l.l.l.l.l.l.l.l.l.l.l.l.l.l.l.l.l.l.l.l.l.l.l.l.l.l.l.l.l.l.l.l.l.g.g.g.g.g.c.0.@.@...-.6 . $ $ $ $ . 6 p.g.g.=.@.$.@.@.@.@.@.@.@.@.@.@.@.@.@.@.@.@.@.@.@.@.@.@.@.@.@.@.@.@.@.@.@.@.@.@.@.@.@.@.@.@.@.@.@.@.@.@.@.@.@.@.@.@.@.@.@.@.@.@.@.@.@.@.@.@.@.@.@.@.@.@.@.@.@.@.@.@.@.@.@.@.@.@.@.@.@.@.@.@.@.@.@.@.@.@.@.@.@.@.@.@.@.@.@.@.@.@.@.@.@.@.@.@.@.@.@.@.@.@.@.@.@.@.@.@.@.@.@.@.@.@.@.@.@.@.@.@.@.@.@.@.@.@.@.$.$.$.$.$.$.$.$.O.@.6.f.c.c.x.f.g.g.g.g.g.g.g.4 . . . . ` r.8.w.w.w.e.e.=.@.@.@.@.@.@.@.@.@.@.@.@.@.@.@.@.@.@.@.@.@.@.@.@.@.@.@.@.@.@.@.@.@.@.@.@.@.@.@.@.@.@.@.@.@.@.@.@.@.@.@.@.@.@.@.@.@.@.@.@.@.@.@.@.@.@.@.@.@.@.@.@.@.@.@.$.^ = . $ $ $ $ $ . 6 9.e.8.8.8.e.e.5.*.&.&.&.&.&.&.&.&.@.@.@.@.@.@.@.@.@.@.@.@.@.@.@.@.@.@.@.@.@.@.@.@.@.@.@.@.@.@.@.@.@.@.@.@.@.@.@.@.@.@.@.@.@.@.@.@.$.$.$.$.$.$.$.$.",
"@.@.@.@.@.@.@.@.@.@.@.@.@.@.@.@.@.@.@.@.@.@.@.@.@.@.@.@.@.@.@.@.@.@.@.@.$.$.$.#.#.$ $ $ $ $ . . T c.j.g.g.g.g.g.x.j.j.j.j.j.j.j.l.l.l.l.l.l.l.l.l.l.l.l.l.l.l.l.l.l.l.l.l.l.l.l.l.l.l.l.l.l.l.l.l.l.l.l.l.l.l.l.l.l.l.l.l.l.l.l.l.l.l.l.l.l.l.l.l.l.l.l.l.l.l.l.l.l.l.l.l.l.l.l.l.l.l.l.l.l.l.l.l.l.l.l.l.l.l.l.l.l.l.l.l.l.l.l.l.l.l.l.l.l.l.l.l.l.l.l.l.l.l.l.l.l.l.l.l.l.l.l.l.l.l.l.l.l.l.l.l.l.l.l.l.l.l.l.l.l.l.l.l.l.l.l.l.l.l.l.l.l.l.l.l.l.l.l.l.l.l.l.l.l.l.l.l.l.l.l.l.l.l.l.g.g.g.g.g.g.6.@.@.@.-.6 . . $ $ $ . 6 p.g.j.5.@.$.@.@.@.@.@.@.@.@.@.@.@.@.@.@.@.@.@.@.@.@.@.@.@.@.@.@.@.@.@.@.@.@.@.@.@.@.@.@.@.@.@.@.@.@.@.@.@.@.@.@.@.@.@.@.@.@.@.@.@.@.@.@.@.@.@.@.@.@.@.@.@.@.@.@.@.@.@.@.@.@.@.@.@.@.@.@.@.@.@.@.@.@.@.@.@.@.@.@.@.@.@.@.@.@.@.@.@.@.@.@.@.@.@.@.@.@.@.@.@.@.@.@.@.@.@.@.@.@.@.@.@.@.@.@.@.@.@.@.@.@.@.@.@.$.$.$.$.$.$.$.$.*.@.@.@.8.r.x.x.g.g.g.g.g.g.g.4 . . . . } r.8.w.w.w.e.e.=.@.@.@.@.@.@.@.@.@.@.@.@.@.@.@.@.@.@.@.@.@.@.@.@.@.@.@.@.@.@.@.@.@.@.@.@.@.@.@.@.@.@.@.@.@.@.@.@.@.@.@.@.@.@.@.@.@.@.@.@.@.@.@.@.@.@.@.@.@.@.@.@.@.@.@...T = . $ $ $ $ $ . 6 9.e.8.8.8.e.e.5.*.&.&.&.&.&.&.&.&.@.@.@.@.@.@.@.@.@.@.@.@.@.@.@.@.@.@.@.@.@.@.@.@.@.@.@.@.@.@.@.@.@.@.@.@.@.@.@.@.@.@.@.@.@.@.@.@.$.$.$.$.$.$.$.$.",
"@.@.@.@.@.@.@.@.@.@.@.@.@.@.@.@.@.@.@.@.@.@.@.@.@.@.@.@.@.@.@.@.@.@.@.@.$.$.$.$.@.$ $ $ $ $ . . F e.9.c.g.g.g.g.j.j.j.j.j.j.j.j.l.l.l.l.l.l.l.l.l.l.l.l.l.l.l.l.l.l.l.l.l.l.l.l.l.l.l.l.l.l.l.l.l.l.l.l.l.l.l.l.l.l.l.l.l.l.l.l.l.l.l.l.l.l.l.l.l.l.l.l.l.l.l.l.l.l.l.l.l.l.l.l.l.l.l.l.l.l.l.l.l.l.l.l.l.l.l.l.l.l.l.l.l.l.l.l.l.l.l.l.l.l.l.l.l.l.l.l.l.l.l.l.l.l.l.l.l.l.l.l.l.l.l.l.l.l.l.l.l.l.l.l.l.l.l.l.l.l.l.l.l.l.l.l.l.l.l.l.l.l.l.l.l.l.l.l.l.l.l.l.l.l.l.l.l.l.l.l.l.l.l.l.g.g.g.g.g.g.=.@.%.@.-.6 . . $ $ $ . 6 p.g.c.6.@.$.@.@.@.@.@.@.@.@.@.@.@.@.@.@.@.@.@.@.@.@.@.@.@.@.@.@.@.@.@.@.@.@.@.@.@.@.@.@.@.@.@.@.@.@.@.@.@.@.@.@.@.@.@.@.@.@.@.@.@.@.@.@.@.@.@.@.@.@.@.@.@.@.@.@.@.@.@.@.@.@.@.@.@.@.@.@.@.@.@.@.@.@.@.@.@.@.@.@.@.@.@.@.@.@.@.@.@.@.@.@.@.@.@.@.@.@.@.@.@.@.@.@.@.@.@.@.@.@.@.@.@.@.@.@.@.@.@.@.@.@.@.@.@.$.$.$.$.$.$.$.$.$.=.=.$. .*.e.g.g.g.g.g.g.g.g.4 . . . . } r.8.w.w.w.e.e.*.@.@.@.@.@.@.@.@.@.@.@.@.@.@.@.@.@.@.@.@.@.@.@.@.@.@.@.@.@.@.@.@.@.@.@.@.@.@.@.@.@.@.@.@.@.@.@.@.@.@.@.@.@.@.@.@.@.@.@.@.@.@.@.@.@.@.@.@.@.@.@.@.@.@.@.] J = . $ $ $ $ $ . 6 9.e.8.8.8.e.e.5.*.&.&.&.&.&.&.&.&.@.@.@.@.@.@.@.@.@.@.@.@.@.@.@.@.@.@.@.@.@.@.@.@.@.@.@.@.@.@.@.@.@.@.@.@.@.@.@.@.@.@.@.@.@.@.@.@.$.$.$.$.$.$.$.$.",
"@.@.@.@.@.@.@.@.@.@.@.@.@.@.@.@.@.@.@.@.@.@.@.@.@.@.@.@.@.@.@.@.@.@.@.@.$.$.$.$.#.$ $ $ $ $ $ . A %.$.*.8.f.x.c.m.c.g.r.c.x.j.g.l.l.l.l.l.l.l.l.l.l.l.l.l.l.l.l.l.l.l.l.l.l.l.l.l.l.l.l.l.l.l.l.l.l.l.l.l.l.l.l.l.l.l.l.l.l.l.l.l.l.l.l.l.l.l.l.l.l.l.l.l.l.l.l.l.l.l.l.l.l.l.l.l.l.l.l.l.l.l.l.l.l.l.l.l.l.l.l.l.l.l.l.l.l.l.l.l.l.l.l.l.l.l.l.l.l.l.l.l.l.l.l.l.l.l.l.l.l.l.l.l.l.l.l.l.l.l.l.l.l.l.l.l.l.l.l.l.l.l.l.l.l.l.l.l.l.l.l.l.l.l.l.l.l.l.l.l.l.l.l.l.l.l.l.l.l.l.l.l.l.l.l.g.g.g.g.c.r.@.#.$.@...6 . $ $ $ $ . 6 p.j.c.e.@.@.@.@.@.@.@.@.@.@.@.@.@.@.@.@.@.@.@.@.@.@.@.@.@.@.@.@.@.@.@.@.@.@.@.@.@.@.@.@.@.@.@.@.@.@.@.@.@.@.@.@.@.@.@.@.@.@.@.@.@.@.@.@.@.@.@.@.@.@.@.@.@.@.@.@.@.*.*.*.*.*.*.*.*.$.$.$.$.$.$.$.$.@.@.@.@.@.@.@.@.@.@.@.@.@.@.@.@.@.@.@.@.@.@.@.@.@.@.@.@.@.@.@.@.@.@.@.@.@.@.@.@.@.@.@.@.@.@.@.@.@.@.@.@.$.$.$.$.$.$.$.$.@.@.@.@.$.@.@.=.g.g.c.x.f.g.h.4 . $ . . } y.8.w.w.w.w.w.=.@.@.@.@.@.@.@.@.@.@.@.@.@.@.@.@.@.@.@.@.@.@.@.@.@.@.@.@.@.@.@.@.@.@.@.@.@.@.@.@.@.@.@.@.@.@.@.@.@.@.@.@.@.@.@.@.@.@.@.@.@.@.@.@.@.@.@.@.@.@.@.@.@.@.@.] ^ = . . $ $ $ $ . 6 r.6.e.e.e.e.e.6.*.&.&.&.&.&.&.&.&.@.@.@.@.@.@.@.@.@.@.@.@.@.@.@.@.@.@.@.@.@.@.@.@.@.@.@.@.@.@.@.@.@.@.@.@.@.@.@.@.@.@.@.@.@.@.@.@.$.$.$.$.$.$.$.$.",
"@.@.@.@.@.@.@.@.@.@.@.@.@.@.@.@.@.@.@.@.@.@.@.@.@.@.@.@.@.@.@.@.@.@.@.@.$.$.$.$.@.$ $ $ $ $ $ . A <.*.@. .$.=.6.f.g.c.c.j.g.g.g.l.l.l.l.l.l.l.l.l.l.l.l.l.l.l.l.l.l.l.l.l.l.l.l.l.l.l.l.l.l.l.l.l.l.l.l.l.l.l.l.l.l.l.l.l.l.l.l.l.l.l.l.l.l.l.l.l.l.l.l.l.l.l.l.l.l.l.l.l.l.l.l.l.l.l.l.l.l.l.l.l.l.l.l.l.l.l.l.l.l.l.l.l.l.l.l.l.l.l.l.l.l.l.l.l.l.l.l.l.l.l.l.l.l.l.l.l.l.l.l.l.l.l.l.l.l.l.l.l.l.l.l.l.l.l.l.l.l.l.l.l.l.l.l.l.l.l.l.l.l.l.l.l.l.l.l.l.l.l.l.l.l.l.l.l.l.l.l.l.l.l.l.g.g.g.g.k.8.@.@.$.@...6 . $ $ $ $ . r g.g.c.e.@.@.@.@.@.@.@.@.@.@.@.@.@.@.@.@.@.@.@.@.@.@.@.@.@.@.@.@.@.@.@.@.@.@.@.@.@.@.@.@.@.@.@.@.@.@.@.@.@.@.@.@.@.@.@.@.@.@.@.@.@.@.@.@.@.@.@.@.@.@.@.@.@.@.@.@.@.@.@.@.@.@.@.@.@.$.$.$.$.$.$.$.$.@.@.@.@.@.@.@.@.@.@.@.@.@.@.@.@.@.@.@.@.@.@.@.@.@.@.@.@.@.@.@.@.@.@.@.@.@.@.@.@.@.@.@.@.@.@.@.@.@.@.@.@.$.$.$.$.$.$.$.$.@.@.@.@.@.@.$.@.*.6.r.j.f.g.g.= . $ . . } y.8.w.w.w.w.w.=.@.@.@.@.@.@.@.@.@.@.@.@.@.@.@.@.@.@.@.@.@.@.@.@.@.@.@.@.@.@.@.@.@.@.@.@.@.@.@.@.@.@.@.@.@.@.@.@.@.@.@.@.@.@.@.@.@.@.@.@.@.@.@.@.@.@.@.@.@.@.@.@.@.@.@.( T = . . $ $ $ $ . 6 r.6.e.e.e.e.e.1.*.&.&.&.&.&.&.&.&.@.@.@.@.@.@.@.@.@.@.@.@.@.@.@.@.@.@.@.@.@.@.@.@.@.@.@.@.@.@.@.@.@.@.@.@.@.@.@.@.@.@.@.@.@.@.@.@.$.$.$.$.$.$.$.$.",
"@.@.@.@.@.@.@.@.@.@.@.@.@.@.@.@.@.@.@.@.@.@.@.@.@.@.@.@.@.@.@.@.@.@.@.@.$.$.$.$.@.$ $ $ $ $ $ . f ..@.<.*.@.O.*.$.<.e.r.g.j.c.c.l.l.l.l.l.l.l.l.l.l.l.l.l.l.l.l.l.l.l.l.l.l.l.l.l.l.l.l.l.l.l.l.l.l.l.l.l.l.l.l.l.l.l.l.l.l.l.l.l.l.l.l.l.l.l.l.l.l.l.l.l.l.l.l.l.l.l.l.l.l.l.l.l.l.l.l.l.l.l.l.l.l.l.l.l.l.l.l.l.l.l.l.l.l.l.l.l.l.l.l.l.l.l.l.l.l.l.l.l.l.l.l.l.l.l.l.l.l.l.l.l.l.l.l.l.l.l.l.l.l.l.l.l.l.l.l.l.l.l.l.l.l.l.l.l.l.l.l.l.l.l.l.l.l.l.l.l.l.l.l.l.l.l.l.l.l.l.l.l.l.l.l.g.g.g.g.g.=.@.@.@.@...4 . $ $ $ $ . r g.g.j.e.@.@.@.@.@.@.@.@.@.@.@.@.@.@.@.@.@.@.@.@.@.@.@.@.@.@.@.@.@.@.@.@.@.@.@.@.@.@.@.@.@.@.@.@.@.@.@.@.@.@.@.@.@.@.@.@.@.@.@.@.@.@.@.@.@.@.@.@.@.@.@.@.@.@.@.@.@.@.@.@.@.@.@.@.@.$.$.$.$.$.$.$.$.@.@.@.@.@.@.@.@.@.@.@.@.@.@.@.@.@.@.@.@.@.@.@.@.@.@.@.@.@.@.@.@.@.@.@.@.@.@.@.@.@.@.@.@.@.@.@.@.@.@.@.@.$.$.$.$.$.$.$.$.@.@.@.@.@.@.@.@.@.$.=.8.r.g.h.4 $ $ $ . } r.8.w.w.w.e.e.=.@.@.@.@.@.@.@.@.@.@.@.@.@.@.@.@.@.@.@.@.@.@.@.@.@.@.@.@.@.@.@.@.@.@.@.@.@.@.@.@.@.@.@.@.@.@.@.@.@.@.@.@.@.@.@.@.@.@.@.@.@.@.@.@.@.@.@.@.@.@.@.@.@.@.@.T J = . . $ $ $ $ . 6 9.6.8.e.e.e.e.1.$.&.&.&.&.&.&.&.&.@.@.@.@.@.@.@.@.@.@.@.@.@.@.@.@.@.@.@.@.@.@.@.@.@.@.@.@.@.@.@.@.@.@.@.@.@.@.@.@.@.@.@.@.@.@.@.@.$.$.$.$.$.$.$.$.",
"@.@.@.@.@.@.@.@.@.@.@.@.@.@.@.@.@.@.@.@.@.@.@.@.@.@.@.@.@.@.@.@.@.@.@.@.$.$.$.$.@.$ $ $ $ $ $ . g ^ ^ $.@.@.$.*.*.*.$.=.$.6.r.f.l.l.l.l.l.l.l.l.l.l.l.l.l.l.l.l.l.l.l.l.l.l.l.l.l.l.l.l.l.l.l.l.l.l.l.l.l.l.l.l.l.l.l.l.l.l.l.l.l.l.l.l.l.l.l.l.l.l.l.l.l.l.l.l.l.l.l.l.l.l.l.l.l.l.l.l.l.l.l.l.l.l.l.l.l.l.l.l.l.l.l.l.l.l.l.l.l.l.l.l.l.l.l.l.l.l.l.l.l.l.l.l.l.l.l.l.l.l.l.l.l.l.l.l.l.l.l.l.l.l.l.l.l.l.l.l.l.l.l.l.l.l.l.l.l.l.l.l.l.l.l.l.l.l.l.l.l.l.l.l.l.l.l.l.l.l.l.l.l.l.l.l.g.g.g.g.r.@.@.@.@.@...4 . $ $ $ $ . r g.g.j.e.@.@.@.@.@.@.@.@.@.@.@.@.@.@.@.@.@.@.@.@.@.@.@.@.@.@.@.@.@.@.@.@.@.@.@.@.@.@.@.@.@.@.@.@.@.@.@.@.@.@.@.@.@.@.@.@.@.@.@.@.@.@.@.@.@.@.@.@.@.@.@.@.@.@.@.@.@.*.*.*.*.*.*.*.*.$.$.$.$.$.$.$.$.@.@.@.@.@.@.@.@.@.@.@.@.@.@.@.@.@.@.@.@.@.@.@.@.@.@.@.@.@.@.@.@.@.@.@.@.@.@.@.@.@.@.@.@.@.@.@.@.@.@.@.@.*.*.*.$.$.$.$.$.@.@.@.@.@.@.@.$.$.@.@.@.=.7.s.4 $ $ $ . } r.8.w.w.w.e.e.=.@.@.@.@.@.@.@.@.@.@.@.@.@.@.@.@.@.@.@.@.@.@.@.@.@.@.@.@.@.@.@.@.@.@.@.@.@.@.@.@.@.@.@.@.@.@.@.@.@.@.@.@.@.@.@.@.@.@.@.@.@.@.@.@.@.@.@.@.@.@.@.@.@.@.@.J F = . . $ $ $ $ . 6 9.6.8.e.8.e.e.1.$.@.&.&.&.&.&.&.&.@.@.@.@.@.@.@.@.@.@.@.@.@.@.@.@.@.@.@.@.@.@.@.@.@.@.@.@.@.@.@.@.@.@.@.@.@.@.@.@.@.@.@.@.@.@.@.@.$.$.$.$.$.$.$.$.",
"@.@.@.@.@.@.@.@.@.@.@.@.@.@.@.@.@.@.@.@.@.@.@.@.@.@.@.@.@.@.@.@.@.@.@.@.$.$.$.@.} - $ $ $ $ $ . g T H ^ @.@.@.@.@.*.%.$.$.$.$.<.8.9.g.j.j.j.j.j.g.g.g.g.g.g.g.g.g.g.g.g.g.g.g.g.g.g.g.g.g.g.g.g.g.g.g.g.g.g.g.g.g.g.g.g.g.g.g.g.g.g.g.g.g.g.g.g.g.g.g.g.g.g.g.g.g.g.g.g.g.g.g.g.g.g.g.g.g.g.g.g.j.j.j.j.g.g.g.g.x.x.x.x.g.g.g.g.g.g.g.g.c.c.x.x.j.j.j.j.j.j.j.j.g.g.g.g.x.x.x.x.j.j.j.j.x.x.x.x.x.x.x.x.g.g.g.g.x.x.x.x.c.c.c.c.x.c.c.c.j.j.j.j.x.x.x.x.g.g.g.g.g.g.g.g.r.r.r.r.r.r.r.r.9.9.9.9.=.*.@.@.%.@.} 4 . $ $ $ $ . r g.g.j.i.@.@.@.@.@.@.@.@.@.@.@.@.@.@.@.@.@.@.@.@.@.@.@.@.@.@.@.@.@.@.@.@.@.@.@.@.@.@.@.@.@.@.@.$.$.$.$.*.*.@.$.=.=.*.$.@.@.@.@.@.@.=.*.*.$.$.$.$.$.=.=.=.=.=.*.@.O.] ( J A H H H H ( ( ( ( ] ] ] ] @.@.@.$.*.*.$.$.*.=.=.*.*.$.$.$.$.$.$.$.@.@.@.@.@.@.@.@.@.@.@.$.$.@.@. .*.*.*.*.$.$.$.$.$.@.@.@.@.@.$.$.$.$.*.$.$.$.$.$.@.@.$.$.$.$.$.$.=.$.@.@.$.=.` - $ $ $ . } y.8.9.w.w.q.q.=.@.@.@.@.@.@.@.@.@.@.@.@.@.@.@.@.@.@.@.&.&.&.&.@.@.@.@.@.@.@.@.@.@.@.@.@.@.@.@.@.@.@.@.@.@.@.@.@.@.@.@.@.@.@.@.@.@.@.@.@.@.@.@.@.@.@.@.@.@.@.@.@.@.@. .J J = . . $ $ $ $ . 6 r.7.e.8.e.w.w.6.*.#.@.@.@.&.&.&.&.@.@.@.@.@.@.@.@.@.@.$.$.$.$.$.$.@.@.@.@.@.@.@.@.@.@.@.@.@.@.@.@.@.@.@.@.@.@.@.@.@.@.@.@.@.@.@.@.$.$.$.$.$.$.$.$.",
"@.@.@.@.@.@.@.@.@.@.@.@.@.@.@.@.@.@.@.@.@.@.@.@.@.@.@.@.@.@.@.@.@.@.@.@.$.$.$.@.` = $ $ $ $ $ . e T J ^ U (  .@.@.@.$.$.$.$.$.$.@.@.*.=.w.r.g.c.c.c.c.x.j.g.g.g.g.g.g.g.g.g.g.g.g.g.g.g.g.g.g.g.g.g.g.g.g.g.g.g.g.g.g.g.g.g.g.g.g.g.g.g.g.g.g.g.g.g.g.g.g.g.g.g.g.g.g.g.g.g.g.g.g.g.g.g.g.g.g.g.x.x.x.x.g.g.g.g.g.g.g.g.x.x.x.x.j.j.j.j.c.c.x.c.x.x.x.x.x.x.x.x.x.x.x.x.j.j.g.g.c.c.c.c.x.x.x.x.g.g.g.g.f.f.f.f.r.r.r.r.r.r.r.r.e.e.e.e.6.6.6.6.=.=.=.=.*.*.*.*.*.*.*.*.@.@.@.@.*.*.*.*.@.@.@.@.@.@.@.@.%.@.} 4 . $ $ $ $ . r g.g.j.i.@.@.@.@.@.@.@.@.@.@.@.@.@.@.@.@.@.@.@.@.@.@.@.@.@.@.@.@.@.@.@.@.@.@.@.@.@.@.@.@.@.@.@.@.@.$.$.$.@.@.@.@.$.$.@.@.@.@.@.*.=.=.=.*.@.*.@.] ] U J D Z x k d 7 7 9 5 5 5 9 7 7 8 8 8 8 f f f f h h h k x Z A D ( ( ( ( ] ] ] ] @.@.@.@.=.=.=.=.=.=.=.=.@.@.@.@.$.$.@.@.@.@.@.@.@.@.@.@.@.@.$.@.@.@.@.@.@.@.@.@.@.@.$.$.@.@.$.$.$.$.$.@.@.@.@.$.) M r $ $ $ $ . } y.8.9.w.w.q.q.=.@.@.@.@.@.@.@.@.@.@.@.@.@.@.@.@.@.@.@.&.&.&.&.@.@.@.@.@.@.@.@.@.@.@.@.@.@.@.@.@.@.@.@.@.@.@.@.@.@.@.@.@.@.@.@.@.@.@.@.@.@.@.@.@.@.@.@.@.@.@.@.@.@.@.] J J 3 . . $ $ $ $ . 6 r.9.e.8.e.w.w.6.*.#.@.@.@.&.&.&.&.@.@.@.@.@.@.@.@.@.@.@.@.@.@.@.@.@.@.@.@.@.@.@.@.@.@.@.@.@.@.@.@.@.@.@.@.@.@.@.@.@.@.@.@.@.@.@.@.$.$.$.$.$.@.$.$.",
"@.@.@.@.@.@.@.@.@.@.@.@.@.@.@.@.@.@.@.@.@.@.@.@.@.@.@.@.@.@.@.@.@.@.@.@.$.$.$.@./ $ . $ $ $ $ . 4 I I T J U (  .@.@.$.$.$.$.$.$.$.$.*.*.@.*.=.6.r.g.j.g.j.j.j.g.g.g.g.g.g.g.g.g.g.g.g.g.g.g.g.g.g.g.g.g.g.g.g.g.g.g.g.g.g.g.g.g.g.g.g.g.g.g.g.g.g.g.g.g.g.g.g.g.g.g.g.g.g.g.g.g.g.g.g.g.x.x.x.x.c.c.c.c.c.c.c.c.c.c.c.c.g.g.g.g.g.g.g.g.f.f.f.f.9.9.9.9.9.9.9.9.8.8.8.8.6.6.6.5.<.<.<.<.=.=.=.=.*.*.*.*.@.@.@.@.@.@.@.@.@.@.@.@.O.O.@.O.@.@.@.@.@.@.@.@.@.@.@.@.@.@.@.@.@.@.@.@.@.@.@.@.*.*.*.*.$.$.@.@.@.@.] 3 . $ $ $ $ . r g.k.j.i.@.@.@.@.@.@.@.@.@.@.@.@.@.@.@.@.@.@.@.@.@.@.@.@.@.@.@.@.@.@.@.@.@.@.@.@.@.@.@.@.@.@.$.$.*.*.*.*.=.=.*.*.*.*.*.@.@.] ' ( ^ U D x h k f 8 9 f 8 5 3 5 7 8 8 t d f f 8 8 8 8 8 8 8 8 8 8 8 8 8 8 7 8 8 8 7 5 3 5 5 5 t t t t z z z z D D D D ! ! ! ! ] ] ] ] O.@.@.@.=.=.=.=.*.*.*.*.$.@.@.@.@.@.@.@.@.@.@.@.@.@.$.$.$.$.$.$.$.$.$.$.=.=.( x 7 8 r - $ $ $ . ` r.6.9.8.8.8.8.=.@.@.@.@.@.@.@.@.@.@.@.@.@.@.@.@.@.@.@.&.&.&.&.@.@.@.@.@.@.@.@.@.@.@.@.@.@.@.@.@.@.@.@.@.@.@.@.@.@.@.@.@.@.@.@.@.@.@.@.@.@.@.@.@.@.@.@.@.@.@.@.<.=.@.] J J 3 . . $ $ $ $ . 6 r.9.e.e.e.w.w.6.*.@.@.@.@.&.&.&.&.@.@.@.@.@.@.@.@.*.*.*.*.*.*.*.*.$.$.@.@.@.@.@.@.@.@.@.@.@.@.@.@.@.@.@.@.@.@.@.@.@.@.@.@.@.@.@.@.$.$.$.$.$.$.$.$.",
"@.@.@.@.@.@.@.@.@.@.@.@.@.@.@.@.@.@.@.@.@.@.@.@.@.@.@.@.@.@.@.@.@.@.@.@.$.$.$.@.P . . $ $ $ $ $ = I P T ^ T U U ] @.@.$.@.$.$.$.@.@.@.@.@.@.@.@.@.=.8.9.f.g.j.j.g.g.g.g.g.g.g.g.g.g.g.g.g.g.g.g.g.g.g.g.g.g.g.g.g.g.g.g.g.g.g.g.g.g.g.g.g.g.g.g.g.g.g.g.g.g.g.g.g.g.g.g.g.g.g.g.g.g.g.g.r.r.r.r.e.e.e.e.8.8.8.8.6.6.6.6.=.=.=.=.=.=.=.=.@.@.@.@.@.@.@.@.@.@.@.@.@.@.@.@.@.@.@.@.@.@.@.@.@.@.@.@.@.@.@.@.@.@.@.@.@.@.@.@.@.@.@.@.@.@.@.@.@.@.@.@.@.@.@.@.@.@.@.@.@.@.@.@.@.@.$.$.@.@.@.@.$.$.@.@.@.@.@.@.@.@.` 3 . $ $ $ $ . r g.k.j.i.$.@.@.@.@.@.@.@.@.@.@.@.@.@.@.@.@.@.@.@.@.@.@.@.@.@.@.@.@.@.@.@.@.@.@.@.@.@.@.@.@.@.@.@.@.] ] ] ] ^ ! J H x k h f 8 8 8 8 7 7 8 8 8 8 8 8 8 8 8 t d d t t t 8 8 8 8 8 8 8 d d d d 8 8 8 8 8 t t t 8 8 t f d d d t 8 8 8 8 8 8 8 8 9 9 7 7 9 7 8 8 8 8 t 8 h k x Z D D D D ( ( ( ( ] @.$.@.@.@.$.$.*.*.*.*.*.$.$.$.$.$.$.$.$.$.$.$.J x 8 8 f t r $ $ $ . . ] r.6.7.8.8.8.8.=.@.@.@.@.@.@.@.@.@.@.@.@.@.@.@.@.@.@.@.&.&.&.&.@.@.@.@.@.@.@.@.@.@.@.@.@.@.@.@.@.@.@.@.@.@.@.@.@.@.@.@.@.@.@.@.@.@.@.@.@.@.@.@.@.@.@.@.@.@.@.@.@. .( J J J 3   . $ $ $ $ . 6 r.9.e.e.e.w.w.6.*.@.@.@.@.&.&.&.&.@.@.@.@.O.O.O. .] ] ] ] ] ] ] ] @.@.@.@.@.@.@.@.@.@.@.@.@.@.@.@.@.@.@.@.@.@.@.@.@.@.@.@.@.@.@.@.$.$.$.$.$.$.$.$.",
"@.@.@.@.@.@.@.@.@.@.@.@.@.@.@.@.@.@.@.@.@.@.@.@.@.@.@.@.@.@.$.$.@.@.@.@.@.] ^ J F $ $ $ $ $ $ $ . 6 F ) J J U U T ^ ] @.$.$.$.$.@.@.@.@.@.@.@.@.@.@.@.@.@.=.6.9.g.g.j.x.j.j.j.j.g.g.g.g.g.g.g.g.g.g.g.g.j.j.j.j.x.x.j.j.g.g.g.g.g.g.g.g.g.g.g.g.g.f.r.r.r.r.r.r.6.6.6.6.=.=.=.=.*.*.@.@.@.@.@.@.@.@.@.@.@.@.@.@.@.@.@.@.@.@.@.@.@.@.@.@.@.@.@.@.@.@.@.@.@.@.@.@.@.@.@.@.@.@.@.@.@.@.@.@.@.@.@.@.@.@.@.@.@.@.@.@.@.@.@.@.@.@.@.@.@.@.@.@.@.@.@.@.@.@.@.@.@.@.@.@.@.@.@.@.@.@.@.@.@.@.@.@.@.@.@.@.@.@.@.@.*. .^ 4 . $ $ $ $ . 4 p.c.x.j.=.@.@.@.$.*.$.@.@.@.@.@.$.$.@.@.@.$.*.*.*.=.=.=.*.*.*.*.*.$.$.$.$.@.@.@.@.^ J H H Z z f h d 8 8 8 8 8 8 8 8 8 8 8 8 8 8 8 8 8 8 8 8 8 8 8 8 8 8 t 8 8 8 8 8 8 8 8 8 8 8 8 8 8 8 8 8 8 8 8 8 8 8 8 8 8 8 t 8 8 8 8 8 8 8 8 8 8 8 8 8 8 8 8 8 8 t t t t 8 8 8 8 8 8 8 8 8 8 8 8 8 8 8 8 8 8 x x x x D D D D ( ( ( ( @.@.@.@.@.@.^ x 8 8 8 8 8 8 e $ . . . . ..8.1.8.6.q.w.w.=.@.@.@.@.@.@.@.@.@.$.$.$.$.*.$.@.@.@.@.&.&.@.@.@.@.@.@.@.@.$.$.@.@.@.@.@.@.@.@.@.@.@.@.@.@.@.$.*.$.@.@.@.@.*.*.*.*.*.$.@.@.@.@.@.@.@.@.] ( ^ U U J Y J J H = . . $ $ $ $ . 6 6.9.w.8.6.w.w.6.*.*.*.*.@.&.@.*.&.=.@.] ] ^ U J J J J J J J J J J J U U ! ! ! ^ ^ ^ ^ ^ ^ ] ] ] ] @.@.@.@.@.@.@.@.@.@.@.@.@.@.@.@.$.$.$.@.@.@.@.@.",
"$.@.$.@.@.@.@.@.@.@.@.@.@.@.@.@.@.@.@.@.@.@.@.@.@.@.@.@.*.*.*.*.*.@.O.] ( U J J P = $ $ $ $ $ $ $ . - x T T T T T T T ^  .@.@.@.@.@.@.@.@.@.@.@.@.@.@.@.@.$.*.*.*.=.6.8.f.g.x.c.x.x.x.c.x.x.x.x.g.g.g.g.r.r.r.r.9.9.w.w.6.6.6.6.=.=.=.=.=.=.=.=.*.$.@.@.@.@.@.@.$.$.$.$.$.$.$.$.@.@.@.@.@.@.@.@.@.@.@.@.@.@.@.@.@.@.@.@.@.@.@.@.@.@.@.@.@.@.@.@.@.@.@.@.@.@.@.@.@.@.@.@.@.@.@.@.@.@.@.@.@.@.@.@.@.@.@.@.@.@.@.@.@.@.@.@.@.@.@.@.@.@.@.@.@.@.@.@.@.@.@.@.@.@.@.@.@.@.@.@.@.@.@.@.@.@.@.@.@.@.@.@.@.@.@.@.*. .^ 6 . $ $ $ $ $ w k.c.j.j.=.@.@.@.@.@.$.*.=.*.*.$.$.*.=.*.$.@.@.] ( U H A x z k k k h h h f f d d d 8 8 8 7 7 7 8 8 8 8 8 8 8 8 8 8 8 8 8 8 8 8 8 8 8 8 8 8 8 8 8 8 8 8 8 8 8 8 8 8 8 8 8 8 8 8 8 8 8 8 8 8 8 8 8 8 8 8 8 8 8 8 8 8 8 8 8 8 8 8 8 8 8 8 8 8 8 8 8 8 8 8 8 8 8 t 8 8 8 8 8 8 8 8 8 8 8 8 8 8 8 8 8 8 8 8 8 8 8 8 8 8 7 7 7 7 f f f f z f 8 8 t 8 8 8 8 8 e $ . . . . } r.9.9.w.w.6.=.] ( ( ( ( ( ( (  . .O.O.O.O.@.@.*.*.*.*.=.*.*.&.@.@.@.@.@.$.$.$.$.$.$.$.$.$.$.$.$.$.$.$.$.$.$.$.*.*.=.=.@.@.@. .] ] ] ] ( ( ( ( ! ! ! ! ! U J J J J J J J J 4 . . $ $ $ $ $ r >.=.=.1.6.8.8.=.@.@.@.@.&.@.;.] ] ^ J H H J J J J J J J J J J J J J J J J J J J J J J J J H H H H U U U U U U U U ! ! ! ! ' ' ' ' @.@.@.@.@.@.@.@.",
"] ] ] ] @.@.@.@.@.@.@.@.@.@.@.@.@.@.@.@.@.@.@.@.@.@.@.@. . . . .( ^ J H J J J J S = * $ $ $ $ $ $ . . = r T ) J J T T T ^ ]  .O.@.@.@.@.@.@.@.@.@.@.@.@.@.@.@.@.@.@.@.@.=.=.6.8.e.e.w.w.6.6.6.6.=.=.=.=.*.*.*.*.@.@.@.@.@.@.@.@.@.@.@.@.@.@.$.$.*.$.@.@.@.@.@.@.@.@.@.@.@.@.$.$.@.@.@.@.@.@.@.@.@.@.@.@.@.@.@.@.@.@.@.@.@.@.$.$.@.@.@.@.@.@.@.@.@.@.@.@.@.@.@.@.@.@.@.@.@.@.@.@.@.@.@.@.@.@.@.@.@.@.@.@.@.@.@.@.@.@.@.@.@.@.@.@.@.@.@.@.@.@.@.@.@.@.@.@.@.@.@.@.@.@.@.@.@.@.@.@.@.@.@.@.@.@.@.@.@.@.@.@.=...^ 6 $ $ $ $ $ $ 4 p.k.k.j.<.@.@.@.@.=.=.*.$.=.$.@. .^ J A x h f 8 7 7 7 8 8 8 8 8 8 8 8 8 8 7 8 8 8 8 t t t t 8 8 8 8 8 8 8 8 8 8 8 8 8 8 8 8 8 8 8 8 8 t t 8 8 8 8 8 8 8 8 8 8 8 8 8 8 8 8 8 8 8 8 8 8 8 8 8 8 8 8 8 8 8 8 8 8 8 8 8 8 8 8 8 8 8 8 8 8 8 8 8 8 8 8 8 8 8 8 8 8 8 8 8 8 8 8 8 8 8 8 8 8 8 8 8 8 8 8 8 8 8 8 8 8 8 8 8 8 8 8 7 7 7 7 8 t t 8 t 8 8 8 8 8 e $ . . . . F g.6.6.@.@.] ] ^ J H H J J H H J J J J J J J J ( ( ( ( ] ] ] @.O.@.@.@.@.@.@.@.@.@.@.@.@.@.@.@.@.@.@.@.@.@.@.@.@.O.] ( ^ ! J J H H H H H H J J J J J J J J J J J J J J T D = . . $ $ $ $ . = ` ) ) ] ..@.@.] ^ ] ] ] ] E J H J J J J J J J J J ! ! ! ! ! ! ! ! U U U U U U U J J J J J J J J J J J J J J J J J H H J J J J J J J J U U U U ^ ^ ",
"K K K K J J J J J J J J J J J J J J J J J J J J J J J H H H H H H H J J J J J J e . $ $ $ $ $ $ $ $ % = . 4 N ` T T J U J U (  .@.@.@.@.@.@.@.@.@.@.@.@.O.@.@.@.@.@.*.*.*.*.*.*.@.@.@.@.@.@.@.@.@.@.@.@.@.@.@.@.$.$.$.$.*.*.*.*.@.@.@.@.*.*.*.*.$.@.@.@.@.@.@.@.$.$.$.$.@.$.$.$.@.@.@.@.@.@.@.@.@.@.@.@.@.@.@.@.@.@.@.@.@.@.$.$.@.@.@.@.@.@.@.@.@.@.@.@.@.@.@.@.@.@.@.@.@.@.@.@.@.@.@.@.@.@.@.@.@.@.@.@.@.@.@.@.@.@.@.@.@.@.@.@.@.@.@.@.@.@.@.@.@.@.@.@.@.@.@.@.@.@.@.@.@.@.@.@.@.@.@.@.@.@.@.@.@.@.@.@.*...^ 4 . $ $ $ $ $ $ >.k.k.g.=.@.@.@.@...] T H A j h f 6 7 8 8 8 7 7 7 f y 8 6 t t 8 8 8 8 7 7 8 8 8 8 7 8 t y 8 8 8 8 8 8 8 8 8 8 8 8 8 8 8 8 8 8 8 8 t t t t 8 8 8 8 8 8 8 8 8 8 8 8 8 8 8 8 8 8 8 8 8 8 8 8 8 8 8 8 8 8 8 8 8 8 8 8 8 8 8 8 8 8 8 8 8 8 8 8 8 8 8 8 8 8 8 8 8 8 8 8 8 8 8 8 8 8 8 8 8 8 8 8 8 8 8 8 8 8 8 8 8 8 8 8 8 7 8 8 8 8 8 8 h 7 7 f t t t 8 6 e e $ . . . . 6 ] #.T ] ) ] } ( P J J J J J J J J J J J J J J F H H H J J P J J J ^ ^ ^ ^ ^ ^ ^ ^ ^ ^ ^ ^ ^ ^ ^ ^ ^ ^ ^ ^ ^ ^ ^ J J H H H U ^ ^ J J J J J J J H H H H H H J J J J J J ^ f   . . $ $ $ $ .   x ....] ` ` ` ^ H F J F F J J J J H H H H J J H H J J J J J J J J J J J J J J J J J H H H J J J J J J J J J J J J J H H H H H J H H H J H H H H H ",
"E E E E E E E E J J J J J J J J J J J J J J J J J J J J J J J J J J J J D ^ F g . . $ $ $ $ $ $ $ $ $ $ $ $ . 4 F ^ ( F ^ U Y U ] $.*.@.@.@.@.@.@.@.@.@.@.@.@.@.@.@.@.@.$.$.$.$.@.@.@.@.@.@.@.@.@.@.@.@.@.@.@.@.@.@.@.@.@.@.@.@.@.@.$.@.@.@.@.@.@.@.@.@.@.@.@.@.@.@.@.@.@.@.@.@.@.@.@.@.@.@.@.@.@.@.@.@.@.@.@.@.@.@.@.@.@.@.@.@.@.@.@.@.@.@.@.@.@.@.@.@.@.@.@.@.@.@.@.@.@.@.@.@.@.@.@.@.@.@.@.@.@.@.@.@.@.@.@.@.@.@.@.@.@.@.@.@.@.@.@.@.@.@.@.@.@.@.@.@.@.@.@.@.@.@.@.@.@.@.@.@.@.@.@.@.@.@.@.@.@.@.@.@.%.( J 4 . $ $ $ $ $ . e h.k.C.9.} ^ F A g f e 8 e e e e e e e 8 8 6 6 6 6 6 8 8 e e e e 8 8 8 8 e e e 8 8 8 e 8 8 8 8 8 8 8 6 6 8 8 8 8 8 8 8 8 6 8 8 8 e e e 8 8 8 e e 8 8 8 e 8 8 8 8 8 8 8 8 8 8 8 8 8 8 8 6 8 8 8 8 8 8 8 8 e e e e e e 8 8 8 8 8 8 8 8 8 8 8 8 6 6 8 8 8 8 e e e e 8 8 8 8 6 8 8 8 8 8 8 8 8 8 8 8 8 8 8 8 8 8 8 8 8 8 e 8 8 8 e e 8 8 8 8 8 8 8 e r q = $ $ . . .   6 F } } ` ` ` T P P T ^ ^ W W W W P P J J J J J J J J P P P J J J J J E E W E E E W W E E E E E E E E E E E E E J J J J J E E E E W W J J J J J J J J P P W W P P P P g . . . . . . . $ . . . g } } } ` ` ) P P P P P W W P P P P P P P P P P P P P P P P P P P P P P P P P P P P P P W W W W W W W W W W W W P P P P P W W W W W W P P P W W ",
"3 3 3 3 3 3 3 3 3 3 4 4 3 3 3 3 3 3 3 3 3 3 3 3 3 3 < < < < 3 3 3 3 3 3 3 3 = . . . $ $ $ $ $ $ $ $ $ $ $ $ $ $ 4 n I F ^ ^ U J ( '  .@.@.@.@.@.@.@.@.@.@.@.@.@.@.@.@.@.$.$.$.$.@.@.@.@.@.@.@.@.@.@.@.@.@.@.@.@.@.@.@.@.@.@.@.@.@.@.@.@.@.@.@.@.@.@.@.@.@.@.@.@.@.@.@.@.@.@.@.@.@.@.@.@.@.@.@.@.@.@.@.@.@.@.@.@.@.@.@.@.@.@.@.@.@.@.@.@.@.@.@.@.@.@.@.@.@.@.@.@.@.@.@.@.@.@.@.@.@.@.@.@.@.@.@.@.@.@.@.@.@.@.@.@.@.@.@.@.@.@.@.@.@.@.@.@.@.@.@.@.@.@.@.@.@.@.@.@.@.@.@.@.@.@.@.@.@.@.@.@.@.@.@.@.@.@.@.@.%.( J 4 . . $ $ $ $ $ . 4 / #.v 4 4 4 6 6 4 4 4 4 4 6 6 6 6 6 6 6 4 4 4 4 4 6 6 6 6 6 6 6 6 6 6 6 6 6 6 6 6 6 6 6 6 6 6 6 6 6 6 6 6 6 6 6 6 6 6 6 6 6 6 6 6 6 6 6 6 6 6 6 6 6 6 6 6 6 6 6 6 6 6 6 6 6 6 6 6 6 6 6 6 6 6 6 6 6 6 6 6 6 6 6 6 6 6 6 6 6 6 6 6 6 6 6 6 6 6 6 6 6 6 6 6 6 6 6 6 6 6 6 4 4 4 4 4 4 4 4 4 4 4 4 4 4 6 6 6 6 6 6 6 6 6 6 6 6 6 6 6 6 6 6 6 6 4 q ; $ . $ $ . . .   . 6 6 4 4 4 3 = = 3 4 4 < < 3 4 < < 3 3 3 3 < = < = 3 3 3 3 3 3 3 3 3 3 3 3 3 3 3 3 3 3 3 3 3 3 3 3 3 3 3 3 4 < < < < < 3 3 3 3 3 4 < < < < < < < < 1 1 1 1 1 1 1 1 $ . . . . . . . . . $ $ . = 4 q 4 6 4 = 1 - - - 1 1 1 1 , - - - - - - - 1 1 1 1 1 4 1 4 - - - - 1 1 1 1 1 1 1 1 4 1 1 1 1 1 1 1 1 1 1 1 1 1 1 1 1 1 1 1 1 1 1 1 1 1 4 4 ",
". . . . . . . . . . . . . . . . . . . . . . . . . . . . . . . . . . . . . . . . . . . $ $ $ $ $ $ $ $ $ $ $ $ $ * $ 4 F ( ^ U U ^ J ( ] @.@.@.@.@.@.@.@.@.@.@.@.@.@.@.@.$.$.$.$.@.@.@.@.@.@.@.@.@.@.@.@.@.@.@.@.@.@.@.@.@.@.@.@.@.@.@.@.@.@.@.@.@.@.@.@.@.@.@.@.@.@.@.@.@.@.@.@.@.@.@.@.@.@.@.@.@.@.@.@.@.@.@.@.@.@.@.@.@.@.@.@.@.@.@.@.@.@.@.@.@.@.@.@.@.@.@.@.@.@.@.@.@.@.@.@.@.@.@.@.@.@.@.@.@.@.@.@.@.@.@.@.@.@.@.@.@.@.@.@.@.@.@.@.@.@.@.@.@.@.@.@.@.@.@.@.@.@.@.@.@.@.@.@.@.@.@.@.@.@.@.@.@.@.@.@.%.( J 4 . . $ $ $ $ $ . . . . . . . * $ $ $ . $ . . . . $ $ $ . . . . . . . $ $ $ $ $ $ . . . . $ $ $ $ $ $ $ $ $ . $ $ . . $ $ $ $ . . . . . . $ $ $ $ $ $ $ $ $ $ $ $ $ $ $ $ $ $ $ $ $ . . . . . $ $ . . . $ . . $ $ . . . . $ $ $ $ $ $ $ $ $ $ . $ $ $ . . . . $ $ $ $ $ $ $ $ $ $ . . . . . . . . . . . . . . . . . . . . $ $ $ $ $ $ $ $ $ $ $ $ $ $ . . . . . . = $ . . $ $ . . . . . $ $ . . . . . . . . . . . . . . . . . . . . . . . $ $ . . . . . . . . . . . . . . . . . . . . . . . . . . $ . . . . . $ . . . $ $ . . . . . . . . . . $ $ $ $ $ $ $ $ $ $ $ $ $ $ $ $ $ $ % . $ . . . . . . . . . . . . . . . . . $ $ . . $ $ $ $ $ $ $ $ . $ $ . . . . . . . . . $ $ $ $ $ $ $ $ $ $ $ $ $ $ . . $ $ $ $ $ $ $ . . . $ * ",
"$ $ $ $ $ $ $ . $ $ $ $ $ $ $ $ . . . . $ $ $ $ $ $ $ $ $ $ $ $ $ $ $ . $ $ * $ . . . . $ $ $ $ $ $ $ $ $ $ $ $ % . . = A F ^ U U J J J ] @.@.@.@.@.@.@.@.@.@.@.@.@.@.@.$.$.$.$.@.@.@.@.@.@.@.@.@.@.@.@.@.@.@.@.@.@.@.@.@.@.@.@.@.@.@.@.@.@.@.@.@.@.@.@.@.@.@.@.@.@.@.@.@.@.@.@.@.@.@.@.@.@.@.@.@.@.@.@.@.@.@.@.@.@.@.@.@.@.@.@.@.@.@.@.@.@.@.@.@.@.@.@.@.@.@.@.@.@.@.@.@.@.@.@.@.@.@.@.@.@.@.@.@.@.@.@.@.@.@.@.@.@.@.@.@.@.@.@.@.@.@.@.@.@.@.@.@.@.@.@.@.@.@.@.@.@.@.@.@.@.@.@.@.@.@.@.@.@.@.@.@.@.@.@.%.( J 4 . . $ $ $ $ . $ $ . $ $ $ * $ . * $ $ $ $ $ $ $ $ $ $ $ $ $ $ $ $ $ $ $ $ $ $ $ $ $ $ $ $ $ $ $ $ $ $ $ $ $ $ $ $ $ $ $ $ $ $ $ $ $ $ $ $ $ $ $ $ $ $ $ $ $ $ $ $ $ $ $ $ $ $ $ $ $ $ $ $ $ $ $ $ $ $ $ $ $ $ $ $ $ $ $ $ $ $ $ $ $ $ $ $ $ $ $ $ $ $ $ $ $ $ $ $ $ $ $ $ $ $ $ $ $ $ $ $ $ $ $ $ $ $ $ $ $ $ $ $ $ $ $ $ $ $ $ $ $ $ $ $ $ $ $ $ $ $ . $ $ $ $ $ $ . $ $ $ $ $ % $ $ * * $ $ $ $ . . . $ $ . . . . . . $ $ $ $ $ $ $ $ $ $ $ $ $ $ $ $ $ $ $ $ $ $ $ $ $ $ $ $ $ $ $ $ $ $ $ $ $ $ $ $ $ $ $ $ $ $ $ $ $ $ $ $ . . $ $ $ $ $ $ $ $ $ $ $ $ $ $ $ $ $ $ $ $ $ $ ; $ $ $ . $ = $ . . . . $ $ . . . $ $ $ $ $ $ $ $ $ $ $ $ $ $ $ $ $ $ $ $ $ $ $ $ $ $ $ $ $ $ $ $ $ $ $ $ $ $ $ $ $ $ $ $ $ $ $ $ $ $ $ . $ * ; ",
"$ $ $ $ $ $ . . $ $ $ $ $ $ $ $ $ $ $ $ $ $ $ $ $ $ $ $ $ $ $ $ $ $ $ $ $ $ $ $ $ . $ % $ $ $ $ $ $ $ $ $ $ $ $ $ . . . . e F ^ ^ T U J ! ( ] @.*.$.@.@.@.@.@.@.@.@.@.@.@.@.@.@.@.@.@.@.@.@.@.@.@.@.@.@.@.@.@.@.@.@.@.@.@.@.@.@.@.@.@.@.@.@.@.@.@.@.@.@.@.@.@.@.@.@.@.@.@.@.@.@.@.@.@.@.@.@.@.@.@.@.@.@.@.@.@.@.@.@.@.@.@.@.@.@.@.@.@.@.@.@.@.@.@.@.@.@.@.@.@.@.@.@.@.@.@.@.@.@.@.@.@.@.@.@.@.@.@.@.@.@.@.@.@.@.@.@.@.@.@.@.@.@.@.@.@.@.@.@.@.@.@.@.@.@.@.@.@.@.@.@.@.@.@.@.@.@.@.@.@.@.@.@.@.@.@.@.@.@. .J T 4 . $ $ $ $ $ $ $ $ $ $ $ $ $ $ $ $ $ $ $ $ $ $ $ $ $ $ $ $ $ $ $ $ $ $ $ $ $ $ $ $ $ $ $ $ $ $ $ $ $ $ $ $ $ $ $ $ $ $ $ $ $ $ $ $ $ $ $ $ $ $ $ $ $ $ $ $ $ $ $ $ $ $ $ $ $ $ $ $ $ $ $ $ $ $ $ $ $ $ $ $ $ $ $ $ $ $ $ $ $ $ $ $ $ $ $ $ $ $ $ $ $ $ $ $ $ $ $ $ $ $ $ $ $ $ $ $ $ $ $ $ $ $ $ $ $ $ $ $ $ $ $ $ $ $ $ $ $ $ $ $ $ $ $ $ $ $ $ $ $ $ $ $ $ $ $ $ $ $ $ $ $ $ $ % % $ $ $ $ $ $ $ $ $ $ $ $ $ $ . $ $ $ * * * $ $ $ $ $ $ $ $ * $ $ $ $ $ $ $ $ $ $ $ $ $ $ $ $ $ $ $ $ $ $ $ $ $ $ $ $ $ $ $ $ $ $ $ $ $ $ $ $ $ $ $ $ * * $ $ $ $ $ $ * $ $ $ * * * * % % % * $ . . $ $ $ $ $ $ . . . . . . . . . . . . $ . . $ $ $ $ $ $ $ $ . . . . . . . . . . . . $ $ $ $ $ $ $ $ $ $ $ $ . . . . $ $ $ $ $ $ $ $ $ $ $ $ ",
". . . . . . o o . . . . . . . . . . . . . . . . . . . . . . . . . . . . . . . . $ = . % $ $ $ $ $ $ $ $ $ $ $ $ $ $ . . .   = n T T T ^ ( ! J ^ ] @.=.=.=.*.$.$.@.@.@.@.@.@.@.@.@.@.@.@.@.@.@.@.@.@.@.@.@.@.@.@.@.@.@.@.@.@.@.@.@.@.@.@.@.@.@.@.@.@.@.@.@.@.@.@.@.@.@.@.@.@.@.@.@.@.@.@.@.@.@.@.@.@.@.@.@.@.@.@.@.@.@.@.@.@.@.@.@.@.@.@.@.@.@.@.@.@.@.@.@.@.@.@.@.@.@.@.@.@.@.@.@.@.@.@.@.@.@.@.@.@.@.@.@.@.@.@.@.@.@.@.@.@.@.@.@.@.@.@.@.@.@.@.@.@.@.@.@.@.@.@.@.@.@.@.@.@.@.@.@.@.@.@.@.@.@.@.@.@.@.@. .J T 4 . $ $ $ $ $ $ $ $ $ $ $ $ $ $ $ $ $ $ $ $ $ $ $ $ $ $ $ $ $ $ $ $ $ $ $ $ $ $ $ $ $ $ $ $ $ $ $ $ $ $ $ $ $ $ $ $ $ $ $ $ $ $ $ $ $ $ $ $ $ $ $ $ $ $ $ $ $ $ $ $ $ $ $ $ $ $ $ $ $ $ $ $ $ $ $ $ $ $ $ $ $ $ $ $ $ $ $ $ $ $ $ $ $ $ $ $ $ $ $ $ $ $ $ $ $ $ $ $ $ $ $ $ $ $ $ $ $ $ $ $ $ $ $ $ $ $ $ $ $ $ $ $ $ $ $ $ $ $ $ $ $ $ $ $ $ $ $ $ $ $ $ $ $ $ $ $ $ $ $ $ $ $ $ % % $ $ $ $ $ $ $ $ $ $ * * . * $ . . $ . . . .         . . . .                                         . . . . .           . . . . . .         . . . . . . . .       . . . . . . . . . . . . . . . . . . . . .                                                                                                         .   .               .   ",
"` ` ` ` ` ` ` ` ) ) ) ) ) ) ) ) / / / / ) ) ) ) / / / / / / / / / / / / ^ T ^ / c * . $ $ $ $ $ $ $ $ $ $ $ $ $ $ $ $ $ $ $ . . e J ^ T ! ^ ! J J (  .@.*.$.$.@.$.@.@.@.@.@.@.@.@.@.@.@.@.@.@.@.@.@.@.@.@.@.@.@.@.@.@.@.@.@.@.@.@.@.@.@.@.@.@.@.@.@.@.@.@.@.@.@.@.@.@.@.@.@.@.@.@.@.@.@.@.@.@.@.@.@.@.@.@.@.@.@.@.@.@.@.@.@.@.@.@.@.@.@.@.@.@.@.@.@.@.@.@.@.@.@.@.@.@.@.@.@.@.@.@.@.@.@.@.@.@.@.@.@.@.@.@.@.@.@.@.@.@.@.@.@.@.@.@.@.@.@.@.@.@.@.@.@.@.@.@.@.@.@.@.@.@.@.@.@.@.@.@.@.@.@.@.@.@.@.@.@.@.@. .J T 6 . $ $ $ $ $ . . . . . $ $ $ $ $ $ $ $ $ $ $ $ $ $ $ $ $ $ $ $ $ $ $ $ $ $ $ $ $ $ $ $ $ $ $ $ $ $ $ $ $ $ $ $ $ $ $ $ $ $ $ $ $ $ $ $ $ $ $ $ $ $ $ $ $ $ $ $ $ $ $ $ $ $ $ $ $ $ $ $ $ $ $ $ $ $ $ $ $ $ $ $ $ $ $ $ $ $ $ $ $ $ $ $ $ $ $ $ $ $ $ $ $ $ $ $ $ $ $ $ $ $ $ $ $ $ $ $ $ $ $ $ $ $ $ $ $ $ $ $ $ $ $ $ $ $ $ $ $ $ $ $ $ $ $ $ $ $ $ $ $ $ $ $ $ $ $ $ $ $ $ $ $ * * $ $ $ $ $ $ $ $ $ $ $ $ % . w S { / { { { { ` / / / / ` ` ` / / ` ` ` ` ` ` ` ` ` ` ` ` ` ` ` ` ` ` ` ` ` ` ` / / / ` ` ` ` ` ` ` ` ` ` ` ` ` ` ` ` { { ` ` ` ] ] ` ) ^ / / / / / / / / ` ` / / ` ` ` ] } ] ] ] ] ] ] ] ] ] ) ) ] ] ) ` ) ) ] ] ] ] ] ] ] ] ` ` ] ] ] ] ` ` ] ] ] ] ] ] ] ] ] ] ] ] ] ] ] ] ] ] ] ] ] ] ] ] ] ] ] ] ] ] ] ] ",
"N.N.N.N.N.N.N.N.c.c.c.c.c.c.c.c.c.c.c.c.c.c.c.c.c.c.c.c.c.c.c.c.c.b.b.c.c.c.c.b.h.>.b . $ $ $ $ $ $ $ $ $ $ $ $ $ $ $ $ $ . . . o = x ( ^ ! U U J H H J ^ ] O.O.@.@.$.@.@.@.@.@.@.@.@.@.@.@.@.@.@.@.@.@.@.@.@.@.@.@.@.@.@.@.@.@.@.@.@.@.@.@.@.@.@.@.@.@.@.@.@.@.@.@.@.@.@.@.@.@.@.@.@.@.@.@.@.@.@.@.@.@.@.@.@.@.@.@.@.@.@.@.@.@.@.@.@.@.@.@.@.@.@.@.@.@.@.@.@.@.@.@.@.@.@.@.@.@.@.@.@.@.@.@.@.@.@.@.@.@.@.@.@.@.@.@.@.@.@.@.@.@.@.@.@.@.@.@.@.@.@.@.@.@.@.@.@.@.@.@.@.@.@.@.@.@.@.@.@.@.@.@.@.@.@.@.@.@. .J T 6 . $ $ $ $ $ . . . . . . . . . . . . $ $ $ $ $ $ $ $ $ $ . . . . . . . . . . . . . . $ $ $ $ . $ . . . $ $ $ $ $ $ $ $ $ $ $ $ . . . $ $ $ . . . $ $ $ . . . $ $ $ . . $ . . . . $ . $ . . $ $ $ . . . $ $ $ $ $ $ $ $ $ $ $ $ . . . $ $ $ . . . $ $ $ . . . $ $ $ $ . $ $ $ $ . . . $ $ . . $ $ $ $ $ $ $ $ . . . . $ $ $ . $ $ $ $ $ $ $ $ . . $ $ . . . . . . . . . . $ $ $ $ * * $ $ $ $ $ $ $ $ $ . . ; . I s.b.B.c.B.B.B.B.b.b.b.b.B.C.C.C.C.B.B.C.B.B.B.B.C.C.C.C.B.B.B.B.B.B.C.C.B.B.B.B.B.B.b.b.B.B.B.B.B.B.B.B.B.B.B.B.B.B.B.B.B.B.B.B.B.N.N.C.C.C.B.B.B.B.C.C.C.C.C.C.B.b.B.B.B.B.B.B.m.m.m.m.V.N.N.N.c.m.c.c.m.m.m.c.m.m.m.m.m.V.V.m.c.c.c.c.N.N.N.N.c.N.N.N.N.N.N.N.N.N.N.N.V.V.V.V.N.N.N.N.N.N.N.N.N.N.N.V.N.N.V.N.",
"l.l.l.l.z.z.l.l.z.z.g.g.l.l.z.z.g.g.g.g.l.l.l.l.l.l.l.l.l.l.l.l.g.h.h.h.g.g.g.h.z.B.h.#.6 . % $ . $ $ $ $ $ $ $ $ $ $ $ $ $ $ . . o o 3 P ( U D J ~ U H J J J J U ( ' ] @.@.@.@.=.*.@.@.@.@.@.@.@.@.@.@.@.@.@.@.@.@.@.@.@.@.@.@.@.@.@.@.@.@.@.@.@.@.@.@.@.@.@.@.@.@.@.@.@.@.@.@.@.@.@.@.@.@.@.@.@.@.@.@.@.@.@.@.@.@.@.@.@.@.@.@.@.@.@.@.@.@.@.@.@.@.@.@.@.@.@.@.@.@.@.@.@.@.@.@.@.@.@.@.@.@.@.@.@.@.@.@.@.@.@.@.@.@.@.@.@.@.@.@.@.@.@.@.@.@.@.@.@.@.@.@.@.@.@.@.@.@.@.@.@.@.@.@.@.@.@.@.@.@.@.@.@.@.@.@.( J ^ 4 . $ $ $ ; $ = . b 8.b.g.z.z.z.z.c.c.c.c.c.c.v.v.c.c.c.c.c.c.c.c.c.c.c.c.c.c.v.c.c.v.c.v.c.c.c.c.c.c.c.v.c.c.c.c.b.b.v.c.c.c.c.c.c.c.c.v.v.c.c.c.c.c.c.c.c.c.v.v.v.c.c.c.c.c.c.c.c.c.c.v.c.c.c.c.c.v.c.c.c.c.c.c.v.v.c.c.c.c.c.c.v.v.v.c.c.c.c.k.k.h.h.h.h.h.h.h.h.h.h.h.k.z.c.c.h.r . O O   3 ).XXXXoXoXXXb.b.v.c.c.c.c.c.c.c.c.c.c.c.k.k.z.z.h.h.h.h.h.z.z.z.z.z.z.z.z.z.z.z.z.h.d.3.w $ $ $ $ $ $ $ $ . . b 9.r.g.g.g.s.s.g.g.l.l.l.l.l.l.l.l.l.l.z.l.l.l.l.l.l.l.l.l.l.l.l.l.l.l.l.l.l.z.l.l.l.l.l.z.z.z.l.l.l.l.l.l.z.z.z.z.z.z.l.l.l.z.z.l.l.l.l.l.g.g.g.g.g.g.g.g.g.g.g.g.g.g.h.h.l.l.l.l.l.l.l.l.l.l.l.l.g.g.g.g.l.l.l.l.l.l.l.l.l.l.l.l.l.l.l.l.l.l.l.l.l.l.l.l.l.l.l.l.l.l.l.l.l.l.l.l.l.l.l.l.l.l.l.l.l.l.l.l.l.l.l.l.",
"j.j.j.j.z.l.l.l.z.z.l.g.l.z.z.z.g.g.l.l.l.l.l.l.l.l.l.l.l.l.l.l.g.g.g.g.g.g.g.g.c.y.p.b.y.F . $ . . . $ $ $ $ $ $ $ $ $ $ $ $ $ . . o o = A ^ U U J J U ! U U U J U ( ( ! ^ ( ] @.*.*.$.$.*.$.$.$.$.@.@.@.@.@.@.@.@.@.@.@.@.@.@.@.@.@.@.@.@.@.@.@.@.@.@.@.@.@.@.@.@.@.@.@.@.@.@.@.@.@.@.@.@.@.@.@.@.@.@.@.@.@.@.@.@.@.@.@.@.@.@.@.@.@.@.@.@.@.@.@.@.@.@.@.@.@.@.@.@.@.@.@.@.@.@.@.@.@.@.@.@.@.@.@.@.@.@.@.@.@.@.@.@.@.@.@.@.@.@.@.@.@.@.@.@.@.@.@.@.@.@.@.@.@.@.@.@.@.@.@.@.@.@.@.@.@.@.@.@.@.@.@.@.@.@.( J ^ 4 . $ $ $ $ . . I Z.Y.R.P.Y.Y.Y.Y.Y.Y.Y.P.P.P.P.P.Y.Y.Y.Y.G.G.G.G.G.G.G.G.P.J.Y.Y.Y.P.P.P.P.Y.Y.Y.P.P.P.P.P.P.P.Y.Y.Y.Y.Y.Y.Y.P.Y.P.P.P.P.Y.Y.Y.Y.P.P.P.P.P.P.P.P.P.P.P.P.P.Y.P.Y.Y.P.Y.P.P.P.P.P.P.P.P.P.P.Y.Y.Y.P.P.P.P.Y.Y.P.P.P.P.P.P.Y.Y.Y.Y.Y.Y.Y.Y.Y.Y.Y.Y.Y.Y.Y.Y.R.R.R.R.Y.z   X X   ^ %X$X$X$X$X|.A.G.Y.R.R.Y.Y.R.R.Y.Y.Y.Y.Y.Y.R.Y.Y.Y.Y.Y.Y.Y.Y.Y.Y.Y.Y.G.G.G.G.G.J.J.J.J.T.B.q . ; $ . $ $ $ $ = y.g.6.5.8.g.c.l.g.l.l.l.l.l.l.l.l.l.l.l.l.l.l.l.l.l.l.l.l.l.l.l.l.l.l.l.l.l.l.l.l.l.l.l.l.l.l.l.l.l.l.l.l.l.l.l.l.l.l.l.l.l.l.l.l.l.l.l.l.l.g.g.g.g.g.g.g.g.g.g.g.g.g.g.g.g.l.l.l.l.l.l.l.l.l.l.l.l.g.g.g.g.l.l.l.l.l.l.l.l.l.l.l.l.l.l.l.l.l.l.l.l.l.l.l.l.l.l.l.l.l.l.l.l.l.l.l.l.l.l.l.l.l.l.l.l.l.l.l.l.l.l.l.l.",
"j.j.j.j.z.z.l.l.z.z.l.l.l.l.z.z.l.l.l.l.l.l.l.l.l.l.l.l.l.l.l.l.g.g.g.g.g.g.g.g.g.g.g.g.h.C.@.4 $ . . $ $ $ $ $ $ $ $ $ $ $ $ $ $ . . .   o g T ^ H J ^ ! ! ! ! U U ! U ! U J H ! ( ( '  .@.@.@.@.@.@.@.@.@.@.@.@.@.@.@.@.@.@.@.@.@.@.@.@.@.@.@.@.@.@.@.@.@.@.@.@.@.@.@.@.@.@.@.@.@.@.@.@.@.@.@.@.@.@.@.@.@.@.@.@.@.@.@.@.@.@.@.@.@.@.@.@.@.@.@.@.@.@.@.@.@.@.@.@.@.@.@.@.@.@.@.@.@.@.@.@.@.@.@.@.@.@.@.@.@.@.@.@.@.@.@.@.@.@.@.@.@.@.@.@.@.@.@.@.@.@.@.@.@.@.@.@.@.@.@.@.@.@.@.@.@.@.@.@.@.@.@.@.@.@.@.( J ^ 4 . $ $ $ . . = h.J.Z.D.G.G.G.G.G.G.G.G.G.G.G.G.Z.G.G.G.G.G.G.G.G.G.G.G.G.G.Z.Z.Z.G.G.G.G.G.G.G.G.G.G.G.G.G.G.G.G.G.G.G.G.G.G.G.G.G.G.G.Z.G.G.G.G.G.G.G.G.G.Z.Z.Z.G.G.G.G.G.G.G.G.G.G.G.G.G.G.G.G.G.G.G.G.G.G.G.G.Z.G.G.G.Z.Z.G.G.Z.Z.G.G.G.G.G.G.A.A.A.A.G.G.A.A.A.A.A.A.D.D.D.D.L.D   X X   C.%X$X$X$X#XG.Z.G.Z.A.G.A.A.G.G.A.A.A.A.A.A.G.D.D.D.D.D.Z.Z.D.D.H.H.G.G.G.G.Z.G.Z.Z.J.Z.J.T.:.. . * . $ $ $ $ b b.g.g.g.0.@.*.f.c.l.l.l.l.l.l.l.l.l.l.l.l.l.l.l.l.l.l.l.l.l.l.l.l.l.l.l.l.l.l.l.l.l.l.l.l.l.l.l.l.l.l.l.l.l.l.l.l.l.l.l.l.l.l.l.l.l.l.l.l.l.g.g.g.g.g.g.g.g.g.g.g.g.g.g.g.g.l.l.l.l.l.l.l.l.l.l.l.l.g.g.g.g.l.l.l.l.l.l.l.l.l.l.l.l.l.l.l.l.l.l.l.l.l.l.l.l.l.l.l.l.l.l.l.l.l.l.l.l.l.l.l.l.l.l.l.l.l.l.l.l.l.l.l.l.",
"j.j.j.j.z.z.l.l.h.z.l.l.l.l.z.z.l.l.l.l.l.l.l.l.l.l.l.l.l.l.l.l.g.g.g.g.g.g.g.g.g.c.k.h.h.r.c.r.g $ . . $ $ $ $ $ $ $ $ $ $ $ $ $ $ . . . . O > S ^ T J J J J J ! ! ! J J J U ! J U J ^ J ^ ' ] @.$.@.@.@.@.@.@.@.@.@.@.@.@.@.@.@.@.@.@.@.@.@.@.@.@.@.@.@.@.@.@.@.@.@.@.@.@.@.@.@.@.@.@.@.@.@.@.@.@.@.@.@.@.@.@.@.@.@.@.@.@.@.@.@.@.@.@.@.@.@.@.@.@.@.@.@.@.@.@.@.@.@.@.@.@.@.@.@.@.@.@.@.@.@.@.@.@.@.@.@.@.@.@.@.@.@.@.@.@.@.@.@.@.@.@.@.@.@.@.@.@.@.@.@.@.@.@.@.@.@.@.@.@.@.@.@.@.@.@.@.@.@.@.@.@.@.@.( J ^ 4 . $ $ $ $ . w J.Z.A.G.G.G.D.G.G.G.G.G.G.G.G.G.Z.G.G.G.G.G.G.G.G.G.G.G.G.G.G.Z.Z.G.G.G.G.G.G.G.G.G.G.G.G.G.G.G.G.G.G.G.G.G.G.G.G.G.G.Z.Z.G.G.G.G.G.G.G.G.G.G.Z.Z.G.G.G.G.G.G.G.G.G.G.G.G.G.G.G.G.G.G.G.G.G.G.G.G.G.G.G.G.Z.Z.G.G.Z.G.G.G.G.G.G.G.G.G.G.Y.Y.Y.Y.P.P.P.P.L.G.G.G.G.W.D X X   3 }.$X$X#X$X_.c.D.G.Y.G.G.G.G.G.G.G.G.G.G.G.G.G.G.G.G.G.G.G.G.G.G.G.G.G.G.G.G.G.G.G.Z.Y.Z.C.!.h.$ . . . $ $ $ . I k.g.g.g.g.c.6.*.*.e.l.l.l.l.l.l.l.l.l.l.l.l.l.l.l.l.l.l.l.l.l.l.l.l.l.l.l.l.l.l.l.l.l.l.l.l.l.l.l.l.l.l.l.l.l.l.l.l.l.l.l.l.l.l.l.l.l.l.l.l.g.g.g.g.g.g.g.g.g.g.g.g.g.g.g.g.l.l.l.l.l.l.l.l.l.l.l.l.g.g.g.g.l.l.l.l.l.l.l.l.l.l.l.l.l.l.l.l.l.l.l.l.l.l.l.l.l.l.l.l.l.l.l.l.l.l.l.l.l.l.l.l.l.l.l.l.l.l.l.l.l.l.l.l.",
"j.j.j.j.l.l.l.l.z.l.l.l.l.l.l.z.l.l.l.l.l.l.l.l.l.l.l.l.l.l.l.l.g.g.g.g.g.g.g.g.h.h.g.g.g.g.z.z.c.P .   * . $ $ $ $ $ $ $ $ $ $ $ $ $ $ . . . . . e P ) J J J J ! ! ! ! U U U U U U U U ! ! ! ! ] @.@.@.@.@.@.@.@.@.@.@.@.@.@.@.@.@.@.@.@.@.@.@.@.@.@.@.@.@.@.@.@.@.@.@.@.@.@.@.@.@.@.@.@.@.@.@.@.@.@.@.@.@.@.@.@.@.@.@.@.@.@.@.@.@.@.@.@.@.@.@.@.@.@.@.@.@.@.@.@.@.@.@.@.@.@.@.@.@.@.@.@.@.@.@.@.@.@.@.@.@.@.@.@.@.@.@.@.@.@.@.@.@.@.@.@.@.@.@.@.@.@.@.@.@.@.@.@.@.@.@.@.@.@.@.@.@.@.@.@.@.@.@.@.@.@.@.J J ^ 4 . $ $ $ $ . r J.Z.Z.G.G.G.G.G.G.G.G.G.G.G.G.G.G.G.G.G.G.G.G.G.G.G.G.G.G.F.F.F.F.G.G.G.G.G.G.G.G.G.G.G.G.G.G.G.G.G.G.G.G.G.G.I.I.I.I.Y.Y.P.P.Y.Y.Y.Y.Y.Y.G.G.G.G.G.G.G.G.I.I.I.I.I.I.I.I.G.G.G.G.G.G.A.A.D.D.D.D.D.C.C.C.C.C.D.D.c.c.c.c.c.c.c.c.c.c.c.c.g.g.g.g.g.g.p.p.w.w.w.w.g.z       i (.W.R.(.G.=.=.=.=.=.w.w.w.w.g.g.g.g.c.C.A.G.J.G.G.G.G.G.G.G.G.G.G.G.G.G.G.G.I.G.G.G.I.G.Z.J.h.. . . . $ $ $ . I v.p.g.g.g.g.c.g.6.*.' 5.c.N.l.g.x.l.g.l.l.g.l.l.l.l.l.l.l.l.l.l.l.l.l.l.l.l.l.l.l.l.l.l.l.l.l.l.l.l.l.l.l.l.l.l.l.l.l.l.l.l.l.l.l.l.l.l.l.l.l.l.l.l.l.l.l.l.l.l.l.l.l.l.l.l.l.l.l.l.l.l.l.l.l.l.l.l.g.g.g.g.l.l.l.l.l.l.l.l.l.l.l.l.l.l.l.l.l.l.l.l.l.l.l.l.l.l.l.l.l.l.l.l.l.l.l.l.l.l.l.l.l.l.l.l.l.l.l.l.l.l.l.l.",
"j.j.j.j.z.z.l.l.z.l.l.l.l.l.l.l.l.l.l.l.l.l.l.l.l.l.l.l.l.l.l.l.g.g.g.g.g.g.g.g.j.j.j.j.j.j.x.j.g.M.6.r   % $ $ $ $ $ $ $ $ $ $ $ $ $ $ $ . . . $ . = n ^ J J ( ! ! ! ! U U U U U U U U U U U U U ] @.*.@.@.@.@.@.@.@.@.@.@.@.@.@.@.@.@.@.@.@.@.@.@.@.@.@.@.@.@.@.@.@.@.@.@.@.@.@.@.@.@.@.@.@.@.@.@.@.@.@.@.@.@.@.@.@.@.@.@.@.@.@.@.@.@.@.@.@.@.@.@.@.@.@.@.@.@.@.@.@.@.@.@.@.@.@.@.@.@.@.@.@.@.@.@.@.@.@.@.@.@.@.@.@.@.@.@.@.@.@.@.@.@.@.@.@.@.@.@.@.@.@.@.@.@.@.@.@.@.@.@.@.@.@.@.@.@.@.@.@.@.@.@.@.@.J J ^ 4 . $ $ $ $ . r J.G.Z.G.G.G.G.G.G.I.I.I.I.I.I.I.I.I.I.Y.P.P.P.I.I.I.I.I.I.G.G.G.G.I.I.I.I.G.G.G.I.I.I.I.I.G.G.G.G.H.H.D.D.D.D.D.D.N.N.N.N.c.c.c.c.g.g.g.g.g.g.g.g.w.w.w.w.q.0.8.8.8.8.6.6.6.3.6.6.*.*.*.%.*.@.@.@.&.&.@.@.@.@.@.@.@.@.@.@.@.@.@.@.@.@.@.@.@.@.@.@.@.@.@.@.@.@.@.@.=.l X <   ( Y.G.G.D.=...@.@.@.@.@.@.@.@.@.@.@.@.@.*.=.6.=.8.g.c.N.C.G.I.R.Y.I.G.G.G.G.G.G.I.Y.R.Y.G.G.P.k.. . . . $ $ $ . I v.g.g.g.g.g.f.g.c.x.r.] ^ =.l.N.l.c.z.g.g.l.l.l.l.l.l.l.l.l.l.l.l.l.l.l.l.l.l.l.l.l.l.l.l.l.l.l.l.l.l.l.l.l.l.l.l.l.l.l.l.l.l.l.l.l.l.l.l.l.l.l.l.l.l.l.l.l.l.l.l.l.l.l.l.l.l.l.l.l.l.l.l.l.l.l.l.l.g.g.g.g.l.l.l.l.l.l.l.l.l.l.l.l.l.l.l.l.l.l.l.l.l.l.l.l.l.l.l.l.l.l.l.l.l.l.l.l.l.l.l.l.l.l.l.l.l.l.l.l.l.l.l.l.",
"j.j.j.j.z.z.z.z.l.l.l.l.l.l.l.l.l.l.l.l.l.l.l.l.l.l.l.l.l.l.l.l.g.g.g.g.g.g.g.g.j.j.j.j.j.j.j.j.j.c.c.g.I $ ; ; $ $ $ $ $ $ $ $ $ $ $ $ $ . $ $ $ % $ . e J ( U U U U U U U U U U U U U U U U U J ! ] @.*.$.@.@.@.@.@.@.@.@.@.@.@.@.@.@.@.@.@.@.@.@.@.@.@.@.@.@.@.@.@.@.@.@.@.@.@.@.@.@.@.@.@.@.@.@.@.@.@.@.@.@.@.@.@.@.@.@.@.@.@.@.@.@.@.@.@.@.@.@.@.@.@.@.@.@.@.@.@.@.@.@.@.@.@.@.@.@.@.@.@.@.@.@.@.@.@.@.@.@.@.@.@.@.@.@.@.@.@.@.@.@.@.@.@.@.@.@.@.@.@.@.@.@.@.@.@.@.@.@.@.@.@.@.@.@.@.@.@.@.@.@.$.@.J U ^ 4 . $ $ $ $ . r J.G.Z.G.G.G.G.G.G.C.C.V.V.V.V.m.m.c.c.c.c.l.l.l.l.a.a.a.a.r.r.r.r.w.e.e.0.8.6.6.6.2.2.2.2.*.*.*.*.*.*.*.&.@.@.@.@.@.@.@.@.@.@.@.@.@.@.@.@.@.@.@.@.@.@.@.@.@.@.@.@.@.@.@.@.@.@.@.@.@.@.@.@.@.@.@.@.@.@.@.@.@.@.@.@.$.$.$.$.$.$.$.$.$.$.@.@.&.&.@.@.*.*.$.$.@.@.@.@.6.A   X   l.G.G.Y.c. .@.@.@.@.@.@.@.$.*.*.*.$.@.@.@.@.$.O.@.@.@.*.=.6.e.l.c.c.N.V.N.N.N.c.l.g.f.r.e.8.r.r.= . $ . $ $ $ . I v.g.g.g.g.g.x.l.g.g.N.D.g.@.! ' r.C.N.l.g.z.l.l.l.l.l.l.l.l.l.l.l.l.l.l.l.l.l.l.l.l.l.l.l.l.l.l.l.l.l.l.l.l.l.l.l.l.l.l.l.l.l.l.l.l.l.l.l.l.l.l.l.l.l.l.l.l.l.l.l.l.l.l.l.l.l.l.l.l.l.l.g.g.g.g.g.g.g.g.g.g.l.l.l.l.l.l.l.l.l.l.l.l.l.l.l.l.l.l.l.l.l.l.l.l.l.l.l.l.l.l.l.l.l.l.l.l.l.l.l.l.l.l.l.l.l.l.l.l.l.l.l.l.",
"j.j.j.j.z.z.z.l.l.l.l.l.l.l.l.l.l.l.l.l.l.l.l.l.l.l.l.l.l.l.l.l.g.g.g.g.g.g.g.g.j.j.j.j.j.j.j.j.m.j.j.c.v./ 1 $ $ $ $ $ $ $ $ $ $ $ $ $ $ $ $ $ $ $ $ .   6 F T U U U U U U U U U U U U U U U U ^ ! ^ (  .@.*.$.@.@.@.@.@.@.@.@.@.@.@.@.@.@.@.@.@.@.@.@.@.@.@.@.@.@.@.@.@.@.@.@.@.@.@.@.@.@.@.@.@.@.@.@.@.@.@.@.@.@.@.@.@.@.@.@.@.@.@.@.@.@.@.@.@.@.@.@.@.@.@.@.@.@.@.@.@.@.@.@.@.@.@.@.@.@.@.@.@.@.@.@.@.@.@.@.@.@.@.@.@.@.@.@.@.@.@.@.@.@.@.@.@.@.@.@.@.@.@.@.@.@.@.@.@.@.@.@.@.@.@.@.@.@.@.@.@.@.$.@.J U T 4 . $ $ $ $ . r J.Z.Z.G.G.G.G.G.G.&.&.@.@.@.@.@.@.@.@.@.@.O.O.@.@.@.@.@.@.O.@.@.@.@.@.@.&.O.O.O.O.@.@.@.@.@.@.@.@.@.@.@.@.@.@.@.@.$.$.$.$.$.$.$.$.@.@.@.@.$.$.$.$.@.@.@.@.@.@.@.@.@.@.@.@.*.*.*.*.@.@.@.@.$.$.$.$.@.@.@.@.&.*.@.@.$.$.$.$.$.$.*.*.*.*.*.*.@.@.@.@.$.$.$.$.@.@.@.@.=.H     i G.G.Y.D.%.@...@.@.@.@.@.@.@.@.@.@.@.@.@.@.@.@.@.$.*.=.@.@.@.@.@.@.@.@.O.O.O.@.@.@.*.*.@.@.@.#.#.= . $ . $ $ $ . F c.g.g.g.g.g.g.g.l.l.x.g.x.N.g.&.H ] 6.g.N.z.l.l.l.l.l.l.l.l.l.l.l.l.l.l.l.l.l.l.l.l.l.l.l.l.l.l.l.l.l.l.l.l.l.l.l.l.l.l.l.l.l.l.l.l.l.l.l.l.l.l.l.l.l.l.l.l.l.l.l.l.l.l.l.l.l.l.l.l.l.l.g.g.g.g.g.g.g.g.g.g.l.l.l.l.l.l.l.l.l.l.l.l.l.l.l.l.l.l.l.l.l.l.l.l.l.l.l.l.l.l.l.l.l.l.l.l.l.l.l.l.l.l.l.l.l.l.l.l.l.l.l.l.",
"x.x.x.x.x.x.x.x.x.x.x.x.z.z.c.c.j.j.x.x.c.c.c.c.c.c.x.x.l.l.l.l.g.g.g.g.f.f.f.f.f.f.g.f.g.f.f.f.w.w.i.k.p.b.9.j   . $ - $ $ $ $ $ $ $ $ $ $ $ $ $ $ $ $ $ . $ r J U Y J U U U U U U U U U U U U U U U U J ] $.=.@.@.@.@.@.@.@.@.@.@.@.@.@.@.@.@.@.@.@.@.@.@.@.@.@.@.@.@.@.@.@.@.@.@.@.@.@.@.@.@.@.@.@.@.@.@.@.@.@.@.@.@.@.@.@.@.@.@.@.@.@.@.@.@.@.@.@.@.@.@.@.@.@.@.@.@.@.@.@.@.@.@.@.@.@.@.@.@.@.@.@.@.@.@.@.@.@.@.@.@.@.@.@.@.@.@.@.@.@.@.@.@.@.@.@.@.@.@.@.@.@.@.@.@.@.@.@.@.@.@.@.@.@.@.@.@.@.@.$.] U U T 4 . $ $ $ $ . r J.Y.H.D.G.G.I.C.=.@.@.@.@.$.$.$.@.@.@.@.@.$.$.$.@.@.@.@.@.$.$.$.@.@.@.@.@.@.@.@.@.$.$.$.$.@.@.@.@.@.@.@.@.$.$.$.$.@.@.@.@.@.@.@.@.$.$.$.$.*.*.$.$.$.$.$.$.$.$.$.$.@.@.@.@.@.@.@.@.$.$.$.@.@.@.@.@.@.@.@.@.$.$.$.@.@.@.@.@.$.$.$.@.@.@.@.@.$.$.$.@.$.$.$.$.@.@.@.@.=.H     ] G.G.Y.6.@.@.@.@.@.@.@.@.@.@.@.@.@.@.@.@.@.@.@.$.$.$.$.@.@.@.@.$.$.$.$.@.@.@.@.&.&.&.&.*.*.&.#.} = $ * $ $ $ $ . F c.g.g.g.g.g.g.g.g.g.g.g.j.j.l.N.g.O.J ^ *.s.c.l.x.g.g.g.l.l.l.l.l.l.l.l.l.l.l.l.l.l.x.l.l.x.x.x.l.l.l.l.l.l.l.l.l.l.l.l.l.l.l.g.g.g.l.l.l.l.g.g.l.l.l.l.x.l.l.l.l.l.l.l.l.l.l.l.g.g.g.g.j.g.g.g.g.g.g.g.g.g.g.g.g.g.j.j.x.j.l.l.g.g.g.g.g.g.g.g.l.l.l.l.l.g.g.g.g.g.g.j.j.x.x.x.x.j.j.g.j.j.j.j.x.x.j.j.j.j.j.j.j.j.",
"r.r.r.r.r.r.r.r.e.e.e.e.w.w.w.8.8.6.6.6.6.6.6.6.=.=.=.=.=.=.=.=.=.=.=.*.*.$.$.@.@.@.@.@.@.@.$.$.@.O.$.=.g.i.k.C.^ >   . . $ $ $ $ $ $ $ $ $ $ $ $ $ $ $ $ $ $ . 3 A ^ ^ U U U U U U U U U U U U U U U U U U ( @.@.@.@.@.@.@.@.@.@.@.@.@.@.@.@.@.@.@.@.@.@.@.@.@.@.@.@.@.@.@.@.@.@.@.@.@.@.@.@.@.@.@.@.@.@.@.@.@.@.@.@.@.@.@.@.@.@.@.@.@.@.@.@.@.@.@.@.@.@.@.@.@.@.@.@.@.@.@.@.@.@.@.@.@.@.@.@.@.@.@.@.@.@.@.@.@.@.@.@.@.@.@.@.@.@.@.@.@.@.@.@.@.@.@.@.@.@.@.@.@.@.@.@.@.@.@.@.@.@.@.@.@.@.@.@.@.@.@.$.] U U T > . $ $ $ $ . r J.H.H.G.Y.Y.C.*.@.@.@.@.@.$.$.$.@.@.@.@.@.$.$.$.$.@.@.@.@.$.$.$.$.@.@.@.@.@.@.@.@.$.$.$.$.@.@.@.@.@.@.@.@.$.$.$.$.@.@.@.@.@.@.@.@.$.$.$.$.*.*.$.$.$.$.$.$.$.$.$.$.@.@.@.@.@.@.@.@.$.$.$.$.@.@.@.@.@.@.@.@.$.$.$.$.@.@.@.@.$.$.$.$.@.@.@.@.$.$.$.$.$.$.$.$.@.@.@.@.=.J     g.Y.G.r.@.@.@.@.@.@.@.@.@.@.@.@.@.@.@.@.@.@.@.@.$.$.$.*.@.@.@.@.$.$.$.$.@.@.@.@.&.&.&.&.*.*.&.*.} = $ * $ $ $ $ . F c.g.g.g.g.g.g.g.g.g.g.g.j.j.N.g.g.V.c.=.E A ;.g.N.V.c.x.l.l.l.l.l.l.l.l.l.l.l.l.l.l.l.l.l.l.x.x.l.l.l.l.l.l.l.l.l.l.l.l.l.l.l.g.g.g.l.l.l.l.g.g.g.g.l.l.l.g.g.g.g.g.g.g.g.g.l.l.j.j.j.j.j.j.j.j.g.g.g.g.g.g.g.g.g.g.g.g.j.j.l.l.l.l.l.l.l.l.x.x.c.c.c.c.c.x.x.j.x.x.j.j.x.c.c.c.c.x.x.j.j.g.g.g.g.g.g.g.g.g.g.g.g.g.",
"$.$.$.$.$.$.$.$.@.@.@.@.@.@.@.@.@.@.@.@.@.@.@.@.@.@.@.@.@.@.@.@.@.@.@.@.@.@.@.@.*.*.*.*.*.*.*.=.=.$.$.=.@.=.e.g.C.1.j o . . $ $ $ $ $ $ $ $ $ $ $ $ $ $ $ $ $ $ . . x T T U Y Y U U U U U U U U U U U U ^ J U ' O.@.@.@.@.@.@.@.@.@.@.@.@.@.@.@.@.@.@.@.@.@.@.@.@.@.@.@.@.@.@.@.@.@.@.@.@.@.@.@.@.@.@.@.@.@.@.@.@.@.@.@.@.@.@.@.@.@.@.@.@.@.@.@.@.@.@.@.@.@.@.@.@.@.@.@.@.@.@.@.@.@.@.@.@.@.@.@.@.@.@.@.@.@.@.@.@.@.@.@.@.@.@.@.@.@.@.@.@.@.@.@.@.@.@.@.@.@.@.@.@.@.@.@.@.@.@.@.@.@.@.@.@.@.@.@.@.@.$.] U U T > . $ $ $ $ . r J.Z.Z.I.G.g.@.@.*.@.@.@.@.@.@.@.@.@.@.@.@.@.@.@.@.@.@.@.@.@.@.@.@.@.@.@.@.@.@.@.@.@.@.@.@.@.@.@.@.@.@.@.@.@.@.@.@.@.@.@.@.@.@.@.@.@.@.@.@.&.&.@.@.@.@.@.@.@.@.@.@.@.@.@.@.@.@.@.@.@.@.@.@.@.@.@.@.@.@.@.@.@.@.@.@.@.@.@.@.@.@.@.@.@.@.@.@.@.@.@.@.$.$.$.$.@.@.@.@.<.^ X   c.G.G.6.@.@.@.@.@.@.@.@.@.@.@.@.@.@.@.@.@.@.@.@.@.@.*.@.@.@.@.@.$.$.@.@.@.@.@.@.&.&.&.&.*.*.@.#.} = $ * $ $ $ $ . F c.f.g.g.g.g.g.g.g.g.g.g.j.g.g.x.x.x.g.c.c.6.^ A ^ 0.c.c.l.f.l.l.l.l.x.x.x.x.x.x.x.x.l.l.l.l.x.x.x.x.x.x.x.x.l.l.l.l.x.x.x.l.l.g.g.g.l.l.l.l.c.c.c.c.x.x.x.x.c.x.x.x.x.x.x.x.c.c.c.c.c.c.j.j.j.j.j.j.g.g.g.g.g.g.g.g.g.g.g.g.g.g.g.g.g.g.g.g.r.r.r.r.r.r.r.r.9.w.w.w.5.5.6.6.6.6.6.5.5.<.<.=.=.=.=.=.=.=.=.=.=.=.=.=.",
"$.$.$.$.$.$.$.$.$.$.$.$.$.$.@.@.@.@.@.@.@.@.$.@.@.@.@.@.&.&.*.*.@.@.@.@.*.*.*.*.*.*.*.$.#.@.@.@.=.@.@.@.@.@.@.6.8.c.M.@.. . . $ $ $ $ $ $ $ $ $ $ $ $ $ $ $ $ $ * $ . 6 F U U U U U U U U U U U U U U U ! ( ( J ( O.@.@.@.@.@.@.@.@.@.@.@.@.@.@.@.@.@.@.@.@.@.@.@.@.@.@.@.@.@.@.@.@.@.@.@.@.@.@.@.@.@.@.@.@.@.@.@.@.@.@.@.@.@.@.@.@.@.@.@.@.@.@.@.@.@.@.@.@.@.@.@.@.@.@.@.@.@.@.@.@.@.@.@.@.@.@.@.@.@.@.@.@.@.@.@.@.@.@.@.@.@.@.@.@.@.@.@.@.@.@.@.@.@.@.@.@.@.@.@.@.@.@.@.@.@.@.@.@.@.@.@.@.@.@.@.@.$.] U T T > . $ $ $ $ . r J.Z.P.G.C.@.@.@. .@.@.@.@.@.@.@.@.@.@.@.@.@.@.@.@.@.@.@.@.@.@.@.@.@.@.@.@.@.@.@.@.@.@.@.@.@.@.@.@.@.@.@.@.@.@.@.@.@.@.@.@.@.@.@.@.@.@.@.@.&.&.@.@.$.$.@.@.@.@.@.@.@.@.@.@.@.@.@.@.@.@.@.@.@.@.@.@.@.@.@.@.@.@.@.@.@.@.@.@.@.@.@.@.@.@.@.@.@.@.@.@.$.$.$.$.@.@.@.@.<.( @   8.G.G.j.@.@.@.@.@.@.@.@.@.@.@.@.@.@.@.@.@.@.@.@.@.@.$.@.@.@.@.@.$.$.@.@.@.@.@.@.&.&.&.&.*.*.@.*.} = . $ $ $ $ $ . F c.f.g.g.g.g.g.g.g.g.g.g.j.g.g.x.x.g.l.g.c.c.N.w.E z ^ =.l.c.l.l.l.l.x.x.x.x.x.x.x.x.l.l.l.l.x.x.x.x.x.x.x.x.x.l.l.l.x.x.x.l.l.g.g.g.l.l.l.l.f.f.f.f.f.a.r.r.r.r.r.r.r.r.r.r.8.8.6.6.6.6.6.6.6.6.6.6.=.=.=.=.=.=.=.=.*.*.*.$.$.@.@.@.@.@.@.@.@.@.&.&.&.&.&.@.@.@.@.@.@.@.@.@.@.@.@.@.@.@.@.@.@.@.@.@.@.@.@.@.@.@.@.@.",
"$.$.$.$.$.$.$.$.$.$.$.$.$.$.$.$.@.@.@.@.$.$.$.$.@.@.@.@.*.*.*.*.$.$.$.$.@.@.@.@.@.@.@.@.@.@.@.@.@.@.@.@.$.$.$.$.=.<.e.g.r.n . . $ % $ $ $ $ $ $ $ $ $ $ $ $ $ $ $ $ $ . = g T ^ H J U U U U U U U U U U ! ! ! ! J ! ] *.$.$.*.=.@.@.@.@.@.@.@.@.@.@.@.@.@.@.@.@.@.@.@.@.@.@.@.@.@.@.@.@.@.@.@.@.@.@.@.@.@.@.@.@.@.@.@.@.@.@.@.@.@.@.@.@.@.@.@.@.@.@.@.@.@.@.@.@.@.@.@.@.@.@.@.@.@.@.@.@.@.@.@.@.@.@.@.@.@.@.@.@.@.@.@.@.@.@.@.@.@.@.@.@.@.@.@.@.@.@.@.@.@.@.@.@.@.@.@.@.@.@.@.@.@.@.@.@.@.@.@.@.$.@.$.( J J I > . $ $ $ $ . r J.Z.G.Y.j.@.@.@.@.@.@.@.@.@.@.@.@.@.@.@.@.@.@.@.@.@.@.@.@.@.@.@.@.@.@.@.@.@.@.@.@.@.@.@.@.@.@.@.@.@.@.@.@.@.@.@.@.@.@.@.@.@.@.@.@.@.@.@.@.&.&.@.@.$.$.$.$.@.@.@.@.@.@.@.@.@.@.@.@.@.@.@.@.@.@.@.@.@.@.@.@.@.@.@.@.@.@.@.@.@.@.@.@.@.@.@.@.@.@.@.@.$.$.@.@.$.$.$.$.=.] @   ] W.G.L.@.@.@.@.@.@.@.@.@.@.@.@.@.@.@.@.@.@.@.@.@.@.@.@.$.$.$.$.@.@.@.@.@.@.@.@.&.&.&.&.*.*.$.#.} = $ $ $ $ $ $ $ I c.j.c.c.c.c.j.j.j.j.j.j.j.j.x.x.x.x.l.l.l.l.s.c.c.a.E x Z @.r.x.f.f.f.a.a.r.w.w.w.w.w.w.w.w.6.6.6.6.6.6.6.6.5.5.5.5.5.5.5.=.=.=.=.=.=.=.=.*.*.&.&.&.&.&.&.&.&.&.&.&.&.&.&.&.&.&.@.@.@.@.@.@.@.@.@.@.@.@.@.@.@.@.@.@.@.@.@.@.@.@.@.@.&.&.&.&.&.&.&.&.&.&.&.&.@.@.@.@.@.@.@.@.@.@.@.@.@.@.@.@.@.@.@.@.$.$.$.$.$.$.$.$.",
"$.$.$.$.$.$.$.$.$.$.$.$.$.$.$.$.@.@.@.@.$.$.$.$.@.@.@.@.*.*.*.*.$.$.$.$.@.@.@.@.@.@.@.@.@.@.@.@.@.@.@.@.$.$.$.@.@.$.=.<.r.h.} - . * $ $ $ $ $ $ $ $ $ $ $ $ $ $ $ $ $ $ . . 4 F ( U J T U U U U U U U U ! ! ! ! ^ J ! ] @.$.*.*.@.@.@.@.@.@.@.@.@.@.@.@.@.@.@.@.@.@.@.@.@.@.@.@.@.@.@.@.@.@.@.@.@.@.@.@.@.@.@.@.@.@.@.@.@.@.@.@.@.@.@.@.@.@.@.@.@.@.@.@.@.@.@.@.@.@.@.@.@.@.@.@.@.@.@.@.@.@.@.@.@.@.@.@.@.@.@.@.@.@.@.@.@.@.@.@.@.@.@.@.@.@.@.@.@.@.@.@.@.@.@.@.@.@.@.@.@.@.@.@.@.@.@.@.@.@.@.@.$.@.@.( J J I > . $ $ $ $ . r J.A.G.U.f.@.@.@.@.@.@.@.@.@.@.@.@.@.@.@.@.@.@.@.@.@.@.@.@.@.@.@.@.@.@.@.@.@.@.@.@.@.@.@.@.@.@.@.@.@.@.@.@.@.@.@.@.@.@.@.@.@.@.@.@.@.@.@.@.&.&.@.@.$.$.$.$.@.@.@.@.@.@.@.@.@.@.@.@.@.@.@.@.@.@.@.@.@.@.@.@.@.@.@.@.@.@.@.@.@.@.@.@.@.@.@.@.@.@.@.@.$.$.@.@.$.$.$.$.=. .@   J R.G.L.6.@.@.@.@.@.@.@.@.@.@.@.@.@.@.@.@.@.@.@.@.@.@.@.$.$.$.$.@.@.@.@.@.@.@.@.&.&.&.&.*.*.$.#.` $ . $ $ $ $ $ $ S g.9.9.9.9.9.6.6.6.6.6.6.6.6.6.6.6.6.=.=.=.=.=.&.&.=.5.&.J 7 h H ] *.&.*.=.&.@.@.@.@.&.&.@.@.O.O.O.O.O.O.O.O.&.&.&.&.@.@.@.&.&.&.&.&.&.&.&.&.&.&.&.&.&.&.&.&.&.&.&.&.&.&.&.&.&.&.@.@.@.@.@.@.@.@.@.@.@.@.@.@.@.@.@.@.@.@.@.@.@.@.@.@.&.&.&.&.&.&.&.&.&.&.&.&.@.@.@.@.@.@.@.@.@.@.@.@.@.@.@.@.@.@.@.@.$.$.$.$.$.$.$.$.",
"$.$.$.$.$.$.$.$.$.$.$.$.$.$.$.$.@.@.@.@.$.$.$.$.@.@.@.@.*.*.*.*.$.$.$.$.@.@.@.@.@.@.@.@.@.@.@.@.@.@.@.@.$.$.$.@.@.@.@.$.@.*.y.q.I $ $ % $ $ $ $ $ $ $ $ $ $ $ $ $ $ $ $ $ % % = j T ^ J U U U U U U U U ! ! ! ! ! ! J ! ( @.$.$.@.@.@.@.@.@.@.@.@.@.@.@.@.@.@.@.@.@.@.@.@.@.@.@.@.@.@.@.@.@.@.@.@.@.@.@.@.@.@.@.@.@.@.@.@.@.@.@.@.@.@.@.@.@.@.@.@.@.@.@.@.@.@.@.@.@.@.@.@.@.@.@.@.@.@.@.@.@.@.@.@.@.@.@.@.@.@.@.@.@.@.@.@.@.@.@.@.@.@.@.@.@.@.@.@.@.@.@.@.@.@.@.@.@.@.@.@.@.@.@.@.@.@.@.@.@.@.@.$.@.@.( T U I > . $ $ $ $ . r J.A.G.G.8.@.@.@.@.@.@.@.@.@.@.@.@.@.@.@.@.@.@.@.@.@.@.@.@.@.@.@.@.@.@.@.@.@.@.@.@.@.@.@.@.@.@.@.@.@.@.@.@.@.@.@.@.@.@.@.@.@.@.@.@.@.@.@.@.&.&.@.@.@.@.$.$.@.@.@.@.@.@.@.@.@.@.@.@.@.@.@.@.@.@.@.@.@.@.@.@.@.@.@.@.@.@.@.@.@.@.@.@.@.@.@.@.@.@.@.@.$.@.@.@.$.$.$.$.*.@.:   x G.G.G.c.O.@.@.@.@.@.@.@.@.@.@.@.@.@.@.@.@.@.@.@.@.@.@.@.@.$.$.@.@.@.@.@.@.@.@.&.&.&.&.*.*.@.#.` $ . $ $ $ $ $ . v 1.@.@.@.@.@.@.@.@.@.@.@.@.@.@.@.@.@.@.@.@.@.@.*.*.&.@.=.5.*.E d 3 Z ;.@.=.*.&.&.&.&.&.&.&.&.&.&.&.&.&.&.&.&.&.&.&.@.@.@.&.&.&.&.&.&.&.&.&.&.&.&.&.&.&.&.&.&.&.&.&.&.&.&.&.&.&.&.@.@.@.@.@.@.@.@.@.@.@.@.@.@.@.@.@.@.@.@.@.@.@.@.@.@.&.&.&.&.&.&.&.&.&.&.&.&.@.@.@.@.@.@.@.@.@.@.@.@.@.@.@.@.@.@.@.@.$.$.$.$.$.$.$.$.",
"$.$.$.$.$.$.$.$.$.$.$.$.$.$.$.$.@.@.@.@.$.$.$.$.@.@.@.@.*.*.*.*.$.$.$.$.@.@.@.@.@.@.@.@.@.@.@.@.@.@.@.@.$.$.$.@.@.@.@.@.@.*.@.-.y.| q $ $ $ $ $ $ $ $ $ $ $ $ $ $ $ $ $ $ $ $ . . e F ^ T T U U U U U U ! ! ! ! D ! ^ J J ( @.$.@.@.@.@.@.@.@.@.@.@.@.@.@.@.@.@.@.@.@.@.@.@.@.@.@.@.@.@.@.@.@.@.@.@.@.@.@.@.@.@.@.@.@.@.@.@.@.@.@.@.@.@.@.@.@.@.@.@.@.@.@.@.@.@.@.@.@.@.@.@.@.@.@.@.@.@.@.@.@.@.@.@.@.@.@.@.@.@.@.@.@.@.@.@.@.@.@.@.@.@.@.@.@.@.@.@.@.@.@.@.@.@.@.@.@.@.@.@.@.@.@.@.@.@.@.@.@.@.$.@.@.( T J I > . $ $ $ $ . r J.Z.G.G.<.@.@.@.@.@.@.@.@.@.@.@.@.@.@.@.@.@.@.@.@.@.@.@.@.@.@.@.@.@.@.@.@.@.@.@.@.@.@.@.@.@.@.@.@.@.@.@.@.@.@.@.@.@.@.@.@.@.@.@.@.@.@.@.@.&.&.@.@.@.@.@.$.@.@.@.@.@.@.@.@.@.@.@.@.@.@.@.@.@.@.@.@.@.@.@.@.@.@.@.@.@.@.@.@.@.@.@.@.@.@.@.@.@.@.@.@.$.$.@.@.$.$.$.$.@.@.3   8 G.G.G.C.@.*.@.@.@.@.@.@.@.@.@.@.@.@.@.@.@.@.@.@.@.@.@.@.@.@.@.@.@.@.@.@.@.@.@.&.&.&.&.*.*.@.#.` & . $ $ $ $ $ % n 6...@.@.@.@.@.@.@.@.@.@.@.@.@.@.@.@.&.&.&.&.=.@.@.=.=.&.O.&.=.@.~ d 5 x ~ *.&.@.@.@.&.&.&.&.&.&.&.&.&.&.&.*.*.*.*.*.*.&.&.&.&.&.&.&.@.@.@.@.&.&.&.&.&.&.&.&.&.&.&.&.&.&.&.&.&.@.@.@.@.@.@.@.@.@.@.@.@.@.@.@.@.@.@.@.@.@.@.@.@.@.@.@.&.&.&.&.&.&.&.&.&.&.&.&.@.@.@.@.@.@.@.@.@.@.@.@.@.@.@.@.@.@.@.@.$.$.$.$.$.$.$.$.",
"@.@.@.@.@.@.@.@.@.@.@.@.@.@.@.@.@.@.@.@.@.@.@.@.@.@.@.@.@.@.@.@.@.@.@.@.@.@.@.@.@.@.@.@.@.@.@.@.@.@.@.@.@.@.@.@.@.@.@.@.@.@.@.@.*.>.=.S % $ $ ; $ $ $ $ $ $ $ $ $ $ $ $ $ $ $ $ * $ ; u P T J J J J U U U U Y U U U U U U J U ( @.@.@.@.@.@.@.@.@.@.@.@.@.@.@.@.@.@.@.@.@.@.@.@.@.@.@.@.@.@.@.@.@.@.@.@.@.@.@.@.@.@.@.@.@.@.@.@.@.@.@.@.@.@.@.@.@.@.@.@.@.@.@.@.@.@.@.@.@.@.@.@.@.@.@.@.@.@.@.@.@.@.@.@.@.@.@.@.@.@.@.@.@.@.@.@.@.@.@.@.@.@.@.@.@.@.@.@.@.@.@.@.@.@.@.@.@.@.@.@.@.@.@.@.@.@.@.@...*.@.^ T T T 4 $ $ $ $ $ . r J.G.Y.G.*.@.@.@.@.@.@.@.@.@.@.@.@.@.@.@.@.@.@.@.@.@.@.@.@.@.@.@.@.$.$.@.@.@.@.@.@.@.@.@.@.@.@.@.@.@.@.@.@.@.@.@.@.@.@.@.@.@.@.@.@.@.@.@.@.@.@.@.@.@.@.@.@.@.@.@.@.@.@.@.@.@.@.@.@.@.@.@.@.@.@.@.@.@.@.@.@.@.@.@.@.@.@.@.@.@.@.@.@.@.@.@.@.@.@.@.@.$.$.$.$.$.$.$.$.@.$.3 X + c.G.G.D.e.*.@.@.@.@.@.@.@.@.@.@.@.@.@.@.@.@.@.@.@.@.@.@.@.@.@.@.@.@.@.@.@.@.@.@.@.@.@.*.*.@.#.` & . $ $ $ $ $ $ b =.$.$.$.$.$.$.$.$.@.@.@.@.@.@.@.@.@.@.@.@.@.@.@.@.@.@.@.@.@.@.@.@.@.! x 9 k H @.<.=.*.=.*.@.@.@.@.@.@.@.@.@.@.@.@.@.$.$.$.$.@.@.@.@.@.@.@.@.@.@.@.@.@.@.@.@.@.@.@.@.@.@.@.@.@.@.@.@.@.@.@.@.@.@.@.@.@.@.@.@.@.@.@.@.@.@.@.@.@.@.@.@.@.@.@.@.@.@.@.@.@.@.@.@.@.@.@.@.@.@.@.@.@.@.@.@.@.@.@.@.@.@.@.@.$.$.$.$.$.$.$.$.",
"@.@.@.@.@.@.@.@.@.@.@.@.@.@.@.@.@.@.@.@.@.@.@.@.@.@.@.@.@.@.@.@.@.@.@.@.@.@.@.@.@.@.@.@.@.@.@.@.@.@.@.@.@.@.@.@.@.@.@.@.@.@.@.@.$.....=.P r $ $ $ $ $ $ $ $ $ $ $ $ $ $ $ $ $ $ % $ $ $ r F T H P P J U U U U Y U U U U U U U J ] @.@.@.@.@.@.@.@.@.@.@.@.@.@.@.@.@.@.@.@.@.@.@.@.@.@.@.@.@.@.@.@.@.@.@.@.@.@.@.@.@.@.@.@.@.@.@.@.@.@.@.@.@.@.@.@.@.@.@.@.@.@.@.@.@.@.@.@.@.@.@.@.@.@.@.@.@.@.@.@.@.@.@.@.@.@.@.@.@.@.@.@.@.@.@.@.@.@.@.@.@.@.@.@.@.@.@.@.@.@.@.@.@.@.@.@.@.@.@.@.@.@.@.@.@.@.@.*.%.] J J J J = . $ $ $ . . w Z.A.G.D.@.@.@.@.@.@.@.@.@.@.@.@.@.@.@.@.@.@.@.@.@.@.@.@.@.@.@.@.@.$.$.@.@.@.@.@.@.@.@.@.@.@.@.@.@.@.@.@.@.@.@.@.@.@.@.@.@.@.@.@.@.@.@.@.@.@.@.@.@.@.@.@.@.@.@.@.@.@.@.@.@.@.@.@.@.@.@.@.@.@.@.@.@.@.@.@.@.@.@.@.@.@.@.@.@.@.@.@.@.@.@.@.@.@.@.@.@.$.$.$.$.$.$.$.$. .@.7     g.F.G.G.g.@.*.@.@.@.@.@.@.@.@.@.@.@.@.@.@.@.@.@.@.@.@.@.@.@.@.@.@.@.@.@.@.@.@.@.@.@.@.*.*.@.#.` & . $ $ $ $ $ . b =.$.$.$.$.$.$.*.$.@.@.@.@.@.@.@.@.@.@.@.@.@.@.@.@.@.@.@.@.@.@.@.@.@.=.@.^ k 9 8 H @.@.$.$.@.@.@.@.@.@.@.@.@.@.@.@.@.$.$.$.$.@.@.@.@.@.@.@.@.@.@.@.@.@.@.@.@.@.@.@.@.@.@.@.@.@.@.@.@.@.@.@.@.@.@.@.@.@.@.@.@.@.@.@.@.@.@.@.@.@.@.@.@.@.@.@.@.@.@.@.@.@.@.@.@.@.@.@.@.@.@.@.@.@.@.@.@.@.@.@.@.@.@.@.@.$.$.$.$.$.$.$.$.",
"@.@.@.@.@.@.@.@.@.@.@.@.@.@.@.@.@.@.@.@.@.@.@.@.@.@.@.@.@.@.@.@.@.@.@.@.@.@.@.@.@.@.@.@.@.@.@.@.@.@.@.@.@.@.@.@.@.@.@.@.@.@.@.@.@...@.=.:.| C ; $ $ . . . . $ $ $ $ $ $ $ $ $ $ $ $ $ . . = x / P P P J U U U U U U U U U U U U ! ] @.@.@.@.@.@.@.@.@.@.@.@.@.@.@.@.@.@.@.@.@.@.@.@.@.@.@.@.@.@.@.@.@.@.@.@.@.@.@.@.@.@.@.@.@.@.@.@.@.@.@.@.@.@.@.@.@.@.@.@.@.@.@.@.@.@.@.@.@.@.@.@.@.@.@.@.@.@.@.@.@.@.@.@.@.@.@.@.@.@.@.@.@.@.@.@.@.@.@.@.@.@.@.@.@.@.@.@.@.@.@.@.@.@.@.@.@.@.@.@.@.@.@.@.@.@.=...^ T ^ ^ ^ 6 $ $ $ $ $ $ r J.G.G.A.@.@.@.@.@.@.@.@.@.@.@.@.@.@.@.@.@.@.@.@.@.@.@.@.@.@.@.@.@.$.@.@.@.@.@.@.@.@.@.@.@.@.@.@.@.@.@.@.@.@.@.@.@.@.@.@.@.@.@.@.@.@.@.@.@.@.@.@.@.@.@.@.@.@.@.@.@.@.@.@.@.@.@.@.@.@.@.@.@.@.@.@.@.@.@.@.@.@.@.@.@.@.@.@.@.@.@.@.@.@.@.@.@.@.@.@.@.$.$.$.$.$.$.$.$.O.=.k     *.G.A.G.D.@.@.@.@.@.@.@.@.@.@.@.@.@.@.@.@.@.@.@.@.@.@.@.@.@.@.@.@.@.@.@.@.@.@.@.@.@.@.*.*.@.#.` & . . . $ $ $ . b =.$.$.$.$.$.$.$.$.@.@.@.@.@.@.@.@.@.@.@.@.@.@.@.@.@.@.@.@.@.@.@.@.@.@.@.=.=.( x 8 7 Z ] =.@.@.@.@.@.@.@.@.@.@.@.@.@.$.$.$.$.@.@.@.@.@.@.@.@.@.@.@.@.@.@.@.@.@.@.@.@.@.@.@.@.@.@.@.@.@.@.@.@.@.@.@.@.@.@.@.@.@.@.@.@.@.@.@.@.@.@.@.@.@.@.@.@.@.@.@.@.@.@.@.@.@.@.@.@.@.@.@.@.@.@.@.@.@.@.@.@.@.@.@.@.$.$.$.$.$.$.$.$.",
"@.@.@.@.@.@.@.@.@.@.@.@.@.@.@.@.@.@.@.@.@.@.@.@.@.@.@.@.@.@.@.@.@.@.@.@.@.@.@.@.@.@.@.@.@.@.@.@.@.@.@.@.@.@.@.@.@.@.@.@.@.@.@.@.$.=.*.....:.:./ 6 . . . . . $ $ $ $ $ $ $ $ $ $ $ $ $ $ = . $ e P P P P T U U U U U U U U U U U U ! ] @.@.@.@.@.@.@.@.@.@.@.@.@.@.@.@.@.@.@.@.@.@.@.@.@.@.@.@.@.@.@.@.@.@.@.@.@.@.@.@.@.@.@.@.@.@.@.@.@.@.@.@.@.@.@.@.@.@.@.@.@.@.@.@.@.@.@.@.@.@.@.@.@.@.@.@.@.@.@.@.@.@.@.@.@.@.@.@.@.@.@.@.@.@.@.@.@.@.@.@.@.@.@.@.@.@.@.@.@.@.@.@.@.@.@.@.@.@.@.@.@.@.@.@.@.@.( T J ^ ^ ^ 6 $ $ $ $ $ . r J.A.G.C.@.@.@.@.@.@.@.@.@.@.@.@.@.@.@.@.@.@.@.@.@.@.@.@.@.@.@.@.@.$.$.@.@.@.@.@.@.@.@.@.@.@.@.@.@.@.@.@.@.@.@.@.@.@.@.@.@.@.@.@.@.@.@.@.@.@.@.@.@.@.@.@.@.@.@.@.@.@.@.@.@.@.@.@.@.@.@.@.@.@.@.@.@.@.@.@.@.@.@.@.@.@.@.@.@.@.@.@.@.@.@.@.@.@.@.@.@.$.$.$.$.$.$.$.$.*.A +     U E.V.D.G.6.@.@.@.@.@.@.@.@.@.@.@.@.@.@.@.@.@.@.@.@.@.@.@.@.@.@.@.@.@.@.@.@.@.@.@.@.@.*.*.@.#.` o . . . . . . . b =.$.$.$.$.$.$.$.$.@.@.@.@.@.@.@.@.@.@.@.@.@.@.@.@.@.@.@.@.@.@.@.@.@.@.$.$.@.5.*.( D d 5 8 U @.@.@.@.@.@.@.@.@.@.@.@.$.$.$.$.@.@.@.@.@.@.@.@.@.@.@.@.@.@.@.@.@.@.@.@.@.@.@.@.@.@.@.@.@.@.@.@.@.@.@.@.@.@.@.@.@.@.@.@.@.@.@.@.@.@.@.@.@.@.@.@.@.@.@.@.@.@.@.@.@.@.@.@.@.@.@.@.@.@.@.@.@.@.@.@.@.@.@.@.$.$.$.$.$.$.$.$.",
"@.@.@.@.@.@.@.@.@.@.@.@.@.@.@.@.@.@.@.@.@.@.@.@.@.@.@.@.@.@.@.@.@.@.@.@.@.@.@.@.@.@.@.@.@.@.@.@.@.@.@.@.@.@.@.@.@.@.@.@.@.@.@.@.$.$.@.@.#.#.=.} P j = . . $ $ $ $ $ $ $ $ $ $ $ $ $ $ $ $ $ $ . 4 b / ) F F J J J J J J U U U U U U U ^  .@.$.*.$.$.@.@.$.$.$.$.$.$.$.$.@.@.@.@.@.@.@.@.@.@.@.@.@.@.@.@.@.@.@.@.@.@.@.@.@.@.@.@.@.@.@.@.@.@.@.@.@.@.@.@.@.@.@.@.@.@.@.@.@.@.@.@.@.@.@.@.@.@.@.@.@.@.@.@.@.@.@.@.@.@.@.@.@.@.@.@.@.@.@.@.@.@.@.@.@.@.@.@.@.@.@.@.@.@.@.@.@.@.@.@.@.@.@.@.@.@.@.@.J J J P T T T 4 $ $ $ $ $ . r J.G.Y.j. .@.@.@.@.@.@.@.@.&.&.&.&.@.@.@.@.@.@.@.@.@.@.@.@.@.@.@.@.@.@.@.@.@.@.@.@.@.@.@.@.@.@.@.@.@.@.@.@.@.@.@.@.@.@.@.@.@.@.@.@.@.@.@.@.@.@.@.@.@.@.@.@.@.@.@.@.@.@.@.@.@.@.@.@.@.@.@.@.@.@.@.@.@.@.@.@.@.@.@.@.@.@.@.@.@.@.@.@.@.@.@.@.@.@.@.@.$.@.@.=.@.@.=.] k   X     ( L.G.G.F.g.@.@.@.@.@.@.@.@.@.@.@.@.@.@.@.@.@.@.@.@.@.@.@.@.@.@.@.@.@.@.@.@.@.@.@.@.@.*.*.@.#.` o . . . . . . . A =.$.$.$.$.$.$.$.$.$.@.@.@.@.@.@.@.@.@.@.@.@.@.@.@.@.@.@.@.@.@.@.@.@.@.@.@.@.@.@.@.@.O.H t 3 8 Z  .=.=.@.@.@.@.@.@.@.@.@.@.@.@.@.@.@.@.@.@.@.@.@.@.@.@.@.@.@.@.@.@.@.@.@.@.@.@.@.@.@.@.@.@.@.@.@.@.@.@.@.@.@.@.@.@.@.@.@.@.@.@.@.@.@.@.@.@.@.@.@.@.@.@.@.@.@.@.@.@.@.@.@.@.@.@.@.@.@.@.@.@.@.@.@.@.@.$.$.$.$.$.$.$.$.",
"@.@.@.@.@.@.@.@.@.@.@.@.@.@.@.@.@.@.@.@.@.@.@.@.@.@.@.@.@.@.@.@.@.@.@.@.@.@.@.@.@.@.@.@.@.@.@.@.@.@.@.@.@.@.@.@.@.@.@.@.@.@.@.@.$.$.@.@.@.@.*.] F T F e . . $ $ $ $ $ $ $ $ $ $ $ $ $ $ $ $ $ $   . r F ) ^ J J J J J J U U U U U U U U U ] @.=.*.*.$.$.$.$.$.$.$.$.$.$.@.@.@.@.@.@.@.@.@.@.@.@.@.@.@.@.@.@.@.@.@.@.@.@.@.@.@.@.@.@.@.@.@.@.@.@.@.@.@.@.@.@.@.@.@.@.@.@.@.@.@.@.@.@.@.@.@.@.@.@.@.@.@.@.@.@.@.@.@.@.@.@.@.@.@.@.@.@.@.@.@.@.@.@.@.@.@.@.@.@.@.@.@.@.@.@.@.@.@.@.@.@.@.@.*.=.@.( J J J P T T T 4 $ $ $ $ $ . r J.G.L.g.O.@.@.@.@.@.@.@.@.&.&.&.&.@.@.@.@.@.@.@.@.@.@.@.@.@.@.@.@.@.@.@.@.@.@.@.@.@.@.@.@.@.@.@.@.@.@.@.@.@.@.@.@.@.@.@.@.@.@.@.@.@.@.@.@.@.@.@.@.@.@.@.@.@.@.@.@.@.@.@.@.@.@.@.@.@.@.@.@.@.@.@.@.@.@.@.@.@.@.@.@.@.@.@.@.@.@.@.@.@.@.@.@.@.@.@.@.@.@.@.*.@.$.! + X X   3 *.G.Y.G.D.G.C.=.@.@.@.@.@.@.@.@.@.@.@.@.@.@.@.@.@.@.@.@.@.@.@.@.@.@.@.@.@.@.@.@.@.@.@.@.*.*.@.#.) . . . . . . . . e M M x x x x x x x x Z H @.=.$.@.@.@.@.@.@.@.@.@.@.@.@.@.@.@.@.@.@.@.@.@.@.@.@.@.@.@.@.@.O.J 8 3 3 x ( @.=.@.@.@.@.@.@.@.@.@.@.@.@.@.@.@.@.@.@.@.@.@.@.@.@.@.@.@.@.@.@.@.@.@.@.@.@.@.@.@.@.@.@.@.@.@.@.@.@.@.@.@.@.@.@.@.@.@.@.@.@.@.@.@.@.@.@.@.@.@.@.@.@.@.@.@.@.@.@.@.@.@.@.@.@.@.@.@.@.@.@.@.@.@.$.$.$.$.$.$.$.$.",
"@.@.@.@.@.@.@.@.@.@.@.@.@.@.@.@.@.@.@.@.@.@.@.@.@.@.@.@.@.@.@.@.@.@.@.@.@.@.@.@.@.@.@.@.@.@.@.@.@.@.@.@.@.@.@.@.@.@.@.@.@.@.@.@.@.$.$.$.$.@.*.] Y U ^ / S 1 . . $ $ $ $ $ $ $ $ $ $ $ $ $ $ $ $ * . . 4 F ^ P J J J J J U U U U U U U U H ^ ] @.$.*.*.*.$.$.$.$.$.$.$.$.@.@.@.@.@.@.@.@.@.@.@.@.@.@.@.@.@.@.@.@.@.@.@.@.@.@.@.@.@.@.@.@.@.@.@.@.@.@.@.@.@.@.@.@.@.@.@.@.@.@.@.@.@.@.@.@.@.@.@.@.@.@.@.@.@.@.@.@.@.@.@.@.@.@.@.@.@.@.@.@.@.@.@.@.@.@.@.@.@.@.@.@.@.@.@.@.@.@.@.@.@.@.@.@.*.@.' U J J J J T T T 4 $ $ $ $ $ . r J.G.L.8.@.@.@.@.@.@.@.@.@.@.@.@.@.@.@.@.@.@.@.@.@.@.@.@.@.@.@.@.@.@.@.@.@.@.@.@.@.@.@.@.@.@.@.@.@.@.@.@.@.@.@.@.@.@.@.@.@.@.@.@.@.@.@.@.@.@.@.@.@.@.@.@.@.@.@.@.@.@.@.@.@.@.@.@.@.@.@.@.@.@.@.@.@.@.@.@.@.@.@.@.@.@.@.@.@.@.@.@.@.@.@.@.@.@.@.@.@. .@.=.=.=.f + @   X x g.Y.G.A.G.G.L.D.8.$.$.$.$.@.@.@.@.@.@.@.@.@.@.@.@.@.@.@.@.@.@.@.@.@.@.@.@.@.@.@.@.@.@.@.@.*.*.@.#.` . . . . . . .   > 8 5 5 5 5 5 5 5 5 5 8 2 x @.$.$.$.$.@.@.@.@.@.@.@.@.@.@.@.@.@.@.@.@.@.@.@.@.@.@.@.@.*.@.=.=.*.H 8 7 7 k ! @.@.@.@.@.@.@.@.@.@.@.@.@.@.@.@.@.@.@.@.@.@.@.@.@.@.@.@.@.@.@.@.@.@.@.@.@.@.@.@.@.@.@.@.@.@.@.@.@.@.@.@.@.@.@.@.@.@.@.@.@.@.@.@.@.@.@.@.@.@.@.@.@.@.@.@.@.@.@.@.@.@.@.@.@.@.@.@.@.@.@.@.@.$.$.$.$.$.$.$.$.",
"@.@.@.@.@.@.@.@.@.@.@.@.@.@.@.@.@.@.@.@.@.@.@.@.@.@.@.@.@.@.@.@.@.@.@.@.@.@.@.@.@.@.@.@.@.@.@.@.@.@.@.@.@.@.@.@.@.@.@.@.@.@.@.@.@.$.$.$.$.@.*.] U J H F / I a . $ $ $ $ $ $ $ $ $ $ $ $ $ $ $ $ $ $ $   = b I P J J J J U U U U U U U U ^ J J ^ ] O.$.*.$.$.$.$.$.$.$.$.@.@.@.@.@.@.@.@.@.@.@.@.@.@.@.@.@.@.@.@.@.@.@.@.@.@.@.@.@.@.@.@.@.@.@.@.@.@.@.@.@.@.@.@.@.@.@.@.@.@.@.@.@.@.@.@.@.@.@.@.@.@.@.@.@.@.@.@.@.@.@.@.@.@.@.@.@.@.@.@.@.@.@.@.@.@.@.@.@.@.@.@.@.@.@.@.@.@.@.@.@.@.@.@.@.^ H U J J J J T T T 4 $ $ $ $ $ . r J.A.L.5.@.@.@.@.@.@.@.@.@.@.@.@.@.@.@.@.@.@.@.@.@.@.@.@.@.@.@.@.@.@.@.@.@.@.@.@.@.@.@.@.@.@.@.@.@.@.@.@.@.@.@.@.@.@.@.@.@.@.@.@.@.@.@.@.@.@.@.@.@.@.@.@.@.@.@.@.@.@.@.@.@.@.@.@.@.@.@.@.@.@.@.@.@.@.@.@.@.@.@.@.@.@.@.@.@.@.@.@.@.@.@.@.@.@.@.@.@.=.<.@.] 3       @ ] A.Y.A.G.G.G.G.g.6.O.$.$.$.$.@.@.@.@.@.@.@.@.@.@.@.@.@.@.@.@.@.@.@.@.@.@.@.@.@.@.@.@.@.@.@.@.*.*.@.#.` . . . .   . .   @ t t t 8 8 8 8 8 8 8 h t 3 J $.$.$.$.@.@.@.@.@.@.@.@.@.@.@.@.@.@.@.@.@.@.@.@.@.@.@.@.@.$.$.@.@.=.=.U f 8 3 8 H ' @.@.@.@.@.@.@.@.@.@.@.@.@.@.@.@.@.@.@.@.@.@.@.@.@.@.@.@.@.@.@.@.@.@.@.@.@.@.@.@.@.@.@.@.@.@.@.@.@.@.@.@.@.@.@.@.@.@.@.@.@.@.@.@.@.@.@.@.@.@.@.@.@.@.@.@.@.@.@.@.@.@.@.@.@.@.@.@.@.@.$.$.$.$.$.$.$.$.",
"@.@.@.@.@.@.@.@.@.@.@.@.@.@.@.@.@.@.@.@.@.@.@.@.@.@.@.@.@.@.@.@.@.@.@.@.@.@.@.@.@.@.@.@.@.@.@.@.@.@.@.@.@.@.@.@.@.@.@.@.@.@.@.@.$.$.$.$.$.@.*.] ! ! U T H ^ ^ 6 $ $ $ $ $ $ $ $ . $ $ . . . $ $ $ $ $ .   . r F ^ F P P U U U U U U U U U U U U ! ! ! ! ( ( ( ( ] ] ] ] @.@.@.@.*.*.*.*.*.$.@.@.@.@.@.@.$.$.$.$.@.@.@.@.@.@.@.@.@.@.@.@.@.@.@.@.@.@.@.@.@.@.@.@.@.@.@.@.@.@.@.@.@.@.@.@.@.@.@.@.@.@.@.@.@.@.@.@.@.@.@.@.@.@.@.@.@.@.@.@.@.@.@.@.@.@.@.@.$.$.$.$.$.$.$.$.@.@.@.@.*.@.@.] ! ! ! ! T T T T ^ ^ T 4 . $ $ $ $ . r J.A.G.<.O.&.&.$.$.$.$.$.$.$.$.$.$.@.@.@.@.@.@.@.@.@.@.@.@.@.@.@.@.@.@.@.@.@.@.@.@.@.@.@.@.@.@.@.@.@.@.@.@.@.@.@.@.@.@.@.@.@.@.@.@.@.@.@.@.@.@.@.@.@.@.@.@.@.@.@.@.@.@.@.@.@.@.@.@.@.@.@.@.@.@.@.@.@.@.@.@.@.@.@.@.@.@.@.@.@.@.@.@.@.@.@.@.$.=.*.*.*.*.Z   X @   d x.R.G.D.L.G.G.c.*.*.*.$.$.@.@.@.@.@.@.@.@.@.@.@.@.@.@.@.@.@.@.@.@.@.@.@.@.@.@.@.@.@.@.@.@.@.@.@.*.*.@.#.` o   .           @ t t 8 8 8 8 8 8 8 8 8 8 8 k @.@.@.@.@.@.@.@.@.@.@.@.@.@.@.@.@.@.@.@.@.@.@.@.@.@.@.@.@.@.@.@.@.@.@.=.@.U h 7 3 t A ( @.=.@.@.@.$.*.*.@.@.@.@.@.@.@.@.@.@.@.@.@.@.@.@.@.@.@.@.@.@.@.@.@.@.@.@.@.@.@.@.@.@.@.@.@.@.@.@.@.@.@.@.@.@.@.@.@.@.@.@.@.@.@.@.@.@.@.@.@.@.@.@.@.@.@.@.@.@.@.@.@.@.@.@.@.@.@.@.$.$.$.$.$.$.$.$.",
"@.@.@.@.@.@.@.@.@.@.@.@.@.@.@.@.@.@.@.@.@.@.@.@.@.@.@.@.@.@.@.@.@.@.@.@.@.@.@.@.@.@.@.@.@.@.@.@.@.@.@.@.@.@.@.@.@.@.@.@.@.@.@.@.$.$.$.$.$.@.*.] ! ! U U J U ( A $ $ $ $ $ $ $ $ . . . . . . . $ $ $ $ . . . $ = v ^ P P J U U U U U U U U U U U U U U U U U U U J J J J ( ( ( ( ] ] ] ] O.O.@.@.*.*.*.*.*.*.*.*.*.*.*.*.$.$.$.$.$.@.@.@.@.@.@.@.@.@.@.@.@.@.@.@.@.@.@.@.@.@.@.@.@.@.@.@.@.$.$.@.@.@.@.@.@.@.@.@.@.@.@.@.@.@.@.@.@.@.@.@.@.@.@.@.@.@.@.@.$.$.$.$.$.$.$.$.=.=.=.=.@.] ( ^ ! ! ! ! T T T T ^ ^ T 4 . $ $ $ $ . r J.G.F.=.O.&.&.@.$.$.$.$.$.$.$.$.$.@.@.@.@.@.@.@.@.@.@.@.@.@.@.@.@.@.@.@.@.@.@.@.@.@.@.@.@.@.@.@.@.@.@.@.@.@.@.@.@.@.@.@.@.@.@.@.@.@.@.@.@.@.@.@.@.@.@.@.@.@.@.@.@.@.@.@.@.@.@.@.@.@.@.@.@.@.@.@.@.@.@.@.@.@.@.@.@.@.@.@.@.@.@.@.@.@.@.@.@.$.@.@.=.] 8       + ! U.Y.G.G.G.G.c.e.*.*.*.*.$.$.@.@.@.@.@.@.@.@.@.@.@.@.@.@.@.@.@.@.@.@.@.@.@.@.@.@.@.@.@.@.@.@.@.@.@.*.*.@.#.` o               @ y t 8 8 8 8 8 8 8 8 8 8 8 k @.@.@.@.@.@.@.@.@.@.@.@.@.@.@.@.@.@.@.@.@.@.@.@.@.@.@.@.@.@.@.@.@.@.@.@.@.@.@.U h 8 3 t k J ] *.@.@.@.@.@.@.@.@.@.@.@.@.@.@.@.@.@.@.@.@.@.@.@.@.@.@.@.@.@.@.@.@.@.@.@.@.@.@.@.@.@.@.@.@.@.@.@.@.@.@.@.@.@.@.@.@.@.@.@.@.@.@.@.@.@.@.@.@.@.@.@.@.@.@.@.@.@.@.@.@.@.@.@.@.$.$.$.$.$.$.$.$.",
"@.@.@.@.@.@.@.@.@.@.@.@.@.@.@.@.@.@.@.@.@.@.@.@.@.@.@.@.@.@.@.@.@.@.@.@.@.@.@.@.@.@.@.@.@.@.@.@.@.@.@.@.@.@.@.@.@.@.@.@.@.@.@.@.$.$.$.$.$.@.*.] ! ! U U U J ^ J $ $ $ $ $ $ $ $ $ . 4 n r .   ; $ $ $ . . . $ . . 6 I T P J U U U U U U U U U U U U U U U U U U U U U J J J J J J J J J U ! ^ ( ( ( ( ( ] ] ] ] @.@.@.@.$.$.$.$.$.$.$.@.@.@.@.@.@.@.@.@.@.@.@.@.@.@.@.@.@.@.@.@.@.@.@.@.@.@.@.@.@.@.@.@.@.@.@.@.@.@.@.@.@.@.@.@.*.*.*.*.$.$.$.$.@.@.@.@.] ] ] ] ] ] ] ] ] ] ] ] ( ^ U U ! ! ! ! T T U U ^ ^ T 4 . $ $ $ $ . r J.G.A.*.@.$.$.$.$.$.$.$.$.$.$.$.$.@.@.@.@.@.@.@.@.@.@.@.@.@.@.@.@.@.@.@.@.@.@.@.@.@.@.@.@.@.@.@.@.@.@.@.@.@.@.@.@.@.@.@.@.@.@.@.@.@.@.@.@.@.@.@.@.@.@.@.@.@.@.@.@.@.@.@.@.@.@.@.@.@.@.@.@.@.@.@.@.@.@.@.@.@.@.@.@.@.@.@.@.@.@.@.@.@.@.@.@.@.@.=.J @ X     d 9.E.G.F.G.Y.A.5.*.@.*.*.*.*.$.$.@.@.@.@.@.@.@.@.@.@.@.@.@.@.@.@.@.@.@.@.@.@.@.@.@.@.@.@.@.@.@.$.$.@.@.*.*.@.#.` o . . . .       @ f t 8 8 8 8 8 8 8 8 8 8 8 k @.@.@.@.@.@.@.@.@.@.@.@.@.@.@.@.@.@.@.@.@.@.@.@.@.@.@.@.@.@.@.@.@.@.@.@.@.@.@.*.@.! k 8 3 9 h Z O.@.*.@.@.@.@.@.@.@.@.@.@.@.@.@.@.@.@.@.@.@.@.@.@.@.@.@.@.@.@.@.@.@.@.@.@.@.@.@.@.@.@.@.@.@.@.@.@.@.@.@.@.@.@.@.@.@.@.@.@.@.@.@.@.@.@.@.@.@.@.@.@.@.@.@.@.@.@.@.@.@.@.@.$.$.$.$.$.$.$.$.",
"@.@.@.@.@.@.@.@.@.@.@.@.@.@.@.@.@.@.@.@.@.@.@.@.@.@.@.@.@.@.@.@.@.@.@.@.@.@.@.@.@.@.@.@.@.@.@.@.@.@.@.@.@.@.@.@.@.@.@.@.@.@.@.@.$.$.$.$.$.@.*.] ! ! U U T J T P $ $ $ $ $ $ $ $ ; . v y.1.` u . . . . . . . . .   . = b P P J U U ! U J U U U U U U U U U U U U J J J J U U U U ^ ^ ^ ^ ^ ! J J J J J J ! ! ! ! ^ ^ ^ ^ ' ' ' ' O.@.$.$.$.$.$.$.$.$.$.$.@.@.@.@.@.@.@.@.@.@.@.@.@.@.@.@.@.@.@.@.@.@.@.@.@.@.@.@.@.@.@.@.@.@.@.@.] ] ] ] ( ( ( ( ^ ^ ^ ^ J J J J J J J J U U U U U U U U ! ! ! ! T U U U ^ ^ T 4 . $ $ $ $ . r J.G.C.@.$.$.$.$.$.$.$.$.$.$.@.@.@.@.@.@.@.@.@.@.@.@.@.@.@.@.@.@.@.@.@.@.@.@.@.@.@.@.@.@.@.@.@.@.@.@.@.@.@.@.@.@.@.@.@.@.@.@.@.@.@.@.@.@.@.@.@.@.@.@.@.@.@.@.@.@.@.@.@.@.@.@.@.@.@.@.@.@.@.@.@.@.@.@.@.@.@.@.@.@.@.@.@.@.@.@.@.@.@.@.@.@.@.8.*.f       X ^ G.Y.D.G.Y.F.e.*.@.@.@.$.$.$.*.$.$.@.@.@.@.@.@.@.@.@.@.@.@.@.@.@.@.@.@.@.@.@.@.@.@.@.@.@.@.@.@.@.@.@.@.@.*.*.@.#.` o . . . .       @ f t 8 8 8 8 8 8 8 8 8 8 8 k @.@.@.@.@.@.@.@.@.@.@.@.@.@.@.@.@.@.@.@.@.@.@.@.@.@.@.@.@.@.@.@.@.@.@.@.*.*.@.@.=.*.*.] Z 8 8 8 t A ( @.@.@.@.@.@.@.@.@.@.@.@.@.@.@.@.@.@.@.@.@.@.@.@.@.@.@.@.@.@.@.@.@.@.@.@.@.@.@.@.@.@.@.@.@.@.@.@.@.@.@.@.@.@.@.@.@.@.@.@.@.@.@.@.@.@.@.@.@.@.@.@.@.@.@.@.@.@.@.@.@.$.$.$.$.$.$.$.$.",
"@.@.@.@.@.@.@.@.@.@.@.@.@.@.@.@.@.@.@.@.@.@.@.@.@.@.@.@.@.@.@.@.@.@.@.@.@.@.@.@.@.@.@.@.@.@.@.@.@.@.@.@.@.@.@.@.@.@.@.@.@.@.@.@.$.$.$.$.*.@.$.( U U U U U J U P - $ $ $ $ $ $ $ $ . g r.8.p.8./ r = . . . . . $ . . . . e T ^ J ^ T U J J U U U U U U U U U ! U U ! ! ! U U U U ! ! ! ! U U U U U U U U ! ! ! ! U U U U ! ! ! ! ^ ^ ^ ^ ( ( ( ( ] ] ] ] @.@.@.@.$.$.$.$.*.*.*.*.*.*.*.*.*.*.*.*.@.@.@.@.@.@.@.@.( ( ( ( ^ ! U ! ! ! ! ! ! ! ! ! U U U U U ! ! U ! U U U U U U U U U U U ! ! ! ! T T T T T T T 4 . $ $ $ $ . r J.G.m.O.*.$.$.$.$.$.$.$.@.@.@.@.@.@.@.@.@.@.@.@.@.@.@.@.@.@.@.@.@.@.@.@.@.@.@.@.@.@.@.@.@.@.@.@.@.@.@.@.@.@.@.@.@.@.@.@.@.@.@.@.@.@.@.@.@.@.@.@.@.@.@.@.@.@.@.@.@.@.@.@.@.@.@.@.@.@.@.@.@.@.@.@.@.@.@.@.@.@.@.@.@.@.@.@.@.@.@.@.@.*.=.*.=.] 2   X   9 w.Y.U.G.L.G.g.5.@.@.@.@.@.@.$.$.$.$.$.$.$.$.@.@.@.@.@.@.@.@.@.@.@.@.@.@.@.@.@.@.@.@.@.@.@.@.@.@.@.@.@.@.@.@.*.*.@.#.` o . . . .       @ f t 8 8 8 8 8 8 8 8 8 8 8 k @.@.@.@.@.@.@.@.@.@.@.@.@.@.@.@.@.@.@.@.@.@.@.@.@.@.@.@.@.@.@.@.@.@.@.@.@.@.@.@.@.@.@.@.=.] D f 3 7 t z J @.@.=.*.O.@.=.$.@.@.@.@.@.@.@.@.@.@.@.@.@.@.@.@.@.@.@.@.@.@.@.@.@.@.@.@.@.@.@.@.@.@.@.@.@.@.@.@.@.@.@.@.@.@.@.@.@.@.@.@.@.@.@.@.@.@.@.@.@.@.@.@.@.@.@.@.@.@.@.$.$.$.$.$.$.$.$.",
"@.@.@.@.@.@.@.@.@.@.@.@.@.@.@.@.@.@.@.@.@.@.@.@.@.@.@.@.@.@.@.@.@.@.@.@.@.@.@.@.@.@.@.@.@.@.@.@.@.@.@.@.@.@.@.@.@.@.@.@.@.@.@.@.$.$.$.$.*.@.@.( U U U U U U U P - $ $ $ $ $ $ $ $ . g r.e.<.1.i.r.C = . = $ . . . $ . . . O F ^ F J T U U U U U U U U U U U ! U U U U ! U U U U ! ! ! ! U U U U U U U U ! ! ! ! U U U U U U ! U U U U U ! ! ! ! J J J J ^ ^ ^ ^ ( ( ( ( ] ] ] ] ] ] ] ] ] ] ] ] ^ ^ ^ ^ J J J J J J J J U ! ^ ! ! ! ! ! ! ! ! ! U U U U U U ! U ! ! U U U U U U U U U U ! ! ! ! T T T T T T T 4 . $ $ $ $ . r J.G.x.O.$.$.$.$.$.$.$.$.@.@.@.@.@.@.@.@.@.@.@.@.@.@.@.@.@.@.@.@.@.@.@.@.@.@.@.@.@.@.@.@.@.@.@.@.@.@.@.@.@.@.@.@.@.@.@.@.@.@.@.@.@.@.@.@.@.@.@.@.@.@.@.@.@.@.@.@.@.@.@.@.@.@.@.@.@.@.@.@.@.@.@.@.@.@.@.@.@.@.@.@.@.@.@.@.@.@.@.@.@.*.@.=.H   X X   U D.W.D.Y.G.c.5.@.*.@.] @.@.@.@.@.@.$.$.$.$.$.$.@.@.@.@.@.@.@.@.@.@.@.@.@.@.@.@.@.@.@.@.@.@.@.@.@.@.@.@.@.@.@.@.*.*.@.#.` o . . . .       @ f t 8 8 8 8 8 8 8 8 8 8 8 k @.@.@.@.@.@.@.@.@.@.@.@.@.@.@.@.@.@.@.@.@.@.@.@.@.@.@.@.@.@.@.@.@.@.@.@.@.@.@.@.@.@.@.@.@.@.$. .A d 3 8 5 h H @.6.*.@.*.*.$.@.@.@.@.@.@.@.@.@.@.@.@.@.@.@.@.@.@.@.@.@.@.@.@.@.@.@.@.@.@.@.@.@.@.@.@.@.@.@.@.@.@.@.@.@.@.@.@.@.@.@.@.@.@.@.@.@.@.@.@.@.@.@.@.@.@.@.@.@.@.$.$.$.$.$.$.$.$.",
"@.@.@.@.@.@.@.@.@.@.@.@.@.@.@.@.@.@.@.@.@.@.@.@.@.@.@.@.@.@.@.@.@.@.@.@.@.@.@.@.@.@.@.@.@.@.@.@.@.@.@.@.@.@.@.@.@.@.@.@.@.@.@.@.$.$.$.$.$.@.$.( U U U U U U U P - $ $ $ $ $ $ $ $ . u 9.<.1.6.8.7.q.@.6 . $ $ $ $ $ . . = . = g J J J J U U U U U U U U U U U U U U U U U U U U ! ! ! ! U U U U U U U U ! ! ! ! U U U U U U U U U U U U U U U U ! ! ! ! J J J J U U U U U U U U U U U U U U U U ! ! ! ! U U U U ^ ^ ^ ^ ^ ! ! ! ! ! ! ! ! ! ! ! U U U U U U U U U U U U U U U U U U U U ! ! ! ! T T T T T T T 4 $ $ $ $ $ . r K.P.i. .@.$.$.$.$.$.$.$.@.@.@.@.@.@.@.@.@.@.@.@.@.@.@.@.@.@.@.@.@.@.@.@.@.@.@.@.@.@.@.@.@.@.@.@.@.@.@.@.@.@.@.@.@.@.@.@.@.@.@.@.@.@.@.@.@.@.@.@.@.@.@.@.@.@.@.@.@.@.@.@.@.@.@.@.@.@.@.@.@.@.@.@.@.@.@.@.@.@.@.@.@.@.@.@.@.@.@.@.@.@.=.A   X   3 =.U.D.F.R.D.e.@.@.*.@.@.*.@.@.@.@.@.@.$.$.$.$.$.$.@.@.@.@.@.@.@.@.@.@.@.@.@.@.@.@.@.@.@.@.@.@.@.@.@.@.@.@.@.@.@.@.*.*.&.#.` o . . .         @ y t 8 8 8 8 8 8 8 8 8 8 8 k @.@.@.@.@.@.@.@.@.@.@.@.@.@.@.@.@.@.@.@.@.@.@.@.@.@.@.@.@.@.@.@.@.@.@.@.@.@.@.@.@.@.@.@.@.@.*.*.@.] H 8 d d 8 8 Z ' =.*.*.*.$.@.@.@.@.@.@.@.@.$.@.@.@.@.@.@.@.@.@.@.@.@.@.@.@.@.@.@.@.@.@.@.@.@.@.@.@.@.@.@.@.@.@.@.@.@.@.@.@.@.@.@.@.@.@.@.@.@.@.@.@.@.@.@.@.@.@.@.@.@.$.$.$.$.$.$.$.$.",
"@.@.@.@.@.@.@.@.@.@.@.@.@.@.@.@.@.@.@.@.@.@.@.@.@.@.@.@.@.@.@.@.@.@.@.@.@.@.@.@.@.@.@.@.@.@.@.@.@.@.@.@.@.@.@.@.@.@.@.@.@.@.@.@.$.$.$.$.$.@.$.( U U U U U U U P - $ $ $ $ $ $ $ $ . u 9.<.6.8.8.9.7.6.-.g = . . $ $ . . $ $ . o 3 F ) F J U U U U U U U U U U U U U U U U U U U ! ! ! ! U U U U U U U U ! ! ! ! U U U U U U U U U U U U U U U U ! ! ! ! ! ^ ^ ^ ! ! ! ! U U U U U U U U U U U U J J J J U U U U ! ! ! ! ! ! ! ! ! ! ! ! ! ! ! ! U U U U U U U U U U U U U U U U U U U U ! ! ! ! T T T T T T T 4 $ $ $ $ $ . r Z.Y.w.O.@.$.$.$.$.$.$.$.@.@.@.@.@.@.@.@.@.@.@.@.@.@.@.@.@.@.@.@.@.@.@.@.@.@.@.@.@.@.@.@.@.@.@.@.@.@.@.@.@.@.@.@.@.@.@.@.@.@.@.@.@.@.@.@.@.@.@.@.@.@.@.@.@.@.@.@.@.@.@.@.@.@.@.@.@.@.@.@.@.@.@.@.@.@.@.@.@.@.@.@.@.@.@.@.@.@.@.@.@.@.t       D c.R.A.G.D.f.@.@.@.@.@.*.*.@.@.@.@.@.@.@.$.$.$.$.$.$.@.@.@.@.@.@.@.@.@.@.@.@.@.@.@.@.@.@.@.@.@.@.@.@.@.@.@.@.@.@.@.@.*.*.&.*.` o . . .         @ f t 8 8 8 8 8 8 8 8 8 8 8 k @.@.@.@.@.@.@.@.@.@.@.@.@.@.@.@.@.@.@.@.@.@.@.@.@.@.@.@.@.@.@.@.@.@.@.@.@.@.@.@.@.@.@.$.$.@.@.@.*.*.=.@.J f 8 8 8 8 k ( @.*.*.$.@.@.@.@.@.@.$.$.$.@.@.@.@.@.@.@.@.@.@.@.@.@.@.@.@.@.@.@.@.@.@.@.@.@.@.@.@.@.@.@.@.@.@.@.@.@.@.@.@.@.@.@.@.@.@.@.@.@.@.@.@.@.@.@.@.@.@.@.$.$.$.$.$.$.$.$.",
"@.@.@.@.@.@.@.@.@.@.@.@.@.@.@.@.@.@.@.@.@.@.@.@.@.@.@.@.@.@.@.@.@.@.@.@.@.@.@.@.@.@.@.@.@.@.@.@.@.@.@.@.@.@.@.@.@.@.@.@.@.@.@.@.$.$.$.$.$.@.$.( ! ! ! ! U U U T ; $ $ $ $ $ $ $ * . g r.6.8.8.6.8.7.6.#.=./ e   * . . . $ $ $ $ $ ; j P H J U Y J J J J J J P P J J J J W J J J J J J J J J P P P P U U J J J J J J J J J J P P J J J J W J J J J J J J J J P P P P U J J J J J J J J J J J P P J J J E W J J J J J J J J J P P P P U J J J J J J J J J J J P P J J J W W J J J J J J E E E J J J J P P J F T > $ $ $ $ $ . r J.Y.6.@.*.&.&.@.@.=.$...$...*.) @.@.@.@.@.@.@.@.@.@.@.@.@.@.@.@.@.@.@.@.@.@.@.@.@.@.@.@.@.@.@.@.@.@.@.@.@.@.@.@.@.@.@.@.@.@.@.@.@.@.@.@.@.@.@.@.@.@.@.@.@.@.@.@.@.@.@.@.@.@.@.@.@.@.@.@.@.@.@.@.@.@.@.@.@.@.@.@.@.@.@.@.@.@.O.=.] 5     3 =.L.G.G.D.g.=.@.@.@.@.@.@.@.@.@.@.@.@.@.@.@.@.@.@.@.@.@.@.@.@.@.@.@.@.@.@.@.@.@.@.@.@.@.@.@.@.@.@.@.@.@.@.@.@.@.@.@.@.@.*.*.@.#.` o . .           @ f t 8 8 8 8 8 8 8 8 8 8 8 k @.@.@.@.@.@.@.@.@.@.@.@.@.@.@.@.@.@.@.@.@.@.@.@.@.@.@.@.@.@.@.@.@.@.@.@.@.@.@.@.@.@.@.@.@.@.@.@.@.@.@.@.*.@.U x 8 8 8 8 f H @.<.@.@.O.@.@.*.*.$.$.$.$.$.$.$.$.$.$.$.$.$.$.$.$.$.$.$.$.$.$.$.$.$.$.$.$.$.@.@.@.@.@.@.@.@.@.@.@.@.@.@.@.@.@.@.@.@.@.@.@.@.@.@.@.@.@.@.@.@.$.$.$.$.$.$.$.$.",
"@.@.@.@.@.@.@.@.@.@.@.@.@.@.@.@.@.@.@.@.@.@.@.@.@.@.@.@.@.@.@.@.@.@.@.@.@.@.@.@.@.@.@.@.@.@.@.@.@.@.@.@.@.@.@.@.@.@.@.@.@.@.@.@.$.$.$.$.$.@.$.( ! ! ! ! U U U T ; $ $ $ $ $ $ $ * . g r.6.6.8.6.e.8.6.#. .%...x . . . * $ $ $ $ $ . % a F ( ^ D U J J J J J P P J J J J W J J J J J J J J J P P J J U U J J J J U U J J J J P P J J J J P J J J J J J J J J P P J J U U J J J J U U J J J J P P J J J J J J J J J J J J J J P P J J U U J J J J U U J J J J P P J J J J W J J J J J J E E E J P J J P T ^ P T > $ $ $ $ $ . r J.G.5.@.=.&.&.@.@.@.@.@...=.N ^ =.@.@.@.@.@.@.@.@.@.@.@.@.@.@.@.@.@.@.@.@.@.@.@.@.@.@.@.@.@.@.@.@.@.@.@.@.@.@.@.@.@.@.@.@.@.@.@.@.@.@.@.@.@.@.@.@.@.@.@.@.@.@.@.@.@.@.@.@.@.@.@.@.@.@.@.@.@.@.@.@.@.@.@.@.@.@.@.@.@.@.@.@.*.@.=.8     D c.R.F.G.g.<.*.@.$.@.@.@.@.@.@.@.@.@.@.@.@.@.@.@.@.@.@.@.@.@.@.@.@.@.@.@.@.@.@.@.@.@.@.@.@.@.@.@.@.@.@.@.@.@.@.@.@.@.@.@.@.*.*.@.#.` o . .           @ f t 8 8 8 8 8 8 8 8 8 8 8 k @.@.@.@.@.@.@.@.@.@.@.@.@.@.@.@.@.@.@.@.@.@.@.@.@.@.@.@.@.@.@.@.@.@.@.@.@.@.@.@.@.@.@.@.@.@.@.@.@.@.@.@.*.*.*.@.^ z 7 8 t 8 f A @.*.=.$.$.$.$.$.$.$.$.$.$.$.$.$.$.$.$.$.$.$.$.$.$.$.$.$.$.$.$.$.$.$.$.$.@.@.@.@.@.@.@.@.@.@.@.@.@.@.@.@.@.@.@.@.@.@.@.@.@.@.@.@.@.@.@.@.$.$.$.$.$.$.$.$.",
"@.@.@.@.@.@.@.@.@.@.@.@.@.@.@.@.@.@.@.@.@.@.@.@.@.@.@.@.@.@.@.@.@.@.@.@.@.@.@.@.@.@.@.@.@.@.@.@.@.@.@.@.@.@.$.$.@.@.@.@.@.@.@.@.$.$.$.$.@.$.*.( ! ! ! ! U U U T ; $ $ $ $ $ $ $ * . g r.6.6.8.6.e.8.6.@. .@.=.%.F . $ = $ $ $ $ $ $ . $ 4 A ^ ( U U U U U U U U U U U U ! ! U U U U U U U U U U U U U U U U U U U U U U U U U U U U U U ! ! U ! U U U U U U U U U U U U U U U U U U U U U U U U U U U U ! ! U U U U U U U U U U U U U U U U U U U U U U U U U U U U U U U ! U U J J J J ! ! ! U J J J P ^ ^ F = $ $ $ $ $ . r J.D.=.@.=.&.&.@.@.$.] =.@.7 J 6...@.@.@.@.@.@.@.@.@.@.@.@.@.@.@.@.@.@.@.@.@.@.@.@.@.@.@.@.@.@.@.@.@.@.@.@.@.@.@.@.@.@.@.@.@.@.@.@.@.@.@.@.@.@.@.@.@.@.@.@.@.@.@.@.@.@.@.@.@.@.@.@.@.@.@.@.@.@.@.@.@.@.@.@.@.@.@.@.@.@.@.@.*.=.O.+   ( R.G.G.x.6.*.] @.$.*.*.@.@.@.@.@.@.@.@.@.@.@.@.@.@.@.@.@.@.@.@.@.@.@.@.@.@.@.@.@.@.@.@.@.@.@.@.@.@.@.@.@.@.@.@.@.@.@.@.@.@.@.*.*.@.#.` o . . . .       @ f t t t 8 8 8 8 8 8 8 8 8 k @.@.@.@.@.@.@.@.@.@.@.@.@.@.@.@.@.@.@.@.@.@.@.@.@.@.@.@.@.@.@.@.@.@.@.@.@.@.@.@.@.@.@.@.@.@.@.@.@.@.$.$.$.$.*.*.=.@.( x 8 8 9 8 3 x ] *.=.*.$.$.$.$.$.$.$.$.$.$.$.$.$.$.$.$.$.$.$.$.$.$.$.$.$.$.$.$.$.$.@.@.@.@.@.@.@.@.@.@.@.@.@.@.@.@.@.@.@.@.@.@.@.@.@.@.@.@.@.@.@.@.$.$.$.$.$.$.$.$.",
"@.@.@.@.@.@.@.@.@.@.@.@.@.@.@.@.@.@.@.@.@.@.@.@.@.@.@.@.@.@.@.@.@.@.@.@.@.@.@.@.@.@.@.@.@.@.@.@.@.@.@.@.@.@.$.$.@.@.@.@.@.@.@.@.$.$.$.$.@.$.*.( ! ! ! ! U U U T ; $ $ $ $ $ $ $ * . g r.6.8.8.6.e.8.6.@.] @.#.#.>.` r . . $ $ $ $ ; ; $ . = x ^ U U U U U U U U U U U U ! ! ! ! U U U U U U U U U U U U U U U U U U U U U U U U U U U U ! ! ! ! U U U U U U U U U U U U U U U U U U U U U U U U U U U U U ! ! ! U U U U U U U U U U U U U U U U U U U U U U U U U U U U U ! ! U J J J J ! W P P J P P P J P v . $ $ $ $ $ . r J.c.*.@.=.&.&.@.@.@.$...3 F 6.@.@.@.@.@.@.@.@.@.@.@.@.@.@.@.@.@.@.@.@.@.@.@.@.@.@.@.@.@.@.@.@.@.@.@.@.@.@.@.@.@.@.@.@.@.@.@.@.@.@.@.@.@.@.@.@.@.@.@.@.@.@.@.@.@.@.@.@.@.@.@.@.@.@.@.@.@.@.@.@.@.@.@.@.@.@.@.@.@.@.@.@.@.@.$.*.J   3 A.L.c.e.*.=.=.@.@.@.@.@.@.@.@.@.@.@.@.@.@.@.@.@.@.@.@.@.@.@.@.@.@.@.@.@.@.@.@.@.@.@.@.@.@.@.@.@.@.@.@.@.@.@.@.@.@.@.@.@.@.@.@.*.*.@.#.` o     . .       @ f t t t 8 8 8 8 8 8 8 8 8 k @.@.@.@.@.@.@.@.@.@.@.@.@.@.@.@.@.@.@.@.@.@.@.@.@.@.@.@.@.@.@.@.@.@.@.@.@.@.@.@.@.@.@.@.@.@.@.@.@.@.$.$.$.$.*.*.*.@.*.@.^ Z d 8 8 8 8 k (  .=.*.$.$.$.$.$.$.$.$.$.$.$.$.$.$.$.$.$.$.$.$.$.$.$.$.$.$.$.$.@.@.@.@.@.@.@.@.@.@.@.@.@.@.@.@.@.@.@.@.@.@.@.@.@.@.@.@.@.@.@.@.$.$.$.$.$.$.$.$.",
"@.@.@.@.@.@.@.@.@.@.@.@.@.@.@.@.@.@.@.@.@.@.@.@.@.@.@.@.@.@.@.@.@.@.@.@.@.@.@.@.@.@.@.@.@.@.@.@.@.@.$.$.$.$.$.$.$.$.$.$.$.$.$.$.*.*.*.*.*.*.=.( ^ ^ ^ ! U U U T ; $ $ $ $ $ $ $ % . g r.8.8.e.6.e.7.1.@.@.@.@.@...=./ e = . . $ $ $ $ . $ . . 3 F J ^ T J J ^ ^ ^ ^ ^ ^ ^ ^ ^ ^ ^ ^ ^ ^ T T T T T T T T T T T T T T T T ^ ^ ^ ^ ^ ^ ^ ^ ^ ^ ^ ^ ^ ^ ^ ^ T T T T T T T T T T T T T T T T ^ ^ ^ ^ ^ ^ ^ ^ ^ ^ ^ ^ ^ ^ ^ ^ T T T T T T T T T T T T T T T T ^ ^ ^ ^ ^ ^ ^ ^ ^ ^ ^ ^ ^ ^ ^ ^ ^ ^ ^ ^ T T T T P b = . $ $ $ $ $ . r J.k.@.@.@.@.*. .$.=.U + M g.@.) $.@.@.@.@.@.@.@.@.@.@.@.@.@.@.@.@.@.@.@.@.@.@.@.@.@.@.@.@.@.@.@.@.@.@.@.@.@.@.@.@.@.@.@.@.@.@.@.@.@.@.@.@.@.@.@.@.@.@.@.@.@.@.@.@.@.@.@.@.@.@.@.@.@.@.@.@.@.@.@.@.@.@.@.@.@.@.@.@.@.@.@.@.@.@.A X U W.G.6.@.@.@.@.@.@.@.@.@.@.@.@.@.@.@.@.@.@.@.@.@.@.@.@.@.@.@.@.@.@.@.@.@.@.@.@.@.@.@.@.@.@.@.@.@.@.@.@.@.@.@.@.@.@.@.@.@.@.@.@.*.*.@.#.` o . . . .       @ y t t 8 8 8 8 8 8 8 8 8 8 k @.@.@.@.@.@.@.@.@.@.@.@.@.@.@.@.@.@.@.@.@.@.@.@.@.@.@.@.@.@.@.@.@.@.@.@.@.@.@.@.@.@.@.@.@.@.@.@.@.@.@.@.$.$.$.$.$.$.$.$.=.*.' x d 8 9 8 8 h H ( @.@.@.@.=.*.$.@.@.@.@.@.$.$.$.$.$.$.$.$.$.$.$.$.$.$.$.$.@.@.@.@.@.@.@.@.@.@.@.@.@.@.@.@.@.@.@.@.@.@.@.@.@.@.@.@.@.@.@.@.$.$.$.$.$.$.$.$.",
"@.@.@.@.@.@.@.@.@.@.@.@.@.@.@.@.@.@.@.@.@.@.@.@.@.@.@.@.@.@.@.@.@.@.@.@.@.@.@.@.@.@.@.@.@.@.@.@.@.@.$.$.$.$.$.$.$.$.$.$.$.$.$.$.*.*.*.*.@.@.@.^ J J U U U U U T ; $ $ $ $ $ $ $ % . g r.8.8.8.6.e.7.1.@.@.@.@.@.@.#.@.T n =   . $ $ $ $ $ . $ . O 6 x F P P P P P P P P P P P P P P P P I I I I I I I I I I I I I I I I P P P P P P P P P P P P P P P P I I I I I I I I I I I I I I I I P P P P P P P P P P P P P P P P I I I I I I I I I I I I I I I I P P P P P P P P P P P P P P P P P P P P I I I I g = . $ $ $ $ $ $ . r J.k.@.@.@.*.@.=.@.A   6 g.=.$.@.%.@.@.@.@.@.@.@.@.@.@.@.@.@.@.@.@.@.@.@.@.@.@.@.@.@.@.@.@.@.@.@.@.@.@.@.@.@.@.@.@.@.@.@.@.@.@.@.@.@.@.@.@.@.@.@.@.@.@.@.@.@.@.@.@.@.@.@.@.@.@.@.@.@.@.@.@.@.@.@.@.@.@.@.@.@.@.@.@.@.@.@.@.@.=.5   8.Y.c.=.@.@.@.@.@.@.@.@.@.@.@.@.@.@.@.@.@.@.@.@.@.@.@.@.@.@.@.@.@.@.@.@.@.@.@.@.@.@.@.@.@.@.@.@.@.@.@.@.@.@.@.@.@.@.@.@.@.@.@.@.*.*.@.#.` o . . . .       @ y t 8 8 8 8 8 8 8 8 8 8 8 k @.@.@.@.@.@.@.@.@.@.@.@.@.@.@.@.@.@.@.@.@.@.@.@.@.@.@.@.@.@.@.@.@.@.@.@.@.@.@.@.@.@.@.@.@.@.@.@.@.@.@.@.$.$.$.$.$.$.$.$.@.@.*.=.] D f 8 f 8 8 8 x ( *.$.@.@.@.@.@.@.@.@.$.$.$.$.$.$.$.$.$.$.$.$.$.$.$.$.@.@.@.@.@.@.@.@.@.@.@.@.@.@.@.@.@.@.@.@.@.@.@.@.@.@.@.@.@.@.@.@.$.$.$.$.$.$.$.$.",
"@.@.@.@.@.@.@.@.@.@.@.@.@.@.@.@.@.@.@.@.@.@.@.@.@.@.@.@.@.@.@.@.@.@.@.@.@.@.@.@.@.@.@.@.@.@.@.@.@.@.$.$.$.$.*.*.$.$.$.$.$.@.@.@.@.@.@.@.@.@.@.^ J J U U U U U T = $ $ $ $ $ $ $ % . g r.8.8.e.6.9.e.1.@.@.@.@.@.$...} P F I 6 . $ $ $ $ $ $ $ $ % $ . = = = * * * * $ $ $ $ $ $ $ $ * $ $ $ $ $ $ $ $ $ $ $ $ $ $ $ $ $ $ $ $ $ * * * * * * * * * * * * $ $ $ $ $ * $ $ $ $ $ $ $ $ $ $ $ $ $ $ * * * * * * * * * * * * $ $ $ $ $ * $ $ $ $ $ $ $ $ $ $ $ $ $ $ * * * * * * * * * * * * * * * * O . $ $ $ . . $ $ $ $ $ $ . r J.k.@.$.@.@.@.*.x   @ i.6...@.$.@.@.@.@.@.@.@.@.@.@.@.@.@.@.@.@.@.@.@.@.@.@.@.@.@.@.@.@.@.@.@.@.@.@.@.@.@.@.@.@.@.@.@.@.@.@.@.@.@.@.@.@.@.@.@.@.@.@.@.@.@.@.@.@.@.@.@.@.@.@.@.@.@.@.@.@.@.@.@.@.@.@.@.@.@.@.@.@.@.@.@.@.@.*.O.  7 Y.G.e.@.@.@.@.@.@.@.@.@.@.@.@.@.@.@.@.@.@.@.@.@.@.@.@.@.@.@.@.@.@.@.@.@.@.@.@.@.@.@.@.@.@.@.@.@.@.@.@.@.@.@.@.@.@.@.@.@.@.@.@.@.*.*.@.#.} . . .           @ y t 8 8 8 8 8 8 8 8 8 8 8 k @.@.@.@.@.@.@.@.@.@.@.@.@.@.@.@.@.@.@.@.@.@.@.@.@.@.@.@.@.@.@.@.@.@.@.@.@.@.@.@.@.@.@.@.@.@.@.@.@.@.@.@.$.$.$.$.$.$.$.$.=.@.@.*.=.=.] x f t 8 t 3 8 k ! *.*.$.@.@.@.@.@.$.$.$.$.$.$.$.$.$.$.$.$.$.$.$.$.@.@.@.@.@.@.@.@.@.@.@.@.@.@.@.@.@.@.@.@.@.@.@.@.@.@.@.@.@.@.@.@.$.$.$.$.$.$.$.$.",
"@.@.@.@.@.@.@.@.@.@.@.@.@.@.@.@.@.@.@.@.@.@.@.@.@.@.@.@.@.@.@.@.@.@.@.@.@.@.@.@.@.@.@.@.@.@.@.@.@.@.$.$.$.$.*.*.$.$.$.$.$.*.*.*.*.=.=.=.*.=.=.' ^ ( ( ^ T U U T = $ $ $ $ $ $ $ % . g r.8.8.8.6.e.e.1.@.@.@.@.@.@.@.*.@.T I P g . . . $ $ $ $ $ $ $ . . . . . . . . . . . . . . . . . . . . $ $ . . . . . . . . . . . . . . $ $ . . . . . . . . . . . . . . $ $ . . . . . . . . . . . . . . $ $ . . . . . . . . . . . . . . $ $ . . . . . . . . . . . . . . $ $ . . . . . . . . . . . . . . $ . . . . . % % $ $ $ $ $ $ $ . r J.k.@.$.@.=.] 8     r.g. .$.@. .@.@.@.@.@.@.@.@.@.@.@.@.@.@.@.@.@.@.@.@.@.@.@.@.@.@.@.@.@.@.@.@.@.@.@.@.@.@.@.@.@.@.@.@.@.@.@.@.@.@.@.@.@.@.@.@.@.@.@.@.@.@.@.@.@.@.@.@.@.@.@.@.@.@.@.@.@.@.@.@.@.@.@.@.@.@.@.@.@.@.@.@.@.=.J   ( R.m.*.@.@.@.@.@.@.@.@.@.@.@.@.@.@.@.@.@.@.@.@.@.@.@.@.@.@.@.@.@.@.@.@.@.@.@.@.@.@.@.@.@.@.@.@.@.@.@.@.@.@.@.@.@.@.@.@.@.@.@.@.@.*.*.@.#.} o . .           @ y t 8 8 8 8 8 8 8 8 8 8 8 k @.@.@.@.@.@.@.@.@.@.@.@.@.@.@.@.@.@.@.@.@.@.@.@.@.@.@.@.@.@.@.@.@.@.@.@.@.@.@.@.@.@.@.@.@.@.@.@.@.@.@.@.$.$.$.$.$.$.$.$.@.*.*.@.=.@.=.=.] H f 8 8 8 8 8 f D O.=.@.@.@.@.$.$.$.$.$.$.$.$.$.$.$.$.$.$.$.$.@.@.@.@.@.@.@.@.@.@.@.@.@.@.@.@.@.@.@.@.@.@.@.@.@.@.@.@.@.@.@.@.$.$.$.$.$.$.$.$.",
"*.*.*.*.=.=.=.=.=.=.=.=.=.=.=.=.=.=.*.*.*.*.=.=.=.=.=.=.=.=.=.=.*.*.*.*.$.$.$.$.@.@.@.@.@.@.@.@.@.@.@.@.O. . .] ] ] ] ] ] ] ] ] ] ] ' ' ( ( H x x x x x x x x j = $ $ $ $ $ $ $ % . g r.8.e.8.6.e.e.6.@.@.@.@.@.@.@.@.@.^ J F P v o o . . $ $ . . . . . $ $ $ $ $ $ $ $ $ $ $ $ $ $ $ $ $ $ $ $ $ $ $ $ $ $ $ $ $ $ $ $ $ $ $ $ $ $ $ $ $ $ $ $ $ $ $ $ $ $ $ $ $ $ $ $ $ $ $ $ $ $ $ $ $ $ $ $ $ $ $ $ $ $ $ $ $ $ $ $ $ $ $ $ $ $ $ $ $ $ $ $ $ $ $ $ $ $ $ $ $ $ $ $ $ $ $ $ $ $ $ $ $ $ $ $ $ $ $ $ $ $ $ $ $ $ $ $ $ . r J.k.@.$.8.( @ X X O.A. .@.@.@.@.@.@.@.@.@.@.@.@.@.@.@.@.@.@.@.@.@.@.@.@.@.@.@.@.@.@.@.@.@.@.@.@.@.@.@.@.@.@.@.@.@.@.@.@.@.@.@.@.@.@.@.@.@.@.@.@.@.@.@.@.@.@.@.@.@.@.@.@.@.@.@.@.@.@.@.@.@.@.@.@.@.@.@.@.@.@.@.@.@.@.@.@.@.*.k   f.Y.8.@.@.@.@.@.@.@.@.@.@.@.@.@.@.@.@.@.@.@.@.@.@.@.@.@.@.@.@.@.@.@.@.@.@.@.@.@.@.@.@.@.@.@.@.@.@.@.@.@.@.@.@.@.@.@.@.@.@.@.@.@.@.*.*.@.#.` o . .           @ f t 8 8 8 8 8 8 8 8 8 8 8 k @.@.@.@.@.@.@.@.@.@.@.@.@.@.@.@.@.@.@.@.@.@.@.@.@.@.@.@.@.@.@.@.@.@.@.@.@.@.@.@.@.@.@.@.@.@.@.@.@.@.@.@.$.$.$.$.$.$.$.$.$.$.$.$.@.@.@.@.*.*.] D 8 3 3 8 8 8 8 x ] *.5.*.$.$.$.$.$.$.$.$.@.@.@.@.@.@.@.@.@.@.@.@.@.@.@.@.@.@.@.@.@.@.@.@.@.@.@.@.@.@.$.@.@.@.@.@.@.@.$.$.@.@.@.@.=.=.=.=.",
"( ( ( ( ( ( ( ( ! ! ! ! H H H H H H H H H H H H Z Z Z Z Z Z Z Z x x x x k k k k f f f f f f f f f f f h 8 8 8 8 7 7 7 7 7 8 8 8 8 8 8 8 8 8 8 3 3 3 3 3 3 3 3 3 = $ $ $ $ $ $ $ * . g r.8.e.8.6.e.e.6.@.@.@.@.@.@.@.@.@.) T J J J g .   . $ . . . $ $ $ $ $ $ $ $ $ $ $ $ $ $ $ $ $ $ $ $ $ $ $ $ $ $ $ $ $ $ $ $ $ $ $ $ $ $ $ $ $ $ $ $ $ $ $ $ $ $ $ $ $ $ $ $ $ $ $ $ $ $ $ $ $ $ $ $ $ $ $ $ $ $ $ $ $ $ $ $ $ $ $ $ $ $ $ $ $ $ $ $ $ $ $ $ $ $ $ $ $ $ $ $ $ $ $ $ $ $ $ $ $ $ $ $ $ $ $ $ $ $ $ $ $ $ $ $ $ $ $ $ . r J.p.$.=.D       H j.@. .=.@.@.@.@.@.@.@.@.@.@.@.@.@.@.@.@.@.@.@.@.@.@.@.@.@.@.@.@.@.@.@.@.@.@.@.@.@.@.@.@.@.@.@.@.@.@.@.@.@.@.@.@.@.@.@.@.@.@.@.@.@.@.@.@.@.@.@.@.@.@.@.@.@.@.@.@.@.@.@.@.@.@.@.@.@.@.@.@.@.@.@.@.@.@.@.@.=.3 h G.C.=.$.@.@.@.@.@.@.@.@.@.@.@.@.@.@.@.@.@.@.@.@.@.@.@.@.@.@.@.@.@.@.@.@.@.@.@.@.@.@.@.@.@.@.@.@.@.@.@.@.@.@.@.@.@.@.@.@.@.@.@.@.@.*.*.@.#.` o . .           @ f t 8 8 8 8 8 8 8 8 8 8 8 k @.@.@.@.@.@.@.@.@.@.@.@.@.@.@.@.@.@.@.@.@.@.@.@.@.@.@.@.@.@.@.@.@.@.@.@.@.@.@.@.@.@.@.@.@.@.@.@.@.@.@.@.$.$.$.$.$.$.$.$.$.$.$.$.$.$.$.$.@.@.$.5.@.^ z 5 8 8 5 3 8 x ^ @.=.=.=.=.=.=.=.=.=.=.=.=.*.*.*.*.*.*.*.*.*.*.*.*.*.*.*.*.@.@.@.@.@.@.$.@.@.@.@.@.@.@.@.@.@.O.O.O. . . . .] ] ] ] ",
"8 8 8 8 7 7 7 8 8 8 8 8 8 8 8 8 8 8 8 8 7 7 8 8 7 7 7 7 9 7 7 7 8 8 8 8 8 8 8 8 8 8 8 8 8 7 7 7 7 7 7 9 5 3 3 3 9 9 9 5 5 5 5 5 5 5 5 5 5 7 5 2 3 3 3 3 3 3 3 3 = $ $ . . . . $ * . g r.8.e.8.6.w.e.5.O.@.@.@.@.@.@.@.@...^ J J T J 6   . $ . $ $ $ $ $ $ $ $ $ $ $ $ $ $ $ $ $ $ $ $ $ $ $ $ $ $ $ $ $ $ $ $ $ $ $ $ $ $ $ $ $ $ $ $ $ $ $ $ $ $ $ $ $ $ $ $ $ $ $ $ $ $ $ $ $ $ $ $ $ $ $ $ $ $ $ $ $ $ $ $ $ $ $ $ $ $ $ $ $ $ $ $ $ $ $ $ $ $ $ $ $ $ $ $ $ $ $ $ $ $ $ $ $ $ $ $ $ $ $ $ $ $ $ $ $ $ $ $ $ $ $ $ $ $ . r J.c.@.z X     h L.=.@.<. .@.@.@.@.@.@.@.@.@.@.@.@.@.@.@.@.@.@.@.@.@.@.@.@.@.@.@.@.@.@.@.@.@.@.@.@.@.@.@.@.@.@.@.@.@.@.@.@.@.@.@.@.@.@.@.@.@.@.@.@.@.@.@.@.@.@.@.@.@.@.@.@.@.@.@.@.@.@.@.@.@.@.@.@.@.@.@.@.@.@.@.@.@.@.@.@.] X @.W.w.@.=.@.@.@.@.@.@.@.@.@.@.@.@.@.@.@.@.@.@.@.@.@.@.@.@.@.@.@.@.@.@.@.@.@.@.@.@.@.@.@.@.@.@.@.@.@.@.@.@.@.@.@.@.@.@.@.@.@.@.@.@.@.*.*.&.#.` o . .           @ f t 8 8 8 8 8 8 8 8 8 8 8 k @.@.@.@.@.@.@.@.@.@.@.@.@.@.@.@.@.@.@.@.@.@.@.@.@.@.@.@.@.@.@.@.@.@.@.@.@.@.@.@.@.@.@.@.@.@.@.@.@.@.@.@.$.$.$.$.$.$.$.$.$.$.$.$.$.$.$.$.*.=.*. .*.*.@.J f t 8 d t 9 3 x U U J J J J J J J H H H D D D D D D D D x x x x x x x x k k k k h h h f f f f f f d d t t 8 8 8 8 8 8 8 8 8 8 8 ",
"8 8 8 8 8 7 7 7 9 5 9 9 7 7 7 7 7 7 9 9 9 9 9 9 5 5 5 5 5 3 9 9 7 7 8 7 9 3 3 3 d f f f f f f f x x x x x x Z Z J J J J J J J J ^ ^ ^ ^ ( ( J Z A A A A D A A D = . $ . . . . $ * . g r.8.e.8.6.w.e.5.O.@.@.@.@.@.@.@.@.@.) J J ^ J A . . . . $ $ $ $ $ $ $ $ $ $ $ $ $ $ $ $ $ $ $ $ $ $ $ $ $ $ $ $ $ $ $ $ $ $ $ $ $ $ $ $ $ $ $ $ $ $ $ $ $ $ $ $ $ $ $ $ $ $ $ $ $ $ $ $ $ $ $ $ $ $ $ $ $ $ $ $ $ $ $ $ $ $ $ $ $ $ $ $ $ $ $ $ $ $ $ $ $ $ $ $ $ $ $ $ $ $ $ $ $ $ $ $ $ $ $ $ $ $ $ $ $ $ $ $ $ $ $ $ $ $ $ $ $ $ . r J.c.t       7 A.f. .=. .=.@.@.@.@.@.@.@.@.@.@.@.@.@.@.@.@.@.@.@.@.@.@.@.@.@.@.@.@.@.@.@.@.@.@.@.@.@.@.@.@.@.@.@.@.@.@.@.@.@.@.@.@.@.@.@.@.@.@.@.@.@.@.@.@.@.@.@.@.@.@.@.@.@.@.@.@.@.@.@.@.@.@.@.@.@.@.@.@.@.@.@.@.@.@.@.@.Z @ D.A.*.@.<.@.@.@.@.@.@.@.@.@.@.@.@.@.@.@.@.@.@.@.@.@.@.@.@.@.@.@.@.@.@.@.@.@.@.@.@.@.@.@.@.@.@.@.@.@.@.@.@.@.@.@.@.@.@.@.@.@.@.@.@.@.*.*.*.&.` o   .           @ f t 8 8 8 8 8 8 8 8 8 8 8 k @.@.@.@.@.@.@.@.@.@.@.@.@.@.@.@.@.@.@.@.@.@.@.@.@.@.@.@.@.@.@.@.@.@.@.@.@.@.@.@.@.@.@.@.@.@.@.@.@.@.@.@.$.$.$.$.$.$.$.$.$.$.$.$.$.$.$.$.$.@.@.*.*.@.$.$.@.! k 9 9 8 t 8 9 9 9 9 9 9 9 9 7 7 7 7 7 7 7 7 7 7 8 8 8 8 8 8 8 8 8 8 8 8 8 8 8 8 t t t t d t t 8 t t t t d d t t t t d d d d ",
"h h h h k k k k x x x x H H H H U U U U ( ( ( ( O.O.O.O.*.=.=.=.=.=.=.<.8.8.8.8.8.8.e.e.r.e.6.6.e.e.e.8.8.6.8.8.6.6.6.6.6.6.6.6.=.*.@.@.=.$.] U ! ! ! ! T T T T 1 $ $ $ $ $ $ $ * $ g r.6.e.e.6.w.e.5.O.*.*.@.@.@.@.@.@.$.@.^ F J T F = . . . $ % $ . . . . . . . . $ $ $ . . . $ $ . . . . . . . . $ $ . . . . $ $ . . . . . . . . $ $ . . . . $ $ . . . . . . . . $ $ . . . . $ $ . . . . . . . . $ $ . . . . $ $ . . . . . . . . $ $ . . . . $ $ . . . . . . . . $ $ . . . . $ $ . . . . . . . $ $ $ $ . $ $ $ $ $ $ * . e b.e       @ g.G.$.@.@.@.@.@.@.@.@.@.@.@.@.@.@.@.@.@.@.@.@.@.@.@.@.@.@.@.@.@.@.@.@.@.@.@.@.@.@.@.@.@.@.@.@.@.@.@.@.@.@.@.@.@.@.@.@.@.@.@.@.@.@.@.@.@.@.@.@.@.@.@.@.@.@.@.@.@.@.@.@.@.@.@.@.@.@.@.@.@.@.@.@.@.@.@.@.5.@.=.*.3 x R.8.@.@.@.@.@.@.@.@.@.@.@.@.@.@.@.@.@.@.@.@.@.@.@.@.@.@.@.@.@.@.@.@.@.@.@.@.@.@.@.@.@.@.@.@.@.@.@.@.@.@.@.@.@.@.@.@.@.@.@.@.@.@.@.@.*.*.$.#.` o       . .     @ f t 8 8 8 8 8 8 8 8 8 8 8 k @.@.@.@.@.@.@.@.@.@.@.@.@.@.@.@.@.@.@.@.@.@.@.@.@.@.@.@.@.@.@.@.@.@.@.@.@.@.@.@.@.@.@.@.@.@.@.@.@.@.@.@.$.$.$.$.$.$.$.$.$.$.$.$.$.$.$.$.$.$.$.$.$.$.$.$.@.6.@.' x 8 9 f d t t t d h 8 8 7 8 8 3 8 9 8 5 8 7 7 8 8 8 8 8 3 3 3 3 5 5 5 9 3 3 3 3 5 5 5 5 3 3 5 9 5 9 7 8 8 8 8 8 t d f f ",
"g.g.g.g.x.x.c.c.c.c.c.c.x.x.x.x.j.j.j.j.g.g.g.g.f.f.f.f.e.8.8.8.8.6.6.6.5.5.5.<.<.=.=.=.=.*.$.@.@.@.@.@.@.@.@.@.@.@.@.@.@.@.@.@.@.@.$.@.=.$.] U ! ! ! ! T T T T 1 $ $ $ $ $ $ $ % $ g r.6.e.e.6.w.8.5.O.*.*.@.@.@.@.@.@.$.$.) F J T F = . . . . . . . $ = = = = = = - - - = - - - - - - - - - - = = - - - = - - - - - - - - - - = = - - - = - - - - - - - - - - = = - - - = - - - - - - - - - - = = - - - = - - - - - - - - - - = = - - - = - - - - - - - - - - = = - - - = - - - - - - - - - - - - - - ; $ . $ $ $ $ $ . . 4 6       @ w.Y.5.O.@.@.@.@.@.@.@.@.@.@.@.@.@.@.@.@.@.@.@.@.@.@.@.@.@.@.@.@.@.@.@.@.@.@.@.@.@.@.@.@.@.@.@.@.@.@.@.@.@.@.@.@.@.@.@.@.@.@.@.@.@.@.@.@.@.@.@.@.@.@.@.@.@.@.@.@.@.@.@.@.@.@.@.@.@.@.@.@.@.@.@.@.@.@.@.@.@.$.=.@.@ 8.G.@.@.@.@.@.@.@.@.@.@.@.@.@.@.@.@.@.@.@.@.@.@.@.@.@.@.@.@.@.@.@.@.@.@.@.@.@.@.@.@.@.@.@.@.@.@.@.@.@.@.@.@.@.@.@.@.@.@.@.@.@.@.@.@.@.*.*.$.#.` o     . . . .   @ f t 8 8 8 8 8 8 8 8 8 8 8 k @.@.@.@.@.@.@.@.@.@.@.@.@.@.@.@.@.@.@.@.@.@.@.@.@.@.@.@.@.@.@.@.@.@.@.@.@.@.@.@.@.@.@.@.@.@.@.@.@.@.@.@.$.$.$.$.$.$.$.$.$.$.$.$.$.$.$.$.$.$.$.$.$.$.$.$.@.@.@.<.] 8 f 8 9 3 3 2 9 7 f 8 f d d 8 8 8 f k h x x h x x x x A A A A J J J J ( ( ( (  . . . .$.$.$.*.=.=.=.=.8.8.8.8.r.r.r.r.",
"r.r.r.r.8.8.8.8.5.5.5.5.=.=.*.*.*.*.$.$.@.@.@.@.@.O.@.@.@.@.@.@.@.@.@.@.@.@.@.@.@.@.@.@.@.@.@.@.@.@.$.$.$.$.*.*.$.$.$.$.$.$.$.$.$.@.@.@.=.$.] U ! ! ! ! T T T T 1 $ $ $ $ $ $ $ % $ g y.6.e.e.6.w.e.5.O.*.*.$.@.@.@.@.@.$.*...J J T F = . . . . . = ) >.1.1.1.1.1.1.1.1.1.1.1.1.1.1.1.1.1.1.1.1.1.1.1.1.1.1.1.1.1.1.1.1.1.1.1.1.1.1.1.1.1.1.1.1.1.1.1.1.1.1.1.1.1.1.1.1.1.1.1.1.1.1.1.1.1.1.1.1.1.1.1.1.1.1.1.1.1.1.1.1.1.1.1.1.1.1.1.1.1.1.1.1.1.1.1.1.1.1.1.1.1.1.1.1.1.1.1.1.1.1.1.1.1.1.1.1.6.6.6.6.-.:.e . $ $ $ $ . . =   + +   ( OX8.@.@.@.@.@.@.@.@.@.@.@.@.@.@.@.@.@.@.@.@.@.@.@.@.@.@.@.@.@.@.@.@.@.@.@.@.@.@.@.@.@.@.@.@.@.@.@.@.@.@.@.@.@.@.@.@.@.@.@.@.@.@.@.@.@.@.@.@.@.@.@.@.@.@.@.@.@.@.@.@.@.@.@.@.@.@.@.@.@.@.@.@.@.@.@.@.@.@.@.@.=.U 3 G.r.$.@.@.@.@.@.@.@.@.@.@.@.@.@.@.@.@.@.@.@.@.@.@.@.@.@.@.@.@.@.@.@.@.@.@.@.@.@.@.@.@.@.@.@.@.@.@.@.@.@.@.@.@.@.@.@.@.@.@.@.@.@.@.@.@.*.*.$.#.] o   .           @ f t t t 8 8 8 8 8 8 8 8 8 k @.@.@.@.@.@.@.@.@.@.@.@.@.@.@.@.@.@.@.@.@.@.@.@.@.@.@.@.@.@.@.@.@.@.@.@.@.@.@.@.@.@.@.@.@.@.@.@.@.@.@.@.$.$.$.$.$.$.$.$.$.$.$.$.$.$.$.$.$.$.$.$.$.$.$.$.@.@.@.] 8 8 3 f x D ( @.*.e.g.=.t 8 d 8 f 3 ( g.r.g.g.r.g.g.g.g.c.c.c.c.c.c.c.c.m.V.V.C.C.C.C.V.V.m.m.m.c.c.c.c.c.c.x.j.g.g.g.g.",
"@.@.@.@.@.O.@.@.@.@.@.@.@.@.$.$.$.$.$.$.@.@.$.$.$.$.*.$.@.@.@.@.@.@.$.$.@.@.@.@.@.@.@.@.@.@.@.@.@.@.@.@.@.$.$.$.@.@.@.@.@.@.@.@.@.@.@.@.=.$.] U ! ! ! ! T T T T 1 $ $ $ $ $ $ $ % $ g y.6.e.e.6.w.8.5.O.*.*.$.$.@.@.@.@.$.*.@.^ T T P = . . . . 4 =.p.9.6.6.6.6.e.e.8.8.6.6.6.6.e.e.8.8.6.6.6.6.e.e.8.8.6.6.6.6.8.8.8.8.6.6.6.6.e.e.8.8.6.6.6.6.8.8.8.8.6.6.6.6.e.e.8.8.6.6.6.6.8.8.8.8.6.6.6.6.e.e.8.8.6.6.6.6.8.8.8.8.6.6.6.6.e.e.8.8.6.6.6.6.8.8.8.8.6.6.6.6.e.e.8.8.6.6.6.6.8.8.8.8.8.8.6.6.8.8.8.8.9.8.1.n $ $ $ $ $ . .   @   H Y.C.@.$.$.@.@.@.@.@.@.@.@.@.@.@.@.@.@.@.@.@.@.@.@.@.@.@.@.@.@.@.@.@.@.@.@.@.@.@.@.@.@.@.@.@.@.@.@.@.@.@.@.@.@.@.@.@.@.@.@.@.@.@.@.@.@.@.@.@.@.@.@.@.@.@.@.@.@.@.@.@.@.@.@.@.@.@.@.@.@.@.@.@.@.@.@.@.@.@.@.=.@.5.h J Y.$.@.@.@.@.@.@.@.@.@.@.@.@.@.@.@.@.@.@.@.@.@.@.@.@.@.@.@.@.@.@.@.@.@.@.@.@.@.@.@.@.@.@.@.@.@.@.@.@.@.@.@.@.@.@.@.@.@.@.@.@.@.@.@.@.@.*.*.$.@.] o   .           @ f t t t 8 8 8 8 8 8 8 8 8 k @.@.@.@.@.@.@.@.@.@.@.@.@.@.@.@.@.@.@.@.@.@.@.@.@.@.@.@.@.@.@.@.@.@.@.@.@.@.@.@.@.@.@.@.@.@.@.@.@.@.@.@.$.$.$.$.$.$.$.$.$.$.$.$.$.$.$.$.$.$.$.$.$.$.$.$.$.*.@.x 8 3 k r.c.c.c.c.c.c.g.c.8.x 3 d 5 9 f e.c.g.g.c.j.j.j.j.g.g.g.f.f.r.r.r.8.8.8.8.8.6.6.6.<.<.<.=.=.=.=.=.@.@.@.@.@.@.@.@.",
"@.@.@.@.@.@.@.@.@.@.@.@.@.@.@.@.@.@.@.@.@.@.@.@.@.@.@.@.@.@.@.@.@.@.@.@.@.@.@.@.@.@.@.@.@.@.@.@.@.@.@.@.@.@.@.@.@.@.@.@.@.@.@.@.@.@.@.@.*.@.] J U U U U U U U T 1 . $ $ $ $ $ $ % . g r.8.8.e.6.w.e.6.@.&.&.&.@.@.@.@.@.$.%.$.] J P P = . . . . P y.9.8.8.8.8.8.9.e.e.r.e.e.e.e.e.e.e.e.e.e.e.e.e.e.0.e.e.e.e.e.e.e.e.e.e.e.e.e.e.e.0.e.e.e.e.e.e.e.e.e.e.e.e.e.e.e.0.e.e.e.e.e.e.e.e.e.e.e.e.e.e.e.0.e.e.e.e.e.e.e.e.e.e.e.e.e.e.e.0.e.e.e.e.e.e.e.e.e.e.e.e.e.e.e.0.e.e.e.e.e.e.e.e.e.e.e.e.e.e.e.e.e.6.6.6.6.- $ $ $ $ $ .     h G.A.<.@.@.@.@.@.@.@.@.@.@.@.@.@.@.@.@.@.@.@.@.@.@.@.@.@.@.@.@.@.@.@.@.@.@.@.@.@.@.@.@.@.@.@.@.@.@.@.@.@.@.@.@.@.@.@.@.@.@.@.@.@.@.@.@.@.@.@.@.@.@.@.@.@.@.@.@.@.@.@.@.@.@.@.@.@.@.@.@.@.@.@.@.@.@.@.@.@.@.@.*.@.=.8 g.x.@.$.@.@.@.@.@.@.@.@.@.@.@.@.@.@.@.@.@.@.@.@.@.@.@.@.@.@.@.@.@.@.@.@.@.@.@.@.@.@.@.@.@.@.@.@.@.@.@.@.@.@.@.@.@.@.@.@.@.@.@.@.@.@.@.@.&.*.$.@.` o     . .       O f t 8 8 8 8 8 8 8 8 8 8 8 k @.@.@.@.@.@.@.@.@.@.@.@.@.@.@.@.@.@.@.@.@.@.@.@.@.@.@.@.@.@.@.@.@.@.@.@.@.@.@.@.@.@.@.@.@.@.@.@.@.@.@.@.@.@.@.@.@.@.@.@.@.@.@.@.@.@.@.@.@.@.@.@.@.@.@.@.@.@.J 8 8 3 $.C.g.g.f.f.j.g.g.g.c.r.h 5 8 8 3 x g.m.g.f.5.6.6.<.=.=.=.=.*.@.@.@.@.@.@.@.@.@.@.@.@.@.@.@.@.@.@.@.$.$.$.$.$.$.$.$.",
"@.@.@.@.@.@.@.@.@.@.@.@.@.@.@.@.@.@.@.@.@.@.@.@.@.@.@.@.@.@.@.@.@.@.@.@.@.@.@.@.@.@.@.@.@.@.@.@.@.@.@.@.@.@.@.@.@.@.@.@.@.@.@.@.@.@.@.@.*.@.] J U U U U U U U T 1 $ $ $ $ $ $ $ % . g r.8.8.8.6.w.e.6.@.&.&.&.&.@.@.@.@.@.$.$...J J P = . . . . } y.7.6.8.8.8.8.8.e.e.6.8.8.8.8.8.8.8.8.8.8.8.8.8.8.8.8.8.8.8.8.8.8.8.8.8.8.8.8.8.8.8.8.8.8.8.8.8.8.8.8.8.8.8.8.8.8.8.8.8.8.8.8.8.8.8.8.8.8.8.8.8.8.8.8.8.8.8.8.8.8.8.8.8.8.8.8.8.8.8.8.8.8.8.8.8.8.8.8.8.8.8.8.8.8.8.8.8.8.8.8.8.8.8.8.8.8.8.8.6.6.6.6.6.6.6.6.- $ $ $ $ . *   8 A.R.e.$.$.@.@.@.@.@.@.@.@.@.@.@.@.@.@.@.@.@.@.@.@.@.@.@.@.@.@.@.@.@.@.@.@.@.@.@.@.@.@.@.@.@.@.@.@.@.@.@.@.@.@.@.@.@.@.@.@.@.@.@.@.@.@.@.@.@.@.@.@.@.@.@.@.@.@.@.@.@.@.@.@.@.@.@.@.@.@.@.@.@.@.@.@.@.@.@.@.@.@.@.=.( h D.=.@.@.@.@.@.@.@.@.@.@.@.@.@.@.@.@.@.@.@.@.@.@.@.@.@.@.@.@.@.@.@.@.@.@.@.@.@.@.@.@.@.@.@.@.@.@.@.@.@.@.@.@.@.@.@.@.@.@.@.@.@.@.@.@.@.@.&.*.$.$.` o     . .   .   O f t 8 8 8 8 8 8 8 8 8 8 8 k @.@.@.@.@.@.@.@.@.@.@.@.@.@.@.@.@.@.@.@.@.@.@.@.@.@.@.@.@.@.@.@.@.@.@.@.@.@.@.@.@.@.@.@.@.@.@.@.@.@.@.@.@.@.@.@.@.@.@.@.@.@.@.@.@.@.@.@.@.@.@.@.@.@.@.@.=.] 5 d 3 H c.x.g.g.g.j.x.j.g.g.g.j.g.! @ 8 d 9 ( c.c.g.*.@.@.@.@.@.@.@.@.@.@.@.@.@.@.@.@.@.@.@.@.@.@.@.@.@.@.@.$.$.$.$.$.$.$.$.",
"@.@.@.@.@.@.@.@.@.@.@.@.@.@.@.@.@.@.@.@.@.@.@.@.@.@.@.@.@.@.@.@.@.@.@.@.@.@.@.@.@.@.@.@.@.@.@.@.@.@.@.@.@.@.@.@.@.@.@.@.@.@.@.@.@.@.@.@.*.@.] J U U U U U U U T 1 . $ $ $ $ $ $ % . g r.8.8.e.6.e.0.6.@.&.&.&.&.@.@.@.@.@.$.%.$.( J P 6 . . $ . -.p.9.8.8.8.8.8.6.6.<.*.*.*.*.*.*.*.*.*.*.*.*.*.$.$.$.$.$.$.$.$.$.$.$.$.$.$.$.$.$.$.$.$.$.$.$.$.$.$.$.$.$.$.$.$.$.$.$.$.$.$.$.$.$.$.$.$.$.$.$.$.$.$.$.$.$.$.$.$.$.$.$.$.$.$.$.$.$.$.$.$.$.$.$.$.$.$.$.$.$.$.$.$.$.$.$.$.$.$.$.$.$.$.$.$.$.$.$.$.$.$.$.@.@.@.@.@.- $ $ $ . $ $ 4 A.Y.g.] *.$.$.$.@.@.@.@.@.@.@.@.@.@.@.@.@.@.@.@.@.@.@.@.@.@.@.@.@.@.@.@.@.@.@.@.@.@.@.@.@.@.@.@.@.@.@.@.@.@.@.@.@.@.@.@.@.@.@.@.@.@.@.@.@.@.@.@.@.@.@.@.@.@.@.@.@.@.@.@.@.@.@.@.@.@.@.@.@.@.@.@.@.@.@.@.@.@.@.@.@.=.x ] V.] @.O.@.@.@.@.@.@.@.@.@.@.@.@.@.@.@.@.@.@.@.@.@.@.@.@.@.@.@.@.@.@.@.@.@.@.@.@.@.@.@.@.@.@.@.@.@.@.@.@.@.@.@.@.@.@.@.@.@.@.@.@.@.@.@.@.&.*.$.@.` o     . .       @ y t 8 8 8 8 8 8 8 8 8 8 8 k @.@.@.@.@.@.@.@.@.@.@.@.@.@.@.@.@.@.@.@.@.@.@.@.@.@.@.@.@.@.@.@.@.@.@.@.@.@.@.@.@.@.@.@.@.@.@.@.@.@.@.@.@.@.@.@.@.@.@.@.@.@.@.@.@.@.@.@.@.@.@.@.@.@.@.@.@.z 3 9 f 9.c.c.j.g.g.g.r.8.=.@.e.f.c.g.^ 3 f 8 7 =.c.g.w.=.@.=.@.@.@.@.@.@.@.@.@.@.@.@.@.@.@.@.@.@.@.@.@.@.@.@.$.$.$.$.$.$.$.$.",
"@.@.@.@.@.@.@.@.@.@.@.@.@.@.@.@.@.@.@.@.@.@.@.@.@.@.@.@.@.@.@.@.@.@.@.@.@.@.@.@.@.@.@.@.@.@.@.@.@.@.@.@.@.@.@.@.@.@.@.@.@.@.@.@.@.@.@.@.*.@.] J U U U U U U U T 1 . $ $ $ $ $ $ % . g r.8.8.8.6.e.0.6.@.&.&.&.&.@.@.$.$.$.$.$.$.) J P r . . $ . } w.9.7.8.8.8.8.6.=.@.@.*.*.*.*.*.*.*.*.*.*.*.*.$.$.$.$.$.$.$.$.$.$.$.$.$.$.$.$.$.$.$.$.$.$.$.$.$.$.$.$.$.$.$.$.$.$.$.$.$.$.$.$.$.$.$.$.$.$.$.$.$.$.$.$.$.$.$.$.$.$.$.$.$.$.$.$.$.$.$.$.$.$.$.$.$.$.$.$.$.$.$.$.$.$.$.$.$.$.$.$.$.$.$.$.$.$.$.$.$.$.$.$.@.@.@.#.- $ $ $ $ % . T.oXc.=...=.$.$.$.$.@.@.@.@.@.@.@.@.@.@.@.@.@.@.@.@.@.@.@.@.@.@.@.@.@.@.@.@.@.@.@.@.@.@.@.@.@.@.@.@.@.@.@.@.@.@.@.@.@.@.@.@.@.@.@.@.@.@.@.@.@.@.@.@.@.@.@.@.@.@.@.@.@.@.@.@.@.@.@.@.@.@.@.@.@.@.@.@.@.@.@.@.@.@.@.@.=.8 c.*.@.$.@.@.@.@.@.@.@.@.@.@.@.@.@.@.@.@.@.@.@.@.@.@.@.@.@.@.@.@.@.@.@.@.@.@.@.@.@.@.@.@.@.@.@.@.@.@.@.@.@.@.@.@.@.@.@.@.@.@.@.@.@.@.@.@.@.&.*.$.@.` o     . .       @ y t 8 8 8 8 8 8 8 8 8 8 8 k @.@.@.@.@.@.@.@.@.@.@.@.@.@.@.@.@.@.@.@.@.@.@.@.@.@.@.@.@.@.@.@.@.@.@.@.@.@.@.@.@.@.@.@.@.@.@.@.@.@.@.@.@.@.@.@.@.@.@.@.@.@.@.@.@.@.@.@.@.@.@.@.@.@.@.@.D 8 f 7 *.c.r.j.r.8.=.@.O.@.@.@.O.6.g.f.c. .8 8 3 h r.c.f.=.@.=.@.@.@.@.@.@.@.@.@.@.@.@.@.@.@.@.@.@.@.@.@.@.@.@.$.$.$.$.$.$.$.$.",
"@.@.@.@.@.@.@.@.@.@.@.@.@.@.@.@.@.@.@.@.@.@.@.@.@.@.@.@.@.@.@.@.@.@.@.@.@.@.@.@.@.@.@.@.@.@.@.@.@.@.@.@.@.@.@.@.@.@.@.@.@.@.@.@.@.@.@.@.*.@.( ! ! ! ! ! U U U T 1 $ $ $ $ $ $ $ % $ g y.8.8.8.6.e.0.5.@.&.&.&.&.@.@.@.@.$.$.$.$.%.T T > . . $ . } 9.9.8.8.8.8.8.<.*.@.$.@.@.@.@.$.$.$.$.$.$.$.$.@.@.@.@.@.@.@.@.@.@.@.@.@.@.@.@.@.@.@.@.@.@.@.@.@.@.@.@.@.@.@.@.@.@.@.@.@.@.@.@.@.@.@.@.@.@.@.@.@.@.@.@.@.@.@.@.@.@.@.@.@.@.@.@.@.@.@.@.@.@.@.@.@.@.@.@.@.@.@.@.@.@.@.@.@.@.@.@.@.@.@.@.@.@.@.@.$.$.$.$.$.$.$.#.q $ $ $ % . v $XW.6.@.$.$.$.$.$.$.$.$.$.$.$.$.$.@.@.@.@.@.@.@.@.@.@.@.@.@.@.@.@.@.@.@.@.@.@.@.@.@.@.@.@.@.@.@.@.@.@.@.@.@.@.@.@.@.@.@.@.@.@.@.@.@.@.@.@.@.@.@.@.@.@.@.@.@.@.@.@.@.@.@.@.@.@.@.@.@.@.@.@.@.@.@.@.@.@.@.@.@.@.@.@.$.( J j.@.@.@.@.@.@.@.@.@.@.@.@.@.@.@.@.@.@.@.@.@.@.@.@.@.@.@.@.@.@.@.@.@.@.@.@.@.@.@.@.@.@.@.@.@.@.@.@.@.@.@.@.@.@.@.@.@.@.@.@.@.@.@.@.@.@.@.@.*.*.$.#.` o     . . .     @ f t 8 8 8 8 8 8 8 8 8 8 8 k @.@.@.@.@.@.@.@.@.@.@.@.@.@.@.@.@.@.@.@.@.@.@.@.@.@.@.@.@.@.@.@.@.@.@.@.@.@.@.@.@.@.@.@.@.@.@.@.@.@.@.@.@.@.@.@.@.@.@.@.@.@.@.@.@.@.@.@.@.@.@.@.@.@.<.J 7 f 3 J c.f.f.5.@.@.@.@.@.@.@.@.$.@.*.6.g.c.@.8 8 8 D g.f.r.@.@.$.@.$.$.@.@.@.@.@.@.@.@.@.@.@.@.@.@.@.@.@.@.@.@.$.$.$.$.$.$.$.$.",
"@.@.@.@.@.@.@.@.@.@.@.@.@.@.@.@.@.@.@.@.@.@.@.@.@.@.@.@.@.@.@.@.@.@.@.@.@.@.@.@.@.@.@.@.@.@.@.@.@.@.@.@.@.@.@.@.@.@.@.@.@.@.@.@.@.@.@.@.*.@.( ! ! ! ! ! U U U T 1 $ $ $ $ $ $ $ % $ g r.8.8.8.6.e.0.6.@.&.&.&.&.@.@.@.@.$.$.$.$.%.T P > . . $ . } 9.9.8.8.8.8.8.=.$.@.*.@.@.@.@.$.$.$.$.$.$.$.$.@.@.@.@.@.@.@.@.@.@.@.@.@.@.@.@.@.@.@.@.@.@.@.@.@.@.@.@.@.@.@.@.@.@.@.@.@.@.@.@.@.@.@.@.@.@.@.@.@.@.@.@.@.@.@.@.@.@.@.@.@.@.@.@.@.@.@.@.@.@.@.@.@.@.@.@.@.@.@.@.@.@.@.@.@.@.@.@.@.@.@.@.@.@.@.@.$.$.$.$.$.$.$.#.q $ $ $ ; . b $Xc.@.%.@.$.$.$.$.$.$.$.$.$.$.$.$.@.@.@.@.@.@.@.@.@.@.@.@.@.@.@.@.@.@.@.@.@.@.@.@.@.@.@.@.@.@.@.@.@.@.@.@.@.@.@.@.@.@.@.@.@.@.@.@.@.@.@.@.@.@.@.@.@.@.@.@.@.@.@.@.@.@.@.@.@.@.@.@.@.@.@.@.@.@.@.@.@.@.@.@.@.@.@.@.=.H @.8.@.@.@.@.@.@.@.@.@.@.@.@.@.@.@.@.@.@.@.@.@.@.@.@.@.@.@.@.@.@.@.@.@.@.@.@.@.@.@.@.@.@.@.@.@.@.@.@.@.@.@.@.@.@.@.@.@.@.@.@.@.@.@.@.@.@.@.@.*.*.$.#.` o     . . .     @ f t 8 8 8 8 8 8 8 8 8 8 8 k @.@.@.@.@.@.@.@.@.@.@.@.@.@.@.@.@.@.@.@.@.@.@.@.@.@.@.@.@.@.@.@.@.@.@.@.@.@.@.@.@.@.@.@.@.@.@.@.@.@.@.@.@.@.@.@.@.@.@.@.@.@.@.@.@.@.@.@.@.@.@.@.@.*. .h 7 8 d 9.m.g.=.*.@.@.@.@.@.@.@.@.@.@.$.@.8.g.c.6.f 8 3 ( C.c.*.@.$.$.$.$.@.@.@.@.@.@.@.@.@.@.@.@.@.@.@.@.@.@.@.@.$.$.$.$.$.$.$.$.",
"@.@.@.@.@.@.@.@.@.@.@.@.@.@.@.@.@.@.@.@.@.@.@.@.@.@.@.@.@.@.@.@.@.@.@.@.@.@.@.@.@.@.@.@.@.@.@.@.@.@.@.@.@.@.@.@.@.@.@.@.@.@.@.@.@.@.@.@.*.@.( ! ! ! ! ! U U U T 1 $ $ $ $ $ $ $ % . g r.8.8.e.6.w.e.6.@.@.&.@.@.@.@.@.@.$.$.$.$.@./ I 4 . $ $ . } 9.9.8.8.8.8.8.*.@.$.*.@.@.@.@.$.$.$.$.$.$.$.$.@.@.@.@.@.@.@.@.@.@.@.@.@.@.@.@.@.@.@.@.@.@.@.@.@.@.@.@.@.@.@.@.@.@.@.@.@.@.@.@.@.@.@.@.@.@.@.@.@.@.@.@.@.@.@.@.@.@.@.@.@.@.@.@.@.@.@.@.@.@.@.@.@.@.@.@.@.@.@.@.@.@.@.@.@.@.@.@.@.@.@.@.@.@.@.@.$.$.$.$.$.$.$.#.q $ $ $ $ . v XX$.%...@.$.$.$.$.$.$.$.$.$.$.$.$.@.@.@.@.@.@.@.@.@.@.@.@.@.@.@.@.@.@.@.@.@.@.@.@.@.@.@.@.@.@.@.@.@.@.@.@.@.@.@.@.@.@.@.@.@.@.@.@.@.@.@.@.@.@.@.@.@.@.@.@.@.@.@.@.@.@.@.@.@.@.@.@.@.@.@.@.@.@.@.@.@.@.@.@.@.@.@.@.*.J 6.@.@.@.@.@.@.@.@.@.@.@.@.@.@.@.@.@.@.@.@.@.@.@.@.@.@.@.@.@.@.@.@.@.@.@.@.@.@.@.@.@.@.@.@.@.@.@.@.@.@.@.@.@.@.@.@.@.@.@.@.@.@.@.@.@.@.@.@.@.&.*.$.#.] o     . .       @ y t 8 8 8 8 8 8 8 8 8 8 8 k @.@.@.@.@.@.@.@.@.@.@.@.@.@.@.@.@.@.@.@.@.@.@.@.@.@.@.@.@.@.@.@.@.@.@.@.@.@.@.@.@.@.@.@.@.@.@.@.@.@.@.@.@.@.@.@.@.@.@.@.@.@.@.@.@.@.@.@.@.@.@.@.@.@.H 5 k 7 ] j.c.9.@.@.@.@.@.@.@.@.@.@.@.@.$.$.@.=.f.m.w.k 2 8 @.C.g.@.$.@.@.$.@.@.@.@.@.@.@.@.@.@.@.@.@.@.@.@.@.@.@.@.$.$.$.$.$.$.$.$.",
"@.@.@.@.@.@.@.@.@.@.@.@.@.@.@.@.@.@.@.@.@.@.@.@.@.@.@.@.@.@.@.@.@.@.@.@.@.@.@.@.@.@.@.@.@.@.@.@.@.@.@.@.@.@.@.@.@.@.@.@.@.@.@.@.@.@.@.@.*.@.( ! ! ! ! ! U U U T 1 $ $ $ $ $ $ $ % . g r.8.8.8.6.w.e.6.@.@.@.@.@.@.@.@.@.$.$.$.$.@.) F 4 . $ $ . } 9.9.8.8.8.8.8.$.@.*.*.@.@.@.@.$.$.$.$.$.$.$.$.@.@.@.@.@.@.@.@.@.@.@.@.@.@.@.@.@.@.@.@.@.@.@.@.@.@.@.@.@.@.@.@.@.@.@.@.@.@.@.@.@.@.@.@.@.@.@.@.@.@.@.@.@.@.@.@.@.@.@.@.@.@.@.@.@.@.@.@.@.@.@.@.@.@.@.@.@.@.@.@.@.@.@.@.@.@.@.@.@.@.@.@.@.@.@.@.$.$.$.$.$.$.$.#.q $ $ $ . . g J.^ @.=. .$.$.$.$.$.$.$.$.$.$.$.$.@.@.@.@.@.@.@.@.@.@.@.@.@.@.@.@.@.@.@.@.@.@.@.@.@.@.@.@.@.@.@.@.@.@.@.@.@.@.@.@.@.@.@.@.@.@.@.@.@.@.@.@.@.@.@.@.@.@.@.@.@.@.@.@.@.@.@.@.@.@.@.@.@.@.@.@.@.@.@.@.@.@.@.@.@.@.@.$.@.] 5.O.@.@.@.@.@.@.@.@.@.@.@.@.@.@.@.@.@.@.@.@.@.@.@.@.@.@.@.@.@.@.@.@.@.@.@.@.@.@.@.@.@.@.@.@.@.@.@.@.@.@.@.@.@.@.@.@.@.@.@.@.@.@.@.@.@.@.@.@.&.*.$.#.] o     . . .     @ y t 8 8 8 8 8 8 8 8 8 8 8 k @.@.@.@.@.@.@.@.@.@.@.@.@.@.@.@.@.@.@.@.@.@.@.@.@.@.@.@.@.@.@.@.@.@.@.@.@.@.@.@.@.@.@.@.@.@.@.@.@.@.@.@.@.@.@.@.@.@.@.@.@.@.@.@.@.@.@.@.@.@.@.@.@.J 8 f 3 J c.g.g.*.@.*.@.@.@.@.@.@.@.@.@.@.$.$.@.$.6.f.c.r.Z 3 f 5.g.e.@.@.$.$.$.@.@.@.@.@.@.@.@.@.@.@.@.@.@.@.@.@.@.@.$.$.$.$.$.$.$.$.",
"@.@.@.@.@.@.@.@.@.@.@.@.@.@.@.@.@.@.@.@.@.@.@.@.@.@.@.@.@.@.@.@.@.@.@.@.@.@.@.@.@.@.@.@.@.@.@.@.@.@.@.@.@.@.@.@.@.@.@.@.@.@.@.@.@.@.@.@.$.@.^ J U U U U U U U T 1 $ $ $ $ $ $ $ % . g r.6.8.e.6.w.e.6.@.&.&.&.&.&.&.&.@.$.$.$.$.@.} P 4 . $ $ . } 9.9.8.8.8.8.8.*.@.@.@.@.@.@.@.$.$.$.$.$.$.$.$.@.@.@.@.@.@.@.@.@.@.@.@.@.@.@.@.@.@.@.@.@.@.@.@.@.@.@.@.@.@.@.@.@.@.@.@.@.@.@.@.@.@.@.@.@.@.@.@.@.@.@.@.@.@.@.@.@.@.@.@.@.@.@.@.@.@.@.@.@.@.@.@.@.@.@.@.@.@.@.@.@.@.@.@.@.@.@.@.@.@.@.@.@.@.@.@.$.$.$.$.$.$.@.#.q $ $ $ $ . g y.} *.@.@.@.#.$.$.$.$.$.$.$.$.$.$.@.@.@.@.@.@.@.@.@.@.@.@.@.@.@.@.@.@.@.@.@.@.@.@.@.@.@.@.@.@.@.@.@.@.@.@.@.@.@.@.@.@.@.@.@.@.@.@.@.@.@.@.@.@.@.@.@.@.@.@.@.@.@.@.@.@.@.@.@.@.@.@.@.@.@.@.@.@.@.@.@.@.@.@.@.=.@.$.] $.=.@.@.@.@.@.@.@.@.@.@.@.@.@.@.@.@.@.@.@.@.@.@.@.@.@.@.@.@.@.@.@.@.@.@.@.@.@.@.@.@.@.@.@.@.@.@.@.@.@.@.@.@.@.@.@.@.@.@.@.@.@.@.@.@.@.@.@.@.@.*.*.$.@.` o   .   . .     @ y t 8 8 8 8 8 8 8 8 8 8 8 k @.@.@.@.@.@.@.@.@.@.@.@.@.@.@.@.@.@.@.@.@.@.@.@.@.@.@.@.@.@.@.@.@.@.@.@.@.@.@.@.@.@.@.@.@.@.@.@.@.@.@.@.@.@.@.@.@.@.@.@.@.@.@.@.@.@.@.@.@.@.@.6.] d f t 7 r.x.f.$.$.$.$.$.$.$.$.@.@.@.@.$.$.$.$.$.$.@.*.e.c.j.( 3 Z g.x.*.=.$.*.$.$.$.$.@.@.@.@.@.@.@.@.@.@.@.@.@.@.@.@.$.$.$.$.$.$.$.$.",
"@.@.@.@.@.@.@.@.@.@.@.@.@.@.@.@.@.@.@.@.@.@.@.@.@.@.@.@.@.@.@.@.@.@.@.@.@.@.@.@.@.@.@.@.@.@.@.@.@.@.@.@.@.@.@.@.@.@.@.@.@.@.@.@.@.@.@.@.$.@.^ J U U U U U U U T 1 . $ $ $ $ $ $ * . g r.6.8.e.6.e.e.6.@.&.&.&.&.&.&.&.&.$.$.$.$.@.} P 4 . $ $ . } 9.9.8.8.8.8.8.*.@.@.@.@.@.@.@.$.$.$.$.$.$.$.$.@.@.@.@.@.@.@.@.@.@.@.@.@.@.@.@.@.@.@.@.@.@.@.@.@.@.@.@.@.@.@.@.@.@.@.@.@.@.@.@.@.@.@.@.@.@.@.@.@.@.@.@.@.@.@.@.@.@.@.@.@.@.@.@.@.@.@.@.@.@.@.@.@.@.@.@.@.@.@.@.@.@.@.@.@.@.@.@.@.@.@.@.@.@.@.@.$.$.$.$.$.$.@.#.q $ $ $ $ . e r.@.&.@.@.@.#.$.$.$.$.$.$.$.$.$.$.@.@.@.@.@.@.@.@.@.@.@.@.@.@.@.@.@.@.@.@.@.@.@.@.@.@.@.@.@.@.@.@.@.@.@.@.@.@.@.@.@.@.@.@.@.@.@.@.@.@.@.@.@.@.@.@.@.@.@.@.@.@.@.@.@.@.@.@.@.@.@.@.@.@.@.@.@.@.@.@.@.@.@.@.@.*.@.$.] *.=.@.@.@.@.@.@.@.@.@.@.@.@.@.@.@.@.@.@.@.@.@.@.@.@.@.@.@.@.@.@.@.@.@.@.@.@.@.@.@.@.@.@.@.@.@.@.@.@.@.@.@.@.@.@.@.@.@.@.@.@.@.@.@.@.@.@.@.@.@.*.*.$.@.` o   .   .       @ y t 8 8 8 8 8 8 8 8 8 8 8 k @.@.@.@.@.@.@.@.@.@.@.@.@.@.@.@.@.@.@.@.@.@.@.@.@.@.@.@.@.@.@.@.@.@.@.@.@.@.@.@.@.@.@.@.@.@.@.@.@.@.@.@.@.@.@.@.@.@.@.@.@.@.@.@.@.@.@.@.=.@.=.$.x t 8 5 O.j.c.8.$.$.$.$.$.$.$.$.@.@.@.@.$.$.$.$.$.$.$.$.] =.f.c.] 3 A c.9.=.*.@.$.$.$.$.@.@.@.@.@.@.@.@.@.@.@.@.@.@.@.@.$.$.$.$.$.$.$.$.",
"@.@.@.@.@.@.@.@.@.@.@.@.@.@.@.@.@.@.@.@.@.@.@.@.@.@.@.@.@.@.@.@.@.@.@.@.@.@.@.@.@.@.@.@.@.@.@.@.@.@.@.@.@.@.@.@.@.@.@.@.@.@.@.@.@.@.@.@.$.@.^ J U U U U U U U T 4 . . . . . . $ * $ g y.6.8.e.6.e.0.5.@.&.&.&.&.&.&.&.&.$.$.$.$.$...T 6 . $ $ . } 9.9.8.8.8.8.8.*.@.@.@.@.@.@.@.$.$.$.$.$.$.$.$.@.@.@.@.@.@.@.@.@.@.@.@.@.@.@.@.@.@.@.@.@.@.@.@.@.@.@.@.@.@.@.@.@.@.@.@.@.@.@.@.@.@.@.@.@.@.@.@.@.@.@.@.@.@.@.@.@.@.@.@.@.@.@.@.@.@.@.@.@.@.@.@.@.@.@.@.@.@.@.@.@.@.@.@.@.@.@.@.@.@.@.@.@.@.@.@.$.$.$.$.$.$.@.#.q $ $ $ $ . r 6.%.@.@.$.@.@.$.$.$.$.$.$.$.$.$.$.@.@.@.@.@.@.@.@.@.@.@.@.@.@.@.@.@.@.@.@.@.@.@.@.@.@.@.@.@.@.@.@.@.@.@.@.@.@.@.@.@.@.@.@.@.@.@.@.@.@.@.@.@.@.@.@.@.@.@.@.@.@.@.@.@.@.@.@.@.@.@.@.@.@.@.@.@.@.@.@.@.@.@.@.$.@.*.@.O.*.$.@.@.@.@.@.@.@.@.@.@.@.@.@.@.@.@.@.@.@.@.@.@.@.@.@.@.@.@.@.@.@.@.@.@.@.@.@.@.@.@.@.@.@.@.@.@.@.@.@.@.@.@.@.@.@.@.@.@.@.@.@.@.@.@.@.$.@.@.@.&.&.$.@.` o   .           @ f t 8 8 8 8 8 8 8 8 8 8 8 k @.@.@.@.@.@.@.@.@.@.@.@.@.@.@.@.@.@.@.@.@.@.@.@.@.@.@.@.@.@.@.@.@.@.@.@.@.@.@.@.@.@.@.@.@.@.@.@.@.@.@.@.@.@.@.@.@.@.@.@.@.@.@.@.@.@.@.@.*.@.=.H 9 f 8 D x.c.x.$.$.$.$.$.$.$.$.$.@.@.@.@.$.$.$.$.$.$.$.$.$.$.=.e.j.] 3 ( m.=.] =.$.$.$.$.@.@.@.@.@.@.@.@.@.@.@.@.@.@.@.@.$.$.$.$.$.$.$.$.",
"@.@.@.@.@.@.@.@.@.@.@.@.@.@.@.@.@.@.@.@.@.@.@.@.@.@.@.@.@.@.@.@.@.@.@.@.@.@.@.@.@.@.@.@.@.@.@.@.@.@.@.@.@.@.@.@.@.@.@.@.@.@.@.@.@.@.@.@.$.@.^ J U U U U U U U T 4 . . . . . . $ * . g y.6.8.e.6.e.0.5.@.&.&.&.&.&.&.&.&.$.$.$.$.$...T 6 . $ $ . } 9.9.8.8.8.8.8.*.@.@.@.@.@.@.@.$.$.$.$.$.$.$.$.@.@.@.@.@.@.@.@.@.@.@.@.@.@.@.@.@.@.@.@.@.@.@.@.@.@.@.@.@.@.@.@.@.@.@.@.@.@.@.@.@.@.@.@.@.@.@.@.@.@.@.@.@.@.@.@.@.@.@.@.@.@.@.@.@.@.@.@.@.@.@.@.@.@.@.@.@.@.@.@.@.@.@.@.@.@.@.@.@.@.@.@.@.@.@.@.$.$.$.$.$.$.$.#.q $ $ $ $ . 6 >.#.@.@.$.@.@.$.$.$.$.$.$.$.$.$.$.@.@.@.@.@.@.@.@.@.@.@.@.@.@.@.@.@.@.@.@.@.@.@.@.@.@.@.@.@.@.@.@.@.@.@.@.@.@.@.@.@.@.@.@.@.@.@.@.@.@.@.@.@.@.@.@.@.@.@.@.@.@.@.@.@.@.@.@.@.@.@.@.@.@.@.@.@.@.@.@.@.@.@.@.$.@.=.@.@.$.$.$.@.@.@.@.@.@.@.@.@.@.@.@.@.@.@.@.@.@.@.@.@.@.@.@.@.@.@.@.@.@.@.@.@.@.@.@.@.@.@.@.@.@.@.@.@.@.@.@.@.@.@.@.@.@.@.@.@.@.@.@.@.@.@.@.@.@.@.@.&.&.$.@.` o   .           @ f t 8 8 8 8 8 8 8 8 8 8 8 k @.@.@.@.@.@.@.@.@.@.@.@.@.@.@.@.@.@.@.@.@.@.@.@.@.@.@.@.@.@.@.@.@.@.@.@.@.@.@.@.@.@.@.@.@.@.@.@.@.@.@.@.@.@.@.@.@.@.@.@.@.@.@.@.@.@.@.@.] *.( 9 8 f t 9.c.f.6.@.$.$.$.$.$.$.$.$.@.@.@.@.$.$.$.$.$.$.$.@.@.@.@.@.=.m.=.7 =.c.@.=.$.$.$.$.@.@.@.@.@.@.@.@.@.@.@.@.@.@.@.@.$.$.$.$.$.$.$.$.",
"@.@.@.@.@.@.@.@.@.@.@.@.@.@.@.@.@.@.@.@.@.@.@.@.@.@.@.@.@.@.@.@.@.@.@.@.@.@.@.@.@.@.@.@.@.@.@.@.@.@.@.@.@.@.@.@.@.@.@.@.@.@.@.@.@.@.@.@.=.] U U U U U U U U U T 1 $ $ $ $ $ $ $ * . g y.8.8.e.6.w.e.6.@.&.&.&.&.&.&.&.&.$.$.$.$.$...T 4 . . $ . } 9.7.8.8.8.8.8.=.@.@.@.@.@.@.@.$.$.$.$.$.$.$.$.@.@.@.@.@.@.@.@.@.@.@.@.@.@.@.@.@.@.@.@.@.@.@.@.@.@.@.@.@.@.@.@.@.@.@.@.@.@.@.@.@.@.@.@.@.@.@.@.@.@.@.@.@.@.@.@.@.@.@.@.@.@.@.@.@.@.@.@.@.@.@.@.@.@.@.@.@.@.@.@.@.@.@.@.@.@.@.@.@.@.@.@.$.$.@.@.#.@.@.@.@.#.%.-.q $ $ $ $ . 4 -.#.@.$.$.@.@.$.$.$.$.$.$.$.$.$.$.@.@.@.@.@.@.@.@.@.@.@.@.@.@.@.@.@.@.@.@.@.@.@.@.@.@.@.@.@.@.@.@.@.@.@.@.@.@.@.@.@.@.@.@.@.@.@.@.@.@.@.@.@.@.@.@.@.@.@.@.@.@.@.@.@.@.@.@.@.@.@.@.@.@.@.@.@.@.@.@.@.@.@.@.$.@.@.@.@.@.$.@.@.@.@.@.@.@.@.@.@.@.@.@.@.@.@.@.@.@.@.@.@.@.@.@.@.@.@.@.@.@.@.@.@.@.@.@.@.@.@.@.@.@.@.@.@.@.@.@.@.@.@.@.@.@.@.@.@.@.@.@.@.@.@.@.@.@.@.@.*.*.$.@.` o               @ f t 8 8 8 8 8 8 8 8 8 8 8 k @.@.@.@.@.@.@.@.@.@.@.@.@.@.@.@.@.@.@.@.@.@.@.@.@.@.@.@.@.@.@.@.@.@.@.@.@.@.@.@.@.@.@.@.@.@.@.@.@.@.@.@.@.@.@.@.@.@.@.@.@.@.@.@.@.@.@.@.=.@.h 8 f 5 @.V.g.<.@.=.$.$.$.$.$.$.$.$.$.$.$.$.$.$.$.$.$.$.$.$.@.@.@.@.@.=.g.8.f 6.g. .*.*.*.*.@.@.@.@.@.@.@.@.@.@.@.@.@.@.@.@.$.$.$.$.$.$.$.$.",
"@.@.@.@.@.@.@.@.@.@.@.@.@.@.@.@.@.@.@.@.@.@.@.@.@.@.@.@.@.@.@.@.@.@.@.@.@.@.@.@.@.@.@.@.@.@.@.@.@.@.@.@.@.@.@.@.@.@.@.@.@.@.@.@.@.@.@.@.=.] U U U U U U U U U T 1 $ $ $ $ $ $ $ % . g r.8.8.8.6.w.e.6.@.&.&.&.&.&.&.&.&.$.$.$.$.$...T 4 . . $ . } 9.7.8.8.8.8.8.=.@.@.@.@.@.@.@.$.$.$.$.$.$.$.$.@.@.@.@.@.@.@.@.@.@.@.@.@.@.@.@.@.@.@.@.@.@.@.@.@.@.@.@.@.@.@.@.@.@.@.@.@.@.@.@.@.@.@.@.@.@.@.@.@.@.@.@.@.@.@.@.@.@.@.@.@.@.@.@.@.@.@.@.@.@.@.@.@.@.@.@.@.@.@.@.@.@.@.@.@.@.@.@.@.@.@.@.$.@.@.@.#.@.@.@.@.@.#.-.q $ $ $ $ . 4 -.#.$.$.$.@.@.$.$.$.$.$.$.$.$.$.$.@.@.@.@.@.@.@.@.@.@.@.@.@.@.@.@.@.@.@.@.@.@.@.@.@.@.@.@.@.@.@.@.@.@.@.@.@.@.@.@.@.@.@.@.@.@.@.@.@.@.@.@.@.@.@.@.@.@.@.@.@.@.@.@.@.@.@.@.@.@.@.@.@.@.@.@.@.@.@.@.@.@.@.@.@.@.@.@.@.@.@.@.@.@.@.@.@.@.@.@.@.@.@.@.@.@.@.@.@.@.@.@.@.@.@.@.@.@.@.@.@.@.@.@.@.@.@.@.@.@.@.@.@.@.@.@.@.@.@.@.@.@.@.@.@.@.@.@.@.@.@.@.@.@.@.@.@.@.@.@.*.*.$.$.` o               @ f t 8 8 8 8 8 8 8 8 8 8 8 k @.@.@.@.@.@.@.@.@.@.@.@.@.@.@.@.@.@.@.@.@.@.@.@.@.@.@.@.@.@.@.@.@.@.@.@.@.@.@.@.@.@.@.@.@.@.@.@.@.@.@.@.@.@.@.@.@.@.@.@.@.@.@.@.*.*.*.*.=.A f 8 9 D c.x.6.$.@.*.$.$.$.$.$.$.$.$.$.$.$.$.$.$.$.$.$.$.$.$.@.@.@.@.@.$.*.r.9.J r.@.*.*.*.*.@.@.@.@.@.@.@.@.@.@.@.@.@.@.@.@.$.$.$.$.$.$.$.$.",
"@.@.@.@.@.@.@.@.@.@.@.@.@.@.@.@.@.@.@.@.@.@.@.@.@.@.@.@.@.@.@.@.@.@.@.@.@.@.@.@.@.@.@.@.@.@.@.@.@.@.@.@.@.@.@.@.@.@.@.@.@.@.@.@.@.@.@.@.=.] U U U U U U U U U T 1 . $ $ $ $ $ $ % . g r.8.8.e.6.e.0.6.@.&.&.&.&.&.&.&.&.$.$.$.$.%...^ 6 . . $ . } 9.7.8.8.8.8.8.=.@.@.@.@.@.@.@.$.$.$.$.$.$.$.$.@.@.@.@.@.@.@.@.@.@.@.@.@.@.@.@.@.@.@.@.@.@.@.@.@.@.@.@.@.@.@.@.@.@.@.@.@.@.@.@.@.@.@.@.@.@.@.@.@.@.@.@.@.@.@.@.@.@.@.@.@.@.@.@.@.@.@.@.@.@.@.@.@.@.@.@.@.@.@.@.@.@.@.@.@.@.@.@.@.@.@.@.$.@.@.@.#.#.@.@.@.@.#.-.q $ $ $ $ . 4 -.#.$.$.$.@.@.$.$.$.$.$.$.$.$.$.$.@.@.@.@.@.@.@.@.@.@.@.@.@.@.@.@.@.@.@.@.@.@.@.@.@.@.@.@.@.@.@.@.@.@.@.@.@.@.@.@.@.@.@.@.@.@.@.@.@.@.@.@.@.@.@.@.@.@.@.@.@.@.@.@.@.@.@.@.@.@.@.@.@.@.@.@.@.@.@.@.@.@.@.@.@.@.@.@.@.@.@.@.@.@.@.@.@.@.@.@.@.@.@.@.@.@.@.@.@.@.@.@.@.@.@.@.@.@.@.@.@.@.@.@.@.@.@.@.@.@.@.@.@.@.@.@.@.@.@.@.@.@.@.@.@.@.@.@.@.@.@.@.@.@.@.@.@.@.@.@.*.*.$.@.` o     . .       @ y t t t 8 8 8 8 8 8 8 8 8 k @.@.@.@.@.@.@.@.@.@.@.@.@.@.@.@.@.@.@.@.@.@.@.@.@.@.@.@.@.@.@.@.@.@.@.@.@.@.@.@.@.@.@.@.@.@.@.@.@.@.@.@.@.@.@.@.@.@.@.@.@.@.@.@.*.*.*.*.] 8 8 3 8 6.m.g.$.*.*.@.@.$.$.$.$.$.$.$.$.$.$.$.$.$.$.$.$.$.$.$.@.@.@.@.*.O.$.@.6.e.@.5.*.*.*.*.@.@.@.@.@.@.@.@.@.@.@.@.@.@.@.@.$.$.$.$.$.$.$.$.",
"@.@.@.@.@.@.@.@.@.@.@.@.@.@.@.@.@.@.@.@.@.@.@.@.@.@.@.@.@.@.@.@.@.@.@.@.@.@.@.@.@.@.@.@.@.@.@.@.@.@.@.@.@.@.@.@.@.@.@.@.@.@.@.@.@.@.@.@.=.] U U U U U U U U U T 1 . $ $ $ $ $ $ % . g r.8.8.8.6.e.0.6.@.&.&.&.&.&.&.&.&.$.$.$.$.%...^ 6 . . $ . } 9.7.8.8.8.8.8.=.@.@.@.@.@.@.@.$.$.$.$.$.$.$.$.@.@.@.@.@.@.@.@.@.@.@.@.@.@.@.@.@.@.@.@.@.@.@.@.@.@.@.@.@.@.@.@.@.@.@.@.@.@.@.@.@.@.@.@.@.@.@.@.@.@.@.@.@.@.@.@.@.@.@.@.@.@.@.@.@.@.@.@.@.@.@.@.@.@.@.@.@.@.@.@.@.@.@.@.@.@.@.@.@.@.@.@.@.@.@.@.#.#.@.@.@.@.#.#.4 $ $ $ $ . 4 -.#.$.$.$.@.@.$.$.$.$.$.$.$.$.$.$.@.@.@.@.@.@.@.@.@.@.@.@.@.@.@.@.@.@.@.@.@.@.@.@.@.@.@.@.@.@.@.@.@.@.@.@.@.@.@.@.@.@.@.@.@.@.@.@.@.@.@.@.@.@.@.@.@.@.@.@.@.@.@.@.@.@.@.@.@.@.@.@.@.@.@.@.@.@.@.@.@.@.@.@.@.@.@.@.@.@.@.@.@.@.@.@.@.@.@.@.@.@.@.@.@.@.@.@.@.@.@.@.@.@.@.@.@.@.@.@.@.@.@.@.@.@.@.@.@.@.@.@.@.@.@.@.@.@.@.@.@.@.@.@.@.@.@.@.@.@.@.@.@.@.@.@.@.@.@.@.*.*.$.@.` o     . .       @ f t t t 8 8 8 8 8 8 8 8 8 k @.@.@.@.@.@.@.@.@.@.@.@.@.@.@.@.@.@.@.@.@.@.@.@.@.@.@.@.@.@.@.@.@.@.@.@.@.@.@.@.@.@.@.@.@.@.@.@.@.@.@.@.@.@.@.@.@.@.@.@.@.@.@.@.@.@.@.@.f 8 d 8  .g.f.e.@.=.*.@.$.$.$.$.$.$.$.$.$.$.$.$.$.$.$.$.$.$.$.$.@.@.@.@.@.5.*.@.$.<.w.5.*.*.*.*.@.@.@.@.@.@.@.@.@.@.@.@.@.@.@.@.$.$.$.$.$.$.$.$.",
"@.@.@.@.@.@.@.@.@.@.@.@.@.@.@.@.@.@.@.@.@.@.@.@.@.@.@.@.@.@.@.@.@.@.@.@.@.@.@.@.@.@.@.@.@.@.@.@.@.@.@.@.@.@.@.@.@.@.@.@.@.@.@.@.$.$. .=.@.( U U U U U U U U U T 1 $ $ $ $ $ $ $ $ . g r.8.8.8.6.e.0.5.@.@.@.@.@.@.@.@.@.$.$.$.$.%...^ 6 . $ $ . } 9.e.8.8.8.8.8.=.@.@.@.@.@.@.@.$.$.$.$.$.$.$.$.@.@.@.@.@.@.@.@.@.@.@.@.@.@.@.@.@.@.@.@.@.@.@.@.@.@.@.@.@.@.@.@.@.@.@.@.@.@.@.@.@.@.@.@.@.@.@.@.@.@.@.@.@.@.@.@.@.@.@.@.@.@.@.@.@.@.@.@.@.@.@.@.@.@.@.@.@.@.@.@.@.@.@.@.@.@.@.@.@.@.@.@.@.@.@.@.@.&.&.&.&.&.$.#.4 . . $ $ . 4 -.$.$.$.$.$.$.$.$.$.$.$.$.$.$.$.$.@.@.@.@.@.@.@.@.@.@.@.@.@.@.@.@.@.@.@.@.@.@.@.@.@.@.@.@.@.@.@.@.@.@.@.@.@.@.@.@.@.@.@.@.@.@.@.@.@.@.@.@.@.@.@.@.@.@.@.@.@.@.@.@.@.@.@.@.@.@.@.@.@.@.@.@.@.@.@.@.@.@.@.@.@.@.@.@.@.@.@.@.@.@.@.@.@.@.@.@.@.@.@.@.@.@.@.@.@.@.@.@.@.@.@.@.@.@.@.@.@.@.@.@.@.@.@.@.@.@.@.@.@.@.@.@.@.@.@.@.@.@.@.@.@.@.@.@.@.@.@.@.@.@.@.@.@.@.@.@.$.$.$.#.` o       .       @ f t 8 8 8 8 8 8 8 8 8 8 8 k @.@.@.@.@.@.@.@.@.@.@.@.@.@.@.@.@.@.@.@.@.@.@.@.@.@.@.@.@.@.@.@.@.@.@.@.@.@.@.@.@.@.@.@.@.@.@.@.@.@.@.@.@.@.@.@.@.@.@.@.@.@.@.@.@.@.@.z 9 d 9 H x.j.f.=.@.@.*.@.$.$.$.$.@.@.@.@.@.@.@.@.@.@.@.@.@.@.@.@.@.@.@.@.@.@.@.@.@.@.@.=.@.@.@.@.@.@.@.@.@.@.@.@.@.@.@.@.@.@.@.@.$.$.$.$.$.$.$.$.",
"@.@.@.@.@.@.@.@.@.@.@.@.@.@.@.@.@.@.@.@.@.@.@.@.@.@.@.@.@.@.@.@.@.@.@.@.@.@.@.@.@.@.@.@.@.@.@.@.@.@.@.@.@.@.@.@.@.@.@.@.@.@.@.@.@.$.@.*.] ^ U U U U U U U U U T 1 $ $ $ $ $ $ $ $ . g r.8.8.8.6.e.0.6.@.@.@.@.@.@.@.@.@.$.$.$.$.%...^ 6 . $ $ . } 9.9.8.8.8.8.8.=.@.@.@.@.@.@.@.$.$.$.$.$.$.$.$.@.@.@.@.@.@.@.@.@.@.@.@.@.@.@.@.@.@.@.@.@.@.@.@.@.@.@.@.@.@.@.@.@.@.@.@.@.@.@.@.@.@.@.@.@.@.@.@.@.@.@.@.@.@.@.@.@.@.@.@.@.@.@.@.@.@.@.@.@.@.@.@.@.@.@.@.@.@.@.@.@.@.@.@.@.@.@.@.@.@.@.@.@.@.@.@.@.@.&.&.&.&.$.#.4 . . $ $ . 4 %.$.$.$.$.$.$.$.$.$.$.$.$.$.$.$.$.@.@.@.@.@.@.@.@.@.@.@.@.@.@.@.@.@.@.@.@.@.@.@.@.@.@.@.@.@.@.@.@.@.@.@.@.@.@.@.@.@.@.@.@.@.@.@.@.@.@.@.@.@.@.@.@.@.@.@.@.@.@.@.@.@.@.@.@.@.@.@.@.@.@.@.@.@.@.@.@.@.@.@.@.@.@.@.@.@.@.@.@.@.@.@.@.@.@.@.@.@.@.@.@.@.@.@.@.@.@.@.@.@.@.@.@.@.@.@.@.@.@.@.@.@.@.@.@.@.@.@.@.@.@.@.@.@.@.@.@.@.@.@.@.@.@.@.@.@.@.@.@.@.@.@.@.@.@.@.@.$.$.$.#.` o     . .       @ f t 8 8 8 8 8 8 8 8 8 8 8 k @.@.@.@.@.@.@.@.@.@.@.@.@.@.@.@.@.@.@.@.@.@.@.@.@.@.@.@.@.@.@.@.@.@.@.@.@.@.@.@.@.@.@.@.@.@.@.@.@.@.@.@.@.@.@.@.@.@.@.@.@.@.@.@.@.*.J 7 f t 3 8.V.g.*.*.@.@.@.@.$.$.$.$.@.@.@.@.@.@.@.@.@.@.@.@.@.@.@.@.@.@.@.@.@.@.@.@.$.@.@.$.@.@.@.@.@.@.@.@.@.@.@.@.@.@.@.@.@.@.@.@.$.$.$.$.$.$.$.$.",
"@.@.@.@.@.@.@.@.@.@.@.@.@.@.@.@.@.@.@.@.@.@.@.@.@.@.@.@.@.@.@.@.@.@.@.@.@.@.@.@.@.@.@.@.@.@.@.@.@.@.@.@.@.@.@.@.@.@.@.@.@.@.@.@.@.@.*.@.( U U U U U U U U U U T 1 $ $ . $ $ $ $ % . g r.8.8.8.6.w.e.6.@.@.@.@.@.@.@.@.@.$.$.$.$.%...^ 6 . $ $ . } w.9.8.8.8.8.8.=.@.@.@.@.@.@.@.$.$.$.$.$.$.$.$.@.@.@.@.@.@.@.@.@.@.@.@.@.@.@.@.@.@.@.@.@.@.@.@.@.@.@.@.@.@.@.@.@.@.@.@.@.@.@.@.@.@.@.@.@.@.@.@.@.@.@.@.@.@.@.@.@.@.@.@.@.@.@.@.@.@.@.@.@.@.@.@.@.@.@.@.@.@.@.@.@.@.@.@.@.@.@.@.@.@.@.@.@.@.@.@.@.@.#.#.#.#.%.#.4 . . $ $ . 4 %.$.$.$.$.$.$.$.$.$.$.$.$.$.$.$.$.@.@.@.@.@.@.@.@.@.@.@.@.@.@.@.@.@.@.@.@.@.@.@.@.@.@.@.@.@.@.@.@.@.@.@.@.@.@.@.@.@.@.@.@.@.@.@.@.@.@.@.@.@.@.@.@.@.@.@.@.@.@.@.@.@.@.@.@.@.@.@.@.@.@.@.@.@.@.@.@.@.@.@.@.@.@.@.@.@.@.@.@.@.@.@.@.@.@.@.@.@.@.@.@.@.@.@.@.@.@.@.@.@.@.@.@.@.@.@.@.@.@.@.@.@.@.@.@.@.@.@.@.@.@.@.@.@.@.@.@.@.@.@.@.@.@.@.@.@.@.@.@.@.@.@.@.@.@.@.@.$.$.$.#.` .     . .       @ f t 8 8 8 8 8 8 8 8 8 8 8 k @.@.@.@.@.@.@.@.@.@.@.@.@.@.@.@.@.@.@.@.@.@.@.@.@.@.@.@.@.@.@.@.@.@.@.@.@.@.@.@.@.@.@.@.@.@.@.@.@.@.@.@.@.@.@.@.@.@.@.@.@.@.@.@.<.( 8 8 f 5 O.g.j.6.O.*.@.@.@.@.$.$.$.$.@.@.@.@.@.@.@.@.@.@.@.@.@.@.@.@.@.@.@.@.@.@.@.@.@.$.$.@.@.@.@.@.@.@.@.@.@.@.@.@.@.@.@.@.@.@.@.@.$.$.$.$.$.$.$.$.",
"@.@.@.@.@.@.@.@.@.@.@.@.@.@.@.@.@.@.@.@.@.@.@.@.@.@.@.@.@.@.@.@.@.@.@.@.@.@.@.@.@.@.@.@.@.@.@.@.@.@.@.@.@.@.@.@.@.@.@.@.@.@.@.@.@.@.=.@.^ U U U U U U U U U U T 1 $ $ . $ $ $ $ % . g r.8.8.8.6.w.e.6.@.@.@.@.@.@.@.@.@.$.$.$.$.%...^ 6 . $ $ . } w.8.8.8.8.8.8.=.@.@.@.@.@.@.@.$.$.$.$.$.$.$.$.@.@.@.@.@.@.@.@.@.@.@.@.@.@.@.@.@.@.@.@.@.@.@.@.@.@.@.@.@.@.@.@.@.@.@.@.@.@.@.@.@.@.@.@.@.@.@.@.@.@.@.@.@.@.@.@.@.@.@.@.@.@.@.@.@.@.@.@.@.@.@.@.@.@.@.@.@.@.@.@.@.@.@.@.@.@.@.@.@.@.@.@.@.@.@.@.@.#.#.#.#.#.#.#.4   . $ $ . 4 %.$.$.$.$.$.$.$.$.$.$.$.$.$.$.$.$.@.@.@.@.@.@.@.@.@.@.@.@.@.@.@.@.@.@.@.@.@.@.@.@.@.@.@.@.@.@.@.@.@.@.@.@.@.@.@.@.@.@.@.@.@.@.@.@.@.@.@.@.@.@.@.@.@.@.@.@.@.@.@.@.@.@.@.@.@.@.@.@.@.@.@.@.@.@.@.@.@.@.@.@.@.@.@.@.@.@.@.@.@.@.@.@.@.@.@.@.@.@.@.@.@.@.@.@.@.@.@.@.@.@.@.@.@.@.@.@.@.@.@.@.@.@.@.@.@.@.@.@.@.@.@.@.@.@.@.@.@.@.@.@.@.@.@.@.@.@.@.@.@.@.@.@.@.@.@.@.$.$.$.$.] o     . .       @ f t 8 8 8 8 8 8 8 8 8 8 8 k @.@.@.@.@.@.@.@.@.@.@.@.@.@.@.@.@.@.@.@.@.@.@.@.@.@.@.@.@.@.@.@.@.@.@.@.@.@.@.@.@.@.@.@.@.@.@.@.@.@.@.@.@.@.@.@.@.@.@.@.@.@.@.@.*.z 5 f 3 H r.c.e.@.$.*.@.@.@.@.$.$.$.$.@.@.@.@.@.@.@.@.@.@.@.@.@.@.@.@.@.@.@.@.@.@.@.@.] @.=.*.@.@.@.@.@.@.@.@.@.@.@.@.@.@.@.@.@.@.@.@.$.$.$.$.$.$.$.$.",
"@.@.@.@.@.@.@.@.@.@.@.@.@.@.@.@.@.@.@.@.@.@.@.@.@.@.@.@.@.@.@.@.@.@.@.@.@.@.@.@.@.@.@.@.@.@.@.@.@.@.@.@.@.@.@.@.@.@.@.@.@.@.@.@.@.*.$.] ^ U U U U U U U U U U T 1 $ $ $ $ $ $ $ % $ g r.6.8.e.6.w.e.6.@.@.@.@.@.@.@.@.@.$.$.$.$.$...^ 6 . . $ . } 9.6.9.w.w.w.w.*.@.@.@.@.@.@.@.$.$.$.$.@.@.$.*.*.$.$.@.@.@.@.@.@.@.@.@.@.@.@.@.@.@.@.@.@.@.O.O.@.@.@.@.@.@.@.@.@.@.@.@.@.$.@.$.@.@.@.@.@.@.@.@.@.@.@.@.@.@.@.@.@.@.@.@.@.@.@.@.@.@.@.@.@.$.$.$.@.@.@.@.@.@.@.@.@.@.@.@.@.@.@.@.@.@.@.@.@.@.@.@.*.*.*.*.&.&.*.*.3   . . $ . 4 #.@.@.@.@.@.@.@.@.@.@.@.@.@.@.@.@.@.@.@.@.@.@.@.@.@.@.@.@.@.@.@.@.@.@.@.@.@.@.@.@.@.@.@.@.@.@.@.@.@.@.@.@.@.@.@.@.@.@.@.@.@.@.@.@.@.@.@.@.*.=.@.*.=.=.=.=.=.=.=.=.=.=.=.=.=.=.=.=.*.*.*.*.*.*.=.=.=.=.=.=.=.=.=.=.=.=.=.*.*.$.$.$.] O.@.*.@.@.@.@.@.@.@.@.@.@.@.@.@.@.@.@.@.@.@.@.@.@.@.@.@.@.@.@.@.@.@.@.@.@.@.@.@.@.@.@.@.@.@.@.@.@.@.@.@.@.@.@.@.@.@.@.@.@.@.@.$.*.$.$.] O     .         @ f i 8 8 8 8 8 8 8 8 8 8 8 k @.@.@.@.@.@.@.@.@.@.@.@.@.@.@.@.@.@.@.@.@.@.@.@.@.@.@.@.@.@.@.@.@.@.@.@.@.@.@.@.@.@.@.@.@.@.@.@.@.@.@.@.@.@.@.@.@.@.@.@.*.@.$.=.A 7 8 7 d e.x.g.*.$.*.$.@.@.@.@.$.$.$.$.@.@.@.@.@.@.@.@.@.@.@.@.@.@.@.@.@.@.@.@.@.@.@.@.@.@.@.@.@.@.@.@.@.@.@.@.@.@.@.@.@.@.@.@.@.@.@.@.$.$.$.$.$.$.$.$.",
"@.@.@.@.@.@.@.@.@.@.@.@.@.@.@.@.@.@.@.@.@.@.@.@.@.@.@.@.@.@.@.@.@.@.@.@.@.@.@.@.@.@.@.@.@.@.@.@.@.@.@.@.@.@.@.@.@.@.@.@.@.@.@.@.$.*.O.( ! U U U U U U U U U U T 1 $ $ $ $ $ $ $ % $ g r.6.8.e.6.e.e.6.@.@.@.@.@.@.@.@.@.$.$.$.$.%...^ 6 . . $ . } 9.6.9.w.w.w.w.*.@.@.@.@.@.@.@.$.$.$.$.$.@.@.@.@.@.$.=.=.*.*.$.$.@.$.$.$.$.*.*.*.*.*.$.$.@.@.@.@.@.@.@.@.@.@.@.@.@.@.@.@.@.@.@.@.@.@.@.@.@.@.@.@.@.@.@.@.@.@.@.@.@.@.@.@.@.@.@.@.@.@.@.@.$.$.$.@.@.@.@.@.@.@.@.@.@.@.@.@.@.@.@.@.@.@.@.@.@.@.@.*.*.&.&.&.@.@.@.3   . . $ . 4 #.@.@.@.@.@.@.@.@.@.@.@.@.@.@.@.@.@.@.@.@.@.@.@.@.@.@.@.@.@.@.@.@.@.@.@.@.@.@.@.@.@.@.@.@.@.@.@.@.@.@.@.@.@.@.@.@.@.@.@.@.@.@.@.@.@.@.@.@.@.@.6.@.( ( ( ( ] ] ] ] ] ] ] ] ( ( ( ( ( ( ( ( ( ( ( ( ( ( ( ( ( ( ( ( ( ( ( ( ] O.@.=.*.=.*.*.@.@.@.$.=.*.@.@.@.@.@.@.@.@.@.@.@.@.@.@.@.@.@.@.@.@.@.@.@.@.@.@.@.@.@.@.@.@.@.@.@.@.@.@.@.@.@.@.@.@.@.@.@.@.@.@.@.@.@.@.$.$.$.$.] O     .         @ f 8 8 8 8 8 8 8 8 8 8 8 8 k @.@.@.@.@.@.@.@.@.@.@.@.@.@.@.@.@.@.@.@.@.@.@.@.@.@.@.@.@.@.@.@.@.@.@.@.@.@.@.@.@.@.@.@.@.@.@.@.@.@.@.@.@.@.@.@.@.@.@.@.@.@.=.( 8 t 8 8 @.c.x.=.$.*.$.@.@.@.@.@.$.$.$.$.@.@.@.@.@.@.@.@.@.@.@.@.@.@.@.@.@.@.@.@.@.@.@.@.@.@.@.@.@.@.@.@.@.@.@.@.@.@.@.@.@.@.@.@.@.@.@.@.$.$.$.$.$.$.$.$.",
"@.@.@.@.@.@.@.@.@.@.@.@.@.@.@.@.@.@.@.@.@.@.@.@.@.@.@.@.@.@.@.@.@.@.@.@.@.@.@.@.@.@.@.@.@.@.@.@.@.@.@.@.@.@.@.@.@.@.@.@.@.@.@.@.*.$.] ! U U U U U U U U U U U T 1 $ $ $ $ $ $ $ % $ g r.6.8.e.6.e.0.5.@.@.@.@.@.@.@.@.@.$.$.$.$.%...^ 6 . . $ . } r.6.9.w.9.9.w.*.@.@.@.@.@.@.@.$.$.$.$.<.=.$.@.$.@.@. .] ] ]  . . .........@.@.@.@.@.@.@.@.$.$.@.@.@.@.@.@.@.@.@.@.@.@.@.@.@.@.@.@.@.@.@.@.@.@.@.@.@.@.@.@.@.@.@.@.@.@.@.@.@.@.@.@.@.@.@.@.@.@.@.@.@.@.@.@.@.@.@.@.@.@.@.@.@.@.@.@.@.@.@.@.@.@.@.@.@.@.=.*.@...3 . . . $ . 4 #.@.@.@.@.@.@.@.@.@.@.@.@.@.@.@.@.@.@.@.@.@.@.@.@.@.@.@.@.@.@.@.@.@.@.@.@.@.@.@.@.@.@.@.@.@.@.@.@.@.@.@.@.@.@.@.@.@.@.@.@.@.@.@.@.@.@.@.@.=.6.( x 7 7 7 7 t t t t t t t t 8 8 8 8 8 8 8 8 8 9 7 7 7 7 7 7 7 7 7 7 7 7 7 7 t f z x D J ^ '  .@.$.=.*.*.$.@.@.@.@.@.@.@.@.@.@.@.@.@.@.@.@.@.@.@.@.@.@.@.@.@.@.@.@.@.@.@.@.@.@.@.@.@.@.@.@.@.@.@.@.@.@.@.@.@.@.@.@.@.$.$.$.$.] O               @ f 8 8 8 8 8 8 8 8 8 8 8 8 k @.@.@.@.@.@.@.@.@.@.@.@.@.@.@.@.@.@.@.@.@.@.@.@.@.@.@.@.@.@.@.@.@.@.@.@.@.@.@.@.@.@.@.@.@.@.@.@.@.@.@.@.@.@.@.@.@.@.@.@.@.=.O.h 8 d t J j.j.e.@.*.$.@.@.@.@.@.@.$.$.$.$.@.@.@.@.@.@.@.@.@.@.@.@.@.@.@.@.@.@.@.@.@.@.@.@.@.@.@.@.@.@.@.@.@.@.@.@.@.@.@.@.@.@.@.@.@.@.@.@.$.$.$.$.$.$.$.$.",
"@.@.@.@.@.@.@.@.@.@.@.@.@.@.@.@.@.@.@.@.@.@.@.@.@.@.@.@.@.@.@.@.@.@.@.@.@.@.@.@.@.@.@.@.@.@.@.@.@.@.@.@.@.@.@.@.@.@.@.@.@.@.@.@.*.O.( U U U U U U U U U U U U T 1 $ $ $ $ $ $ $ % $ g r.6.8.e.6.e.0.5.@.@.@.@.@.@.@.@.@.$.$.$.$.%...^ 6 . . $ . } 9.6.e.e.e.e.e.*.@.@.@.@.@.@.@.$.$.$.$.@. .) ^ J J J J J J J J J J J J J J U U U T T ^ ^ ( ( ( ) ) ] ] ] ] ] ]  .@.@.@.@.@.@.@.@.@.@.@.@.@.@.@.@.@.@.@.@.@.@.@.@.@.@.@.@.@.@.@.@.@.@.@.@.@.@.@.@.@.@.@.@.@.@.@.@.@.@.@.@.@.@.@.@.@.@.@.@.@.@.@.$.@.@.$. .] ^ J 3 . . . $ . 4 #.@.@.@.@.@.@.@.@.@.@.@.@.@.@.@.@.@.@.@.@.@.@.@.@.@.@.@.@.@.@.@.@.@.@.@.@.@.@.@.@.@.@.@.@.@.@.@.@.@.@.@.@.@.@.@.@.@.@.@.@.@.@.@.@.@.@.@.@.] h 7 t 8 8 8 8 8 8 8 8 8 8 8 8 8 8 8 8 8 8 t t t t d d d d d d d d d d d d d d 8 8 7 7 7 7 8 8 d h x A J ! ( ] @.@.@.@.@.@.@.@.@.@.@.@.@.@.@.@.@.@.@.@.@.@.@.@.@.@.@.@.@.@.@.@.@.@.@.@.@.@.@.@.@.@.@.@.@.@.@.@.@.@.@.@.$.$.$.$.] O               @ f 8 8 8 8 8 8 8 8 8 8 8 8 k @.@.@.@.@.@.@.@.@.@.@.@.@.@.@.@.@.@.@.@.@.@.@.@.@.@.@.@.@.@.@.@.@.@.@.@.@.@.@.@.@.@.@.@.@.@.@.@.@.@.@.@.@.@.@.@.@.@.@.@.@.6.Z 7 8 8 h 8.c.f.$.<.$.@.@.@.@.@.@.@.$.$.$.$.@.@.@.@.@.@.@.@.@.@.@.@.@.@.@.@.@.@.@.@.@.@.@.@.@.@.@.@.@.@.@.@.@.@.@.@.@.@.@.@.@.@.@.@.@.@.@.@.$.$.$.$.$.$.$.$.",
"@.@.@.@.@.@.@.@.@.@.@.@.@.@.@.@.@.@.@.@.@.@.@.@.@.@.@.@.@.@.@.@.@.@.@.@.@.@.@.@.@.@.@.@.@.@.@.@.@.@.@.@.@.@.@.@.@.@.@.@.@.@.@.@.*.] U U U U U U U U U U U U U T 1 $ $ $ $ $ $ $ % . g r.8.8.8.6.w.e.6.@.@.@.@.@.@.@.@.@.$.$.$.$.%...^ 6 . $ $ . ) <.<.<.w.w.w.w.=.@.@.@.@.$.*.=. .] ^ ^ U Y Y Y Y Y Y Y Y Y Y U U U U U U U U U U U U U U U U J Y J J J J J Y Y U U U U U U U U ^ ^ ^ ^ ] ] ]  . . . . .@.@.@.@.@.@.@.@.@.@.@.@.@.@.@.@.@.@.@.@.@.@.@.@.@.@.@.@.@.@.@.@.@.@.@.@.@.@.@.@.@.@.@.@.=.@.] ^ J D Y J = . . . $ . q -.@.$.$.@.@.@.@.@.@.@.@.@.@.@.@.@.@.@.@.@.@.@.$.$.$.$.$.$.$.$.$.*.$.$.$.$.$.*.*.@.@.@.@.@.@.@.$.$.$.@.@.@.@.@.@.@.@.@.=.=.=.*.@.@.@.] ! H 8 8 8 8 8 8 8 8 8 8 8 9 t t t 8 t d f f 7 7 7 9 7 8 8 8 8 8 8 t t t t 8 8 8 8 8 8 8 8 8 8 8 8 8 8 8 8 8 8 8 8 8 f h x A J ! ( ] @.@.=.<.*.*.*.$.@.@.@.$.@.@.@.@.@.@.@.*.$.@.$.$.$.$.*.*.*.*.*.*.*.*.*.*.$.$.$.$.%.%.%.%.@.@.@.=.] o       .       @ f e 8 8 8 8 8 8 8 8 8 8 8 k @.@.@.@.@.@.@.@.@.@.@.@.@.@.@.@.@.@.@.@.@.@.@.@.@.@.@.@.@.@.@.@.@.@.@.@.@.@.@.@.@.@.@.@.@.@.@.@.@.@.@.@.@.@.@.@.@.@.@.@.=.H 9 8 8 8 ] c.g.<.$.@.$.@.@.@.@.@.@.@.$.$.$.$.@.@.@.@.@.@.@.@.@.@.@.@.@.@.@.@.@.@.@.@.@.@.@.@.@.@.@.@.@.@.@.@.@.@.@.@.@.@.@.@.@.@.@.@.@.@.@.@.$.$.$.$.$.$.$.$.",
"@.@.@.@.@.@.@.@.@.@.@.@.@.@.@.@.@.@.@.@.@.@.@.@.@.@.@.@.@.@.@.@.@.@.@.@.@.@.@.@.@.@.@.@.@.@.@.@.@.@.@.@.@.@.@.@.@.@.@.@.@.@.@.@.@.( J U U U U U U U U U U U U T 1 $ $ $ $ $ $ $ * . g r.8.8.8.6.w.e.6.@.@.@.@.@.@.@.@.@.$.$.$.$.%...^ 6 . $ $ . x  .^ ]  . . . . .) ) ) ] ] ( ^ U U U J J J U U J J J J U U J J U U U U U U U U U U U U U U U J J J J J J J J J J J J J J J J J U U U J D D H H J J J J J J U U ^ ^ ^ ^  . . . ...@.@.@.@.@.@.@.@.@.@.@.@.@.@.@.@.@.@.@. . . . . . . . . . . . .( ^ J J U J U D . . . . $ $ . P #.$.@.%.$.$.$.$.$.$.%.%.%.%.$.$.#.#.@.@.@.@.@.@.*.*.*.*.*.*.*.*.*.*.*.*.*.*.*.*.@.@.@.@.*.*.*.*.=.=.*.$.=.*.@.O.' ( J H x z k h t 8 8 8 8 8 8 8 8 8 8 8 8 8 7 5 9 8 8 t 8 3 @ X         X X X + + @ @ @ 3 3 3 3 8 8 8 8 d d t t 8 8 8 8 8 8 8 8 8 8 8 8 8 8 8 7 3 9 8 d t h x A ^ ( ] @.$.*.=.=.=.*.$.@.@.@.@.@.@.@.@.@.@.@.@.@.@.@.@.@.@.@.@.@.@.@.@.@.@.@.@.@.@.] ..*.n X     . .       @ f e 8 8 8 8 8 8 8 8 8 8 8 k @.@.@.@.@.@.@.@.@.@.@.@.@.@.@.@.@.@.@.@.@.@.@.@.@.@.@.@.@.@.@.@.@.@.@.@.@.@.@.@.@.@.@.@.@.@.@.@.@.@.@.@.@.@.@.@.@.@.@.*.] f d 5 8 D x.g.8.*.$.@.@.@.@.@.@.@.@.@.$.$.$.$.@.@.@.@.@.@.@.@.@.@.@.@.@.@.@.@.@.@.@.@.@.@.@.@.@.@.@.@.@.@.@.@.@.@.@.@.@.@.@.@.@.@.@.@.@.@.@.@.$.$.$.$.$.$.$.$.",
"@.@.@.@.@.@.@.@.@.@.@.@.@.@.@.@.@.@.@.@.@.@.@.@.@.@.@.@.@.@.@.@.@.@.@.@.@.@.@.@.@.@.@.@.@.@.@.@.@.@.@.@.@.@.@.@.@.@.@.@.@.@.@.@.O.^ J U U U U U U U U U U U U T 4 . . . . . . $ * . g r.8.e.8.6.w.e.6.@.@.@.@.@.@.@.@.@.$.$.$.$.%...^ 6 . $ $ . 6 )  .] ] ] ] ] J F F F D F U T J J F F J U U U U U J J J J J J U U U U U U T U U U U U U U U J J J J J J J J J J J J J J J J J J J J J J J J J U U T U T T T T F F F F J J J U T T T T T T T T T T T T T T T T T T T T J J J J J J J J J J U J H H J J ^ J D y . . . . . $   r | ,.-.>.=.=.=.=.=.=.=.=.=.=.=.=.=.=.=.*.*.*.&.*.=.=.=.=.=.=.=.=.=.=.=.=.=.=.=.=.6.=.*.@.@.@.] ] ( J D x z l f 8 8 8 8 8 8 8 7 7 8 8 f f f f f f f 8 8 f f f 8 8 8 3 @ X X                                       @ @ @ @ 3 7 9 3 8 8 8 8 8 8 8 e 8 i f f l f 8 8 8 8 8 f 8 8 7 7 3 7 f h h x D J J ^ ] @.@.@.@.*.*.*.*.*.*.*.=.=.=.=.=.=.=.=.=.=.=.=.=.=.=.=.=.=.#.6.=.^ =   . . . .       @ f 8 8 8 8 8 8 8 8 8 8 8 8 k @.@.@.@.@.@.@.@.@.@.@.@.@.@.@.@.@.@.@.@.@.@.@.@.@.@.@.@.@.@.@.@.@.@.@.@.@.@.@.@.@.@.@.@.@.@.@.@.@.@.@.@.@.@.@.@.@.@.@.@.h 8 8 t k e.C.9.*.@.*.$.@.@.@.@.@.@.@.@.$.$.$.$.@.@.@.@.@.@.@.@.@.@.@.@.@.@.@.@.@.@.@.@.@.@.@.@.@.@.@.@.@.@.@.@.@.@.@.@.@.@.@.@.@.@.@.@.@.@.@.@.$.$.$.$.$.$.$.$.",
"@.@.@.@.@.@.@.@.@.@.@.@.@.@.@.@.@.@.@.@.@.@.@.@.@.@.@.@.@.@.@.@.@.@.@.@.@.@.@.@.@.@.@.@.@.@.@.@.@.@.@.@.@.@.@.@.@.@.@.@.@.@.@.@.] ! J U U U U U U U U U U U U T 4 . . . . . . $ * . g r.8.8.8.6.e.0.6.@.@.@.@.@.@.@.@.@.$.$.$.$.%...^ 6 . . $ .   4 P ` ] ] ] ] / T T T T I I I I P P P I I I I I I I I I I I I I I I I I I I I I I I I I I I I I J J J I J I I I I I I I I I I I J I I I I I I J J I I I I I I I I I I I I I I I I I I I I I I I I I I I I I I I I I I I I I I I I I I J I I J F J T ^ P F j o   . & . . . . . - n I S I I I I F F F F I I I F G G F F F F H J H F F F F F F F F F F F F F F F F A x h f e 9 3 = < 3 3 3 3 3 3 3 4 4 7 7 4 3 3 4 9 4 3 3 3 3 3 3 3 3 3 3 3 3 = O X     X                                                   X   O O O O 3 3 4 4 4 4 7 7 7 7 7 7 7 7 4 4 4 7 7 7 7 4 4 4 3 < = = < 3 7 8 e g V D F F F F F F J J J J J J J J J J J J J J J J J J J P x O       . . .       @ f e 8 8 8 8 8 8 8 8 8 8 8 k @.@.@.@.@.@.@.@.@.@.@.@.@.@.@.@.@.@.@.@.@.@.@.@.@.@.@.@.@.@.@.@.@.@.@.@.@.@.@.@.@.@.@.@.@.@.@.@.@.@.@.@.@.@.@.@.@.@.*.D 9 9 h 8 @.g.9.5.@.@.*.*.@.@.@.@.@.@.@.@.$.$.$.$.@.@.@.@.@.@.@.@.@.@.@.@.@.@.@.@.@.@.@.@.@.@.@.@.@.@.@.@.@.@.@.@.@.@.@.@.@.@.@.@.@.@.@.@.@.@.@.@.$.$.$.$.$.$.$.$.",
"@.@.@.@.@.@.@.@.@.@.@.@.@.@.@.@.@.@.@.@.@.@.@.@.@.@.@.@.@.@.@.@.@.@.@.@.@.@.@.@.@.@.@.@.@.@.@.@.@.@.@.@.@.@.@.@.@.@.@.@.*.@.@.@.^ J J U U U U U U U U U U U U T 1 . . . $ $ $ $ * $ g y.6.e.e.6.e.8.5.@.@.@.@.@.$.@.@.$.$.@.@.$.] ^ ^ 6 . . . . . . o o = = = = = = = = & & = = = = = = = = = = = = & & & = & & = = = = = = = = - = = = = = = = = = = = = = = = = = = = = = = = - - - - = = = = & & = = = = = = = = = = - - - - = = = = = = = = = = = = = = = = = = = = = = = = = = = = - - - - = = = = = = . . . . . . $ $ $ $ . . . . . . $ $ . . $ $ $ $ . . . . . . O .                                                                                                                                                                 .                                                                                                                                                                 . . . .     = g y 8 8 8 8 8 8 8 8 8 8 8 k @.@.@.@.@.@.@.@.@.@.@.@.@.@.@.@.@.@.@.@.@.@.@.@.@.@.@.@.@.@.@.@.@.@.@.@.@.@.@.@.@.@.@.@.@.@.@.@.@.@.@.@.@.@.@.@.@.*.( 9 8 f 3 J c.g.8.@.$.$.$.*.@.@.@.@.@.@.@.@.$.$.$.$.@.@.@.@.@.@.@.@.@.@.@.@.@.@.@.@.@.@.@.@.@.@.@.@.@.@.@.@.@.@.@.@.@.@.@.@.@.@.@.@.@.@.@.@.@.@.@.@.$.$.$.$.$.$.$.$.",
"@.@.@.@.@.@.@.@.@.@.@.@.@.@.@.@.@.@.@.@.@.@.@.@.@.@.@.@.@.@.@.@.@.@.@.@.@.@.@.@.@.@.@.@.@.@.@.@.@.@.@.@.@.@.@.@.@.@.@.@.$.@.@.] J J U U U U U U U U U U U U U T 1 . . . $ $ $ $ % $ g y.6.6.8.6.e.8.6.@.@.@.@.@.*.@.@.*.=.=.@.^ J H I 4 . . . . . . . . . . . . . . . . . . . . . . . . . . . . . . . . . . . . . . . . . . . . . . . . $ $ . . . . . . . . . . . . . . . . . . . . . . . . . . . . . . . . . . . . . . . . . . . . . . . . . . . . . . . . . . . . . . . . . . . . . . . . . . . . . . $ $ $ . . . . . $ $ $ $ $ $ $ $ $ $ $ $ $ $ $ $ $ $ $ $ $ $ $ $ * . .               . .             . .                                                               .                       . . . . . .       . . . . . .   .     . .             .                                               . .                                                                                                 . . . .   = f y 8 8 8 8 8 8 8 8 8 8 8 k @.@.@.@.@.@.@.@.@.@.@.@.@.@.@.@.@.@.@.@.@.@.@.@.@.@.@.@.@.@.@.@.@.@.@.@.@.@.@.@.@.@.@.@.@.@.@.@.@.@.@.@.@.@.@.@.*.@.d 8 t 7 x g.c.e.=.*.$.$.$.$.@.@.@.@.@.@.@.@.$.$.$.$.@.@.@.@.@.@.@.@.@.@.@.@.@.@.@.@.@.@.@.@.@.@.@.@.@.@.@.@.@.@.@.@.@.@.@.@.@.@.@.@.@.@.@.@.@.@.@.@.$.$.$.$.$.$.$.$.",
"@.@.@.@.@.@.@.@.@.@.@.@.@.@.@.@.@.@.@.@.@.@.@.@.@.@.@.@.@.@.@.@.@.@.@.@.@.@.@.@.@.@.@.@.@.@.@.@.@.@.@.@.@.@.@.@.@.@.@.@.@.@.@.( J U U U U U U U U U U U U U U T 1 $ $ $ $ $ $ $ % . g y.6.6.e.6.w.e.6.@.@.@.@.@.$.@.@.$.$.] ^ T J F P 6 . . . . . . $ $ $ $ $ $ $ $ $ $ $ $ $ * * * * * * * $ $ $ $ $ $ $ $ $ $ $ $ $ $ $ $ $ $ * * * * * * * * * * * * * * * * * * * * * * * $ * * * * $ $ $ $ $ $ $ $ $ $ * * * * * $ $ * * * $ $ $ $ $ $ $ $ $ $ $ $ $ $ $ $ $ $ $ $ $ $ $ $ $ $ $ $ $ $ $ $ $ $ $ $ $ $ $ . $ $ . . $ $ $ $ $ $ $ $ $ $ $ $ $ $ $ $ $ $ $ $ $ $ $ $ * . . . . . . . . . . . . . . . . . . . . . . . . . . . . . . . .   . .         . . . .   . . . . . . . . .     . .       . . . . . . . . . . . . . . . . . . . . . . . . . . . . . .       . . .     .       . . .       .       . . . . . . . . . . . . . .   .   . .         . . . .   . . . . . . . . . . . .   . .                 . . . .   = f y 8 8 8 8 8 8 8 8 8 8 8 k @.@.@.@.@.@.@.@.@.@.@.@.@.@.@.@.@.@.@.@.@.@.@.@.@.@.@.@.@.@.@.@.@.@.@.@.@.@.@.@.@.@.@.@.@.@.@.@.@.@.@.@.@.@.@.@.@.D 8 7 7 f <.c.g.=.@.=.$.$.$.$.@.@.@.@.@.@.@.@.$.$.$.$.@.@.@.@.@.@.@.@.@.@.@.@.@.@.@.@.@.@.@.@.@.@.@.@.@.@.@.@.@.@.@.@.@.@.@.@.@.@.@.@.@.@.@.@.@.@.@.@.$.$.$.$.$.$.$.$.",
"@.@.@.@.@.@.@.@.@.@.@.@.@.@.@.@.@.@.@.@.@.@.@.@.@.@.@.@.@.@.@.@.@.@.@.@.@.@.@.@.@.@.@.@.@.@.@.@.@.@.@.@.@.@.@.@.@.@.@.@.@.@.@.! U U U U U U U U U U U U U U U T 1 $ $ $ $ $ $ $ % $ g y.6.6.e.6.w.e.6.@.@.@.$.@.@.=.=.@.U T T U ^ H F = . . . $ $ $ $ $ $ $ $ $ $ $ $ $ $ $ $ $ $ $ $ $ $ $ $ $ $ $ $ $ $ $ $ $ $ $ $ $ $ $ $ $ $ $ $ $ $ $ $ $ $ $ $ $ $ $ $ $ $ $ $ $ $ $ $ $ $ $ $ $ $ $ $ $ $ $ $ $ $ $ $ $ $ $ $ $ $ $ $ $ $ $ $ $ $ $ $ $ $ $ $ $ $ $ $ $ $ $ $ $ $ $ $ $ $ $ $ $ . . . . . . . . . . $ $ $ $ $ $ $ $ $ $ $ $ $ $ $ $ $ $ $ $ $ $ $ $ $ $ $ $ $ $ * $ . . . . . . . . . . . . . . . . . . . . . . . . . . . . . . . . . . . .   . .   . . . . . . . . . . . .     .       . . . . . . . . . . . . . . . . . . . . . . . . . . . . . . .       .   .     .       . . .     . .     . . . . . . . . . . . . . . . . . . . .       . . . . . . . . . . . . . . . . . . . . .             .   . . .     @ f t 8 8 8 8 8 8 8 8 8 8 8 k @.@.@.@.@.@.@.@.@.@.@.@.@.@.@.@.@.@.@.@.@.@.@.@.@.@.@.@.@.@.@.@.@.@.@.@.@.@.@.@.@.@.@.@.$.@.@.@.@.@.@.@.@.@.@.@.J 8 8 f 5 ] x.r.e.=.@.@.$.$.$.$.@.@.@.@.@.@.@.@.$.$.$.$.@.@.@.@.@.@.@.@.@.@.@.@.@.@.@.@.@.@.@.@.@.@.@.@.@.@.@.@.@.@.@.@.@.@.@.@.@.@.@.@.@.@.@.@.@.@.@.@.$.$.$.$.$.$.$.$.",
"@.@.@.@.@.@.@.@.@.@.@.@.@.@.@.@.@.@.@.@.@.@.@.@.@.@.@.@.@.@.@.@.@.@.@.@.@.@.@.@.@.@.@.@.@.@.@.@.@.@.@.@.@.@.@.@.@.@.@.@.*.$.^ ^ U U U U U U U U U U U U U U U T 1 $ $ $ $ $ $ $ % . g r.6.e.e.6.e.e.<.@.@.$.$.$.$.@.] J J J J J J ^ n . . . . $ $ $ $ $ $ $ $ $ $ $ $ $ $ $ $ $ $ $ $ $ $ $ $ $ $ $ $ $ $ $ $ $ $ $ $ $ $ $ $ $ $ $ $ $ $ $ $ $ $ $ $ $ $ $ $ $ $ $ $ $ $ $ $ $ $ $ $ $ $ $ $ $ $ $ $ $ $ $ $ $ $ $ $ $ $ $ $ $ $ $ $ $ $ $ $ $ $ $ $ $ $ $ $ $ $ $ $ $ $ $ $ $ $ $ $ $ $ $ $ $ $ $ $ $ $ $ $ $ $ $ $ $ $ $ $ $ $ $ $ $ $ $ $ $ $ $ $ $ $ $ $ $ $ $ $ $ $ . . .       . . .     . . . . . . . .           .         . . . . . . .       . . . . . . . . . .       . . .   . . . . . . . . . . .           . . . . . . . . . . . . . . .         . . . .             . . .       . .           . . .       . . .       . . .         . .   . . . . . . . . . . . . .       .     . . .   . . .   . . . .   @ y t 8 8 8 8 8 8 8 8 8 8 8 k @.@.@.@.@.@.@.@.@.@.@.@.@.@.@.@.@.@.@.@.@.@.@.@.@.@.@.@.@.@.@.@.@.@.@.@.@.@.@.@.@.@.$.$.$.*.*.*.$.@.$.*.=.=.@.( 8 f d 5 H j.x.f.@.@.@.@.@.@.@.@.@.@.@.@.@.@.@.@.@.@.@.@.@.@.@.@.@.@.@.@.@.@.@.@.@.@.@.@.@.@.@.@.@.@.@.@.@.@.@.@.@.@.@.@.@.@.@.@.@.@.@.@.@.@.@.@.@.@.@.@.$.$.$.$.$.$.$.$.",
"@.@.@.@.@.@.@.@.@.@.@.@.@.@.@.@.@.@.@.@.@.@.@.@.@.@.@.@.@.@.@.@.@.@.@.@.@.@.@.@.@.@.@.@.@.@.@.@.@.@.@.@.@.@.@.@.@.@.@.@.*.O.! U U U U U U U U U U U U U U U U T 1 $ $ $ $ $ $ $ % . g r.6.e.e.6.9.e.<.@.$.@.@.@.( U J ^ ^ ( ^ J ) n . . . . $ $ $ $ $ $ $ $ $ $ $ $ $ $ $ $ $ $ $ $ $ $ $ $ $ $ $ $ $ $ $ $ $ $ $ $ $ $ $ $ $ $ $ $ $ $ $ $ $ $ $ $ $ $ $ $ $ $ $ $ $ $ $ $ $ $ $ $ $ $ $ $ $ $ $ $ $ $ $ $ $ $ $ $ $ $ $ $ $ $ $ $ $ $ $ $ $ $ $ $ $ $ $ $ $ $ $ $ $ $ $ $ $ $ $ $ $ $ $ $ $ $ $ $ $ $ $ $ $ $ $ $ $ $ $ $ $ $ $ $ $ $ $ $ $ $ $ $ $ $ $ $ $ $ $ $ $ $ $ . . . .     . .       . . . . . . . .         . . . .     . . . . . .         . .     . . . . . .         . .     . .   . . . . . . .                   . . . . . .                     . . .         . . . .         . .             . .         . .       . . .         . .         . . . . . . .             .     . .         .   . . . .   O y t 8 8 8 8 8 8 8 8 8 8 8 k @.@.@.@.@.@.@.@.@.@.@.@.@.@.@.@.@.@.@.@.@.@.@.@.@.@.@.@.@.@.@.@.@.@.@.@.@.@.@.@.@.@.@.$.$.$.@.@.*.*.@.@.( D f 3 8 h : h f.f.j.$.@.@.@.@.@.@.@.@.@.@.@.@.@.@.@.@.@.@.@.@.@.@.@.@.@.@.@.@.@.@.@.@.@.@.@.@.@.@.@.@.@.@.@.@.@.@.@.@.@.@.@.@.@.@.@.@.@.@.@.@.@.@.@.@.@.@.@.@.$.$.$.$.$.$.$.$.",
"@.@.@.@.@.@.@.@.@.@.@.@.@.@.@.@.@.@.@.@.@.@.@.@.@.@.@.@.@.@.@.@.@.@.@.@.@.@.@.@.@.@.@.@.@.@.@.@.@.@.@.@.@.@.@.@.@.@.@.@.*.( U J U U U U U U U U U U U U U U U T 1 $ $ $ $ $ $ $ % . g r.6.e.e.6.9.e.1.@.$.@. .] H D H ^ D ^ ( J n = . $ $ $ $ $ $ $ $ $ $ $ $ $ $ $ $ $ $ $ $ $ $ $ $ $ $ $ $ $ $ $ $ $ $ $ $ $ $ $ $ $ $ $ $ $ $ $ $ $ $ $ $ $ $ $ $ $ $ $ $ $ $ $ $ $ $ $ $ $ $ $ $ $ $ $ $ $ $ $ $ $ $ $ $ $ $ $ $ $ $ $ $ $ $ $ $ $ $ $ $ $ $ $ $ $ $ $ $ $ $ $ $ $ $ $ $ $ $ $ $ $ $ $ $ $ $ $ $ $ $ $ $ $ $ $ $ $ $ $ $ $ $ $ $ $ $ $ $ $ $ $ $ $ $ $ $ $ $ $ $ $ $ . . . .                                                     . . .                     . .                                                                       .                                                                                                                                                                     . .       @ f y 8 8 8 8 8 8 8 8 8 8 8 k @.@.@.@.@.@.@.@.@.@.@.@.@.@.@.@.@.@.@.@.@.@.@.@.@.@.@.@.@.@.@.@.@.@.@.@.@.@.@.@.@.@.@.@.@.@.*.*.*.] A h 8 7 7 8 8 f A 8.c.g.=. .@.@.@.@.@.@.@.@.@.@.@.@.@.@.@.@.@.@.@.@.@.@.@.@.@.@.@.@.@.@.@.@.@.@.@.@.@.@.@.@.@.@.@.@.@.@.@.@.@.@.@.@.@.@.@.@.@.@.@.@.@.@.@.@.@.@.@.@.$.$.$.$.$.$.$.$.",
"@.@.@.@.@.@.@.@.@.@.@.@.@.@.@.@.@.@.@.@.@.@.@.@.@.@.@.@.@.@.@.@.@.@.@.@.@.@.@.@.@.@.@.@.@.@.@.@.@.@.@.@.@.@.@.@.@.@.@.@.@.! U J U U U U U U U U U U U U U U U T 1 $ $ $ $ $ $ $ * . g r.6.e.e.6.e.8.6.@.$.@.] ( H ! J D J ^ F r $ $ . . $ $ $ $ $ $ $ $ $ $ $ $ $ $ $ $ $ $ $ $ $ $ $ $ $ $ $ $ $ $ $ $ $ $ $ $ $ $ $ $ $ $ $ $ $ $ $ $ $ $ $ $ $ $ $ $ $ $ $ $ $ $ $ $ $ $ $ $ $ $ $ $ $ $ $ $ $ $ $ $ $ $ $ $ $ $ $ $ $ $ $ $ $ $ $ $ $ $ $ $ $ $ $ $ $ $ $ $ $ $ $ $ $ $ $ $ $ $ $ $ $ $ $ $ $ $ $ $ $ $ $ $ $ $ $ $ $ $ $ $ $ $ $ $ $ $ $ $ $ $ $ $ $ $ $ $ $ $ $ $ $ . . . .                                                                                                                                                       . .                                                                                                                                                                     . .       @ y t 8 8 8 8 8 8 8 8 8 8 8 k @.@.@.@.@.@.@.@.@.@.@.@.@.@.@.@.@.@.@.@.@.@.@.@.@.@.@.@.@.@.@.@.@.@.@.@.@.@.@.@.@.@.@.@.@.] ^ H 8 8 8 8 5 5 f A @.r.V.g.g.8.@.@.@.@.@.@.@.@.@.@.@.@.@.@.@.@.@.@.@.@.@.@.@.@.@.@.@.@.@.@.@.@.@.@.@.@.@.@.@.@.@.@.@.@.@.@.@.@.@.@.@.@.@.@.@.@.@.@.@.@.@.@.@.@.@.@.@.@.@.@.$.$.$.$.$.$.$.$.",
"@.@.@.@.@.@.@.@.@.@.@.@.@.@.@.@.@.@.@.@.@.@.@.@.@.@.@.@.@.@.@.@.@.@.@.@.@.@.@.@.@.@.@.@.@.@.@.@.@.@.@.@.@.@.@.@.$.@.*.$.] ! J J U U U U U U U U U U U U U U U T 1 $ $ $ $ $ $ $ * . g r.6.8.8.6.e.e.6.=.=.] J J ^ D F / P j 4 . . . $ $ % $ $ . . . . . . . . . . . . . . . . . . . . . . . . . . . . . . . . . . . . . . . . . . . . . . . . . . . . . . . . . . . . . . . . . . . . . . . . . . . . . . . . . . . . . . . . . . . . . . . . . . . . . . . . . . . . . . . . . . . . . . . . . . . . . . . . . . . . . . . . . . . . . . . . . . . . . . . $ $ $ $ $ $ = $ . . .       X X X X       .   . . X X X X X X X X X     X X   .     . .           .         o = 3 8 4 5 5 5 3 3 3 3 3 4 3 4 3 4 4 3 3 3 3 3 3 3 3 3 3 3 3 3 4 4 4 3 3 3 3 3 3 3 3 3 3 3 3 3 5 5 5 5 3 3 3 3 3 3 3 3 3 3 3 3 3 4 4 4 4 4 4 4 4 3 4 4 4 4 4 3 3 3 3 3 3 3 3 3 5 5 5 5 3 4 4 4 4 4 4 4 3 3 3 3 3 4 4 4 7 3 @ O       . . .       O f y 8 8 8 8 8 8 8 8 8 8 8 k @.@.@.@.@.@.@.@.@.@.@.@.@.@.@.@.@.@.@.@.@.@.@.@.@.@.@.@.@.@.@.@.@.@.$.$.*.=.@.@.=.@.] ( z d 8 t 3 8 t x H @.f.g.c.c.c.c.x.*. .=.$.$.$.$.@.@.@.@.@.@.@.@.@.@.@.@.@.@.@.@.@.@.@.@.@.@.@.@.@.@.@.@.@.@.@.@.@.@.@.@.@.@.@.@.@.@.@.@.@.@.@.@.@.@.@.@.@.@.@.@.@.@.@.@.@.@.@.@.$.$.$.$.$.$.$.$.",
"@.@.@.@.@.@.@.@.@.@.@.@.@.@.@.@.@.@.@.@.@.@.@.@.@.@.@.@.@.@.@.@.@.@.@.@.@.@.@.@.@.@.@.@.@.@.@.@.@.@.@.@.@.@.@.@.@.@.*.@.( U J U U U U U U U U U U U U U U U U T 1 $ $ $ $ $ $ $ * . g r.6.8.8.6.6.e.6.@.] ^ J J J ) W C 4 = . . . . $ $ . . $ $ 6 6 4 4 4 4 4 4 r r r r r r r r r r r r r r r r r r r r r r r r r r r r r r r r r r r r r r r r r r r r r r r r r r r r r r r r r r r r r r r r r r r r r r r r r r r r r r r r r r r r r r r r r r r r r r r r r r r r r r r r r r r r r r r r r r r r r r r r r r r r r r r r r r r r r r r r r r r r r r r w r r r w 6 > = o + + + + + + + + # o O O O O O O + + + + + + X X + + + + o X     . . .       . .     X O e f f y t 8 8 8 8 8 8 8 f f f f f g g g f f f f f f f f g g f f f f f f f f f f f f f f f f f f f f f f f f f f h h f h h h h h h h f f f f f f f f f f h h h h h h f f f f f f f f f f h f f g f f h h h h h h h h h h h f 8 8           .       O f y 8 8 8 8 8 8 8 8 8 8 8 k @.@.@.@.@.@.@.@.@.@.@.@.@.@.@.@.@.@.@.@.@.@.@.@.@.@.@.@.@.@.@.@.=.=.$.@.@.*.@.O.! Z f 8 7 5 9 8 x ' 8.r.c.c.c.x.f.r.e.6.*.@.O.@.$.$.$.$.@.@.@.@.@.@.@.@.@.@.@.@.@.@.@.@.@.@.@.@.@.@.@.@.@.@.@.@.@.@.@.@.@.@.@.@.@.@.@.@.@.@.@.@.@.@.@.@.@.@.@.@.@.@.@.@.@.@.@.@.@.@.@.@.$.$.$.$.$.$.$.$.",
"@.@.@.@.@.@.@.@.@.@.@.@.@.@.@.@.@.@.@.@.@.@.@.@.@.@.@.@.@.@.@.@.@.@.@.@.@.@.@.@.@.@.@.@.@.@.@.@.@.@.@.@.@.@.@.@.@.@.$.] ! J J U U U U U U U U U U U U U U U U T 1 . . $ $ $ $ $ * . g i.6.8.8.6.6.e.6.( ^ ! ^ J W I c *   . . $ . . . . . = 4 e y y y y y y y y 8 8 8 8 8 8 8 8 8 8 8 8 8 8 8 8 8 8 8 8 8 8 8 8 8 8 8 8 8 8 8 8 8 8 8 8 8 8 8 8 8 8 8 8 8 8 8 8 8 8 8 8 8 8 8 8 8 8 8 8 8 8 8 8 8 8 8 8 8 8 8 8 8 8 8 8 8 8 8 8 8 8 8 8 8 8 8 8 8 8 8 8 8 8 8 8 8 8 8 8 8 8 8 8 8 8 8 8 8 8 8 8 8 8 8 8 8 8 8 8 8 8 8 8 t t t t 8 8 8 8 8 8 8 8 8 8 8 8 8 8 e e r r e r e 7 > @ + + + + + + + + @ @ @ @ @ @ @ @ @ @ @ @ + + X + + + + + o + o X                 X   O 6 f f 8 8 8 t t t t t t t t t t t t t e e t t t t t t t t t y t t t t t t t t t t t t t t t t t t t t t t t t t t d d d d d d d d d d t t t t t t t y y y d d d d d d t t t t t t t t t t f f f f f f f f d d d d d d f f f f t 8 @         .       @ f y 8 8 8 8 8 8 8 8 8 8 8 k @.@.@.@.@.@.@.@.@.@.@.@.@.@.@.@.@.@.@.@.@.@.@.@.@.@.@.@.@.@.@.@.=.=.*.$.O.( A h 8 8 8 8 z J @.5.g.g.c.j.f.e.5.5.=.@.O.] O.@.@.@.@.$.$.$.@.@.@.@.@.@.@.@.@.@.@.@.@.@.@.@.@.@.@.@.@.@.@.@.@.@.@.@.@.@.@.@.@.@.@.@.@.@.@.@.@.@.@.@.@.@.@.@.@.@.@.@.@.@.@.@.@.@.@.@.@.@.@.@.$.$.$.$.$.$.$.$.",
"@.@.@.@.@.@.@.@.@.@.@.@.@.@.@.@.@.@.@.@.@.@.@.@.@.@.@.@.@.@.@.@.@.@.@.@.@.@.@.@.@.@.@.@.@.@.@.@.@.@.@.@.@.@.@.@.@.@.@.( U J U U U U U U U U U U U U U U U U U T 1 . $ $ $ $ $ $ * . g i.6.8.8.6.<.w.1.J D ^ ( H b 1 . $ . . . . . . o o 6 8 8 8 8 8 8 8 8 8 8 8 8 8 8 8 8 8 8 8 8 8 8 8 8 8 8 8 8 8 8 8 8 8 8 8 8 8 8 8 8 8 8 8 8 8 8 8 8 8 8 8 8 8 8 8 8 8 8 8 8 8 8 8 8 8 8 8 8 8 8 8 8 8 8 8 8 8 8 8 8 8 8 8 8 8 8 8 8 8 8 8 8 8 8 8 8 8 8 8 8 8 8 8 8 8 8 8 8 8 8 8 8 8 8 8 8 8 8 8 8 8 8 8 8 8 8 8 8 8 8 8 8 8 8 8 t t t t 8 8 8 8 8 8 8 8 8 8 8 8 8 8 8 8 8 8 8 8 y 6 : X X X X X + + + + + @ @ @ @ @ @ @ @ @ @ @ + + X X + + + + o o o +                 X   > g f f f f f y f f f f f f y y f f f y y y f d d d d d d d y y y y f f f f f d f d d d d d f f f f f f f f f f f f f f f f f f f f f f f f f f f f f f f f f f f f f f f f f f f f f f f f f f g g f f f f f f f f f f f f f f h h 4 X   .   .       @ f y 8 8 8 8 8 8 8 8 8 8 8 k @.@.@.@.@.@.@.@.@.@.@.@.@.@.@.@.@.@.@.@.@.@.@.@.@.@.@.@.@.@.@.@.=. .J Z f 3 8 8 t x ^  .f.c.V.c.g.r.6.=.=.*.@.O.@.@.@.@.$.@.@.$.$.@.$.$.@.@.@.@.@.@.@.@.@.@.@.@.@.@.@.@.@.@.@.@.@.@.@.@.@.@.@.@.@.@.@.@.@.@.@.@.@.@.@.@.@.@.@.@.@.@.@.@.@.@.@.@.@.@.@.@.@.@.@.@.@.@.@.@.$.$.$.$.$.$.$.$.",
"@.@.@.@.@.@.@.@.@.@.@.@.@.@.@.@.@.@.@.@.@.@.@.@.@.@.@.@.@.@.@.@.@.@.@.@.@.@.@.@.@.@.@.@.@.@.@.@.@.@.@.@.*.*.*.*.*.*.@.J U U U U U U U U U U U U U U U U U U U T 1 $ $ $ $ $ $ $ $ . g r.6.6.6.1.9.6.) J ^ J F e $ $ $ . . . . . . X O 5 8 8 8 8 8 8 8 8 8 8 8 8 8 8 8 8 8 8 8 8 8 8 8 8 8 8 8 8 8 8 8 8 8 8 8 8 8 8 8 8 8 8 8 8 8 8 8 8 8 8 8 8 8 8 8 8 8 8 8 8 8 8 8 8 8 8 8 8 8 8 8 8 8 8 8 8 8 8 8 8 8 8 8 8 8 8 8 8 8 8 8 8 8 8 8 8 8 8 8 8 8 8 8 8 8 8 8 8 8 8 8 8 8 8 8 8 8 8 8 8 8 8 8 8 8 8 8 8 8 8 8 8 8 8 8 8 8 8 8 8 8 8 8 8 8 8 8 8 8 8 8 8 8 8 8 8 8 8 8 8 t 5 @ X + + + + + + + + @ @ @ @ @ @ @ @ @ @ @ @ @ @ @ @ @ @ @ @ @ O @ @         . . . . .   = f f f f t 8 8 8 8 8 7 9 5 8 8 8 8 8 8 8 8 8 8 8 8 8 8 8 8 8 8 8 8 8 8 8 8 8 8 8 8 8 8 8 8 t t t t t t t t t t t t t t t t t t t t t t t t t t t t t t t t t t t t t t t t t t t t t t t t t t t t t t t t t t t t f f f f f f f h 7 X   . . . . .   @ f t 8 8 8 8 8 8 8 8 8 8 8 k @.@.@.@.@.@.@.@.@.@.@.@.@.@.@.@.@.@.@.@.@.@.@.@.*.@.=.@.*.*.] J k f 3 5 8 t D ] e.g.V.c.g.e.=.*.$.@.@.@.@.@.@.@.@.@.@.@.@.@.@.@.@.@.@.@.@.@.@.@.@.@.@.@.@.@.@.@.@.@.@.@.@.@.@.@.@.@.@.@.@.@.@.@.@.@.@.@.@.@.@.@.@.@.@.@.@.@.@.@.@.@.@.@.@.@.@.@.@.@.@.@.@.@.@.@.@.@.@.@.$.$.$.$.$.$.$.$.",
"@.@.@.@.@.@.@.@.@.@.@.@.@.@.@.@.@.@.@.@.@.@.@.@.@.@.@.@.@.@.@.@.@.@.@.@.@.@.@.@.@.@.@.@.@.@.@.@.@.@.@.@.*.*.*.*.@.*.O.H U U U U U U U U U U U U U U U U U U U T 1 $ $ $ $ $ $ $ $ . g r.e.6.e.r.6.` ^ F J z o   $ $ $ $ $ . .   @ 3 8 t 8 8 8 8 8 8 8 8 8 8 8 8 8 8 8 8 8 8 8 8 8 8 8 8 8 8 8 8 8 8 8 8 8 8 8 8 8 8 8 8 8 8 8 8 8 8 8 8 8 8 8 8 8 8 8 8 8 8 8 8 8 8 8 8 8 8 8 8 8 8 8 8 8 8 8 8 8 8 8 8 8 8 8 8 8 8 8 8 8 8 8 8 8 8 8 8 8 8 8 8 8 8 8 8 8 8 8 8 8 8 8 8 8 8 8 8 8 8 8 8 8 8 8 8 8 8 8 8 8 8 8 8 8 8 8 8 8 8 8 8 8 8 8 8 8 8 8 8 8 8 8 8 8 8 8 8 8 8 8 8 t 5 @ X + + + + + + + + @ @ @ @ @ @ @ @ @ @ @ @ @ @ @ @ @ @ @ @ O O @ @         . .   .     = f f d f d 8 7 7 7 9 5 3 3 3 3 3 3 3 3 3 3 3 3 3 3 3 3 3 3 3 3 3 3 3 3 3 3 3 3 3 3 3 3 3 3 3 3 3 3 3 3 3 3 3 3 3 3 3 3 3 3 3 3 3 3 3 3 3 3 3 3 3 3 3 3 3 3 3 3 3 3 3 3 3 3 3 3 3 3 3 3 3 3 9 9 9 9 9 9 9 9 9 9 9 9 3 3 3 3 3 5 9 7 4       . . .     @ f t 8 8 8 8 8 8 8 8 8 8 8 k @.@.@.@.@.@.@.@.@.@.@.@.@.@.@.@.@.@.@.@.$.@.@.@.$.*.=.O.( Z 8 3 9 8 x ( <.9.c.m.g.9.5.6.*.$.@.$.$.@.@.@.@.@.@.@.@.@.@.@.@.@.@.@.@.@.@.@.@.@.@.@.@.@.@.@.@.@.@.@.@.@.@.@.@.@.@.@.@.@.@.@.@.@.@.@.@.@.@.@.@.@.@.@.@.@.@.@.@.@.@.@.@.@.@.@.@.@.@.@.@.@.@.@.@.@.@.@.@.@.@.@.$.$.$.$.$.$.$.$.",
"@.@.@.@.@.@.@.@.@.@.@.@.@.@.@.@.@.@.@.@.@.@.@.@.@.@.@.@.@.@.@.@.@.@.@.$.@.@.@.@.@.@.@.@.@.@.@.@.@.@.@.@.*.*.*.*.$.@.( J U U U U U U U U U U U U U U U U U U U T 4 . . . . . . . $ . g r.e.8.6.6.` } } n 4     . $ $ $ . . . o o 3 8 t 8 8 8 8 8 8 8 8 8 8 8 8 8 8 8 8 8 i i i i 8 8 8 8 8 8 8 8 8 8 8 8 8 8 8 8 8 8 8 8 8 8 8 8 8 8 8 8 8 8 8 8 8 8 8 8 8 8 8 8 8 8 8 8 8 8 8 8 8 8 8 8 8 8 8 8 8 8 8 8 8 8 8 8 8 8 8 8 8 8 8 8 8 8 8 8 8 8 8 8 8 8 8 8 8 8 8 8 8 8 8 8 8 8 8 8 8 8 8 8 8 8 8 8 8 8 8 8 8 8 8 8 8 8 8 8 8 8 8 8 8 8 8 8 8 8 8 8 8 8 8 8 8 8 8 8 8 8 8 8 y 5 @ X @ @ @ @ + @ @ @ @ @ @ @ @ @ @ @ @ @ @ @ @ @ @ @ @ @ @ @ O O @ @             . . .   = f f f d t 3 3 3 3 3 3 3 3 3 3 3 3 3 3 3 3 3 3 3 3 3 3 3 3 3 3 3 3 3 3 3 3 3 3 3 3 3 3 3 3 5 5 5 5 5 5 5 5 5 5 5 9 5 5 5 5 5 5 5 5 5 5 5 5 5 5 5 5 5 5 5 5 5 5 5 5 5 5 5 5 5 5 5 5 5 5 5 5 3 3 3 3 3 3 3 3 3 3 3 3 3 3 3 3 3 3 3 3 3       . .       @ f t 8 8 8 8 8 8 8 8 8 8 8 k @.@.@.@.@.@.@.@.@.@.@.@.@.@.@.@.@.@.@.@.@.$.$.*.O.^ z 8 3 3 h J *.w.c.c.x.r.=.$.@.@.O. .@.@.*.$.@.@.@.@.@.@.@.@.@.@.@.@.@.@.@.@.@.@.@.@.@.@.@.@.@.@.@.@.@.@.@.@.@.@.@.@.@.@.@.@.@.@.@.@.@.@.@.@.@.@.@.@.@.@.@.@.@.@.@.@.@.@.@.@.@.@.@.@.@.@.@.@.@.@.@.@.@.@.@.@.@.@.@.@.$.$.$.$.$.$.$.$.",
"@.@.@.@.@.@.@.@.@.@.@.@.@.@.@.@.@.@.@.@.@.@.@.@.@.@.@.@.@.@.@.@.@.@.@.$.@.@.@.@.@.@.@.@.@.@.@.@.@.@.@.@.*.*.*.*.$.] H ^ U U U U U U U U U U U U U U U U U U U T - . . . . . . . * . g r.1.9.1.` @.` p .   O o . . $ . .   . > 6 8 t 8 5 8 8 8 8 8 8 8 8 8 8 8 8 8 8 8 8 i i i i 8 8 8 8 8 8 8 8 8 8 8 8 8 8 8 8 8 8 8 8 8 8 8 8 8 8 8 8 8 8 8 8 8 8 8 8 8 8 8 8 8 8 8 8 8 8 8 8 8 8 8 8 8 8 8 8 8 8 8 8 8 8 8 8 8 8 8 8 8 8 8 8 8 8 8 8 8 8 8 8 8 8 8 8 8 8 8 8 8 8 8 8 8 8 8 8 8 8 8 8 8 8 8 8 8 8 8 8 8 8 8 8 8 8 8 8 8 8 8 8 8 8 8 8 8 8 8 8 8 8 8 8 8 8 8 8 8 8 8 8 t 5 @ X @ @ @ + + + @ @ @ @ @ @ @ @ @ @ @ @ @ @ @ @ @ @ @ @ @ @ O O @ @           . . . .   = f f f f t 3 3 3 3 3 3 3 3 3 3 3 3 3 3 3 3 3 3 3 3 3 3 3 3 3 3 3 3 3 3 3 3 3 3 3 3 3 3 3 3 3 3 3 3 3 3 3 3 3 3 3 3 3 3 3 3 3 3 3 3 3 3 3 3 3 3 3 3 3 3 3 3 3 3 3 3 3 3 3 3 3 3 3 3 3 3 3 3 3 3 3 3 3 3 3 3 3 3 3 3 3 3 3 3 3 5 3 7 3   .   . .       @ y t 8 8 8 8 8 8 8 8 8 8 8 k @.@.@.@.@.@.@.@.@.@.@.@.@.@.@.@.@.@.@.@.=.] H k 9 8 h A ] 6.f.g.j.f.6.$.=.@.@.@.@.@.*.*.$.@.@.@.@.@.@.@.@.@.@.@.@.@.@.@.@.@.@.@.@.@.@.@.@.@.@.@.@.@.@.@.@.@.@.@.@.@.@.@.@.@.@.@.@.@.@.@.@.@.@.@.@.@.@.@.@.@.@.@.@.@.@.@.@.@.@.@.@.@.@.@.@.@.@.@.@.@.@.@.@.@.@.@.@.@.@.@.$.$.$.$.$.$.$.$.",
"@.@.@.@.@.@.@.@.@.@.@.@.@.@.@.@.@.@.@.@.@.@.@.@.*.$.@.@.@.@.*.=.@.@.@.@.@.@.@.@.@.*.=.=.*.*.*.*.@.@.@.@.] ] ] ] ( ^ ! ! U U U U U U U U U U U U U U U U U U U T = . . $ $ . . $ $ $ g 7.8.9.@.} P r . . . . . . . $ $ . . > 6 y 8 8 8 8 8 8 8 8 8 8 8 8 8 8 8 8 8 i i 8 8 8 i i 8 8 8 8 8 8 8 8 8 8 8 8 8 8 8 8 3 9 8 8 8 8 8 8 8 8 8 8 8 8 8 8 d d d t 8 8 8 8 8 8 8 8 8 8 8 8 t t t t t t 8 8 8 8 8 8 8 8 8 8 8 8 8 8 8 8 8 8 8 8 8 8 8 8 8 7 9 9 7 7 8 8 8 8 8 8 8 8 8 8 8 8 8 7 7 7 9 9 7 7 7 7 8 8 8 8 8 8 8 8 8 8 8 8 8 8 8 8 8 8 8 8 8 8 f f f f t t t y f f f f f 8 @ @ @ @ @ @ @ @ : : : : : : : : : : 3 3 3 3 3 3 3 3 3 3 3 3 < < 4 @                 .   = f f f f 8 3 3 3 3 3 3 3 3 3 3 3 3 3 3 3 3 3 3 3 3 3 3 3 3 3 3 3 3 3 3 3 3 3 3 3 3 3 3 3 3 3 3 3 3 3 3 3 3 3 3 3 3 3 3 3 3 3 3 3 3 3 3 3 3 3 3 3 3 3 3 3 3 3 3 3 3 3 3 3 3 3 3 3 3 3 3 3 3 3 3 3 3 3 3 3 3 3 3 3 3 3 3 3 3 3 3 3 4 3   . . . .       @ y 8 8 8 8 8 8 8 8 8 8 8 8 k @.@.@.@.*.$.@.@.*.@.@.O.@.@.*.*.*.@.] J 8 8 8 f ! @.r.g.g.w.=.*.$.@.@.@.@.@.@.@.@.@.@.@.@.@.@.@.@.@.@.@.@.@.@.@.@.@.@.@.@.@.@.@.@.@.@.@.@.@.@.@.@.@.@.@.@.@.@.@.@.@.@.@.@.@.@.@.@.@.@.@.@.@.@.@.@.@.@.@.@.@.@.@.@.@.@.@.@.@.@.@.@.@.@.@.@.@.@.@.@.@.@.@.@.@.@.@.@.@.@.@.$.$.$.$.$.$.$.$.",
"@.@.@.@.@.@.@.@.@.@.@.@.@.@.@.@.@.@.@.@.@.@.@.@.@.@.@.$.@.$.*.*.*.*.*.*.$.$.$.$.@.@. .] ] ] ] ] ^ ^ ^ ^ U U U U ! ! ^ ! U U U U U U U U U U U U U U U U U U U T = . . $ . . . $ * $ q q.y.-.P g . . . $ . . . . = . . . 6 6 t t 8 8 8 8 8 8 8 8 8 8 8 8 8 8 8 8 8 i i i 8 8 i i 8 8 8 8 8 8 8 8 8 8 8 8 8 8 8 8 8 7 8 8 8 8 8 8 8 8 7 7 7 7 7 7 7 7 7 7 9 9 7 7 7 7 8 8 7 7 7 9 9 3 3 3 8 8 8 7 7 9 9 9 9 7 8 8 8 8 8 8 8 8 t d f f f f f f h h f h h h k k k k Z Z A Z Z A A A A A D D H H H H H H J J U U T T T T ^ ^ ^ ^ ( ( ( ( ) ) ) ) ) )  . . . .@.@.@.@.@.@.@.@.=.] 5 5 f f y t t t t t t t t t t t t t 8 8 8 8 8 8 8 8 8 8 8 8 8 8 g 7             . . .   = f f f t 7 3 3 3 3 3 3 3 3 3 3 3 3 3 3 3 3 3 3 3 3 3 3 3 3 3 3 3 3 3 3 3 3 3 3 3 3 3 3 3 3 3 3 3 3 3 3 3 3 3 3 3 3 3 3 3 3 3 3 3 3 3 3 3 3 3 3 3 3 3 3 3 3 3 3 3 3 3 3 3 3 3 3 3 3 3 3 3 3 3 3 3 3 3 3 3 3 3 3 3 3 3 3 3 3 3 3 3 4 3   . . . .       @ t 8 8 8 8 8 8 8 8 8 d 8 8 x @.@.@.@.$.$.@.@.@.@.@.$.*.=.*.' H f 7 f A ] 6.r.g.w.=.*.@.@.@.@.@.@.@.@.@.@.@.@.$.$.*.$.@.@.@.@.@.@.@.@.@.@.@.@.@.@.@.@.@.@.@.@.@.@.@.@.@.@.@.@.@.@.@.@.@.@.@.@.@.@.@.@.@.@.@.@.@.@.@.@.@.@.@.@.@.@.@.@.@.@.@.@.@.@.@.@.@.@.@.@.@.@.@.@.@.@.@.@.@.@.@.@.@.@.@.@.@.@.@.@.$.$.$.$.$.$.$.$.",
"@.@.@.@.@.@.@.@.@.@.@.@.@.@.@.@.@.@.@.@.@.@.@.@.@.@.*.=.*.$.@.@.] ] ] ] ( ( ( ( ! U J H J J J J J J J J ^ ^ ^ ! ^ ! ! ! U U U U U U U U U U U U U U U U U U U T = . . $ $ $ $ $ * $ ; I / g = . . % $ . . . . . . . = 8 y t 7 7 8 8 8 8 8 8 8 8 8 8 8 8 8 8 8 8 i i i i 8 8 8 8 8 8 8 8 8 8 8 8 8 8 8 8 8 8 8 8 8 8 8 8 h h h h h h h h h h k k x x x x Z Z Z A A A A A H H J J J J J J ( ( ( ( ( ( ( ' ] ] ] ] ] ] ] ] ] O.O.@.@.@.@.@.@.@.@.@.@.@.$.$.@.@.@.@.$.$.*.*.*.*.=.=.=.=.=.=.*.*.*.*.*.*.=.=.=.=.=.=.%.$.%.%.$.*.*.*.$.$.$.$.$.$.$.$.$.$.%.%.%.$.$.$.$.@.$.@.$.$.h t 8 8 8 8 8 8 8 8 8 8 8 8 8 8 8 8 8 8 8 8 8 8 8 8 8 8 8 8 6 6 f 4     . . . . . . .   = f h f 8 9 3 3 3 3 3 3 3 3 3 3 3 3 3 3 3 3 3 3 3 3 3 3 3 3 3 3 3 3 3 3 3 3 3 3 3 3 3 3 3 3 3 3 3 3 3 3 3 3 3 3 3 3 3 3 3 3 3 3 3 3 3 3 3 3 3 3 3 3 3 3 3 3 3 3 3 3 3 3 3 3 3 3 3 3 3 3 3 3 3 3 3 3 3 3 3 3 3 3 3 3 3 3 3 3 3 3 3 4 3   . . . .       @ t 8 8 8 8 8 8 8 8 8 t 9 8 H @.@.@.@.@.@.$.$.=.*.$.@.( D h f x ^ =.8.6.8.6.*.*.$.@.@.<.=.@.@.@.@.@.@.@.@.@.@.@.@.@.@.@.@.@.@.@.@.@.@.@.@.@.@.@.@.$.$.@.@.@.@.@.@.@.@.@.@.@.@.@.@.@.@.@.@.@.@.@.@.@.@.@.@.@.@.@.@.@.@.@.@.@.@.@.@.@.@.@.@.@.@.@.@.@.@.@.@.@.@.@.@.@.@.@.@.@.@.@.@.@.@.@.@.@.@.@.@.@.@.$.$.$.$.$.$.$.$.",
"@.@.@.@.@.@.@.@.@.@.@.@.@.@.@.@.@.@.@.@.@.@.@.@.O. .] ] ' ( ^ ! J J J J U U U U H J J U ! ! ! ! J J J J ! ! ! ! ! ! ! ! U U U U U U U U U U U J U U U U U U U T = . . $ $ $ $ $ $ $ * . . . $ $ $ % $ . . . . . = 6 e 8 3 5 t t 8 8 8 8 8 8 8 8 8 8 8 8 8 8 8 8 8 i i i 8 8 8 8 8 8 8 8 8 8 8 8 8 8 8 8 8 8 8 8 8 z U ] @.@.@.@.@.@.@.@.@.@.*.$.*.*.=.=.=.=.=.=.=.*.*.*.*.*.*.*.*.*.*.*.*.*.*.*.*.*.=.*.*.*.*.*.*.*.=.*.*.*.*.*.*.*.*.*.*.*.*.$.$.@.@.@.@.@.@.@.@.@.@.@.@.@.@.@.@.@.@.@.@.@.@.@.@.@.$.$.........@.@.@.@.@.@.@.@.@.@.@.@.@.@.@.@.$.$.$.$.@.@.@.@.@.@.@.@. .<.T 8 7 7 8 8 8 8 8 8 8 8 8 8 8 8 8 8 9 9 9 9 9 9 9 9 7 9 9 9 4 4 8 3     . . . . . . .   = f f t 7 9 3 3 3 3 3 3 3 3 3 3 3 3 3 3 3 3 3 3 3 3 3 3 3 3 3 3 3 3 3 3 3 3 3 3 3 3 3 3 3 3 3 3 3 3 3 3 3 3 3 3 3 3 3 3 3 3 3 3 3 3 3 3 3 3 3 3 3 3 3 3 3 3 3 3 3 3 3 3 3 3 3 3 3 3 3 3 3 3 3 3 3 3 3 3 3 3 3 3 3 3 3 3 3 3 3 5 3 3 3   . . . . .   . @ t 8 8 8 8 8 8 8 8 8 3 3 f ] @.@.@.@.@.@.@.*.@.( D x z H O.6.9.w.=.*.@. .@.=.@.@.$.*.*.*.$.@.@.@.@.@.@.@.@.@.] ] ] ] @.@.@.@.@.@.@.@.@.@.@.@.@.@.$.$.@.@.@.@.@.@.@.@.@.@.@.@.@.@.@.@.@.@.@.@.@.@.@.@.@.@.@.@.@.@.@.@.@.@.@.@.@.@.@.@.@.@.@.@.@.@.@.@.@.@.@.@.@.@.@.@.@.@.@.@.@.@.@.@.@.@.@.@.@.@.@.@.$.$.$.$.$.$.$.$.",
"*.*.*.*.*.*.*.*.@.@.@.@.O.O.O.O.] ] ] ] ( ^ U U U U U U U U U U U U U U U U U U ! ! ! ! J J J J J J J J U U U U ! ! ! ! U U U U U U U U U U U J J J J U U ~ U F $ $ $ $ $ $ $ $ $ $ $ $ $ $ $ $ $ . $ $ $ . * 6 8 8 8 8 8 8 8 8 8 8 8 8 8 8 8 8 8 8 8 8 8 8 8 8 8 8 8 8 8 8 8 8 8 8 8 8 8 8 8 8 8 d d 8 8 t z J ] @.=.*.@.@.@.@.@.@.@.@.@.@.@.@.@.@.@.@.@.@.@.@.@.@.@.@.@.@.@.@.@.@.@.@.@.@.@.@.@.@.@.@.@.@.@.@.@.@.@.@.@.@.@.@.@.@.@.@.@.@.@.@.@.@.@.@.@.@.@.@.@.@.@.@.@.@.@.@.@.@.@.@.@.@.@.@.@.@.@.@.@.@.@.@.@.@.@.@.@.@.@.@.@.@.@.@.@.@.@.@.@.@.@.@.@.@.@.@.@.@.@.@.*.=.*.( x x x x x z z z k k k k k k k k k k k k k k k k z z z z z l j 6 . . . . . . . . .   4 A A A A 8 8 t 8 8 8 8 8 8 8 8 8 8 8 8 8 8 8 8 8 8 8 8 8 8 t t t 8 8 8 8 8 8 8 8 8 8 8 8 8 8 8 8 8 8 8 8 8 8 8 8 8 8 8 8 8 8 8 8 8 8 8 8 8 8 8 8 8 8 8 8 8 8 8 t 8 8 8 8 8 8 8 8 8 8 8 8 8 t t 8 8 8 8 8 8 8 8 8 8 8 8 8 8 t t t y e . . . . . $ . . 3 N z k k k k k k k k k H O.$.@.@.$.=.*.@.( D x H ( O.<.<.<.<.@.@.@.@.@.@.*.@.*.*.*.*.*.*.$.@.@.] ( ( U U U U U U U U U U U U ( ( ( ( ] ] ] ] @.@.@.@.*.*.*.*.=.*.$.@.@.@.@.@.@.@.@.@.@.@.@.@.@.@.@.@.@.@.@.@.@.@.@.@.@.@.@.@.@.@.@.@.@.@.@.@.@.@.@.@.@.@.@.@.@.@.@.@.@.@.@.@.@.@.@.@.$.$.$.$.$.$.$.$.@.@.@.@.@.@.@.@.",
"$.$.@.$.@.@.@.@.( ( ( ( ! ! ! ! ! ! ! ! U U U U U U U U U U U U U U U U U U U U ! ! ! ! J J J J J J J J U U U U ! ! ! ! U U U U U U U U U U U ! ^ ^ U U U D A N . $ $ $ $ $ $ $ $ $ $ $ $ $ $ $ . . . . . = 6 6 8 8 8 8 8 8 8 8 8 8 8 8 8 8 8 8 8 8 8 8 8 8 8 8 8 8 8 8 8 8 8 8 8 8 8 8 d d 8 8 8 5 8 f A ^ @.=.=.*.@.@.@.@.@.@.@.@.@.@.@.@.@.@.@.@.@.@.@.@.@.@.@.@.@.@.@.@.@.@.@.@.@.@.@.@.@.@.@.@.@.@.@.@.@.@.@.@.@.@.@.@.@.@.@.@.@.@.@.@.@.@.@.@.@.@.@.@.@.@.@.@.@.@.@.@.@.@.@.@.@.@.@.@.@.@.@.@.@.@.@.@.@.@.@.@.@.@.@.@.@.@.@.@.@.@.@.@.@.@.@.@.@.@.@.@.@.@.@.@.@.$.*.$.*.$.@.@.@.@.@.@.@.@.@.@.@.@.@.@.@.@.@.@.@.@.@.@.@.@.@.@.@.@.@.@.@.F . . . . . . . . . . v r.6.8.6...T U T T ^ ^ ^ ^ J J J J J J J J J J J J J J J J U U J J J J J J J J J J J J J J J J J J J J J J J J J J J J J J J J J J J J J J J J J J J J J J J J U U J J J J J J J J J J J J U U J J J J J J J J J J J J J J Y U U T n = . . . $ $ $ . j *.@.*.*.*.@.@.@.@.@.@.@.@.@.=.=.@.^ D A ^ O.=.=.5.6.@.@.@.@.*.*.*.*.$.$.*.*.*.@.@.] ( ( ( ( ^ ! J J U U U U U U U U U U U U J J J J J J J J ^ ^ ^ ^ ' ] ] ] ]  .@.@.*.*.*.*.*.*.*.*.@.@.@.@.@.@.@.@.@.@.@.@.@.@.@.@.@.@.@.@.@.@.@.@.@.@.@.@.@.@.@.@.@.@.@.@.@.@.@.@.@.@.@.@.@.@.@.@.@.@.@.@.@.@.@.@.@.@.@.@.@.@.@.@.",
"( ( ( ( U U U J J J J J J J U U J J J J U U U U U U U U U U U U U U U U U U U U ! ! ! ! J J J J J J J J U U U U ! ! ! ! U U U U U U U U U U U U ( ! J H D A z g . $ $ $ $ $ $ $ $ $ $ $ $ $ $ $ $ . $ $ 4 r e 7 8 8 8 8 8 8 8 8 8 8 8 8 8 8 8 8 8 8 8 8 8 8 8 8 8 8 8 8 8 8 8 8 8 8 8 8 8 8 7 3 f x ^ @.*.*.*.@.@.@.@.@.@.@.@.@.@.@.@.@.@.@.@.@.@.@.@.@.@.@.@.@.@.@.@.@.@.@.@.@.@.@.@.@.@.@.@.@.@.@.@.@.@.@.@.@.@.@.@.@.@.@.@.@.@.@.@.@.@.@.@.@.@.@.@.@.@.@.@.@.@.@.@.@.@.@.@.@.@.@.@.@.@.@.@.@.@.@.@.@.@.@.@.@.@.@.@.@.@.@.@.@.@.@.@.@.@.@.@.@.@.@.@.@.@.@.@.@.@.@.@.@.$.$.@.@.@.@.@.@.$.$.$.$.@.@.@.@.@.@.@.@.@.@.@.@.@.@.@.@.@.@.@.@.@.*.@.F $ . . . . . . . *   j r.8.9.6...J J J J J J J J U ! U U U U U U U U U ! U U U U U U U U U U U U U ! ! ! ! ! U ! U U U U U ! ! ! ! ! U ! U U U U U U U ! ! ! U U U U U U U ! ! ! U U U ! ! ! U U U U U U U ! ! ! U U U U ! ! ! ! U U U U U U U U U U U T F = . . $ $ $ $ . b <.$.$.@.@.@.@.@.@.@.=.*.@.] ( U U ( ] $.=.=.=.*.@.@.@.$.@.@.$.$.$.$.$.@.] ( ( ( U J ^ ^ ! U J J J J U U U U U U U U U U U U J J J J U U U U ! ! ! ! J J J J J J ! ^ ( ( ( (  . . . .@.@.@.@.*.*.*.*.$.@.@.@.@.@.@.@.@.@.@.@.@.@.@.@.@.@.@.@.@.@.@.@.@.@.@.@.@.@.@.@.@.@.@.@.@.@.@.@.*.*.*.*.@.@.@.@.@.@.@.@.] ] ] ] ",
"! ! ! ! ! ! ! U U J J J J J J J U U U U U U U U U U U U U U U U U U U U U U U U ! ! ! ! J J J J J J J J U U U U ! ! ! ! U U U U U U U U U U U U U H A x j F n 6 . $ $ $ $ $ $ $ $ $ $ $ $ $ $ $ . $ 1 6 g e 7 8 8 8 8 8 8 8 8 8 8 8 8 8 8 8 8 8 8 8 8 8 8 8 8 8 8 8 8 8 8 8 8 8 8 8 8 8 3 8 Z J @.*.*.@.@.=.*.@.@.@.@.@.@.@.@.@.@.@.@.@.@.@.@.@.@.@.@.@.@.@.@.@.@.@.@.@.@.@.@.@.@.@.@.@.@.@.@.@.@.@.@.@.@.@.@.@.@.@.@.@.@.@.@.@.@.@.@.@.@.@.@.@.@.@.@.@.@.@.@.@.@.@.@.@.@.@.@.@.@.@.@.@.@.@.@.@.@.@.@.@.@.@.@.@.@.@.@.@.@.@.@.@.@.@.@.@.@.@.@.@.@.@.@.@.@.@.@.@.@.@.@.@.@.@.@.@.@.@.@.@.@.@.$.$.@.@.@.@.@.@.@.@.@.@.@.@.@.@.@.@.@.@.@.@.*.@.] F $ . . . . . . . $ . x 6.6.6.6.} U U U U ! ! ! ! J J J J J J J J J J J J J J J J J J J J J J J J J J J U U U J J J J J J J J J U U U J J J J J J J J U U U U J J J J J J J J J U J J J J U J J J J J J J J J J U J J J J J U J J J J J J J J J U Y U U T A = = . $ $ $ $ . x =.=.@.@.@.@.@.@.@.@.O.] ' ( ] @.=.=.=.*.@.@.@.@.@.@.@.@.@.@.] ] ] ] ^ ! U J U U U U ! U J J ^ ^ ^ ^ U U U U U U U U U U U U U U U U ! ! ! ! ! ! ! ! U U U U ^ ^ U J J J J J U U U U ^ ^ ^ ^ ' ] ] ] @.@.$.@.@.@.@.@.@.@.@.@.@.@.@.@.@.@.@.@.@.@.@.@.@.@.@.@.@.@.@.@.@.@.@.@.@.@.@.@.@.@.@.@.] ] ] ] ! ! ! ! U U J U ",
"! ! ! ! ! ! ! ! U U U U U U U U U U U U U U U U U U U U U U U U U U U U U U U U ! ! ! ! U U U U ! ! U U U U U U ! ! ! ! ! ! ! ! U U ! ^ ^ ! J D A x z A F b r . . $ $ $ $ $ $ $ $ $ $ $ % $ . . = 4 r r e e e 8 8 8 8 8 8 8 8 8 8 8 8 8 8 8 8 8 8 8 8 8 8 8 8 8 8 8 8 8 t f f t 8 8 7 f H ( $.*.@.@.@.@.@.@.@.@.@.@.@.@.@.@.@.@.@.@.@.@.@.@.@.@.@.@.@.@.@.@.@.@.@.@.@.@.@.@.@.@.@.@.@.@.@.@.@.@.@.@.@.@.@.@.@.@.@.@.@.@.@.@.@.@.@.@.@.@.@.@.@.@.@.@.@.@.@.@.@.@.@.@.@.@.@.@.@.@.@.@.@.@.@.@.@.@.@.@.@.@.@.@.@.@.@.@.@.@.@.@.@.@.@.@.@.@.@.@.@.@.@.@.@.@.@.@.@.@.@.@.@.@.@.@.@.@.@.@.@.@.$.$.$.$.@.@.@.$.@.@.@.@.@.@.@.$.@.@.@.@.@.@.@.@.@.@.) A = . . . . . . . $ . j 9.6.8.6.( J U U U U U U U ! ! ! ! U U U U ! ! ! ! U U U U U U U U U U U U U U U U ! ! U U U U U U U U U U ! ! U U U U U U U U U U ! ! U U U U U U U U U U U U U U ! ! ! U U U U U U U U U U U U U ! ! U U U U U U U U U U U ! ! T F . . $ $ $ $ $ . b =.@.@.@.@.@.@.@.@. .] ] @.$.=.*.@.@.@.$.*.=.=.*.@. .' ( ! ^ U U U U U U U U U U U U U U U U ! ! ! ! U U U U U U U U U U U U U U U U ! ! ! ! ! ! ! ! U U U U U U U U U U U U U U U U U U U U U U U U U U U U ( ( ( ( O.O.O.O.*.*.*.*.*.$.@.@.$.$.$.$.*.*.*.*.@.@.@.@.O.O.O.O.] ] ] ] ! ! ! ! U U U U U U U U U U U U ",
"! ! ! ! ! ! ! ! U U U U U U U U U U U U U U U U U U U U U U U U U U U U U U U U ! ! ! ! U U U U ! ! U U U U U U ! ! ! ! ! ! ! ^ ^ ^ ! U J D Z M z x A A g 1 $ $ $ $ $ $ $ $ $ $ . . . . . . . = r r e e e 8 8 8 8 8 8 8 8 8 8 8 8 8 8 8 8 8 8 8 8 8 8 8 8 8 8 8 8 8 8 8 7 7 7 5 f H ] @.=.*.@.@.@.@.@.@.@.@.@.@.@.@.@.@.@.@.@.@.@.@.@.@.@.@.@.@.@.@.@.@.@.@.@.@.@.@.@.@.@.@.@.@.@.@.@.@.@.@.@.@.@.@.@.@.@.@.@.@.@.@.@.@.@.@.@.@.@.@.@.@.@.@.@.@.@.@.@.@.@.@.@.@.@.@.@.@.@.@.@.@.@.@.@.@.@.@.@.@.@.@.@.@.@.@.@.@.@.@.@.@.@.@.@.@.@.@.@.@.@.@.@.@.@.@.@.@.@.@.@.@.@.@.@.@.@.@.@.@.@.@.@.@.$.$.$.$.@.@.@.@.@.@.@.@.@.@.@.@.@.@.@.@.@.@.@.@.@.@.( D = . . . . . . . $   j 9.6.8.6.( J U U U U U U U ! ! ! ! U U U U ! U ! ! U U U U U U U U U U U U U U U U ! ! U U U U U U U U U U ! ! U U U U U U U U U U ! ! U U U U U U U U U U U U U U ! ! U U U U U U U U U U U U U U ! ! U U U U U U U U U U U ! ! ^ F . . . $ $ $ $ . b =.@.@.@.@.@.@.@.@.*.=.=.*.*.*.$.@.@.@.@. .] ( ( ^ ! J J ! ! ! U U U U U U U U U U U U U U U ! ! ! ! U U U U U U U U U U U U U U U U ! ! ! ! ! ! ! ! U U U U U U U U U U U U U U U U U U U U U U U U U U U U U U U U U U U U ( ( ( ( ] ]  .O.@.@.@.@.] ] ] ] ( ( ( ( ! ! ! ! U U U U ! ! ! ! U U U U U U U U U U U U ",
"! ! ! ! ! ! ! ! U U U U U U U U U U U U U U U U U U U U U U U U U U U U U U U U ! ! ! ! U U U U U U U U U U U U ! ! ! ! ! ! ! ! ^ J H D A M x x M j j 4 = . . $ $ $ $ $ $ $ . . . . . . . * - w e e e e e 8 8 t 8 8 8 8 8 8 8 8 8 8 8 8 8 8 8 8 8 8 8 8 8 8 8 8 f t 8 9 f d x ( O.@.*.$.@.@.*.=.@.@.@.@.@.@.@.@.@.@.@.@.@.@.@.@.@.@.@.@.@.@.@.@.@.@.@.@.@.@.@.@.@.@.@.@.@.@.@.@.@.@.@.@.@.@.@.@.@.@.@.@.@.@.@.@.@.@.@.@.@.@.@.@.@.@.@.@.@.@.@.@.@.@.@.@.@.@.@.@.@.@.@.@.@.@.@.@.@.@.@.@.@.@.@.@.@.@.@.@.@.@.@.@.@.@.@.@.@.@.@.@.@.@.@.@.@.@.@.@.@.@.@.@.@.@.@.@.@.@.@.@.@.@.@.@.@.@.@.@.$.$.$.$.@.@.@.@.@.@.@.@.@.@.@.@.@.@.@.@.@.@.@.@.*.@.^ F = $ $ $ . . . . $   j 9.6.6.6.( J U U U U U U U U U U U U U U U U U ! U U U U U U U U U U U U U U U U U U U U U U U U U U U U U U U U U U U U U U U U U U U U U U U U U U U U U U U U U U U U U U U U U U U U U U U U U U U U U U U U U U U U U U ! ! ^ F . . . $ $ $ $ . b =.@.@.@.@.@.@.@.*.=.@.@.*.*.O. .] ] ^ ! J J J J J J J U ^ ! ! U U U U U U U U U U U U U U U ! ! ! ! U U U U U U U U U U U U U U U U ! ! ! ! ! ! ! ! U U U U U U U U U U U U U U U U U U U U U U U U U U U U U U U U ! ! ! ! J J J J ^ ^ J J ^ ^ ^ ^ J J J J J J J J J J J J J J J J ! ! ! ! U U U U U U U U U U U U ",
"! ! ! ! ! ! ! ! U U U U U U U U U U U U U U U U U U U U U U U U U U U U U U U U ! ! ! ! U U U U U U U U U U U ! ! ! ! ! ! ! ! ! H A x k x z z z z g 3 . . * $ . $ $ $ $ $ $ $ . . . . . = e g 6 e e e e 8 8 t t 8 8 8 8 8 8 8 8 8 8 8 8 8 8 8 8 8 8 8 8 8 8 8 8 3 9 f k ! @.=.=.$.$.@.$.$.$.@.@.@.@.@.@.@.@.@.@.@.@.@.@.@.@.@.@.@.@.@.@.@.@.@.@.@.@.@.@.@.@.@.@.@.@.@.@.@.@.@.@.@.@.@.@.@.@.@.@.@.@.@.@.@.@.@.@.@.@.@.@.@.@.@.@.@.@.@.@.@.@.@.@.@.@.@.@.@.@.@.@.@.@.@.@.@.@.@.@.@.@.@.@.@.@.@.@.@.@.@.@.@.@.@.@.@.@.@.@.@.@.@.@.@.@.@.@.@.@.@.@.@.@.@.@.@.@.@.@.@.@.@.@.@.@.@.@.@.@.@.@.$.$.$.$.@.@.@.@.@.@.@.@.@.@.@.@.@.@.@.@.@.@.@.@.=. .^ F * $ $ $ $ $ $ . $   j w.6.6.6.( J U U U U U U U U U U U U U U U U U U U U U U U ! U U U U U U U U U U U U U U U U U U U U U U U U U U U U U U U U U U U U U U U U U U U U U U U U U U U U U U U U U U U U U U U U U U U U U U U U U U U U U U U U ! ! ^ F . . . $ $ $ $ . b =.@.@.@.@.@.=.=.$.@.O.] ( ( ( ^ ! J J J ^ ^ ! ! ^ ( U J U U U U U U U U U J U U U U U U U U ! ! ! ! U U U U U U U U U U U U U U U U ! ! ! ! ! ! ! ! U U U U U U U U U U U U U U U U U U U U U U U U U U U U U U U U U U U U J J J J J U ! ^ ^ ^ ^ ^ ^ ^ ^ ^ ! ! ! ! ^ ^ ^ ^ ! ! ! ! ! ! ! ! U U U U U U U U U U U U ",
"! ! ! ! ! ! ! ! U U U U U U U U U U U U U U U U U U U U U U U U U U U U U U U U ! ! ! ! ! ! ! ! ! ! ! ! ! ! ! ! ( ^ J H ^ J J A A z j j j A A x 6 = . . . $ $ $ $ $ $ $ $ $ $ % % . = 6 8 8 8 8 8 8 8 8 8 8 t t 8 8 8 8 8 8 8 8 8 8 t t t t t t 5 8 t t 3 5 7 8 z J @.*.@.@.@.@.@.@.@.@.@.@.@.@.@.@.@.@.@.@.@.@.@.@.@.@.@.@.@.@.@.@.@.@.@.@.@.@.@.@.@.@.@.@.@.@.@.@.@.@.@.@.@.@.@.@.@.@.@.@.@.@.@.@.@.@.@.@.@.@.@.@.@.@.@.@.@.@.@.@.@.@.@.@.@.@.@.@.@.@.@.@.@.@.@.@.@.@.@.@.@.@.@.@.@.@.@.@.@.@.@.@.@.@.@.@.@.@.@.@.@.@.@.@.@.@.@.@.@.@.@.@.@.@.@.@.@.@.@.@.@.@.@.@.@.@.@.@.@.@.@.@.@.@.$.$.$.$.@.@.@.@.@.@.@.@.@.@.@.@.@.@.@.@.@.@.@.@.=.] J F = $ $ $ $ $ $ $ * . x r.6.e.8.) ^ ! ! ! ! ! ! ! U U U U U U U U U U U U U U U U U U U U U U U U U U U U U U U U U U U U U U U U U U U U U U U U U U U U U U U U U U U U U U U U U U U U U U U U U U U U U U U U U U U U U U U U U U U U U U U U U ! ! ^ F $ $ $ $ $ $ $ . b #.$.@.@.@.@.] ' ^ ^ ^ ^ ^ ! ! ! ! ! ! ! ! ! U U U U U U U U U U U U U U U U U U U U U U U U ! ! ! ! U U U U U U U U U U U U U U U U ! ! ! ! ! ! ! ! U U U U U U U U U U U U U U U U U U U U U U U U U U U U U U U U U U U U U U U U U U U U U U U U U U U U U U U U ! ! ! ! U U U U U U U U U U U U U U U U U U U U ",
"! ! ! ! ! ! ! ! U U U U U U U U U U U U U U U U U U U U U U U U U U U U U U U U ! ! ! ! ! ! ! ! ! ! ! ! ! ! ! ! ! ! ^ ^ J D N j z h j N n n e = . $ $ $ $ $ $ $ $ $ $ $ $ $ $ . $ 1 r 6 8 8 t t t t 8 8 8 8 t t 8 8 8 8 8 8 8 8 8 8 8 8 t t 8 8 d 8 8 3 8 k H ( =.=.$.@.@.@.@.@.@.@.@.@.@.@.@.@.@.@.@.@.@.@.@.@.@.@.@.@.@.@.@.@.@.@.@.@.@.@.@.@.@.@.@.@.@.@.@.@.@.@.@.@.@.@.@.@.@.@.@.@.@.@.@.@.@.@.@.@.@.@.@.@.@.@.@.@.@.@.@.@.@.@.@.@.@.@.@.@.@.@.@.@.@.@.@.@.@.@.@.@.@.@.@.@.@.@.@.@.@.@.@.@.@.@.@.@.@.@.@.@.@.@.@.@.@.@.@.@.@.@.@.@.@.@.@.@.@.@.@.@.@.@.@.@.@.@.@.@.@.@.@.@.@.@.@.@.$.$.$.$.@.@.@.@.@.@.@.@.@.@.@.@.@.@.@.@.@.@.@.@.*.] J J % $ $ $ $ $ $ $ * . x 9.6.e.8.( ! ! ! ! ! ! ! ! U U U U U U U U U U U U U U U U U U U U U U U U U U U U U U U U U U U U U U U U U U U U U U U U U U U U U U U U U U U U U U U U U U U U U U U U U U U U U U U U U U U U U U U U U U U U U U E E U ! ! ^ F . $ $ $ $ $ $ . g ) ^ U U U U ! ! ^ ^ ^ ! U U ! ! ! ! ! ! ! ! U U U U U U U U U U U U U U U U U U U U U U U U ! ! ! ! U U U U U U U U U U U U U U U U ! ! ! ! ! ! ! ! U U U U U U U U U U U U U U U U U U U U U U U U U U U U U U U U U U U U U U U U U U U U U U U U U U U U U U U U ! ! ! ! U U U U U U U U U U U U U U U U U U U U ",
"! ! ! ! ! ! ! ! U U U U U U U U U U U U U U U U U U U U U U U U U U U U U U U U ! ! ! ! ! ! ! ! ! ! ! ! ! ! ! ! ( U H A A M z h h x M n j 4 . $ . . $ $ $ $ $ $ $ $ $ $ $ $ $ $ q r a 6 8 8 8 8 t t t 8 8 8 8 t 8 8 t t 8 8 8 8 8 8 8 8 8 8 8 8 8 9 f D ] O.@.=.@.@.O.@.@.@.@.@.@.@.@.@.@.@.@.@.@.@.@.@.@.@.@.@.@.@.@.@.@.@.@.@.@.@.@.@.@.@.@.@.@.@.@.@.@.@.@.@.@.@.@.@.@.@.@.@.@.@.@.@.@.@.@.@.@.@.@.@.@.@.@.@.@.@.@.@.@.@.@.@.@.@.@.@.@.@.@.@.@.@.@.@.@.@.@.@.@.@.@.@.@.@.@.@.@.@.@.@.@.@.@.@.@.@.@.@.@.@.@.@.@.@.@.@.@.@.@.@.@.@.@.@.@.@.@.@.@.@.@.@.@.@.@.@.@.@.@.@.@.@.@.@.@.@.@.@.$.$.$.$.@.@.@.@.@.@.@.@.@.@.@.@.@.@.@.@.@.@.@.@.@.( U T = $ $ $ $ $ $ $ $   x r.6.e.6.( ! ! ! ! ! ! ! ! U U U U U U U U U U U U U U U U U U U U U U U U U U U U U U U U U U U U U U U U U U U U U U U U U U U U U U U U U U U U U U U U U U U U U U U U U U U U U U U U U U U U U U U U U U U U U U E E U ! ! ^ F . . . $ $ $ $ . a T F J J J J U U ! ! U U U U U U ! ! ! ! ! ! U U U U U U U U U U U U U U U U U U U U U U U U ! ! ! ! U U U U U U U U U U U U U U U U ! ! ! ! ! ! ! ! U U U U U U U U U U U U U U U U U U U U U U U U U U U U U U U U U U U U U U U U U U U U U U U U U U U U U U U U ! ! ! ! U U U U U U U U U U U U U U U U U U U U ",
"! ! ! ! ! ! ! ! U U U U U U U U U U U U U U U U U U U U U U U U U U U U U U U U ! ! ! ! ! ! ! ! ! ! ! ! ! ! ! ! A A Z Z j x h h x M x g & . $ * $ $ $ $ $ $ $ $ $ $ $ $ . $ 4 r g e r e 8 8 8 8 t t t 8 8 8 t t 8 8 t t 8 8 8 8 8 8 8 8 8 8 8 8 x ^ O.@.*.$.@.@.@.@.@.$.@.@.@.@.@.@.@.@.@.@.@.@.@.@.@.@.@.@.@.@.@.@.@.@.@.@.@.@.@.@.@.@.@.@.@.@.@.@.@.@.@.@.@.@.@.@.@.@.@.@.@.@.@.@.@.@.@.@.@.@.@.@.@.@.@.@.@.@.@.@.@.@.@.@.@.@.@.@.@.@.@.@.@.@.@.@.@.@.@.@.@.@.@.@.@.@.@.@.@.@.@.@.@.@.@.@.@.@.@.@.@.@.@.@.@.@.@.@.@.@.@.@.@.@.@.@.@.@.@.@.@.@.@.@.@.@.@.@.@.@.@.@.@.@.@.@.@.@.@.@.@.@.$.$.$.$.@.@.@.@.@.@.@.@.@.@.@.@.@.@.@.@.@.@.@.@.O.( U ^ = $ $ $ $ $ $ $ $   x r.6.e.6.( ! ! ! ! ! ! ! ! U U U U U U U U U U U U U U U U U U U U U U U U U U U U U U U U U U U U U U U U U U U U U U U U U U U U U U U U U U U U U U U U U U U U U U U U U U U U U U U U U U U U U U U U U U U U U U E E U ! ! ^ F . . . $ $ $ $ . a ^ U T T T U U J J J J J U U U U ! ! ! ! ! ! U U U U U U U U U U U U U U U U U U U U U U U U ! ! ! ! U U U U U U U U U U U U U U U U ! ! ! ! ! ! ! ! U U U U U U U U U U U U U U U U U U U U U U U U U U U U U U U U U U U U U U U U U U U U U U U U U U U U U U U U ! ! ! ! U U U U U U U U U U U U U U U U U U U U ",
"! ! ! ! ! ! ! ! U U U U U U U U U U U U U U U U U U U U U U U U U U U U U U U U U U ! ^ U U U U U ^ ( ( ^ H A A x Z M j x x M D M f >   . . $ $ $ $ $ $ $ $ $ $ ; $ . $ = 4 e g e e 8 e 8 8 8 8 8 8 8 8 8 8 8 8 8 t t 8 8 8 i i 8 8 8 f 8 Z ^ ] $.$.$.$.$.$.$.$.@.@.@.@.@.@.@.@.@.@.@.@.@.@.@.@.@.@.@.@.@.@.@.@.@.@.@.@.@.@.@.@.@.@.@.@.@.@.@.@.@.@.@.@.@.@.@.@.@.@.@.@.@.@.@.@.@.@.@.@.@.@.@.@.@.@.@.@.@.@.@.@.@.@.@.@.@.@.@.@.@.@.@.@.@.@.@.@.@.@.@.@.@.@.@.@.@.@.@.@.@.@.@.@.@.@.@.@.@.@.@.@.@.@.@.@.@.@.@.@.@.@.@.@.@.@.@.@.@.@.@.@.@.@.@.@.@.@.@.@.@.@.@.@.@.@.@.@.@.@.@.@.@.@.@.@.$.$.$.$.@.@.@.@.@.@.@.@.@.@.@.@.@.@.@.$.$.$.@.@.O.H ~ F ; $ $ $ $ $ $ $ .   z 9.6.8.6.( J J J J J J J W U U U U U U U U U U U U U U U U U U U U U U U U U U U U U U U U U U U U U U U U U U U U U U U U U U U U U U U U U U U U U U U U U U U U U U U U U U U U U U U U U U U U U U U U U U U U U U E E ! ! ! ^ F . . . $ $ $ $ . e ^ U U U U U U U J J U U U U ! ! ! ! ! ! ! ! ! ! ! ! ! ! ! ! ! ! ! ! ! ! ! ! ! ! ! ! ! ! ! ! ! ! ! ! U U U U U U U U U U U U U U U U ! ! ! ! ! ! ! ! ! ! ! ! ! ! ! ! ! ! ! ! ! ! ! ! ! ! ! ! ! ! ! ! ! ! ! ! ! ! ! ! ! ! ! ! ! ! ! ! U U U U U U U U U U U U U U U U ! ! ! ! U U U U U U U U U U U U U U U U U U U U ",
"! ! ! ! ! ! ! ! U U U U U U U U U U U U U U U U U U U U U U U U U U U U U U U U ! U J J ! ! ! ! ! U J H A Z x x A k y f M M A D 7 +   . . $ $ $ $ $ $ $ $ $ $ . . . $ = 6 e e 8 8 8 8 8 8 8 8 8 8 8 8 8 8 8 8 8 8 8 t 8 8 8 8 8 5 8 k H @.*.*.@.$.$.$.$.$.$.$.$.@.@.@.@.@.@.@.@.@.@.@.@.@.@.@.@.@.@.@.@.@.@.@.@.@.@.@.@.@.@.@.@.@.@.@.@.@.@.@.@.@.@.@.@.@.@.@.@.@.@.@.@.@.@.@.@.@.@.@.@.@.@.@.@.@.@.@.@.@.@.@.@.@.@.@.@.@.@.@.@.@.@.@.@.@.@.@.@.@.@.@.@.@.@.@.@.@.@.@.@.@.@.@.@.@.@.@.@.@.@.@.@.@.@.@.@.@.@.@.@.@.@.@.@.@.@.@.@.@.@.@.@.@.@.@.@.@.@.@.@.@.@.@.@.@.@.@.@.@.@.@.@.@.@.@.@.$.$.$.$.@.@.@.@.@.@.@.@.@.@.@.@.@.@.@.@.@.@.@.@.] J ~ J ; $ $ $ $ $ $ $ .   z 9.6.e.6.( J J J J J J W W U U U U U U U U U U U U U U U U U U U U U U U U U U U U U U U U U U U U U U U U U U U U U U U U U U U U U U U U U U U U U U U U U U U U U U U U U U U U U U U U U U U U U U U U U U U U U U E E ! ! ! ^ F . . . $ $ $ $ . e ^ U U U U U U U U U U U U U ! ! ! ! ! ! ! ! ! ! ! ! ! ! ! ! ! ! ! ! ! ! ! ! ! ! ! ! ! ! ! ! ! ! ! ! U U U U U U U U U U U U U U U U ! ! ! ! ! ! ! ! ! ! ! ! ! ! ! ! ! ! ! ! ! ! ! ! ! ! ! ! ! ! ! ! ! ! ! ! ! ! ! ! ! ! ! ! ! ! ! ! U U U U U U U U U U U U U U U U ! ! ! ! U U U U U U U U U U U U U U U U U U U U ",
"! ! ! ! ! ! ! ! U U U U U U U U U U U U U U U U U U U U U U U U U U U U U U U U ( ( ! J H H H H Z M x x x x k h 8 k M x M A f @ . . . . . $ $ $ $ $ $ $ $ $ . . . = 4 7 y t 8 8 8 8 8 8 8 8 8 8 8 8 8 t t t 8 8 8 8 t t 9 8 f k A ] =.=.*.@.$.*.$.$.$.$.$.$.$.$.@.@.@.@.@.@.@.@.@.@.@.@.@.@.@.@.@.@.@.@.@.@.@.@.@.@.@.@.@.@.@.@.@.@.@.@.@.@.@.@.@.@.@.@.@.@.@.@.@.@.@.@.@.@.@.@.@.@.@.@.@.@.@.@.@.@.@.@.@.@.@.@.@.@.@.@.@.@.@.@.@.@.@.@.@.@.@.@.@.@.@.@.@.@.@.@.@.@.@.@.@.@.@.@.@.@.@.@.@.@.@.@.@.@.@.@.@.@.@.@.@.@.@.@.@.@.@.@.@.@.@.@.@.@.@.@.@.@.@.@.@.@.@.@.@.@.@.@.@.@.@.@.@.@.@.@.$.$.$.$.@.@.@.@.@.@.@.@.@.@.@.@.@.@.@.$.*.*.$.@.( J U ^ ; $ $ $ $ $ $ $ .   z 9.6.8.6.( W P J J J J J J U U U U U U U U U U U U U U U U U U U U U U U U U U U U U U U U U U U U U U U U U U U U U U U U U U U U U U U U U U U U U U U U U U U U U U U U U U U U U U U U U U U U U U U U U U U U U U E E ! ! ! ^ F . . . $ $ $ $ . e ^ U U U U U U U U U U U U U ! ! ! ! ! ! ! ! ! ! ! ! ! ! ! ! ! ! ! ! ! ! ! ! ! ! ! ! ! ! ! ! ! ! ! ! U U U U U U U U U U U U U U U U ! ! ! ! ! ! ! ! ! ! ! ! ! ! ! ! ! ! ! ! ! ! ! ! ! ! ! ! ! ! ! ! ! ! ! ! ! ! ! ! ! ! ! ! ! ! ! ! U U U U U U U U U U U U U U U U ! ! ! ! U U U U U U U U U U U U U U U U U U U U ",
"! ! ! ! ! ! ! ! U U U U U U U U U U U U U U U U U U U U U U U U U U U U U U U U U H D Z x x x x x x Z A Z x f 8 x x j A x 4 X . * $ $ $ $ $ $ $ $ $ $ . . . . . 4 e g 8 7 8 t t 8 8 8 8 8 8 8 8 8 8 8 t t t 8 8 8 8 t t k A _ @.*.@.@.@.$.@.*.*.$.$.$.$.$.$.$.$.@.@.@.@.@.@.@.@.@.@.@.@.@.@.@.@.@.@.@.@.@.@.@.@.@.@.@.@.@.@.@.@.@.@.@.@.@.@.@.@.@.@.@.@.@.@.@.@.@.@.@.@.@.@.@.@.@.@.@.@.@.@.@.@.@.@.@.@.@.@.@.@.@.@.@.@.@.@.@.@.@.@.@.@.@.@.@.@.@.@.@.@.@.@.@.@.@.@.@.@.@.@.@.@.@.@.@.@.@.@.@.@.@.@.@.@.@.@.@.@.@.@.@.@.@.@.@.@.@.@.@.@.@.@.@.@.@.@.@.@.@.@.@.@.@.@.@.@.@.@.@.@.@.@.@.@.$.$.$.$.@.@.@.@.@.@.@.@.@.@.@.@.@.@.@.@.*.O.( ! ( ! U ( - $ $ $ $ $ $ $ $   z 9.6.8.6.( W J J J J J J J U U U U U U U U U U U U U U U U U U U U U U U U U U U U U U U U U U U U U U U U U U U U U U U U U U U U U U U U U U U U U U U U U U U U U U U U U U U U U U U U U U U U U U U U U U U U U U E E ! ! ! ^ F $ . $ $ $ $ $ . e ^ U U U U U U U U U U U U U ! ! ! ! ! ! ! ! ! ! ! ! ! ! ! ! ! ! ! ! ! ! ! ! ! ! ! ! ! ! ! ! ! ! ! ! U U U U U U U U U U U U U U U U ! ! ! ! ! ! ! ! ! ! ! ! ! ! ! ! ! ! ! ! ! ! ! ! ! ! ! ! ! ! ! ! ! ! ! ! ! ! ! ! ! ! ! ! ! ! ! ! U U U U U U U U U U U U U U U U ! ! ! ! U U U U U U U U U U U U U U U U U U U U ",
"! ! ! ! ! ! ! ! U U U U U U U U U U U U ! ! ! ! U U U J J J U ! U J J J H A Z x x x x x A A Z M Z Z Z Z h 8 f n n b c s $ $ $ $ $ $ $ $ $ $ $ $ % $ $ $ . O 3 8 8 8 8 8 t t t t t 8 8 8 8 8 t t 8 8 8 8 8 8 8 d 8 d k J O.@.*.*.@.@.@.@.@.@.@.@.@.@.@.@.@.@.@.@.@.@.@.@.@.@.@.@.@.@.@.@.@.@.@.@.@.@.@.@.@.@.@.@.@.@.@.@.@.@.@.@.@.@.@.@.@.@.@.@.@.@.@.@.@.@.@.@.@.@.@.@.@.@.@.@.@.@.@.@.@.@.@.@.@.@.@.@.@.@.@.@.@.@.@.@.@.@.@.@.@.@.@.@.@.@.@.@.@.@.@.@.@.@.@.@.@.@.@.@.@.@.@.@.@.@.@.@.@.@.@.@.@.@.@.@.@.@.@.@.@.@.@.@.@.@.@.@.@.@.@.@.@.@.@.@.@.@.@.@.@.@.@.@.@.@.@.@.@.@.@.@.@.@.@.@.$.$.$.$.$.$.$.$.@.@.@.@.@.@.*.=.=.@.O.] ! ! ! ! ! ! U T - $ $ $ $ $ $ $ $   j 9.6.e.6.) P P P P P J U E ! U U U U U U U U U U U U U U U U U U U U U U U U U U U U U U U U U U U U U U U U U U U U U U U U U U U U J J U U U U U J J J U U U U U ! ! ! ! ! ! ! ! U U U U U U U U U J H H ^ ^ ^ ^ ( ] ]  .@.$.*.@.` & . $ $ $ $ $ . 4 A M D D D D D D D A A A A A A A D D D D H H J J J J J J J J U U U U J J J J J J J J J J J J J J J J J J J J J J J J J J J J J J J J H H H H A A A A A A A A A A A A A A A A J J J J J J U U ! ! ^ ^ ^ ^ ^ ^ J J J J J J U U ! ! U U U U U U U U ! U J J J U U U ! ! ! ! ! ! ! ! U U U U U U U U U U U U U U U U U U ",
"! ! ! ! ! ! ! ! U U U U U U U U U U U U ( ( ( ^ ^ ! ! ^ ^ ! J J A A A A Z x Z Z Z Z Z Z A Z x x x z f d k x n b b c r $ $ $ $ $ $ $ $ $ $ $ $ $ $ $ $ . o > 8 t t t t t t t t t t t 8 8 8 8 t t 8 8 8 8 8 8 5 3 Z ( =.=.@.@.@.*.@.@.@.@.@.@.@.@.@.@.@.@.@.@.@.@.@.@.@.@.@.@.@.@.@.@.@.@.@.@.@.@.@.@.@.@.@.@.@.@.@.@.@.@.@.@.@.@.@.@.@.@.@.@.@.@.@.@.@.@.@.@.@.@.@.@.@.@.@.@.@.@.@.@.@.@.@.@.@.@.@.@.@.@.@.@.@.@.@.@.@.@.@.@.@.@.@.@.@.@.@.@.@.@.@.@.@.@.@.@.@.@.@.@.@.@.@.@.@.@.@.@.@.@.@.@.@.@.@.@.@.@.@.@.@.@.@.@.@.@.@.@.@.@.@.@.@.@.@.@.@.@.@.@.@.@.@.@.@.@.@.@.@.@.@.@.@.@.@.@.@.@.$.$.$.$.$.$.@.@.@.@.@.@.=.*.@.O.] ( ! U ! ! ! ! ! ! U T 1 $ $ $ $ $ $ $ $   j 9.6.e.6.) P T P P J J U U ! U U U U U U U U U U U U U U U U U U U U U U U U U U U U U U U U U U U U U U U U U U U U U U U U U U U U J J U U U U U U U J J U U U J J J J J J J U U ! ! ! ! ! ! ! ! ( ( ] ] @.@.@.@.*.*.=.=.*.$.@.#.` & . $ $ $ $ $ . 4 A M M M M M x x x x x x x x x x x x x x x x Z Z Z Z Z Z Z Z x x x x L x Z Z Z Z Z Z Z Z Z x x x x x x x x x x x x x x x x x x x x x Z Z Z Z x x x x x x x x x x x x x x x x x x x x A A A A H H H H ^ ^ ^ ! ! U ! ! ! ! ^ ! U J J J J J U U U U ! ! U U ! ! ! ! ^ ^ ! ! ! ! ! ! ! ! U U U U U U U U U U U U U U U U ",
"! ! ! ! ! ! ! ! U U U U U U U U U U J J ! ! ! ! H H H H A A Z x x x x x x x Z Z z z z z Z x x k f f f f A x x b s - . $ $ $ $ $ $ $ $ $ $ $ $ $ . $ * = 4 7 8 t t t t t t t t t t t 8 t 8 8 t t 8 8 8 8 3 8 A ] @.$.@.] @.@.*.*.@.@.@.@.@.@.@.@.@.@.@.@.@.@.@.@.@.@.@.@.@.@.@.@.@.@.@.@.@.@.@.@.@.@.@.@.@.@.@.@.@.@.@.@.@.@.@.@.@.@.@.@.@.@.@.@.@.@.@.@.@.@.@.@.@.@.@.@.@.@.@.@.@.@.@.@.@.@.@.@.@.@.@.@.@.@.@.@.@.@.@.@.@.@.@.@.@.@.@.@.@.@.@.@.@.@.@.@.@.@.@.@.@.@.@.@.@.@.@.@.@.@.@.@.@.@.@.@.@.@.@.@.@.@.@.@.@.@.@.@.@.@.@.@.@.@.@.@.@.@.@.@.@.@.@.@.@.@.@.@.@.@.@.@.@.@.@.@.@.@.@.@.$.$.$.$.@.@.$.$.@.@.@.@.@.@.] ( ! U J J U U ! ! ~ ~ U ^ 1 $ $ $ $ $ $ $ $   j 9.6.e.6.( U P J J J U U U U U U U U U U U U U U U U U U U U U U U U U U U U U U U U U U U U U U U U U U U U U U U U U U U U U U U U U U U U U ! ! U U J J U U U U ! ! ! U U J J J ' ' ' ' @.@.@.@.@.*.=.=.@.@.@.@.@.@.@.@.@.@.@.#.` & . $ $ $ $ $ . 4 A M M M M M x x x x x x x x x x x x x x x x x x x x x x x x Z Z Z Z Z Z Z Z Z Z Z Z Z Z Z M x x x x x x x x x x x x x x x x x x x x Z Z Z Z Z Z Z Z Z Z Z Z Z Z Z Z Z Z Z Z L L x x x x x x x x x x x x x x A A D D D D H H H H J J J J U U U U ! ! ^ ^ ^ ! U J J J J J J J J J ! ! U U U U U U U U U U U U U U U U ",
"! ! ! ! ! ! ! ! U U U U U U U U U U J J H H H H Z Z Z Z x Z A A Z Z Z Z Z Z Z Z x x x x x x k f t f x A h n j w $ % $ . $ $ $ $ $ $ $ $ $ $ $ $ $ = 4 6 e 8 8 8 t t t t t t t t t t 8 t 8 8 t t 8 8 8 8 x ' *.@.@.@.@.*.@.@.@.@.@.@.@.@.@.@.@.@.@.@.@.@.@.@.@.@.@.@.@.@.@.@.@.@.@.@.@.@.@.@.@.@.@.@.@.@.@.@.@.@.@.@.@.@.@.@.@.@.@.@.@.@.@.@.@.@.@.@.@.@.@.@.@.@.@.@.@.@.@.@.@.@.@.@.@.@.@.@.@.@.@.@.@.@.@.@.@.@.@.@.@.@.@.@.@.@.@.@.@.@.@.@.@.@.@.@.@.@.@.@.@.@.@.@.@.@.@.@.@.@.@.@.@.@.@.@.@.@.@.@.@.@.@.@.@.@.@.@.@.@.@.@.@.@.@.@.@.@.@.@.@.@.@.@.@.@.@.@.@.@.@.@.@.@.@.@.@.@.@.@.@.@.$.$.$.$.$.$.$.$.@.@.@.@.( ( U J ^ ^ ^ ^ ! ! ! ! ! ! U ^ 1 $ $ $ $ $ $ $ $   j 9.6.e.6.( U U J J J U U U U U U U U U U U U U U U U U U U U U U U U U U U U U U U U U U U U U U U U U U U U U U U U U U U U U U U U U U U U U ! ! U U J J U U U U ' ' ' ' @.@.@.@.@.@.@.@.@.@.@.@.@.@.@. .*.*.*.*.$.@.@.@.@.@.@.#.` & . $ $ $ $ $ . 4 N M A A A A Z Z Z Z Z x x x L x Z Z Z Z Z Z Z Z Z Z Z Z Z Z x x M x h h h h h h h h h h h h h f f f f f f f f f f f f f f f f f f f f f f f f f f f f f f f f f f f f f h h h h h h h h h h f f f f f f d f d d f f f f f f f f f f f h h h k k z z x x x x A A A D D D D D H J U U U U U U U U U U U U U U U U U U ",
"! ! ! ! U U ! ! ! ! ^ ! J U ! ^ D D D D Z Z Z x x x x x x x Z Z Z Z Z Z Z Z x x A A x x k h f f x x Z A C p - . $ $ $ $ $ $ $ $ $ $ $ $ $ . . . 4 6 8 8 8 8 8 8 8 8 8 8 8 8 8 8 8 8 8 8 8 i d d 7 8 h ! $.$.$.$.@.@.@.@.@.@.@.@.@.@.@.@.@.@.@.@.@.@.@.@.@.@.@.@.@.@.@.@.@.@.@.@.@.@.@.@.$.@.*.@.@.@.@.@.@.@.@.@.@.@.@.@.@.@.@.@.@.@.@.@.@.@.@.@.@.@.@.@.@.@.@.@.@.@.@.@.@.@.@.@.@.@.@.@.@.@.@.@.@.@.@.@.@.@.@.@.@.@.@.@.@.@.@.@.@.@.@.@.@.@.@.@.@.@.@.@.@.@.@.@.@.@.@.@.@.@.@.@.@.@.@.@.@.@.@.@.@.@.@.@.@.@.@.@.@.@.@.@.@.@.@.@.@.@.@.@.@.@.@.@.@.@.@.@.@.@.@.@.@.@.@.@.@.@.@.@.@.@.@.@.*.*.$.@.*.*.*.@.] ( ^ U ! ! ! ! U U U U ! ! ! U ! ! ^ ^ 4 $ $ $ $ $ $ $ $ . j 9.6.e.6.) J J J J J J J J U U U U U U U U U U U U U U U U U U U U U U U U U U U U U U U U U U ! ! ^ ^ ^ ^ ! U U U U U U U U U U U U U U U ! ! ! ! ( ( ( ( ] O.@.@.@.@.@.@.=.=.=.=.@.@.@.$.@.@.@.@.@.@.@.@.@.@.@.O.=.=.=.=.=.=.=.=.` , & $ $ $ $ $ $ 4 N x M M M M Z Z Z Z Z Z Z x L x x x x x x x z z k k f f d f f d f f f f d d f f f f d f f f f f f h f h h h d d d d d d f d f f f f f f d d f f f f f f f f f f d d f f f f f f f f f f f f f d f f d d f f d t t t d d d d d d d d f f f f f f f f d d f f f f f f h h k k x x x x x x Z Z D D D D H H J ! ! ! ! ! ",
"D D H H H H H H H H H H D A Z x x x x x x x x x Z Z Z Z x x x x Z Z Z Z Z x x z z k h h f h k x Z M x x 4 = . $ $ $ $ $ $ $ $ $ $ $ $ $ . . = 3 8 8 8 8 8 8 8 8 8 8 8 8 8 8 8 8 8 8 8 8 8 8 9 3 d ^ *.@.$.$.$.$.@.@.@.@.@.@.@.@.@.@.@.@.@.@.@.@.@.@.@.@.@.@.@.@.@.@.@.@.@.@.@.@.@.@.@.@.@.*.<. .@.@.@.@.@.@.@.@.@.@.@.@.@.@.@.@.@.@.@.@.@.@.@.@.@.@.@.@.@.@.@.@.@.@.@.@.@.@.@.@.@.@.@.@.@.@.@.@.@.@.@.@.@.@.@.@.@.@.@.@.@.@.@.@.@.@.@.@.@.@.@.@.@.@.@.@.@.@.@.@.@.@.@.@.@.@.@.@.@.@.@.@.@.@.@.@.@.@.@.@.@.@.@.@.@.@.@.@.@.@.@.@.@.@.@.@.@.@.@.@.@.@.@.@.@.@.@.@.@.@.@.@.@.@.@.@.@.@.@.@.@.@.@.$.*.@.] ( ^ U U U U U ! ! U U U U ! ! ! U U ! ^ ^ 4 $ $ $ $ $ $ $ $ . j 9.6.e.6.) J P J J J J J J U U U U U U U U U U U U U U U U U U U U U U U U U U U U U U U U U U ! ! ^ ^ ^ ^ ^ ^ ^ ^ ! ! U U U U J J ( ( ( ( ] ] ] ] @.@.@.@.*.*.$.$.@.@.@.@.@.@.@.@.@.@.@.O.O.@.@.@.$.*.=.=.=.=.=.*.O.] ' ( H Z h 8 3   . . $ $ $ $ $ 4 n x M M M j x x x x h h h h h f f f f d d t 8 8 8 8 d f f f d d f f f f d d f f f f f d f f f f f f d d f f f f f f f f f d d t d d t t t t d d d d d d d d d d d d d d d d d d f f f f f f f d t t t t 8 8 f f f f f f f f f f f f f f f f d f f f d d d d d d d d f f f f f f f f h h h h x x x z z x Z Z Z Z Z Z ",
"x x x z k k k h h h h h 8 f h k k h h h x x x x x x x x A M M M Z Z x x x x x k f f f f h h x M z N g = . . $ * $ $ $ $ $ $ $ $ $ $ $ $ = 3 6 7 8 8 8 8 8 8 8 8 8 8 t 8 8 8 8 8 8 8 8 8 8 7 k U *.*.*.@.@.$.$.$.@.@.@.@.@.@.@.@.@.@.@.@.@.@.@.@.@.@.@.@.@.@.@.@.@.@.@.@.@.@.@.@.@.@.@.@.@.*.<. .@.@.@.@.@.@.@.@.@.@.@.@.@.@.@.@.@.@.@.@.@.@.@.@.@.@.@.@.@.@.@.@.@.@.@.@.@.@.@.@.@.@.@.@.@.@.@.@.@.@.@.@.@.@.@.@.@.@.@.@.@.@.@.@.@.@.@.@.@.@.@.@.@.@.@.@.@.@.@.@.@.@.@.@.@.@.@.@.@.@.@.@.@.@.@.@.@.@.@.@.@.@.@.@.@.@.@.@.@.@.@.@.@.@.@.@.@.@.@.@.@.@.@.@.@.@.@.@.@.@.@.@.@.@.@.@.@.@.@.@.$.@.@.@.] ( J J J J U U U J ! ! U U U U ! ! ! U U U ^ ^ 4 $ $ $ $ $ $ $ $ . j 9.6.e.6.) P U U U U U U U U U U U U U U U U U U U U U U U U U U U U U U U U U U U U U U U U U U J J J J J J J J J ^ ^ ^ ^  . . . .@.@.@.@.@.@.$.@.@.@.@.@.@.@.$.$.@.@.@.@.@.@.@.@.@.$.*.=.<.=.=.=.$.@.] ^ A x f 8 2 @ X               $ $ $ $ $ $ $ 4 n x M M M M h h h f f f f d d d d f f f f f f f f f f f f f d d d f f f d d d d f f d d d d f f f f d d d t t 8 8 8 8 8 t t d d f f f f h h h h h h h h h h h h h h h h h h h h h h k k k h h h f f f f f f f f f d t 8 8 8 8 8 t t d d d d d d f f d d d d f f f f f f f f d d d d f f f f f f f f k x x Z Z Z Z Z ",
"f f f f f h h h 8 8 8 f f f f f f f h f f f h h h h f f h f j j z z z z z z h h 8 d f h M j x j n 6 $ $ . $ $ $ $ $ $ $ $ $ $ $ $ $ $ . 6 e t 5 8 8 8 8 8 8 8 8 8 8 t t 8 8 8 8 8 8 8 8 f J O.$.*.$.@.@.@.@.$.$.@.@.@.@.@.@.@.@.@.@.@.@.@.@.@.@.@.@.@.@.@.@.@.@.@.@.@.@.@.@.@.@.@.@.@.@.$.@.*.@.@.@.@.@.@.@.@.@.@.@.@.@.@.@.@.@.@.@.@.@.@.@.@.@.@.@.@.@.@.@.@.@.@.@.@.@.@.@.@.@.@.@.@.@.@.@.@.@.@.@.@.@.@.@.@.@.@.@.@.@.@.@.@.@.@.@.@.@.@.@.@.@.@.@.@.@.@.@.@.@.@.@.@.@.@.@.@.@.@.@.@.@.@.@.@.@.@.@.@.@.@.@.@.@.@.@.@.@.@.@.@.@.@.@.@.@.@.@.@.@.@.@.@.@.@.@.@.@.@.@.@.@.@.@.@.@.@.@.@.@.@.] ^ J J J J J J J U U U J ! ! U U U U ! ! ! U U ! ^ ^ 4 $ $ $ $ $ $ $ $ . j r.6.8.6.) P U U U U U U U U U U U U U U U U U U U U U U U U U U U U U U U U U U U U U U U U U U U ( ( ( ( ' ' ] ] *.*.*.*.$.$.$.$.$.$.$.$.$.$.$.@.@.@.@.@.@.@.@.@.@.@.@.@.=.=.=.=.*.O.( J H Z k d : @ X                       X X     . $ $ $ $ $ $ 4 n x M j M M f f f f f f f f f d f f f f f f f f f f f f f f d d d d f f d d d d f f d d d d f f f h f h h h x x z x x x x x z x x x x x x x Z Z Z Z Z Z Z Z Z Z Z Z Z Z Z Z Z Z Z x x x x x x x x x x x x x x x x x k k k k k k h h h h f f f f h h f f f f f f f f f f f f d t t t t t t t t t t t d f h k k k k k ",
"f f f f f f f f f e f f f p f g f p f f g f g f f y y y y y f f g g g f g f y y g g j x A A N j 6 * $ $ $ $ $ $ $ $ $ $ . . . .   o 3 e t 8 8 8 8 8 8 8 8 8 8 8 8 t t t i 8 8 t 8 8 f J @.@.@.@.@.@.@.@.@.@.@.@.@.@.@.@.@.@.@.@.@.@.@.@.@.@.@.@.@.@.@.@.@.@.@.@.@.@.@.@.@.@.@.@.@.@.@.@.@.J =.=.@.@.@.@.@.@.@.@.@.@.@.@.@.@.@.@.@.@.@.@.@.@.@.@.@.@.@.@.@.@.@.@.@.@.@.@.@.@.@.@.@.@.@.@.@.@.@.@.@.@.@.@.@.@.@.@.@.@.@.@.@.@.@.@.@.@.@.@.@.@.@.@.@.@.@.@.@.@.@.@.@.@.@.@.@.@.@.@.@.@.@.@.@.@.@.@.@.@.@.@.@.@.@.@.@.@.@.@.@.@.@.@.@.@.@.@.@.@.@.@.@.@.@.@.@.@.@.@.6.=.*.@.@.@.@.@.@.O.] ' ! ! ! ! U U U U U U U U ! ! ! ! ! U U ! ^ ! J J ! ! ( ^ 1 $ $ $ $ $ $ $ $   x 9.8.8.8.W ^ ! ! ! ! ! ! ! U U U U U U U U U U U U U U U U U U U U J U ^ ^ ! ! ! ! ( ( ( ( ] @.@.@.$.$.*.*.*.*.*.*.*.@.@.@.@.@.@.@.@.@.@.@.*.*.@.@.@.@.@.@.<.=.=.=.*.@.O.] J Z f 9 @ X                         X X     X # X X         . . $ % % $ $ 4 x A N j f y f f f f f h h f f f f f y f f f y y y y y y y y y y f f f f f f f j j x M x x x j j x M x x x x M N n n x x x x n x x x M x x x x x n n n n x x x M n x x x x x n n n x x x x x n n n x x n n n x x x x x x n n n x x x j j j j x x N N x n N N x x j j j j j j x z z z z j j j j j j j h h f f f f f h ",
"z z z z z x x x x z z z l j j j g g g g g f g g g f f y f f f f f f e e f p y y j j n n A A f = * $ $ $ $ $ $ $ $ $ $ $ . . . X > 3 8 8 8 8 8 8 8 8 8 8 8 8 8 8 8 t t t 9 i t 7 d H  .$.@.@.@.@.@.@.@.@.@.@.@.@.@.@.@.@.@.@.@.@.@.@.@.@.@.@.@.@.@.@.@.@.@.@.@.@.@.@.@.@.@.@.@.@.@.@.@.@.@.k e.=.@.@.@.@.@.@.@.@.@.@.@.@.@.@.@.@.@.@.@.@.@.@.@.@.@.@.@.@.@.@.@.@.@.@.@.@.@.@.@.@.@.@.@.@.@.@.@.@.@.@.@.@.@.@.@.@.@.@.@.@.@.@.@.@.@.@.@.@.@.@.@.@.@.@.@.@.@.@.@.@.@.@.@.@.@.@.@.@.@.@.@.@.@.@.@.@.@.@.@.@.@.@.@.@.@.@.@.@.@.@.@.@.@.@.@.@.@.@.@.@.@.@.@.@.@.@.@.@.@.@.@.@.=.$.@.] ( ( ! U ! ! ! ! U U U U U U U U ! ! ! ! J ( ( J J J ^ ( ] A t 6 ; $ . $ $ $ $ $ $   x 9.8.8.8.^ ! ! ! ! ! ! ! ! U U U U U U U U U U U U U U U U U U U U U J J J  .]  .] @.@.@.@.@.@.$.$.$.$.$.@.@.@.@.@.O.@.@.@.@.@.@.@.@.@.*.=.=.*.*.@.@.@.] ] H A h 8 3 : X                           X           X X +     # X   @ 3 8 . . * $ $ % $ $ - S z N j j h z z z z z z z z j j j j j j j j h h h f f f f f h h j j j j j z z j N x M M x j j j x x x x x x M n n n x x x x x x x x N n x x x x n N x x x x x N n x x x x x x n x x x x x x x n x x x n n n x x x x x x N n x x x x x x x x x x N N x n n N x x x x x x x x x x x x j j j j j j x x x x x x N N x M ",
"Z Z Z Z Z A A A A x x x x x n n x x x x x z z j j h h h h f j h f f f f f h g f n n v v b 4 $ $ . $ . $ $ $ $ $ $ $ $ $ . . = > t t 8 8 8 8 8 8 8 8 8 8 8 8 8 8 8 8 t t 9 9 d Z ] @.=...@.@.@.@.@.@.@.@.@.@.@.@.@.@.@.@.@.@.@.@.@.@.@.@.@.@.@.@.@.@.@.@.@.@.@.@.@.@.@.@.@.@.@.@.@.@.@.@.^ 8 j.=.@.@.@.@.@.@.@.@.@.@.@.@.@.@.@.@.@.@.@.@.@.@.@.@.@.@.@.@.@.@.@.@.@.@.@.@.@.@.@.@.@.@.@.@.@.@.@.@.@.@.@.@.@.@.@.@.@.@.@.@.@.@.@.@.@.@.@.@.@.@.@.@.@.@.@.@.@.@.@.@.@.@.@.@.@.@.@.@.@.@.@.@.@.@.@.@.@.@.@.@.@.@.@.@.@.@.@.@.@.@.@.@.@.@.@.@.@.@.@.@.@.@.@.@.@.@.$.$.$.$.*.*.@. .] ( ! U U U U U ! ! U U U U U U U U ! ! ! ! ( J J ( ( J A x 3 X   X = $ $ $ $ $ $ $ $   z 9.e.6.6.W ! ! ! ! ! ! ! ! U U U U U U U U U U U U U U U U U U U U U U ^ ^ *.*.*.*.@.@.@.@.$.$.$.$.$.$.$.@.@.@.@.@.@.@.*.=.<.<.=.=.=.@.] ( H A z f 3 @ @ X                 X X                     X X             @ 3 k K ! O.*.@.} = $ * $ $ $ $ $ % n x M M j j x L x x Z Z Z x M j j j j j j j x x x x x x x x x x j j j x M M M j j j j j M M j j j j M M M M M M M M M M M M M M M M M M M M M M M M M M M M M M M M M M M M M M M M M M M M M M M M M M M M M M M M M M M M M M M M M M M M M M M M M M M M M M M M M M M M M M M M M M M M M M M M M M M M N N M M ",
"x x x x Z V A x x x x x x x n n x x x x x x x j j x x x j j j j z z z z x x j v n n b v = $ . $ . $ $ $ $ $ $ $ $ $ $ $ = > 7 t t t 8 8 8 8 8 8 8 8 8 8 8 8 8 8 8 8 8 8 d A ] *.*.@. .@.@.@.@.@.@.@.@.@.@.@.@.@.@.@.@.@.@.@.@.@.@.@.@.@.@.@.@.@.@.@.@.@.@.@.@.@.@.@.@.@.@.@.@.@.@.@.$.@.x f V.=.@.@.@.@.@.@.@.@.@.@.@.@.@.@.@.@.@.@.@.@.@.@.@.@.@.@.@.@.@.@.@.@.@.@.@.@.@.@.@.@.@.@.@.@.@.@.@.@.@.@.@.@.@.@.@.@.@.@.@.@.@.@.@.@.@.@.@.@.@.@.@.@.@.@.@.@.@.@.@.@.@.@.@.@.@.@.@.@.@.@.@.@.@.@.@.@.@.@.@.@.@.@.@.@.@.@.@.@.@.@.@.@.@.@.@.@.@.@.@.@.@.@.@.@.@.@.@.@.*.@.] ] ! ! ^ ^ ^ ^ ^ ^ ! ! ! ! U U U ! U U U U ! ! ! U U ! ! U z t 2 X         = $ $ $ $ $ $ $ $   x 9.e.6.6.W ! ! ! ! ! ! ! ! U U U U U U U U U U U U U U U U U U U U J ^ ]  .@.@.@.@.$.$.$.$.$.$.$.$.$.$.*.*.*.*.*.*.O.O.] ] J D x h 3 @ @ X                                                             + @ 8 x ^ @.<.r.g.e.5.*.$.*.) & . $ $ $ $ $ $ $ r A M M M M x x x x x x x x j x x x x x x x x x x x x x x x x x x x x x x x j j j j j M j M j j j j M M M M M M M M M M M M M M M M M M M M M M M M M M M M M M M M M M M M M M M M M M M M M M M M M M M M M M M M M M M M M M M M M M M M M M M M M M M M M M M M M M M M M M M M M M M M M M M M j j x x x j j j ",
"x x x x A A A A A A A A A A A A S S S S S D A A A A A A D A A D A A A A A S S S b r - = $ $ $ $ $ $ $ $ $ $ . . . . . O 8 8 8 8 8 8 8 8 8 8 8 8 8 8 8 8 8 t 8 9 8 8 8 A @.@.@.@.@.@.@.@.@.@.@.@.@.@.@.@.@.@.@.@.@.@.@.@.@.@.@.@.@.@.@.@.@.@.@.@.@.@.@.@.@.@.@.@.@.@.@.@.@.@.@.@.@.@.*.@.X H D.8.@.@.@.@.@.@.@.@.@.@.@.@.@.@.@.@.@.@.@.@.@.@.@.@.@.@.@.@.@.@.@.@.@.@.@.@.@.@.@.@.@.@.@.@.@.@.@.@.@.@.@.@.@.@.@.@.@.@.@.@.@.@.@.@.@.@.@.@.@.@.@.@.@.@.@.@.@.@.@.@.@.@.@.@.@.@.@.@.@.@.@.@.@.@.@.@.@.@.@.@.@.@.@.@.@.@.@.@.@.@.@.@.@.@.@.@.@.@.@.@.@.@.@.@.*.*.$.@.' ( ! J U U U U U U U U ! ! ! ! ! ! ! ! ^ ! J H J H ( ( ( x 3 @ X         @   o * $ $ * $ $ $ $ $ . x 9.e.6.6.W ! ! ! ! ! ! ! ! U U U U U U U U U U U U U U U U U U U U J ( @.*.@.@.@.@.$.$.$.$.$.@.*.*.@.@.] ] U D x f 3 @                                     X X                 X             @ 9 f H ' 5.e.r.f.g.g.9.5.*.@.&.&.@.@.) & . $ $ $ $ $ $ $ $ r j N A A A A A A A A D A A A A A A A A A A A A A A A A A A A A A A A A A A A A A A A A A A A A A A A A A A A A A A A A A A A A A A A A A A A A A A A A A A A A A A A A A A A A A A A A A A A A A A A A A A A A A A A A A A A A A A A A A A A A A A A A A A A A A A A A A A A A A A A A A A A A A A A A A A A A A ",
"f f g p p e e e e e e e e e e e p p p p p p e e e e y y g e g g y y y e e e e e 1 ; $ $ $ $ $ $ $ $ $ $ % $ . . $ = 4 e 8 8 8 8 8 8 8 8 8 8 8 8 8 8 8 8 8 f 8 3 8 A @.*.@.@.@.@.@.@.@.@.@.@.@.@.@.@.@.@.@.@.@.@.@.@.@.@.@.@.@.@.@.@.@.@.@.@.@.@.@.@.@.@.@.@.@.@.@.@.@.@.@.@.@.@.$.@.*.^   ^ C.e.@.@.@.@.@.@.@.@.@.@.@.@.@.@.@.@.@.@.@.@.@.@.@.@.@.@.@.@.@.@.@.@.@.@.@.@.@.@.@.@.@.@.@.@.@.@.@.@.@.@.@.@.@.@.@.@.@.@.@.@.@.@.@.@.@.@.@.@.@.@.@.@.@.@.@.@.@.@.@.@.@.@.@.@.@.@.@.@.@.@.@.@.@.@.@.@.@.@.@.@.@.@.@.@.@.@.@.@.@.@.@.@.@.@.@.@.@.@.@.@.@.@.@.$.*. .( ! ^ ! U J U U U U U U U U ! ! ! ! ! ! ! ! H J U ! ^ ^ A 8 @ X         X   @   @   = $ $ $ $ $ $ $ $ . x r.w.8.6.P ! ! ! ! ! ! ! ! U U U U U U U U U U U U U U U U U U U U U O.*.@.@.@.@.@.@.$.$.$.=.( k d 3 2 +                                                                       X X : 8 x H @.<.r.g.x.f.r.r.g.r.8.<.@.@.*.*.*.&.@.@.) & . $ $ $ $ $ $ $ . $ > 6 r r e e e e p p p e e e e e e e e e e e e e e e e e e e e e e e e e e e e e e e e e e e e e e e e e e y e e e e e e e e e e e y e e e e e e e e e y e e e e e e e e e y y y e e e e e y y y e e e e e e e e e e e e e e e e e e e e e e e e e e e e e e e e e e e e e e e e e e e e e e e e e e e e e e y y ",
"* $ $ $ . . . . . . . . . . . . . . . . . . . . . . . . . . . . . . . . . $ $ $ $ $ $ $ $ $ $ $ $ $ $ $ $ $ $ $ - 4 e g 8 8 8 8 8 8 8 8 8 8 8 8 8 8 8 8 8 3 8 x ] =.$.@.@.@.@.@.@.@.@.@.@.@.@.@.@.@.@.@.@.@.@.@.@.@.@.@.@.@.@.@.@.@.@.@.@.@.@.@.@.@.@.@.@.@.@.@.@.@.@.@.@.@.@.@.*.@.*.k    .C.9.@.@.@.@.@.@.@.@.@.@.@.@.@.@.@.@.@.@.@.@.@.@.@.@.@.@.@.@.@.@.@.@.@.@.@.@.@.@.@.@.@.@.@.@.@.@.@.@.@.@.@.@.@.@.@.@.@.@.@.@.@.@.@.@.@.@.@.@.@.@.@.@.@.@.@.@.@.@.@.@.@.@.@.@.@.@.@.@.@.@.@.@.@.@.@.@.@.@.@.@.@.@.@.@.@.@.@.@.@.@.@.@.@.@.@.@.@.@.@.@.=.$.O.] ^ U U ^ ^ ^ U U U U U U U U U U ! ! ! ! ! ! ! ^ ^ ! J J f 3         X @ X           @ P e ; $ . $ $ $ $ $ . x r.w.6.6.P ! ! ! ! ! ! ! ! U U U U U U U U U U U U U U U U J U U U ] $.*.@.@.@.@.@.@.$.$.$.] 2 +         X X X                                                         : 9 k D ] =.9.r.g.c.r.r.r.9.e.r.f.r.8.<.*.@.@.@.*.=.*.&.@.@.) & . $ $ $ $ $ $ $ $ . . . . * . . . . . . . . . . . . . . . . . . . . . . . . . . . . . . . . . . . . . . . . . . . . . . . . . . . . . . . . . . . . . . . . . . . . . . . . . . . . . . . . . . . . . . . . . . . . . . . . . . . . . . . . . . . . . . . . . . . . . . . . . . . . . . . . . . . . . . . . . . . . . . . . . . . . ",
"$ $ $ . . $ $ $ $ $ $ $ $ $ $ $ $ $ $ $ $ $ $ $ $ . . . $ $ $ $ $ $ $ $ $ $ $ $ $ $ $ $ $ $ $ $ $ $ $ $ . . ; 4 r 8 8 6 8 8 8 8 8 8 8 8 8 8 8 8 8 8 8 8 9 z ( $.@.O.*.=.@.@.@.@.@.@.@.@.@.@.@.@.@.@.@.@.@.@.@.@.@.@.@.@.@.@.@.@.@.@.@.@.@.@.@.@.@.@.@.@.@.@.@.@.@.@.@.@.@.@.@.@.*.$.$.3   *.m.r.@.@.@.@.@.@.@.@.@.@.@.@.@.@.@.@.@.@.@.@.@.@.@.@.@.@.@.@.@.@.@.@.@.@.@.@.@.@.@.@.@.@.@.@.@.@.@.@.@.@.@.@.@.@.@.@.@.@.@.@.@.@.@.@.@.@.@.@.@.@.@.@.@.@.@.@.@.@.@.@.@.@.@.@.@.@.@.@.@.@.@.@.@.@.@.@.@.@.@.@.@.@.@.@.@.@.@.@.@.@.@.@.@.@.@.@.@.@.@.@.( ( ! J J J J J U ! ! ! U U U U U U U U ! ! ! ! ! ! ! ! A h 3 X                         f 6.(.XXS * $ $ $ $ $ $ $ . x r.9.6.6.P ! ! ! ! ! ! ! ! U U U U U U U U U U U U U U U U U U J U @.@.@.@.@.@.@.@.@.$.$.$.9   X                                                             @ 8 k ] @.<.e.g.g.g.g.f.r.r.r.r.r.r.r.r.f.e.<.@.@.$.*.=.*.&.@.@.&.@.@.) & . $ $ $ $ $ $ $ $ . . . $ * $ $ $ $ $ $ $ $ $ $ $ $ $ $ $ $ $ $ $ $ $ $ $ $ $ $ $ $ $ $ $ $ $ $ $ $ $ $ $ $ $ $ $ $ $ $ $ $ $ $ $ $ $ $ $ $ $ $ $ $ $ $ $ $ $ $ $ $ $ $ $ $ $ $ $ $ $ $ $ $ $ $ $ $ $ $ $ $ $ $ $ $ $ $ $ $ $ $ $ $ $ $ $ $ $ $ $ $ $ $ $ $ $ $ $ $ $ $ $ $ $ $ $ $ $ $ $ $ $ $ $ $ $ $ $ $ $ $ $ $ $ $ $ $ $ $ $ $ ",
"$ $ $ $ $ $ $ $ $ $ $ $ $ $ $ $ $ $ $ $ $ $ $ $ $ $ $ $ $ $ $ $ $ $ $ $ $ $ $ $ $ $ $ $ $ $ $ $ $ $ $ . . = 4 6 8 8 8 8 8 8 8 8 8 8 8 8 8 8 8 7 8 9 f h ! $.=.O.@.@.@.@.@.@.@.@.@.@.@.@.@.@.@.@.@.@.@.@.@.@.@.@.@.@.@.@.@.@.@.@.@.@.@.@.@.@.@.@.@.@.@.@.@.@.@.@.@.@.@.@.@.@.@.@.@.=.J   X 6.g.g.=.@.@.@.@.@.@.@.@.@.@.@.@.@.@.@.@.@.@.@.@.@.@.@.@.@.@.@.@.@.@.@.@.@.@.@.@.@.@.@.@.@.@.@.@.@.@.@.@.@.@.@.@.@.@.@.@.@.@.@.@.@.@.@.@.@.@.@.@.@.@.@.@.@.@.@.@.@.@.@.@.@.@.@.@.@.@.@.@.@.@.@.@.@.@.@.@.@.@.@.@.@.@.@.@.@.@.@.@.@.@.@.*.*.*.@.@.] ' ^ U U U U J J J J U U U U U U U U U U ! ! U J ^ J ( H k 8             X             @ ] G.}._.W.Z.b $ $ . $ $ $ $ $ . j r.9.6.6.T U U U U U U U U U U U U U U U U U U U U U U U U U H ^ $.@.@.@.@.@.@.@.@.@.@.5.f                                                     X + 9 k J ] =.e.g.g.g.f.r.r.r.r.r.f.f.f.r.r.r.f.f.9.5.=.$.$.@.@.@.@.@.@.@.@.@.@.@.@.) & . $ $ $ $ $ $ $ $ . $ $ $ $ $ $ $ $ $ $ $ $ $ $ $ $ $ $ $ $ $ $ $ $ $ $ $ $ $ $ $ $ $ $ $ $ $ $ $ $ $ $ $ $ $ $ $ $ $ $ $ $ $ $ $ $ $ $ $ $ $ $ $ $ $ $ $ $ $ $ $ $ $ $ $ $ $ $ $ $ $ $ $ $ $ $ $ $ $ $ $ $ $ $ $ $ $ $ $ $ $ $ $ $ $ $ $ $ $ $ $ $ $ $ $ $ $ $ $ $ $ $ $ $ $ $ $ $ $ $ $ $ $ $ $ $ $ $ $ $ $ $ $ $ $ $ $ $ $ $ $ $ ",
"$ $ $ $ $ $ $ $ $ $ $ $ $ $ $ $ $ $ $ $ $ $ $ $ $ $ $ $ $ $ $ $ $ $ $ $ $ $ $ $ $ $ $ $ $ $ $ $ $ $ . $ 4 7 t 8 8 8 8 8 8 8 8 8 8 8 8 8 8 8 8 8 8 k ^ *.*.$.@.*.@.@.@.@.@.@.@.@.@.@.@.@.@.@.@.@.@.@.@.@.@.@.@.@.@.@.@.@.@.@.@.@.@.@.@.@.@.@.@.@.@.@.@.@.@.@.@.@.@.@.@.@.@.@.@.@.@.=.f   @ r.j.c.=.@.@.@.@.@.@.@.@.@.@.@.@.@.@.@.@.@.@.@.@.@.@.@.@.@.@.@.@.@.@.@.@.@.@.@.@.@.@.@.@.@.@.@.@.@.@.@.@.@.@.@.@.@.@.@.@.@.@.@.@.@.@.@.@.@.@.@.@.@.@.@.@.@.@.@.@.@.@.@.@.@.@.@.@.@.@.@.@.@.@.@.@.@.@.@.@.@.@.@.@.@.@.@.@.@.@.@.@.$.*.*.=.$.@.] ( ( ^ ^ ! U U ! J J J J U U U U U U U U U ! ( ( ( ( U x 5 @                         X x c.)..X).G.D.c.J.b $ $ . $ $ $ $ $ . j 9.9.6.6.T U U U U U U U U U U U U U U U U U U U U U U U U J ^  .=.@.@.@.@.@.@.@.@.@.=.A                                               3 f A ! @.<.g.g.g.g.g.g.r.r.9.r.r.f.f.f.f.f.w.9.r.r.a.8.=.@.$.$.*.$.@.@.@.@.@.@.@.@.@.@.@.@.) & . $ $ $ $ $ $ $ . . $ $ $ $ $ $ $ $ $ $ $ $ $ $ $ $ $ $ $ $ $ $ $ $ $ $ $ $ $ $ $ $ $ $ $ $ $ $ $ $ $ $ $ $ $ $ $ $ $ $ $ $ $ $ $ $ $ $ $ $ $ $ $ $ $ $ $ $ $ $ $ $ $ $ $ $ $ $ $ $ $ $ $ $ $ $ $ $ $ $ $ $ $ $ $ $ $ $ $ $ $ $ $ $ $ $ $ $ $ $ $ $ $ $ $ $ $ $ $ $ $ $ $ $ $ $ $ $ $ $ $ $ $ $ $ $ $ $ $ $ $ $ $ $ $ $ $ $ $ $ $ $ ",
"$ $ $ $ . . . . . . . . . . . . . . . . . . . . . . . . . . . . . . . $ $ $ $ $ $ $ $ $ $ $ $ $ . $ 1 e e 8 8 8 8 8 8 8 8 8 8 8 8 8 8 8 8 8 8 8 ^ @.=.@.*.*.@.@.@.@.@.@.@.@.@.@.@.@.@.@.@.@.@.@.@.@.@.@.@.@.@.@.@.@.@.@.@.@.@.@.@.@.@.@.@.@.@.@.@.@.@.@.@.@.@.@.@.@.@.@.@.@.@.@.$. .@   3 j.g.c.=.@.@.@.@.@.@.@.@.@.@.@.@.@.@.@.@.@.@.@.@.@.@.@.@.@.@.@.@.@.@.@.@.@.@.@.@.@.@.@.@.@.@.@.@.@.@.@.@.@.@.@.@.@.@.@.@.@.@.@.@.@.@.@.@.@.@.@.@.@.@.@.@.@.@.@.@.@.@.@.@.@.@.@.@.@.@.@.@.@.@.@.@.@.@.@.@.@.@.@.@.@.@.@.@.@.@.@.$.@.@.@.] ] ( ( J U U ! ! U ! ! J J J J U U U U U U U J U ^ ( ' x f @                         X d =.W..X_.Y.G.D.C.g.r.Z.b $ $ . . $ $ $ $ . j 9.9.6.6.T U U U U U U U U U U U U U U U U U U U U U U U U U  .*.@.@.@.@.@.@.@.@.@.@.'                                     + 5 x H ] =.r.r.j.j.j.g.r.r.r.f.g.f.r.r.r.r.f.f.f.f.f.f.f.f.r.r.=.*.@.*.*.$.$.$.@.@.@.@.@.@.@.@.@.@.@.@.) & . $ $ $ $ $ $ $ . . . . . . . . . . $ $ $ $ . . . . . . . . . . . . . . . . $ $ $ $ $ $ $ $ $ $ $ $ $ $ . . . . . . $ $ $ $ $ $ $ $ $ $ $ $ $ $ $ $ . . . . . . . . . . . . . . . . . . . . . . . . . . . . . . . . . . . . . . . . . . . . . . . . . . . . . . . . . . . . . . . . . . . . . . . . . . . . . . . . . . . . . . . $ ",
". . . . . . . . . . . . . . . . . . . . . . . . . . . . . . . . . . . . . $ $ $ $ $ $ $ $ $ $ . 4 r e 6 8 8 8 8 t t 8 8 8 8 8 8 8 8 8 8 3 k ^ @.=.=. .@.@.@.@.@.@.@.@.@.@.@.@.@.@.@.@.@.@.@.@.@.@.@.@.@.@.@.@.@.@.@.@.@.@.@.@.@.@.@.@.@.@.@.@.@.@.@.@.@.@.@.@.@.@.@.@.@.@.@.@.@.=.U     8 c.g.c.=.@.@.@.@.@.@.@.@.@.@.@.@.@.@.@.@.@.@.@.@.@.@.@.@.@.@.@.@.@.@.@.@.@.@.@.@.@.@.@.@.@.@.@.@.@.@.@.@.@.@.@.@.@.@.@.@.@.@.@.@.@.@.@.@.@.@.@.@.@.@.@.@.@.@.@.@.@.@.@.@.@.@.@.@.@.@.@.@.@.@.@.@.@.@.@.@.@.@.@.@.@.@.@.@.@.@.@.*.@.' ^ J J J U ! U J J J U ! ! J J J J U U U U U U U U ( D d 3 +                         + U C.}._.(.F.D.D.g.w.*.] ] h.b $ . . $ $ $ . $ . j 9.9.6.6.T U U U U U U Y U U U U U U U U U U U U U U U U U ( $.*.@.@.@.@.$.@.@.@.@.@.@     X               X X X X f A ] @.e.r.g.c.g.f.r.r.r.r.f.g.w.9.r.r.r.r.f.g.r.r.r.r.f.a.r.r.r.8.=.@.*.*.$.$.$.$.$.$.@.@.@.@.@.@.@.@.@.@.@.@.) & . $ $ $ $ $ $ $ . . . . . . . . . . . . . . . . . . . . . . . . . . . . . . . . . . . . . . . . . . . . . . . . . . . . . . . . . . . . . . . . . . . . . . . . . . . . . . . . . . . . . . . . . . . . . . . . . . . . . . . . . . . . . . . . . . . . . . . . . . . . . . . . . . . . . . . . . . . . . . . . . . . . . . . . . . ",
" .} } } } } } } } } } } } } } } } }  . .} } } } } } } } } } } } F = o . . $ $ $ $ $ $ $ $ $ $ 4 r 6 8 8 8 8 8 8 8 8 8 8 8 8 8 f t 8 7 f J ] *.@.@.@.@.@.@.@.@.@.@.@.@.@.@.@.@.@.@.@.@.@.@.@.@.@.@.@.@.@.@.@.@.@.@.@.@.@.@.@.@.@.@.@.@.@.@.@.@.@.@.@.@.@.@.@.@.@.@.@.@.@.@.@.@.@.@.t     z c.f.g.w.@.@.*.@.@.@.@.@.@.@.@.@.@.@.@.@.@.@.@.@.@.@.@.@.@.@.@.@.@.@.@.@.@.@.@.@.@.@.@.@.@.@.@.@.@.@.@.@.@.@.@.@.@.@.@.@.@.@.@.@.@.@.@.@.@.@.@.@.@.@.@.@.@.@.@.@.@.@.@.@.@.@.@.@.@.@.@.@.@.@.@.@.@.@.@.@.@.@.@.$.$.@.@.*.@.O.] ( ^ U U ! ! ! ! U U U U J U U U U U U U U J J H ( J A k @ X       X X                 h e.W.}._.G.D.D.V.r.6.@.@.=.@.@.=.e . . . . . $ . $ . j 9.6.6.1.T U U U U U U U U U U U U U U U U U U U U J U ! ^ @.$.@.@.@.@.@.$.*.$.$.*.7   X                     J 6.6.g.g.g.g.g.f.g.r.f.f.f.f.f.f.f.f.r.r.r.r.f.f.f.f.r.r.r.r.r.f.f.e.$.$.$.$.$.$.$.$.$.$.$.$.$.$.$.$.@.@.@.@.@.@.@.@./ & . $ $ $ $ $ $ . . r ) ) ) ` ` ` ` ` } ] } } ` ] ] ] ] ] ] ] ] ] ] ] ] ` ` ` ` ` ` ` } } } } } } } } } } ` ] } ] ] ] } } } } } } ] ] ] ] ] ] } } } } } } } } } } } } } } } } ] ] } } } } } } ] ] } } } } } } } } } ] ] ] } ] } } } } } } } } } } } } ] ] } ] } } } } } } } } } } } } } } } } ] ] } } ] ] ] ] } } } } } } } } } } } | ",
"c.c.c.c.c.c.c.c.c.c.c.c.c.c.c.c.c.c.c.c.c.c.c.c.c.c.c.c.c.c.c.c.M.1.3 . . $ $ $ $ $ $ $ $ $ % q 6 8 8 8 8 8 8 8 8 8 8 8 8 8 t 8 8 f D ] $.@.$.=.@.@.@.@.@.@.@.@.@.@.@.@.@.@.@.@.@.@.@.@.@.@.@.@.@.@.@.@.@.@.@.@.@.@.@.@.@.@.@.@.@.@.@.@.@.@.@.@.@.@.@.@.@.@.@.@.@.@.@.@.@.@.@.@.] @     A c.g.g.r.@.@.*.@.@.@.@.@.@.@.@.@.@.@.@.@.@.@.@.@.@.@.@.@.@.@.@.@.@.@.@.@.@.@.@.@.@.@.@.@.@.@.@.@.@.@.@.@.@.@.@.@.@.@.@.@.@.@.@.@.@.@.@.@.@.@.@.@.@.@.@.@.@.@.@.@.@.@.@.@.@.@.@.@.@.@.@.@.@.@.@.@.@.@.@.@.@.@.@.@.@.$.*.O.] ^ ! U U U U U U ! ! U U U U U U U U U J J J J J U U x 7 +           X X     X     X : ] U._.).R.V.C.D.g.e.5.@.@.@.@.*.@.@.=.e . . . . . $ $ $ . j 9.8.6.1.T U U U U U U U U U U U U U U U U U U U U J H ^ O.$.@.@.@.@.@.@.@.=.@.=.x   X   X                   8 8.a.r.r.r.r.r.r.r.r.f.f.f.f.f.f.f.f.r.r.r.r.f.f.f.f.r.r.r.r.r.g.9.$.$.$.$.$.$.$.$.$.$.$.$.$.$.$.$.$.@.@.@.@.@.@.@.@./ & . $ $ $ $ $ . . c y.C.C.c.c.c.M.M.M.C.C.C.C.C.C.C.C.C.C.C.B.C.C.C.C.C.C.C.M.M.M.M.M.M.M.M.b.B.B.B.B.B.B.B.C.C.C.C.B.C.C.C.C.C.C.C.C.C.C.C.C.C.C.C.C.C.C.C.C.C.C.C.C.C.C.C.C.C.C.C.C.C.C.C.C.C.C.C.C.C.C.C.C.C.C.C.C.C.C.C.C.C.C.C.C.C.C.C.C.C.C.C.C.C.C.C.C.C.C.C.C.C.C.C.C.C.C.C.C.C.C.C.C.C.C.C.C.C.C.C.C.C.C.C.C.C.C.c.c.c.c.c.C.",
"g.g.g.g.g.g.g.g.g.g.g.g.g.g.g.g.g.g.g.g.g.g.g.g.g.g.g.g.g.g.g.g.j.V.@.  . $ $ $ $ $ $ $ $ $ 1 r 8 8 8 8 8 8 8 8 8 8 8 8 8 8 7 8 A ] =.@.*.@.@.*.@.@.@.@.@.@.@.@.@.@.@.@.@.@.@.@.@.@.@.@.@.@.@.@.@.@.@.@.@.@.@.@.@.@.@.@.@.@.@.@.@.@.@.@.@.@.@.@.@.@.@.@.@.@.@.@.@.@.@.@.@.@.@.@.D       ! c.j.g.g.*.$.$.@.@.@.@.@.@.@.@.@.@.@.@.@.@.@.@.@.@.@.@.@.@.@.@.@.@.@.@.@.@.@.@.@.@.@.@.@.@.@.@.@.@.@.@.@.@.@.@.@.@.@.@.@.@.@.@.@.@.@.@.@.@.@.@.@.@.@.@.@.@.@.@.@.@.@.@.@.@.@.@.@.@.@.@.@.@.@.@.@.@.@.@.@.@.@.@.$.@.] ( ^ ! J J J J U U U U ! ! U U U U U U U U U ! ^ ( U Z 8 @       X X       X     X   X A f.)._./.C.C.m.c.f.=.$.@.@.*.@.@. .&.@.@.=.e . . . . . $ $ $   j 9.8.e.1.T U U U U U U U U U U U U U U U U U U U U U J ' *.@.@.@.@.@.@.@.@.*.*.U   X   X                   X   8 w.r.r.r.r.r.r.r.r.f.f.f.f.f.f.f.f.f.a.f.f.f.f.f.f.r.a.r.r.g.6.*.@.$.$.$.$.*.$.$.$.$.$.$.$.$.$.$.$.@.@.@.@.@.@.@.@./ & . $ $ $ $ $ $ 1 t.h.r.g.g.j.g.g.g.g.g.g.g.g.g.l.l.g.g.g.g.g.g.g.g.g.g.g.g.g.g.g.g.g.g.g.g.g.g.g.g.g.g.g.g.g.g.g.g.g.g.g.g.g.g.g.g.g.g.g.g.g.g.l.l.g.g.g.g.g.g.g.g.g.g.g.g.g.g.l.l.g.g.g.g.g.g.g.g.g.g.g.g.g.g.l.l.g.g.g.g.g.g.g.g.g.g.g.g.g.g.l.l.g.g.g.g.g.g.g.g.g.g.g.g.g.g.l.l.g.g.g.g.g.g.g.g.g.g.g.g.g.g.l.g.g.g.g.g.g.g.g.g.g.",
"l.l.l.l.g.g.g.g.g.g.g.g.g.g.g.g.l.l.l.l.l.l.l.l.l.l.j.g.g.g.j.j.j.m.6.= . $ $ $ $ $ $ $ $ . w a 8 8 8 8 8 8 8 8 8 8 8 8 t 8 A @.=.$.@.@.@.*.$.@.@.@.@.@.@.@.@.@.@.@.@.@.@.@.@.@.@.@.@.@.@.@.@.@.@.@.@.@.@.@.@.@.@.@.@.@.@.@.@.@.@.@.@.@.@.@.@.@.@.@.@.@.@.@.@.@.@.@.@.@.@.@.@.@.8 X     ( j.g.g.x.=.$.$.@.@.@.@.@.@.@.@.@.@.@.@.@.@.@.@.@.@.@.@.@.@.@.@.@.@.@.@.@.@.@.@.@.@.@.@.@.@.@.@.@.@.@.@.@.@.@.@.@.@.@.@.@.@.@.@.@.@.@.@.@.@.@.@.@.@.@.@.@.@.@.@.@.@.@.@.@.@.@.@.@.@.@.@.@.@.@.@.@.@.@.@.@.@.@.@.' ( U J J J J J J J U U U U ! ! U U U U U U U U ^ H x h X               X X X X     X 3 =.Y.}.`.A.A.D.C.g.=.=.$.@.@.@.@.@.@.#.*.*.@.@.*.e . . . . $ $ $ $   j 9.8.e.1.T U U U U U U U U U U U U U U U U U U U U ^ (  .@.@.@.@.@.@.@.@.@.@.' X     X                       X   f g.g.g.g.f.f.f.r.f.f.f.f.f.f.f.f.f.f.f.f.f.f.f.f.a.a.r.r.8.=.@.@.$.$.$.$.*.$.$.$.$.$.$.$.$.$.$.$.@.@.@.@.@.@.@.@./ & . $ $ $ $ $ $ s b.y.c.x.g.g.g.f.f.f.g.g.g.g.f.f.f.f.f.f.f.f.f.f.f.f.f.f.f.f.g.g.g.g.g.g.g.g.g.g.g.g.g.g.f.f.g.g.g.g.g.g.g.g.g.g.g.f.g.g.f.f.g.g.g.g.f.f.g.f.f.f.g.g.g.g.g.g.f.g.g.g.g.g.g.g.g.f.f.f.g.g.g.g.g.g.g.g.g.g.g.f.g.g.g.g.f.f.g.f.f.g.g.g.g.g.g.f.g.g.g.g.f.f.g.f.f.f.g.g.g.g.g.g.f.g.g.g.g.g.f.f.g.g.l.l.g.g.l.l.l.l.l.x.",
"g.g.g.g.g.g.g.g.g.g.g.g.g.g.g.g.g.g.g.g.g.g.g.g.g.g.g.g.g.g.g.g.9.g.y.4 . $ $ $ $ $ $ $ $ . r e 8 8 8 8 8 8 8 8 8 8 8 t x ] =.@.@.@.@.@.@.@.$.@.@.@.@.@.@.@.@.@.@.@.@.@.@.@.@.@.@.@.@.@.@.@.@.@.@.@.@.@.@.@.@.@.@.@.@.@.@.@.@.@.@.@.@.@.@.@.@.@.@.@.@.@.@.@.@.@.@.@.@.@.@.@.$.] +       *.c.g.g.c.5.*.@.@.@.@.@.@.@.@.@.@.@.@.@.@.@.@.@.@.@.@.@.@.@.@.@.@.@.@.@.@.@.@.@.@.@.@.@.@.@.@.@.@.@.@.@.@.@.@.@.@.@.@.@.@.@.@.@.@.@.@.@.@.@.@.@.@.@.@.@.@.@.@.@.@.@.@.@.@.@.@.@.@.@.@.@.*.*.$.@.=.$.$.@.] ( ^ ! ! ! ! ! U U U U U U U U ! ! ! ^ ! J J J ' ( ! A 9 @             +         @     @ ! A._.{.R.F.D.D.g.8.<.$.$.$.$.&.&.&.&.&.&.*.*.*.@.@.*.e . . . . $ $ $ $   x 9.8.e.6.^ U U U U U U U U U U U U U U U U ^ ! J J ( @.*.@.@.@.@.@.@.$.] =.O.@       X X X         X   X           Z g.f.g.f.r.r.r.f.f.f.f.f.f.f.f.f.f.f.f.f.f.f.f.r.f.r.6.@.@.@.@.$.$.$.$.$.$.$.$.$.$.$.$.$.$.$.$.$.$.$.$.$.$.$.$.` & $ $ $ $ $ $ $ b b.g.g.g.g.g.g.g.g.g.l.l.l.l.g.g.g.g.g.g.g.g.g.g.g.g.g.g.g.g.g.g.j.j.g.g.j.j.l.l.l.l.l.l.x.x.l.l.l.l.g.g.g.g.g.g.l.l.l.l.l.l.l.l.l.l.g.g.g.g.g.g.g.g.g.g.g.g.g.g.g.g.g.g.g.g.g.g.l.l.l.l.l.x.l.l.l.l.l.g.g.g.l.l.l.l.l.l.l.l.l.l.l.l.l.g.g.g.l.l.l.l.l.l.l.l.l.l.l.l.l.l.l.l.l.l.l.l.l.l.l.l.l.l.l.l.l.g.g.g.l.l.g.g.",
"l.l.l.l.l.l.l.l.l.l.g.g.g.g.g.g.x.x.x.x.j.j.j.j.j.j.j.j.j.j.j.j.k.k.y.4 . $ $ $ $ $ $ $ . . 6 e 8 8 8 8 8 8 8 8 7 8 x ( $.*.*.@.@.@.@.@.@.@.@.@.@.@.@.@.@.@.@.@.@.@.@.@.@.@.@.@.@.@.@.@.@.@.@.@.@.@.@.@.@.@.@.@.@.@.@.@.@.@.@.@.@.@.@.@.@.@.@.@.@.@.@.@.@.@.@.@.@.@.@.@.*.O.*.x X       5.c.g.g.c.6.$.@.@.@.@.@.@.@.@.@.@.@.@.@.@.@.@.@.@.@.@.@.@.@.@.@.@.@.@.@.@.@.@.@.@.@.@.@.@.@.@.@.@.@.@.@.@.@.@.@.@.@.@.@.@.@.@.@.@.@.@.@.@.@.@.@.@.@.@.@.@.@.@.@.@.@.@.@.@.@.@.@.@.@.@.@.$.*.*.=.*.$.@.' ^ ! U U U ! ! ! U U U U U U U ! ^ ^ U J J U ( ] H f @ X                   + X     X k 8./._.).D.m.D.c.e.=.*.*.*.*.$.$.$.&.&.&.&.&.&.*.*.*.@.@.*.e . . . $ $ $ $ $   x 9.8.e.6.^ U U U U U U U U U U U U U U U U ! ! ! ^ ] @.*.@.@.@.@.@.=.*.] =.8         X     @ g.(         X           A x.r.f.r.r.r.f.f.f.f.f.f.f.f.f.f.f.f.f.f.f.f.r.g.w.@.@.@.@.@.$.$.$.$.$.$.$.$.$.$.$.$.$.$.$.$.$.$.$.$.$.$.$.$.` & $ $ $ $ $ $ $ b c.g.g.g.g.g.g.g.g.g.l.l.l.l.g.g.g.g.g.g.g.g.g.g.g.g.g.g.g.g.g.g.j.j.g.g.x.x.x.x.c.c.g.g.l.l.l.l.l.l.g.g.z.c.c.c.c.c.c.c.x.x.c.c.c.c.x.x.x.x.c.c.x.x.x.x.x.x.x.x.l.l.j.g.g.g.g.g.l.l.l.l.x.x.l.l.l.l.g.g.g.g.l.l.l.l.l.l.l.l.l.l.l.l.g.g.g.g.l.l.l.l.l.l.l.l.l.l.l.l.l.l.l.l.l.l.l.l.l.l.l.l.l.l.l.l.g.g.g.g.l.l.l.l.",
"r.r.r.r.w.w.w.w.w.w.w.w.9.9.9.9.9.9.9.9.9.9.9.9.9.9.9.9.9.9.9.9.r.r.6.4 . $ $ $ $ $ $ $ . . 6 e 8 8 t t 8 8 8 8 x ( $.*.@.@.@.@.@.@.@.@.@.@.@.@.@.@.@.@.@.@.@.@.@.@.@.@.@.@.@.@.@.@.@.@.@.@.@.@.@.@.@.@.@.@.@.@.@.@.@.@.@.@.@.@.@.@.@.@.@.@.@.@.@.@.@.@.@.@.@.@.@.@.@.@.$.@.*.2       X r.c.j.g.c.8.@.@.@.@.@.@.@.@.@.@.@.@.@.@.@.@.@.@.@.@.@.@.@.@.@.@.@.@.@.@.@.@.@.@.@.@.@.@.@.@.@.@.@.@.@.@.@.@.@.@.@.@.@.@.@.@.@.@.@.@.@.@.@.@.@.@.@.@.@.@.@.@.@.@.@.@.@.@.@.@.@.@.@.@.@.@.@.@.@.@.] ! J ^ U J U U U U ! ! U U U U U J J U J U ^ ^ J J x 3 X     X                 X   @ 5  .F.}.(.Y.A.c.m.j.8.*.@. .@.@.$.$.$.$.$.&.&.&.&.&.&.&.&.*.@.@.*.e . . $ $ $ $ $ $   x 9.8.e.6.^ U U U U U U U U U U U U U U U U J J ^ ] @.@.@.@.@.@.@.@.$.*.=.x   X         X   8.#X_.H       X             H r.f.r.r.r.f.f.f.f.f.f.f.f.f.f.f.f.f.f.f.f.g.6.$.*.@.@.@.@.$.$.$.$.$.$.$.$.$.$.$.$.$.$.$.$.$.$.$.$.$.$.$.$.` & $ $ $ $ $ $ $ b c.g.g.g.g.g.g.g.g.g.l.l.l.l.g.g.g.g.g.g.g.g.g.g.g.g.g.g.g.g.g.g.j.j.g.j.j.j.g.g.g.g.g.g.g.g.g.g.g.g.g.g.g.g.r.r.r.r.r.r.r.r.r.r.r.r.r.r.r.r.r.r.r.r.r.r.r.r.r.r.r.r.g.g.g.g.c.c.c.c.x.j.j.j.j.j.j.j.g.g.g.g.g.g.g.g.g.g.g.g.g.g.g.g.g.g.g.g.g.g.g.g.g.g.g.g.l.l.l.l.l.l.l.l.l.l.l.l.l.l.g.g.g.g.g.g.g.g.g.g.c.g.r.e.",
"*.*.*.*.&.&.@.@.@.@.@.@.@.@.@.@.$.$.$.$.$.$.$.$.$.$.$.$.$.$.$.$.@.@.#.= . $ $ $ $ $ $ $ . . 6 e 8 8 t t 8 8 8 8 @.$.$.@.*.*.@. .@.@.@.@.@.@.@.@.@.@.@.@.@.@.@.@.@.@.@.@.@.@.@.@.@.@.@.@.@.@.@.@.@.@.@.@.@.@.@.@.@.@.@.@.@.@.@.@.@.@.@.@.@.@.@.@.@.@.@.@.@.@.@.@.@.@.@.@.@.@.( X       @ g.j.x.g.x.e.@.$.@.@.@.@.@.@.@.@.@.@.@.@.@.@.@.@.@.@.@.@.@.@.@.@.@.@.@.@.@.@.@.@.@.@.@.@.@.@.@.@.@.@.@.@.@.@.@.@.@.@.@.@.@.@.@.@.@.@.@.@.@.@.@.@.@.@.@.@.@.@.@.@.@.@.@.@.@.@.@.@.@.@.@.@.@.O.' ^ ! ^ ^ ! J J U U U U ! ! U U U U U J U U ] ( H A 8 @           X                 X H c.`.).E.A.m.G.c.9.6.*.@.@.@.*.*.@.@.@.$.$.$.&.&.&.&.&.&.*.*.*.@.@.*.e . . . $ $ $ $ $   z 9.8.e.5.^ U U U U U U U U U U U U U U U U J U ( @.*.$.@.@.@.@.@.@. .=.J X   X   X X @   ] .X_.}..XJ               X     ( f.a.r.r.f.f.f.f.f.f.f.f.f.f.f.f.f.f.f.f.5.$.$.=.@.@.@.@.$.$.$.$.$.$.$.$.$.$.$.$.$.$.$.$.$.$.$.$.$.$.$.$.` & $ $ $ $ $ $ $ b c.g.g.g.g.g.l.g.g.g.l.l.l.l.g.g.g.g.g.g.g.g.g.g.g.g.g.g.g.g.j.j.j.j.j.j.j.j.r.r.r.r.e.e.e.e.=.=.=.=.@.@.@.@.@.@.@.@.@.@.@.@.@.@.@.@.@.@.@.@.@.@.@.@.@.@.@.@.@.@.@.$.$.*.*.*.w.w.e.e.f.f.f.f.j.j.j.j.g.g.g.g.g.g.g.g.g.g.g.g.g.g.g.g.g.g.g.g.g.g.g.g.g.g.g.g.l.l.l.l.l.l.l.l.l.l.l.l.l.l.g.g.g.g.g.g.g.g.g.g.c.a.=.@.",
"*.*.*.*.&.&.@.@.@.@.@.@.@.@.@.@.@.@.@.@.@.@.@.@.@.@.@.@.@.@.@.@.@.#.#.= . $ $ $ $ $ $ $ . . 6 e 8 8 8 8 8 8 f  .@.@.@.@.&.&.&.&.@.@.@.@.@.@.@.@.@.@.@.@.@.@.@.@.@.@.@.@.@.@.@.@.@.@.@.@.@.@.@.@.@.@.@.@.@.@.@.@.@.@.@.@.@.@.@.@.@.@.@.@.@.@.@.@.@.@.@.@.@.@.@.@.@.@.@.@.@.=.f         8 c.g.g.g.g.f.@.$.@.@.@.@.@.@.@.@.@.@.@.@.@.@.@.@.@.@.@.@.@.@.@.@.@.@.@.@.@.@.@.@.@.@.@.@.@.@.@.@.@.@.@.@.@.@.@.@.@.@.@.@.@.@.@.@.@.@.@.@.@.@.@.@.@.@.@.@.@.@.@.@.*.$.@.@.@.@.*.=.*.@.O.] ( ^ J U U U U U U U U U ! ! ! ! ( J H J J U ( U x 8 +                 X       X X   8 5./.`.W.G.G.C.c.f.5.=.@.@.@.@.@.@.@.@.@.@.$.$.$.$.*.*.*.*.*.*.&.&.*.@.@.*.g . . . $ . $ $ $   z w.6.e.5.^ U U U U U U U U U U U U U U U U U ! @.@.@.@.@.@.@.@.@.@.=.^ @               D }.}.}.}.}.|.W     X   X           ] g.8.r.f.f.f.f.f.f.f.f.f.f.f.f.g.f.9.=.$.$.$.$.$.$.$.$.$.$.$.$.$.$.$.$.$.$.$.$.$.$.$.$.$.$.$.$.$.$.$.$.` & $ $ $ $ $ $ . m c.g.g.g.g.g.l.N.c.g.l.l.x.l.g.g.x.x.c.c.c.c.c.c.c.c.x.x.j.j.e.e.8.8.<.<.<.<.*.$.@.@.@.@.@.@.@.@.@.@.@.@.@.@.@.@.@.@.@.@.@.@.@.@.@.@.@.@.@.@.@.@.@.@.@.@.@.@.@.@.@.@.@.@.@.@.@.@.@.@.@.@.@.@.=.6.r.g.f.g.g.j.g.g.j.g.g.g.g.g.g.g.j.j.x.x.j.g.g.g.g.g.g.g.g.g.g.g.g.g.g.g.g.g.l.l.g.g.g.g.g.g.j.j.g.g.c.g.f.0.6.*.@.@.",
"*.*.*.*.&.&.@.@.@.@.@.@.@.@.@.@.@.@.@.@.@.@.@.@.@.@.$.@.@.@.@.@.@.#.#.= . $ $ $ $ $ $ $ . . 6 e 8 8 8 8 8 7 Z $.@.@.@.@.&.&.&.&.@.@.@.@.@.@.@.@.@.@.@.@.@.@.@.@.@.@.@.@.@.@.@.@.@.@.@.@.@.@.@.@.@.@.@.@.@.@.@.@.@.@.@.@.@.@.@.@.@.@.@.@.@.@.@.@.@.@.@.@.@.@.@.@.@.@.@.@.@.@.2         h c.g.g.g.g.g.*.$.@.@.@.@.@.@.@.@.@.@.@.@.@.@.@.@.@.@.@.@.@.@.@.@.@.@.@.@.@.@.@.@.@.@.@.@.@.@.@.@.@.@.@.@.@.@.@.@.@.@.@.@.@.@.@.@.@.@.@.@.@.@.@.@.@.@.@.@.@.@.@.@.@.@.$.*.*.@.@.@. .( ! H J U ! U U U U U U U U U ! ! ! ! H ^ ( ( ! D f 2 X X                   + X     2 ( V._.(.G.C.V.D.g.0.@.O.@.@.@.@.@.@.@.@.@.@.@.@.$.$.$.$.*.*.*.*.&.&.&.&.*.@.@.*.g . . . $ $ $ $ $   z 9.6.e.5.^ U U U U U U U U U U U U U U U U ( ] @.@.@.@.@.@.@.=.*.O.@.3               f _.}.}.}.}.}..X}.(         X         @ ] f.g.f.f.f.f.f.f.f.f.f.f.f.f.g.r.5.@.$.$.$.$.$.$.$.$.$.$.$.$.$.$.$.$.$.$.$.$.$.$.$.$.$.$.$.$.$.$.$.$.` & $ $ $ $ $ $ . m c.g.g.g.g.g.l.c.c.l.l.l.x.x.g.g.a.r.w.w.w.w.6.6.5.5.*.*.*.*.@.@.@.@.O.O.@.@.@.@.$.*.*.*.*.$.#.@.@.@.@.@.@.@.@.@.@.@.@.@.@.@.@.@.@.@.@.@.@.@.@.@.@.@.@.@.@.@.@.@.@.@.@.@.@.@.@.@.@.@.@.@.@.@.@.@.@.@.*.=.=.<.w.r.g.j.c.c.x.x.x.x.x.x.x.x.x.x.g.g.j.j.j.j.j.j.l.l.l.l.l.l.l.l.l.l.l.l.g.g.g.g.j.j.g.g.0.=.@.@.@.@.$.*.",
"*.*.*.*.&.&.@.@.@.@.@.@.@.@.@.@.@.$.$.@.@.@.@.@.@.$.$.@.@.@.@.@.@.#.#.= $ $ $ $ $ $ $ $ . . e e t t 8 8 9 8 ( @.@.@.@.@.&.&.&.&.@.@.@.@.@.@.@.@.@.@.@.@.@.@.@.@.@.@.@.@.@.@.@.@.@.@.@.@.@.@.@.@.@.@.@.@.@.@.@.@.@.@.@.@.@.@.@.@.@.@.@.@.@.@.@.@.@.@.@.@.@.@.@.@.@.@.@.@.*.^       X   Z c.g.g.g.g.c.=.$.@.@.@.@.@.@.@.@.@.@.@.@.@.@.@.@.@.@.@.@.@.@.@.@.@.@.@.@.@.@.@.@.@.@.@.@.@.@.@.@.@.@.@.@.@.@.@.@.@.@.@.@.@.@.@.@.@.@.@.@.@.@.@.@.@.@.@.@.@.@.@.@.@.@.$.*.@. .' ( J J J ! ! U U U U U U U U U U U ! ! ! ! ! U A k 3 X   X                 X X X   + z e.(.{.W.F.V.c.x.r.<.O.O.@.@.&.@.@.@.@.@.@.@.@.@.@.@.$.$.$.$.*.*.*.*.*.*.&.&.&.@.@.*.g . . . $ $ $ $ $   z 9.8.8.5.^ U U U U U U U U U U U U U U U J ] @.@.@.@.@.@.@.=.@. .@.k               3 J..X}.}.}.}.}.}..X}.^ X X               @ =.j.f.f.f.f.f.f.f.f.f.f.f.f.f.6.*.@.$.$.$.$.$.$.$.$.$.$.$.$.$.$.$.$.$.$.$.$.$.$.$.$.$.$.$.$.$.$.$.$.` & $ $ $ $ $ $ . m c.g.g.g.g.g.c.g.w.w.5.5.5.5.5.2.*.*.&.@.@.@.@.@.@.@.@.@.@.@.@.@.@.@.$.$.*.*.$.$.*.*.$.$.*.$.#.@.@.@.@.@.@.@.@.@.@.@.@.@.@.@.@.@.@.@.@.@.@.@.@.@.@.@.@.@.@.@.@.@.@.@.@.@.@.@.@.@.@.@.@.@.@.$.*.*.$.@.O.@.@.$.@.@.=.5.9.9.9.9.f.f.f.f.f.f.f.f.g.g.g.g.g.g.f.f.g.g.g.g.g.g.g.g.g.g.g.g.g.g.g.g.f.e.5.*.@.@.@.@.*.@.@.@.",
"*.*.*.*.&.&.@.@.@.@.@.@.@.@.@.@.@.@.$.@.@.@.@.@.@.$.$.@.@.@.@.@.@.#.#.= $ $ $ $ $ $ $ $ . . e y t t t 8 h 7 ' =.@.@.@.@.&.&.&.&.@.@.@.@.@.@.@.@.@.@.@.@.@.@.@.@.@.@.@.@.@.@.@.@.@.@.@.@.@.@.@.@.@.@.@.@.@.@.@.@.@.@.@.@.@.@.@.@.@.@.@.@.@.@.@.@.@.@.@.@.@.@.@.@.@.@.@.@.$.d       X   H c.g.g.g.j.c.6.$.@.@.@.@.@.@.@.@.@.@.@.@.@.@.@.@.@.@.@.@.@.@.@.@.@.@.@.@.@.@.@.@.@.@.@.@.@.@.@.@.@.@.@.@.@.@.@.@.@.@.@.@.@.@.@.@.@.@.@.@.@.@.@.@.@.@.@.@.@.@.@.@.*.$.@.@.( ^ U J ^ ^ ! J U U U U U U U U U U U U ! ! ! ! f 3 X                               d ] G._./.G.V.V.c.g.6.@.] @.@.@.@.@.@.@.@.@.@.@.@.@.@.@.@.@.$.$.$.$.*.*.*.*.*.*.&.&.&.@.@.*.g . . . $ $ $ $ $   z 9.8.8.5.^ U U U U U U U U U U U U U U U J @.*.@.$.@.@.@.@.@.@.@.A                 C.#X}.}.}.}.}.}._.}.XX.X] X   X         X   8 8.f.f.f.r.f.f.f.f.f.f.f.f.8.=.$.*.$.$.$.$.$.$.$.$.$.$.$.$.$.$.$.$.$.$.$.$.$.$.$.$.$.$.$.$.$.$.$.$.` & $ $ $ $ $ $ . m c.g.g.g.g.g.c.q.*.@.&.&.&.@.@.@.*.*.*.*.*.*.&.&.*.$.*.$.$.$.@.@.@.@.@.@.@.@.@.@.@.@.@.@.@.@.@.@.@.@.@.@.@.@.@.@.@.@.@.@.@.@.@.@.@.@.@.@.@.@.@.@.@.@.@.@.@.@.@.@.@.@.@.@.@.@.@.@.@.@.@.@.@.@.@.@.$.$.@.@.*.=.@.@.@.@.@.@.@.@.$.$.$.$.@.@.*.$.*.*.*.*.*.*.*.*.=.=.=.=.=.=.=.=.=.=.*.*.*.*.*.*.O.@.@.@.@.@.@.@.@.@.$.*.",
"@.@.@.@.@.@.@.@.@.@.@.@.@.@.@.@.@.@.@.@.@.@.@.@.@.@.@.@.@.@.@.@.@.#.#.= . $ $ $ $ $ $ $ . . 6 e 8 8 8 8 d 8 ] $.@.@.@.@.&.&.&.&.@.@.@.@.@.@.@.@.@.@.@.@.@.@.@.@.@.@.@.@.@.@.@.@.@.@.@.@.@.@.@.@.@.@.@.@.@.@.@.@.@.@.@.@.@.@.@.@.@.@.@.@.@.@.@.@.$.O.@.=.@.O.$.@.5.@.( H 8       X X   @.m.x.f.j.j.x.8.] @.@.@.@.@.@.@.@.@.@.@.@.@.@.@.@.@.@.@.@.@.@.@.@.@.@.@.@.@.@.@.@.@.@.@.@.@.@.@.@.@.@.@.@.@.@.@.@.@.@.@.@.@.@.@.@.@.@.@.@.@.@.@.@.$.$.*.*.*.*.*.@.] ( ! U ! ! ! ! ! ! ! ! ! ! ! ! J J J H J H ( ` H h 3 2 X                             : H c./.(.Y.G.D.m.c.r.*.@.&.&.&.&.&.&.&.&.@.&.&.&.@.@.@.@.&.&.&.&.*.*.*.*.*.*.*.*.$.$.$.$.&.@.@.*.g . . . $ $ $ $ $   j 9.8.e.<.T U U U U U U U U U U U U J J ! ] @.@.@.@.@.@.@.@.] 6.^ X         X +   6.{.{.{.{.}.}.}.}.}.}.}.}..X]     X X   X       f r.f.6.f.f.f.f.f.f.f.f.f.r.6.$.O.@.@.@.@.$.$.$.$.$.$.$.$.@.@.@.@.@.@.@.@.@.@.@.@.@.@.@.@.$.$.$.$.` & $ $ $ $ % * . V c.g.g.g.g.g.j.8.O.$.@.@.@.@.@.@.@.@.@.@.@.@.@.@.@.@.@.@.@.@.@.@.@.@.@.@.@.@.@.@.@.@.@.@.@.@.@.@.@.@.@.@.@.@.@.@.@.@.@.@.@.@.@.@.@.@.@.@.@.@.@.@.@.@.@.@.@.@.@.@.@.@.@.@.@.@.@.@.@.@.@.@.@.@.@.@.@.@.@.@.@.@.@.@.@.@.@.@.@.@.@.@.@.@.@.@.@.@.@.@.@.@.@.@.@.@.@.@.@.@.@.@.@.@.@.@.@.@.@.@.@.@.@.@.@.@.$.$.$.$.$.$.$.$.",
"@.@.@.@.@.@.@.@.@.@.@.@.@.@.@.@.@.@.@.@.@.@.@.@.@.@.@.@.@.@.@.@.@.#.#.= . $ $ $ $ $ $ $ . . 6 e 8 8 8 8 d 8 ' $.@.@.@.@.&.&.&.&.@.@.@.@.@.@.@.@.@.@.@.@.@.@.@.@.@.@.@.@.@.@.@.@.@.@.@.@.@.@.@.@.@.@.@.@.@.@.@.@.@.@.@.@.@.@.@.@.@.@.@.@.@.@.@.@.@.O.@.@.=.=.=.O.H d X         X X     x c.V.g.c.j.g.r.=.@.@.@.@.@.@.@.@.@.@.@.@.@.@.@.@.@.@.@.@.@.@.@.@.@.@.@.@.@.@.@.@.@.@.@.@.@.@.@.@.@.@.@.@.@.@.@.@.@.@.@.@.@.@.@.@.@.@.@.@.@.@.@.$.*.*.*.*.*.@.' ^ ! U U ! ! ! ! ! ! ! ! ! ! ! ! ! ^ ^ ^ ^ H J V 3 X                                 k 5.Y._.W.D.C.A.C.g.5.5.=.@.@.&.&.&.&.&.&.&.&.@.@.&.&.@.@.@.@.&.&.&.&.*.*.*.*.*.*.*.*.$.$.$.$.&.@.@.*.g . . . $ $ $ $ $   j 9.8.e.<.T U U U U U U U U U U U U U J ] *.@.@.@.@.@.@.@.@.6.' @           X    .#X{.{.{.{.}.}.}.}.}.}.}.}..X}.@.                  8 r.9.j.f.f.f.f.f.f.f.f.f.w.<.@.@.@.@.@.$.$.$.$.$.$.$.$.@.@.@.@.@.@.@.@.@.@.@.@.@.@.@.@.$.$.$.$.` & $ $ $ $ % * . V c.g.g.g.g.g.x.6.@.@.@.@.@.@.@.@.@.@.@.@.@.@.@.@.@.@.@.@.@.@.@.@.@.@.@.@.@.@.@.@.@.@.@.@.@.@.@.@.@.@.@.@.@.@.@.@.@.@.@.@.@.@.@.@.@.@.@.@.@.@.@.@.@.@.@.@.@.@.@.@.@.@.@.@.@.@.@.@.@.@.@.@.@.@.@.@.@.@.@.@.@.@.@.@.@.@.@.@.@.@.@.@.@.@.@.@.@.@.@.@.@.@.@.@.@.@.@.@.@.@.@.@.@.@.@.@.@.@.@.@.@.@.@.@.@.@.$.$.$.$.$.$.$.$.",
"@.@.@.@.@.@.@.@.@.@.@.@.@.@.@.@.@.@.@.@.@.@.@.@.@.@.@.@.@.@.@.@.@.#.#.= . $ $ $ $ $ $ $ . . 6 e 8 8 8 8 d 8 ] $.@.@.@.@.&.&.&.&.@.@.@.@.@.@.@.@.@.@.@.@.@.@.@.@.@.@.@.@.@.@.@.@.@.@.@.@.@.@.@.@.@.@.@.@.@.@.@.@.@.@.@.@.@.@.@.@.@.@.@.@.@.@.@.@.=.=.=.*.@.J 8 @                     X   8 8.c.g.c.g.j.r.=.@.@.@.@.@.@.@.@.@.@.@.@.@.@.@.@.@.@.@.@.@.@.@.@.@.@.@.@.@.@.@.@.@.@.@.@.@.@.@.@.@.@.@.@.@.@.@.@.@.@.@.@.@.@.@.@.@.@.@.@.@.@.@.*.@.@.] ] ( U J U ! ^ ^ ! ! ! ! ! ! ! ! ! ! ! ! ' ( J D 7 @         X X                     3 ( D./.(.D.V.C.F.C.f.=.] @.@.@.@.@.&.&.&.&.&.&.&.&.@.@.@.@.@.@.@.@.&.&.&.&.*.*.*.*.*.*.*.*.$.$.$.$.@.@.@.=.g . . . $ $ $ $ $   j 9.6.e.<.T U U U U U U U U U U U J J ] @.*.@.@.@.@.@.@.@.@.@.7     X       X A @X.X{.{.{.{.}.}.}.}.}.}.}.}._.}..X@.  @               f g.g.f.f.f.f.f.f.f.f.f.r.e.=.@.@.@.@.$.$.$.$.$.$.$.$.@.@.@.@.@.@.@.@.@.@.@.@.@.@.@.@.$.$.$.$.` & $ $ $ $ % % . C c.g.g.g.g.g.x.5.@.@.@.@.@.@.@.@.@.@.@.@.@.@.@.@.@.@.@.@.@.@.@.@.@.@.@.@.@.@.@.@.@.@.@.@.@.@.@.@.@.@.@.@.@.@.@.@.@.@.@.@.@.@.@.@.@.@.@.@.@.@.@.@.@.@.@.@.@.@.@.@.@.@.@.@.@.@.@.@.@.@.@.@.@.@.@.@.@.@.@.@.@.@.@.@.@.@.@.@.@.@.@.@.@.@.@.@.@.@.@.@.@.@.@.@.@.@.@.@.@.@.@.@.@.@.@.@.@.@.@.@.@.@.@.@.@.@.$.$.$.$.$.$.$.$.",
"@.@.@.@.@.@.@.@.@.@.@.@.@.@.@.@.@.@.@.@.@.@.@.@.@.@.@.@.@.@.@.@.@.#.#.= $ $ $ $ $ $ $ $ . . 6 e 8 8 8 8 d 8 ] $.@.@.@.@.&.&.&.&.@.@.@.@.@.@.@.@.@.@.@.@.@.@.@.@.@.@.@.@.@.@.@.@.@.@.@.@.@.@.@.@.@.@.@.@.@.@.@.@.@.@.@.@.@.@.@.@.@.@.@.@.@.@.@.@.=.@.H t +     X     X X   X 7 J f     X   3 =.D.c.j.c.j.9.=.@.@.@.@.@.@.@.@.@.@.@.@.@.@.@.@.@.@.@.@.@.@.@.@.@.@.@.@.@.@.@.@.@.@.@.@.@.@.@.@.@.@.@.@.@.@.@.@.@.@.@.@.@.@.@.@.@.@.@.@.@.@.@.] ( ^ H J U ^ ^ ^ ^ ^ ! ! ! ! ! ! ! ! ! ! ! ! D z 3 +       X X                       H g.W.W.Y.G.D.D.G.w.5.*.O.@.*.$.@.@.@.@.&.&.&.&.&.&.&.&.@.@.@.@.@.@.@.@.&.&.&.&.*.*.*.*.*.*.*.*.$.$.$.$.@.@.@.=.g . . . $ $ $ $ $   j 9.6.6.<.T J U U U U U U U U U U U J @.=.@.@.@.@.@.@.@.@.@.h       X       f _.|.}.}.{.{.{.}.}.}.}.}.}.}.}.}..X}.|.O.  X X             x r.f.f.f.f.f.f.f.f.f.r.9.8.@.@.@.@.$.$.$.$.$.$.$.$.@.@.@.@.@.@.@.@.@.@.@.@.@.@.@.@.$.$.$.$.` & $ $ $ $ % % . C c.g.g.g.g.g.c.=.*.@.@.@.@.@.@.@.@.@.@.@.@.@.@.@.@.@.@.@.@.@.@.@.@.@.@.@.@.@.@.@.@.@.@.@.@.@.@.@.@.@.@.@.@.@.@.@.@.@.@.@.@.@.@.@.@.@.@.@.@.@.@.@.@.@.@.@.@.@.@.@.@.@.@.@.@.@.@.@.@.@.@.@.@.@.@.@.@.@.@.@.@.@.@.@.@.@.@.@.@.@.@.@.@.@.@.@.@.@.@.@.@.@.@.@.@.@.@.@.@.@.@.@.@.@.@.@.@.@.@.@.@.@.@.@.@.@.$.$.$.$.$.$.$.$.",
"@.@.@.@.@.@.@.@.@.@.@.@.@.@.@.@.@.@.@.@.@.@.@.@.@.@.@.@.@.@.@.@.@.#.#.= $ $ $ $ $ $ $ $ . . r e 8 8 8 8 d 8 ] $.@.@.@.@.&.&.&.&.@.@.@.@.@.@.@.@.@.@.@.@.@.@.@.@.@.@.@.@.@.@.@.@.@.@.@.@.@.@.@.@.@.@.@.@.@.@.@.@.@.@.@.@.5.@.@.=.=.@.@.O.=.*.O.H f 2     X           2 x ' =.g.c.V.H   X +   @ $.m.g.g.c.c.8.@.@.@.@.@.@.@.@.@.@.@.@.@.@.@.@.@.@.@.@.@.@.@.@.@.@.@.@.@.@.@.@.@.@.@.@.@.@.@.@.@.@.@.@.@.@.@.@.@.@.@.@.@.@.@.@.@.@.=.@.] ' U U U U U U U U ! ! ! ! ! U J J J J ^ U ( A f 7                       @   @   X   3 @.G./.E.L.A.G.c.g.e.$.$.$.$.$.$.$.$.@.@.@.@.&.&.&.&.&.&.&.&.&.&.&.&.&.&.&.&.&.&.&.&.&.&.&.&.&.&.&.&.@.@.@.@.&.@.@.=.b . . . . $ $ $ $   j 9.6.e.<.T J J J J J J ^ ^ ! ! ^ ! @.*.$.@.@.@.@.@.$.=.=.D         X X @ 3 Y.|.{._.}.{. X.X{.`.`.}.}.}.}.}.}.}.}.}.}.@.  X X     X   X X D c.f.e.g.f.f.f.f.f.f.f.f.=.@.@.@.$.$.$.$.$.$.$.$.@.@.@.@.@.@.@.@.@.@.@.@.@.@.@.@.$.$.$.$.` & $ $ $ $ $ % . C c.g.x.x.j.j.x.=.@.O.@.@.@.@.@.@.@.@.@.@.@.@.@.@.@.@.@.@.@.@.@.@.@.@.@.@.@.@.@.@.@.@.@.@.@.@.@.@.@.@.@.@.@.@.@.@.@.@.@.@.@.@.@.@.@.@.@.@.@.@.@.@.@.@.@.@.@.@.@.@.@.@.@.@.@.@.@.@.@.@.@.@.@.@.@.@.@.@.@.@.@.@.@.@.@.@.@.@.@.@.@.@.@.@.@.@.@.@.@.@.@.@.@.@.@.@.@.@.@.@.@.@.@.@.@.@.@.@.@.@.@.@.@.@.@.@.$.$.$.$.$.$.$.$.",
"@.@.@.@.@.@.@.@.@.@.@.@.@.@.@.@.@.@.@.@.@.@.@.@.@.@.@.@.@.@.@.@.@.#.#.= . $ $ $ $ $ $ $ . . r e 8 8 8 8 d 8 ] $.@.@.@.@.&.&.&.&.@.@.@.@.@.@.@.@.@.@.@.@.@.@.@.@.@.@.@.@.@.@.@.@.@.@.@.@.@.@.@.@.@.@.@.@.@.@.@.@.@.@.@.@.@.*.$.@.$.=.=.@.! z :     X X       @ 8 H *.g.c.m.c.c.c.f.c.=.@   X X   ^ c.g.r.g.x.e.@.@.@.@.@.@.@.@.@.@.@.@.@.@.@.@.@.@.@.@.@.@.@.@.@.@.@.@.@.@.@.@.@.@.@.@.@.@.@.@.@.@.@.@.@.@.@.@.@.@.@.@.@.@.@.@.@.@.] ^ ! U U U U U U U U ! ! ! ! ^ ! ! U ! U H k 3 +                                 2 ( g.W.`.R.c.c.c.V.r.6.@.@.$.$.$.$.$.$.$.$.@.@.@.@.&.&.&.&.&.&.&.&.&.&.&.&.&.&.&.&.&.&.&.&.&.&.&.&.&.&.&.&.@.@.@.@.&.@.@.=.b . . . $ $ $ $ $   j 9.6.8.<.P J J J J J J J J ^ ^ ^ ( *.$.@.@.@.@.@.@.@.=.^ X         X + X F.|.}.{._._..X{. XW.9.D.{. X}.{._.{.}.}.}.}..X*.  +           X @ ( c.8.f.r.r.r.r.f.f.f.f.6.*.@.@.$.$.$.$.$.$.$.$.@.@.@.@.@.@.@.@.@.@.@.@.@.@.@.@.$.$.$.$.` & $ $ $ $ % % . C c.g.x.x.j.j.g.=.@.@.@.@.@.@.@.@.@.@.@.@.@.@.@.@.@.@.@.@.@.@.@.@.@.@.@.@.@.@.@.@.@.@.@.@.@.@.@.@.@.@.@.@.@.@.@.@.@.@.@.@.@.@.@.@.@.@.@.@.@.@.@.@.@.@.@.@.@.@.@.@.@.@.@.@.@.@.@.@.@.@.@.@.@.@.@.@.@.@.@.@.@.@.@.@.@.@.@.@.@.@.@.@.@.@.@.@.@.@.@.@.@.@.@.@.@.@.@.@.@.@.@.@.@.@.@.@.@.@.@.@.@.@.@.@.@.@.$.$.$.$.$.$.$.$.",
"@.@.@.@.@.@.@.@.@.@.@.@.@.@.@.@.@.@.@.@.@.@.@.@.@.@.@.@.@.@.@.@.@.@.#.= . $ $ $ $ $ $ $ . . 6 e 8 8 8 8 d 8 ] $.@.@.@.@.@.@.@.@.@.@.@.@.@.@.@.@.@.@.@.@.@.@.@.@.@.@.@.@.@.@.@.@.@.@.@.@.@.@.@.@.@.@.@.@.@.@.@.@.@.@.@.@.*.@.@.*.*.( k 3 +           X 2 z ] e.g.c.V.x.e.x.j.g.f.c.x.x.e.3   @ X   H g.g.f.c.g.<.@.@.@.@.@.@.@.@.@.@.@.@.@.@.@.@.@.@.@.@.@.@.@.@.@.@.@.@.@.@.@.@.@.@.@.@.@.@.@.@.@.@.@.@.@.@.@.@.@.@.@.@.@.@.@.@.@.( U J U U U U U U U U ! ! ! ! ! ^ ^ ^ k 8 X                                 X z 6.E.).W.D.D.D.V.g.6.*.@.@.@.@.@.@.$.$.$.$.$.$.@.@.@.@.&.&.&.&.&.&.&.&.&.&.&.&.&.&.&.&.&.&.&.&.&.&.&.&.&.&.&.&.@.@.@.@.&.@.@.=.b . . . $ $ $ $ $   j 9.6.e.<.P J U U U U U U U ^ ^ ^ @.$.@.@.@.@.@.@.@.=.] :           +   r.@X{.{.}.}.}._._.Y.8.f.w.j.`.}.{.{.}.}.}.}._.)..X=.  @   X     X   @ ' c.w.a.a.r.r.f.f.f.f.r.=.@.@.$.$.$.$.$.$.$.$.@.@.@.@.@.@.@.@.@.@.@.@.@.@.@.@.$.$.$.$.` & $ $ $ $ $ $ . C c.g.j.j.j.j.g.*.$.@.@.@.@.@.@.@.@.@.@.@.@.@.@.@.@.@.@.@.@.@.@.@.@.@.@.@.@.@.@.@.@.@.@.@.@.@.@.@.@.@.@.@.@.@.@.@.@.@.@.@.@.@.@.@.@.@.@.@.@.@.@.@.@.@.@.@.@.@.@.@.@.@.@.@.@.@.@.@.@.@.@.@.@.@.@.@.@.@.@.@.@.@.@.@.@.@.@.@.@.@.@.@.@.@.@.@.@.@.@.@.@.@.@.@.@.@.@.@.@.@.@.@.@.@.@.@.@.@.@.@.@.@.@.@.@.@.$.$.$.$.$.$.$.$.",
"@.@.@.@.@.@.@.@.@.@.@.@.@.@.@.@.@.@.@.@.@.@.@.@.@.@.@.@.@.@.@.@.@.@.#.= . $ $ $ $ $ $ $ . . 6 e 8 8 8 8 d 8 ] $.@.@.@.@.@.@.@.@.@.@.@.@.@.@.@.@.@.@.@.@.@.@.@.@.@.@.@.@.@.@.@.@.@.@.@.@.@.@.@.@.@.@.@.@.@.@.@.@.@.@.@.@.=.*.^ k 3 +     X     + 8 D $.9.c.m.c.j.g.g.g.g.g.j.g.g.x.x.j.x.9.x     X   z r.j.r.r.g.@.@.@.@.@.@.@.@.@.@.@.@.@.@.@.@.@.@.@.@.@.@.@.@.@.@.@.@.@.@.@.@.@.@.@.@.@.@.@.@.@.@.@.@.@.@.@.@.@.@.@.@.@.@.@.@.@.] ^ ^ U U U U U U U U ! ! ! ! ' D 8 @ +                                 @ ( N.(.W.F.x.V.G.c.6.*.$.@.@.@.*.*.*.$.$.$.$.$.$.$.$.@.@.@.@.&.&.&.&.&.&.&.&.&.&.&.&.&.&.&.&.&.&.&.&.&.&.&.&.&.&.&.&.@.@.@.@.&.@.@.=.b . . . $ $ $ $ $   j 9.6.e.<.J J U U U U U U U ^ ^ ( =.@.@.@.@.@.@.@.@.$.8               O.@X}._._.}.|.{.{.Y.g.f.f.g.r.c./.|..X}.}.}.}.}.{.|..X$.    +   X         ] V.r.a.f.r.r.f.f.f.f.6.*.@.$.$.$.$.$.$.$.$.@.@.@.@.@.@.@.@.@.@.@.@.@.@.@.@.$.$.$.$.` & $ $ $ $ $ $ . C c.g.j.j.j.j.f.*.*.$.@.@.@.@.@.@.@.@.@.@.@.@.@.@.@.@.@.@.@.@.@.@.@.@.@.@.@.@.@.@.@.@.@.@.@.@.@.@.@.@.@.@.@.@.@.@.@.@.@.@.@.@.@.@.@.@.@.@.@.@.@.@.@.@.@.@.@.@.@.@.@.@.@.@.@.@.@.@.@.@.@.@.@.@.@.@.@.@.@.@.@.@.@.@.@.@.@.@.@.@.@.@.@.@.@.@.@.@.@.@.@.@.@.@.@.@.@.@.@.@.@.@.@.@.@.@.@.@.@.@.@.@.@.@.@.@.$.$.$.$.$.$.$.$.",
"@.@.@.@.@.@.@.@.@.@.@.@.@.@.@.@.@.@.@.@.@.@.@.@.@.@.@.@.@.@.@.@.@.@.@.= . $ $ $ $ $ $ $ . . 8 y 8 8 8 8 d 8 ] $.@.@.@.@.@.@.@.@.@.@.@.@.@.@.@.@.@.@.@.@.@.@.@.@.@.@.@.@.@.@.@.@.@.@.@.@.@.@.@.@.@.@.$.=.=.@.@.@.<.<.=.( x : X   X X     3 k ] <.g.g.c.c.g.g.g.g.g.g.g.g.g.g.g.g.x.c.j.r.m.j.J X   +   t 9.x.r.c.r.*.=.@.@.@.@.@.@.@.@.@.@.@.@.@.@.@.@.@.@.@.@.@.@.@.@.@.@.@.@.@.@.@.@.@.@.@.@.@.@.@.@.@.@.@.@.@.@.@.@.@.@.@.$.*.] ^ U J U ( J ( ! J J ^ ( H x 8 @ X                                 @ A c.R.`.U.m.m.D.D.e.<.@.@.@.@.@.@.@.@.$.@.$.$.$.$.$.$.$.$.$.$.$.$.$.$.$.$.@.@.*.*.@.@.*.=.*.@.@. .] ( ! J ] O.@.@.=.*.&.@.@.&.&.&.&.@.&.=.b   . . $ $ $ $ $   x 9.6.8.=.J J J J J U U U U ! ' @.@.@.@.@.@.] $.*.@.k X   X   X X   H +X}.}._.}._. X|.L.r.g.r.r.r.r.g.f.U.}.}._.|.{.}.}.}.}..X6.  + X X   + X   + O.g.e.r.r.f.f.f.f.r.9.6.*.$.$.$.$.$.$.$.$.@.@.@.@.@.@.@.@.@.@.@.@.@.@.@.@.$.$.$.$.` & $ $ $ $ $ $ . C c.g.g.g.g.g.r.@.@.@.@.@.@.@.@.@.@.@.@.@.@.@.@.@.@.@.@.@.@.@.@.@.@.@.@.@.@.@.@.@.@.@.@.@.@.@.@.@.@.@.@.@.@.@.@.@.@.@.@.@.@.@.@.@.@.@.@.@.@.@.@.@.@.@.@.@.@.@.@.@.@.@.@.@.@.@.@.@.@.@.@.@.@.@.@.@.@.@.@.@.@.@.@.@.@.@.@.@.@.@.@.@.@.@.@.@.@.@.@.@.@.@.@.@.@.@.@.@.@.@.@.@.@.@.@.@.@.@.@.@.@.@.@.@.@.@.$.$.$.$.$.$.$.$.",
"@.@.@.@.@.@.@.@.@.@.@.@.@.@.@.@.@.@.@.@.@.@.@.@.@.@.@.@.@.@.@.@.@.@.@.= . $ $ $ $ $ $ $ . . 8 y 8 8 8 8 d 8 ' $.@.@.@.@.@.@.@.@.@.@.@.@.@.@.@.@.@.@.@.@.@.@.@.@.@.@.@.@.@.@.@.@.@.@.@.@.@.@.@.@.@.@.@.@.] @.*.@.( x 2           X 5 H *.g.c.c.x.g.g.g.g.j.j.g.g.g.g.g.g.g.j.j.g.g.j.g.f.g.j.V.=.3   X   3 6.V.g.j.g.*.@.@.@.@.@.@.@.@.@.@.@.@.@.@.@.@.@.@.@.@.@.@.@.@.@.@.@.@.@.@.@.@.@.@.@.@.@.@.@.@.@.@.@.@.@.@.@.@.@.@.$.@.@.^ U J J J H J ] ^ ( ( J k 5                         X           3 @.U.W.W.G.m.D.c.g.6.=.$.@.@.@.@.@.@.@.@.@.@.@.$.$.$.$.$.$.$.$.$.$.$.$.$.$.$.$.@.@.@.@.=.*.@.@.O.] ( ! U U ^ ^ J ! ( ] ;.@.&.*.&.&.@.&.&.@.&.=.b   . . $ $ $ $ $   x 9.6.8.=.J J J J J U U U U ' @.@.@.@.@.@.@.@.] =.Z         X :   k ).}._.{.}.`.}.|.L.f.f.r.a.a.r.r.e.g.f.G.{..X_. X}.}.}.}.{..X<.  @ +     X     3 *.g.e.r.f.f.f.f.r.r.r.6.$.$.$.$.$.$.$.$.@.@.@.@.@.@.@.@.@.@.@.@.@.@.@.@.$.$.$.$.` & $ $ $ $ $ $ . C c.g.g.g.g.g.r.@.@.@.@.@.@.@.@.@.@.@.@.@.@.@.@.@.@.@.@.@.@.@.@.@.@.@.@.@.@.@.@.@.@.@.@.@.@.@.@.@.@.@.@.@.@.@.@.@.@.@.@.@.@.@.@.@.@.@.@.@.@.@.@.@.@.@.@.@.@.@.@.@.@.@.@.@.@.@.@.@.@.@.@.@.@.@.@.@.@.@.@.@.@.@.@.@.@.@.@.@.@.@.@.@.@.@.@.@.@.@.@.@.@.@.@.@.@.@.@.@.@.@.@.@.@.@.@.@.@.@.@.@.@.@.@.@.@.@.$.$.$.$.$.$.$.$.",
"@.@.@.@.@.@.@.@.@.@.@.@.@.@.@.@.@.@.@.@.@.@.@.@.@.@.@.@.@.@.@.@.@.@.@.= . . $ $ $ $ $ $ . . r e 8 8 8 8 d 8 ' $.@.@.@.@.@.@.@.@.@.@.@.@.@.@.@.@.@.@.@.@.@.@.@.@.@.@.@.@.@.@.@.@.@.@.@.@.@.@.@.@.$.*.*.*.@.( x 3       +   3 x ] e.g.c.c.x.c.c.r.f.g.g.g.g.g.j.j.j.j.x.x.c.c.x.j.c.j.j.c.g.g.g.c.9.3     X @ @.g.c.c.8.*.@.@.@.@.@.@.@.@.@.@.@.@.@.@.@.@.@.@.@.@.@.@.@.@.@.@.@.@.@.@.@.@.@.@.@.@.@.@.@.@.@.@.@.@.@.@.@.@.@.*.@.] U J J J J H J J J k 3 +                           X       @ ! g.(.W.G.c.N.C.c.r.<.=.*.*.*.@.@.@.@.@.@.@.@.@.@.@.$.$.$.$.$.$.$.$.$.$.$.$.$.$.$.$.=.*.@.O.] ( ( ^ J J ! ^ J J U ^ J J J ! ! _ O.@.&.&.&.&.&.@.&.=.b . . . $ $ $ $ $   x 9.6.0.6.J J J J J U U U U @.@.@.@.@.@.@.@.@.=.^ X         @ X @ W..X_.|.`._.}.|.G.r.f.r.9.r.a.f.f.r.w.g.r.C.{.|.}.}.}.}.}.{.`.#X6.  : X       X   3 r.f.f.f.f.f.r.r.r.r.9.=.$.$.$.$.$.$.$.@.@.@.@.@.@.@.@.@.@.@.@.@.@.@.@.$.$.$.$.` & $ $ $ $ $ $ . C c.g.g.g.g.g.r.@.@.@.@.@.@.@.@.@.@.@.@.@.@.@.@.@.@.@.@.@.@.@.@.@.@.@.@.@.@.@.@.@.@.@.@.@.@.@.@.@.@.@.@.@.@.@.@.@.@.@.@.@.@.@.@.@.@.@.@.@.@.@.@.@.@.@.@.@.@.@.@.@.@.@.@.@.@.@.@.@.@.@.@.@.@.@.@.@.@.@.@.@.@.@.@.@.@.@.@.@.@.@.@.@.@.@.@.@.@.@.@.@.@.@.@.@.@.@.@.@.@.@.@.@.@.@.@.@.@.@.@.@.@.@.@.@.@.@.$.$.$.$.$.$.$.$.",
"@.@.@.@.@.@.@.@.@.@.@.@.@.@.@.@.@.@.@.@.@.@.@.@.@.@.@.@.@.@.@.@.@.@.@.= . . $ $ $ $ $ $ . . r e 8 8 8 8 d 8 ] $.@.@.@.@.@.@.@.@.@.@.@.@.@.@.@.@.@.@.@.@.@.@.@.@.@.@.@.@.@.@.@.@.@.@.@.@.@.@.@.@.=.@.( H 3 +       X t H =.g.x.m.c.j.g.g.g.g.c.c.x.x.x.x.j.j.j.j.w.w.w.w.6.6.5.<.w.6.e.g.D.c.g.g.j.x.D       X ( g.g.j.6.@.@.@.@.@.@.@.@.@.@.@.@.@.@.@.@.@.@.@.@.@.@.@.@.@.@.@.@.@.@.@.@.@.@.@.@.@.@.@.@.@.@.@.@.@.@.@.@.@.*.@.( J J J J J U ^ k                                     @ f w.G.W.R.c.C.D.C.g.6.@.*.@.@.@.@.@.@.@.@.@.@.@.@.@.@.@.@.$.$.$.$.$.$.$.$.$.$.$.$.$.$.$.$. .] ^ J J J ^ ^ U U J J ! U J J U ! ^ ^ E ! ! ( ] @.&.&.&.@.&.=.b . . . $ $ $ $ $   x w.6.0.6.J J J J J U U U U @.@.@.@.@.@.@.@.@. .2     X   X X   G.}._..X_.|. X|.G.f.g.r.9.g.f.f.f.r.r.g.r.g.<.g.)..X}.}.}.}._._._.+X8.  X         @   t r.g.f.f.f.r.r.r.r.r.6.$.$.$.$.$.$.$.@.@.@.@.@.@.@.@.@.@.@.@.@.@.@.@.$.$.$.$.` & $ $ $ $ $ $ . C c.g.g.g.g.g.r.@.@.@.@.@.@.@.@.@.@.@.@.@.@.@.@.@.@.@.@.@.@.@.@.@.@.@.@.@.@.@.@.@.@.@.@.@.@.@.@.@.@.@.@.@.@.@.@.@.@.@.@.@.@.@.@.@.@.@.@.@.@.@.@.@.@.@.@.@.@.@.@.@.@.@.@.@.@.@.@.@.@.@.@.@.@.@.@.@.@.@.@.@.@.@.@.@.@.@.@.@.@.@.@.@.@.@.@.@.@.@.@.@.@.@.@.@.@.@.@.@.@.@.@.@.@.@.@.@.@.@.@.@.@.@.@.@.@.@.$.$.$.$.$.$.$.$.",
"@.@.@.@.@.@.@.@.@.@.@.@.@.@.@.@.@.@.@.@.@.@.@.@.@.@.@.@.@.@.@.@.@.@.@.= . $ $ $ $ $ $ $ . . 6 e 8 8 8 8 d 8 ] $.@.@.@.@.@.@.@.@.@.@.@.@.@.@.@.@.@.@.@.@.@.@.@.@.@.@.@.@.$.@.@.@.$.=.$.O.=.=.*.O.D 5 +     X 2 h ( =.c.m.C.c.j.f.j.g.g.g.c.c.x.j.j.g.9.8.=.*.@.@.$.$.$.$.$.$.$.$.$.$.$.$.9.g.c.x.g.c.c.]         J j.g.g.=.*.$.@.@.@.@.@.@.@.@.@.@.@.@.@.@.@.@.@.@.@.@.@.@.@.@.@.@.@.@.@.@.@.@.@.@.@.@.@.@.@.@.@.@.@.@.@.$.*.] U U J U U J ( D @                               + 3 ( C.W.Y.D.b.C.D.g.0.6.@.@.@.@.@.@.@.@.@.@.@.@.@.@.@.@.@.@.@.@.@.@.@.@.$.$.@.@.=.@.@.] ' ( ! J J J J J U U U U U U U U U U U U ! ! ! ! E ! ! E J ] @.&.*.*.*.*.b . . . $ $ $ $ $   x 9.6.e.6.J J J J J J J ( @.@.@.@.@.@.@.@. .=.8               r.+X_. X}.{..X}.G.e.g.r.a.r.r.r.r.r.a.f.f.f.f.g.e.9.E..X}.}.}.}.{.{.{.}.w.  @   X         f r.g.r.w.g.r.r.r.r.f.=.@.@.@.@.@.@.@.@.@.@.@.@.@.@.@.@.@.@.@.@.@.@.$.$.$.$.` = $ $ $ $ $ $ . C c.g.j.j.j.j.r.@.*.$.@.@.@.@.@.@.@.@.@.@.@.@.@.@.@.@.@.@.@.@.@.@.@.@.@.@.@.@.@.@.@.@.@.@.@.@.@.@.@.@.@.@.@.@.@.@.@.@.@.@.@.@.@.@.@.@.@.@.@.@.@.@.@.@.@.@.@.@.@.@.@.@.@.@.@.@.@.@.@.@.@.@.@.@.@.@.@.@.@.@.@.@.@.@.@.@.@.@.@.@.@.@.@.@.@.@.@.@.@.@.@.@.@.@.@.@.@.@.@.@.@.@.@.@.@.@.@.@.@.@.@.@.@.@.@.@.$.$.$.$.$.$.$.$.",
"@.@.@.@.@.@.@.@.@.@.@.@.@.@.@.@.@.@.@.@.@.@.@.@.@.@.@.@.@.@.@.@.@.@.@.= . $ $ $ $ $ $ $ . . 6 e 8 8 8 8 d 8 ] $.@.@.@.@.@.@.@.@.@.@.@.@.@.@.@.@.@.@.@.@.@.@.@.@.@.@.@.@.=.@.@.$.@.$.=.=.@.D 3 X       8 H ] w.j.x.j.g.g.g.c.c.c.c.x.g.g.f.r.8.5.=.*.@.@.@.@.$.$.$.$.$.$.$.$.$.$.$.$.$.$.@.=.e.j.g.x.j.c.6.2       k m.c.g.=.@.@.@.@.@.@.@.@.@.@.@.@.@.@.@.@.@.@.@.@.@.@.@.@.@.@.@.@.@.@.@.@.@.@.@.@.@.@.@.@.@.@.@.@.@.@.$.@.] U ! ! U U J ( 8 X               X X X       @ A e.Y.W.G.C.C.G.C.r.=.@.] ;.@.@.@.@.@.@.@.@.@.@.@.@.@.@.@.@.@.@. . .@.$.$.*.*.@.O.] ( ( ^ ^ ! J J J J J J J U U U U U U U U U U U U ! ! ! ! E E ! ! E ! _ @.*.*.*.@.b . . . $ $ $ $ $   x w.6.e.6.J J J J J J ^ ] @.@.@.@.@.@.*.O.=.h     X     X   ] }.{.).}._._.}.G.r.x.r.r.r.a.a.r.r.r.a.f.f.f.f.f.f.f.r.A.|.|.}.{.{.{.{._.#Xf.    +     +     x g.e.w.w.f.r.r.r.f.e.=.@.@.@.@.@.@.@.@.@.@.@.@.@.@.@.@.@.@.@.@.@.$.$.$.@.` = $ $ $ $ $ $ . C c.g.j.j.j.j.6.@.*.$.@.@.@.@.@.@.@.@.@.@.@.@.@.@.@.@.@.@.@.@.@.@.@.@.@.@.@.@.@.@.@.@.@.@.@.@.@.@.@.@.@.@.@.@.@.@.@.@.@.@.@.@.@.@.@.@.@.@.@.@.@.@.@.@.@.@.@.@.@.@.@.@.@.@.@.@.@.@.@.@.@.@.@.@.@.@.@.@.@.@.@.@.@.@.@.@.@.@.@.@.@.@.@.@.@.@.@.@.@.@.@.@.@.@.@.@.@.@.@.@.@.@.@.@.@.@.@.@.@.@.@.@.@.@.@.@.$.$.$.$.$.$.$.$.",
"@.@.@.@.@.@.@.@.@.@.@.@.@.@.@.@.@.@.@.@.@.@.@.@.@.@.@.@.@.@.@.@.@.@.@.= . $ $ $ $ $ $ $ . . 6 e 8 8 8 8 d 8 ] $.@.@.@.@.@.@.@.@.@.@.@.@.@.@.@.@.@.@.@.@.@.@.@.@.@.@.@.@.@.@.@.=.=.@.H 8 X   X @ f ] e.x.V.c.c.c.x.c.c.c.j.g.f.r.r.e.=.@.@.$.*.*.$.@.@.@.@.$.$.$.$.$.$.$.$.$.$.$.$.$.$.$.@.@.*.6.f.g.c.r.D.r.f       d f.m.r.=.@.@.@.@.@.@.@.@.@.@.@.@.@.@.@.@.@.@.@.@.@.@.@.@.@.@.@.@.@.@.@.@.@.@.@.@.@.@.@.@.@.@.@.@.@.$.@.( ^ ! ! ! ! ^ J @                       X 8 @.C.W.W.D.c.D.B.g.8.@.@.@.@.@.@.@.@.@.@.@.@.@.@.@.@.@.@.@.@.$.$.$.$.*.*.O.O.O.O.( ^ J J J J J J J J J J J J J J U U U U U U U U U U U U ! ! ! ! ! ! E ! ^ E ! ] @.*.*.%.b . . . $ $ $ $ $   x 9.6.e.6.J J J J J J ( O.@.@.@.@.@.O.*.<.A       X     X D  X}.{._.{._.|.m.e.x.r.r.r.r.a.f.r.r.r.r.f.f.f.f.g.r.g.e.f.V.).}.{.{.{.{._.)..Xr.    + + X       Z c.9.w.f.r.r.r.r.r.e.=.@.@.@.@.@.@.@.@.@.@.@.@.@.@.@.@.@.@.@.@.$.$.$.@.` = $ $ $ $ $ $ . C c.g.j.j.j.j.<.@.*.$.@.@.@.@.@.@.@.@.@.@.@.@.@.@.@.@.@.@.@.@.@.@.@.@.@.@.@.@.@.@.@.@.@.@.@.@.@.@.@.@.@.@.@.@.@.@.@.@.@.@.@.@.@.@.@.@.@.@.@.@.@.@.@.@.@.@.@.@.@.@.@.@.@.@.@.@.@.@.@.@.@.@.@.@.@.@.@.@.@.@.@.@.@.@.@.@.@.@.@.@.@.@.@.@.@.@.@.@.@.@.@.@.@.@.@.@.@.@.@.@.@.@.@.@.@.@.@.@.@.@.@.@.@.@.@.@.$.$.$.$.$.$.$.$.",
"@.@.@.@.@.@.@.@.@.@.@.@.@.@.@.@.@.@.@.@.@.@.@.@.@.@.@.@.@.@.@.@.@.@.@.= . $ $ $ $ $ $ $ . . 6 e 8 8 8 8 d 8 ] $.@.@.@.@.@.@.@.@.@.@.@.@.@.@.@.@.@.@.@.@.@.@.@.@.@.@.@.@.=.6.@.^ 8 +   + 9 D *.r.c.c.c.j.g.x.c.x.g.f.w.8.5.=.*.@.@.@.@.$.*.@.@.] @.@.@.@.@.@.$.$.$.$.$.$.$.$.$.$.$.$.$.*.=.*.@.@.@.e.g.V.g.f.g.J +   X 5 5.c.r.@.@.@.@.@.@.@.@.@.@.@.@.@.@.@.@.@.@.@.@.@.@.@.@.@.@.@.@.@.@.@.@.@.@.@.@.@.@.@.@.@.@.@.@.@.$.] ^ ^ ! ! ! ! ! f X                   + J x.W.R.R.C.C.D.c.w.6. .@.@.=.@.@.@. .@.@.@.@.@.@.@.@.@.@.@.@.@.@.@.@.@.@.@.@.( ( ( ( ( ^ ^ ! ! U U J J J J J J J J J U U U U U U U U U U U U ! ! ! ! ! ! ! ! ! ^ ! J ] @.*.*.b . . . $ $ $ $ $   x 9.6.e.6.J J J J J J ] @.@.$.@.@.@.@.*.' X   X   X   X 8 _.}.{.}.}..X}.c.5.g.r.r.9.r.r.f.a.r.r.r.r.f.f.f.f.g.g.f.j.9.6.c.).{.{.{.{.}. X{.#Xf.                H c.r.r.f.r.f.r.f.r.6.@.@.@.@.@.@.@.@.@.@.@.@.@.@.@.@.@.@.@.@.$.$.$.@.` = $ $ $ $ $ $ . C c.g.j.j.j.j.<.@.*.$.@.@.@.@.@.@.@.@.@.@.@.@.@.@.@.@.@.@.@.@.@.@.@.@.@.@.@.@.@.@.@.@.@.@.@.@.@.@.@.@.@.@.@.@.@.@.@.@.@.@.@.@.@.@.@.@.@.@.@.@.@.@.@.@.@.@.@.@.@.@.@.@.@.@.@.@.@.@.@.@.@.@.@.@.@.@.@.@.@.@.@.@.@.@.@.@.@.@.@.@.@.@.@.@.@.@.@.@.@.@.@.@.@.@.@.@.@.@.@.@.@.@.@.@.@.@.@.@.@.@.@.@.@.@.@.@.$.$.$.$.$.$.$.$.",
"@.@.@.@.@.@.@.@.@.@.@.@.@.@.@.@.@.@.@.@.@.@.@.@.@.@.@.@.@.@.@.@.@.@.@.= . $ $ $ $ $ $ $ . . r e 8 8 8 8 d 8 ' @.@.@.@.@.@.@.@.@.@.@.@.@.@.@.@.@.*.@.@.*.<.$.@.@.=.<.=.@.J f     3 x ( e.j.c.C.c.c.c.g.g.r.e.5.5.*.$.@.@.@.@.@.@.@.@.@.@.@.@.@.@.@.@.@.@.@.@.@.@.@.@.@.@.@.@.@.@.@.@.@.@.@.@.@.@.@.@.$.8.g.g.g.g.5.@     @ =.V.6.=.@.*.@.@.@.@.@.@.@.@.@.@.@.@.@.@.@.@.@.@.@.@.@.@.@.@.@.@.@.@.@.@.@.@.@.@.@.@.@.@.@.@.@.@.( U ^ J J ! ^ J +     + X       @ x =.G.Y.U.V.G.D.c.f.<.*.@.@.@.@.@.@.@.@.@.@.$.*.*.*.@.@.@.@.@.@.*.=.*.@.] ( ^ ! J J U U ! ! ! ! ! ! U U U U U U U U U U U U U U U U U U U U U U U U U U U U U U U U U U U U ^ ] @.@.F . . . . $ $ $ * . j r.6.e.1.J J J J J ( @.*.@.$.@.*.@.=.@.2     +   X   @ W..X_..X_.|.).D.e.f.f.f.f.f.r.f.f.f.f.f.f.f.f.f.f.f.f.f.f.f.f.f.f.f./.}.}._.}.}.}.}..Xj.X @   X   X     U x.r.r.c.f.r.r.r.a.=.$.@.@.@.@.@.@.@.@.@.@.@.@.@.@.@.@.&.&.*.*.$.@.` = $ $ $ $ $ $ . C c.g.c.g.c.g.*.@.@.@.@.@.@.@.@.@.@.@.@.@.@.@.@.@.@.@.@.@.@.@.@.@.@.@.@.@.@.@.@.@.@.@.@.@.@.@.@.@.@.@.@.@.@.@.@.@.@.@.@.@.@.@.@.@.@.@.@.@.@.@.@.@.@.@.@.@.@.@.@.@.@.@.@.@.@.@.@.@.@.@.@.@.@.@.@.@.@.@.@.@.@.@.@.@.@.@.@.@.@.@.@.@.@.@.@.@.@.@.@.@.@.@.@.@.@.@.@.@.@.@.@.@.@.@.@.@.@.@.@.@.@.@.@.@.@.@.$.$.$.$.$.$.$.$.",
"@.@.@.@.@.@.@.@.@.@.@.@.@.@.@.@.@.@.@.@.@.@.@.@.@.@.@.@.@.@.@.@.@.@.@.= . $ $ $ $ $ $ $ . . r e 8 8 8 8 d 8 ' &.@.@.@.@.@.@.@.@.@.@.@.@.@.@.@.@.=.*.*.*.@.$.=.=.@.! t X X 8 ! @.g.c.C.c.c.g.r.9.e.6.=.@.@.@.@.@.@.@.@.@.@.@.@.@.@.@.@.@.@.@.@.@.@.@.@.@.@.@.@.@.@.@.@.@.@.@.@.@.@.@.@.@.@.@.@.@.@.@.@.@.*.9.j.g.c.g.5 X   @ O.V.6.*.*.*.@.@.@.@.@.@.@.@.@.@.@.@.@.@.@.@.@.@.@.@.@.@.@.@.@.@.@.@.@.@.@.@.@.@.@.@.@.@.@.@.O.^ U ^ ! H J ( 8       X     3 ( c./.G.G.V.V.D.c.e.*.@.@.@.@.@.@.@.@.@.@.@.@.@.$.@.@.@.=.*.@.@.@. .] ] ^ U J J J J U U ! ! ! ! ! ! ! ! U U U U U U U U U U U U U U U U U U U U U U U U U U U U U U U U U U U U ( J ( *.F . . . . . $ $ * . j r.6.e.1.J J J J T @.@.$.@.@.=.@.*.*.f X       X   + C.#X)..X}.|._.D.w.g.w.f.f.f.f.f.f.f.f.f.f.f.f.f.f.f.f.f.f.f.f.f.f.f.f.g.E..X_.}.}.}.}.{.+Xr.X   X X         ] c.6.r.f.r.r.a.r.6.*.@.@.@.@.@.@.@.@.@.@.@.@.@.@.@.@.&.&.*.*.$.@.` = $ $ $ $ $ $ . C c.g.x.j.c.r.@.@.@.@.@.@.@.@.@.@.@.@.@.@.@.@.@.@.@.@.@.@.@.@.@.@.@.@.@.@.@.@.@.@.@.@.@.@.@.@.@.@.@.@.@.@.@.@.@.@.@.@.@.@.@.@.@.@.@.@.@.@.@.@.@.@.@.@.@.@.@.@.@.@.@.@.@.@.@.@.@.@.@.@.@.@.@.@.@.@.@.@.@.@.@.@.@.@.@.@.@.@.@.@.@.@.@.@.@.@.@.@.@.@.@.@.@.@.@.@.@.@.@.@.@.@.@.@.@.@.@.@.@.@.@.@.@.@.@.@.$.$.$.$.$.$.$.$.",
"@.@.@.@.@.@.@.@.@.@.@.@.@.@.@.@.@.@.@.@.@.@.@.@.@.@.@.@.@.@.@.@.@.@.@.= . $ $ $ $ $ $ $ . . 6 e 8 8 8 8 d 8 ] *.@.@.@.@.@.@.@.@.@.@.@.@.@.@.@.@.*.@.@.=.5.@.J d 3 @ h @.e.x.V.c.g.8.6.8.=.$.@.@.@.@.@.*.*.$.@.@.@.@.@.@.@.@.@.@.@.@.@.@.@.@.@.@.@.@.@.@.@.@.@.@.@.@.@.@.@.@.@.@.@.@.@.@.@.@.@.@.@.@.@.@.*.@.*.9.x.x.f.A X     ] V.<.@.O.@.@.@.@.@.@.@.@.@.@.@.@.@.@.@.@.@.@.@.@.@.@.@.@.@.@.@.@.@.@.@.@.@.@.@.@.@.@.@.@.] U J ^ ! H ^ H 3       @ Z w.Y.W.G.C.A.C.c.r.<.@.@.@.*.*.$.@.@.@.@.@.@.@.@.@.@.=.*.@.@.@.O.] ' ! J J H H J J J J J ! ! ! ! ! ! ! ! ! ! U U U U U U U U U U U U U U U U U U U U U U U U U U U U U U U U U U U U ( H J @.S . . . $ $ $ $ * . j 9.6.e.6.P J J J ) @.@.@.$.@.=.O.@.x X +   X X @   8..X).}._.|.).c.e.g.r.9.f.f.f.f.f.f.f.f.f.f.f.f.f.f.f.f.f.f.f.f.f.f.f.f.r.f.Y.}.}.}.}.}.|._..Xg.X @ X X       3 O.g.6.g.r.r.r.r.9.=.@.@.@.@.@.@.@.@.@.@.@.@.@.@.@.@.&.&.*.*.$.@.` = $ $ $ $ $ $ . C b.g.j.x.c.8.@.@.@.@.@.@.@.@.@.@.@.@.@.@.@.@.@.@.@.@.@.@.@.@.@.@.@.@.@.@.@.@.@.@.@.@.@.@.@.@.@.@.@.@.@.@.@.@.@.@.@.@.@.@.@.@.@.@.@.@.@.@.@.@.@.@.@.@.@.@.@.@.@.@.@.@.@.@.@.@.@.@.@.@.@.@.@.@.@.@.@.@.@.@.@.@.@.@.@.@.@.@.@.@.@.@.@.@.@.@.@.@.@.@.@.@.@.@.@.@.@.@.@.@.@.@.@.@.@.@.@.@.@.@.@.@.@.@.@.@.$.$.$.$.$.$.$.$.",
"@.@.@.@.@.@.@.@.@.@.@.@.@.@.@.@.@.@.@.@.@.@.@.@.@.@.@.@.@.@.@.@.@.@.#.= . $ $ $ $ $ $ $ . . 6 e 8 8 8 8 d 8 ] *.@.@.@.@.@.@.@.@.@.@.@.@.@.@.@.@.@.=.@.! k 9 f J =.g.c.g.e.5.=.=.$. .$.O.@.@.@.@.@.@.@.@.@.@.@.@.@.@.@.@.@.@.@.@.@.@.@.@.@.@.@.@.@.@.@.@.@.@.@.@.@.@.@.@.@.@.@.@.@.@.@.@.@.@.@.@.@.@.@.@.@.$.@.$.6.f.c.c.O.2     ( m.<.@.@.@.@.@.@.@.@.@.@.@.@.@.@.@.@.@.@.@.@.@.@.@.@.@.@.@.@.@.@.@.@.@.@.@.@.@.@.@.@.@.( U J ^ H ! ( t     X k F.Y.U.m.D.F.C.g.6.=.@.@.*.$.@.@.$.*.*.$.@.@.@.@.@.@.@.@.@.] ' ( J J J J J J U ! ! ! ! ! ! ! ! ! ! ! ! ! ! ! ! ! U U U U U U U U U U U U U U U U U U U U U U U U U U U U U U U U U U U U E E U ^ b . .   $ $ $ $ * . j r.6.e.1.P J J T @.*.@.@.*.*.O.=.H         @ X   =..X_.}.}.|._.c.r.f.w.9.r.f.f.f.f.f.f.f.f.f.f.f.f.f.f.f.f.f.f.f.f.f.f.f.f.9.f.e.R.}.}.}.}._.|.{..Xx.X     X   X   @ *.j.r.r.r.r.r.r.6.*.@.@.@.@.@.@.@.@.@.@.@.@.@.@.@.&.&.*.*.$.@.` = $ $ $ $ $ $ . C b.g.g.c.c.6.@.@.@.@.@.@.@.@.@.@.@.@.@.@.@.@.@.@.@.@.@.@.@.@.@.@.@.@.@.@.@.@.@.@.@.@.@.@.@.@.@.@.@.@.@.@.@.@.@.@.@.@.@.@.@.@.@.@.@.@.@.@.@.@.@.@.@.@.@.@.@.@.@.@.@.@.@.@.@.@.@.@.@.@.@.@.@.@.@.@.@.@.@.@.@.@.@.@.@.@.@.@.@.@.@.@.@.@.@.@.@.@.@.@.@.@.@.@.@.@.@.@.@.@.@.@.@.@.@.@.@.@.@.@.@.@.@.@.@.@.$.$.$.$.$.$.$.$.",
"@.@.@.@.@.@.@.@.@.@.@.@.@.@.@.@.@.@.@.@.@.@.@.@.@.@.@.@.@.@.@.@.@.#.#.= . $ $ $ $ $ $ $ . . 8 y 8 8 8 8 d 8 ] *.@.@.@.@.@.@.@.@.@.@.@.@.@.@.*.@.( D x Z ] 5.g.9.6.=.@.@.@.@.@.@.@.@.@.@.@.@.@.@.@.@.@.@.@.@.@.@.@.@.@.@.@.@.@.@.@.@.@.@.@.@.@.@.@.@.@.@.@.@.@.@.@.@.@.@.@.@.@.@.@.@.@.@.@.@.@.@.@.@.@.@.@.@.@.@.$.*.6.f.D.e.8 X   A j.*.@.@.=.=.$.$.$.$.$.$.$.$.@.@.@.@.@.@.@.@.@.@.@.@.@.@.@.@.@.@.@.@.@.@.@.@.@.@.@. .( U ! ^ J ^ D         =.Y.D.F.F.c.w.*.@.@.@.@.@.@.@.@.@.@.@.$.$.@.@.@.@.@.] ] ( U J J J ! ! ! ! U U U U ! ! ! ! ! ! ! ! ! ! ! ! ! ! ! ! U U U U U U U U U U U U U U U U U U U U U U U U U U U U U U U U U U U U J J J J e . . . $ $ $ $ $ . j r.6.e.1.P T ^ ] %.@.@.@.*.$.=.' :         +   H .X[.}._..X).c.8.g.r.r.r.r.f.f.f.f.f.f.f.f.f.f.f.f.f.f.f.f.f.f.f.f.f.f.f.f.f.r.r.r.G.|.{.).}.{.|.}..Xc.X X X         3 6.g.g.r.r.g.r.w.6.*.@.@.@.@.@.@.@.@.@.@.@.@.@.@.&.&.*.*.*.@.` = $ $ $ $ $ $ . C b.g.x.j.j.6.@.@.@.@.@.@.@.@.@.@.@.@.@.@.@.@.@.@.@.@.@.@.@.@.@.@.@.@.@.@.@.@.@.@.@.@.@.@.@.@.@.@.@.@.@.@.@.@.@.@.@.@.@.@.@.@.@.@.@.@.@.@.@.@.@.@.@.@.@.@.@.@.@.@.@.@.@.@.@.@.@.@.@.@.@.@.@.@.@.@.@.@.@.@.@.@.@.@.@.@.@.@.@.@.@.@.@.@.@.@.@.@.@.@.@.@.@.@.@.@.@.@.@.@.@.@.@.@.@.@.@.@.@.@.@.@.@.@.@.@.$.$.$.$.$.$.$.$.",
"@.@.@.@.@.@.@.@.@.@.@.@.@.@.@.@.@.@.@.@.@.@.@.@.@.@.@.@.@.@.@.@.@.#.#.= . $ $ $ $ $ $ $ . . 8 y 8 8 8 8 d 8 ] *.@.@.@.@.@.@.@.@.@.@.@.@.*.=.] ' ( @.5.e.5.*.@.@.*.$.@.@.@.@.@.@.@.@.@.@.@.@.@.@.@.@.@.@.@.@.@.@.@.@.@.@.@.@.@.@.@.@.@.@.@.@.@.@.@.@.@.@.@.@.@.@.@.@.@.@.@.@.@.@.@.@.@.@.@.@.@.@.@.@.@.@.@.@.@.@.@.@.$.*.6.c.g.A   X Z j.*.] *.@.$.$.$.$.$.$.$.$.@.@.@.@.@.@.@.@.@.@.@.@.@.@.@.@.@.@.@.@.@.@.@.@.@.@.@.] ^ U ^ ! J ! 8       2 c.D.D.x.5.@.@.$.*.$.@.@.@.$.$.@.@.5.=.@.@.] ] ] ] ^ J J J J J U U U U U U U U U U U U U U U U U U U U U U U U U U U U U U U U U U U U U U U U U U U U U U U U U U U U U U U U U U U U U U J J J J e . . . $ $ $ $ $ . j r.6.e.<.P T ( @.%.@.@.@.@.5.@.8             h _. X_.{. X`.x.g.g.r.r.r.r.r.f.f.f.f.f.f.f.f.f.f.f.f.f.f.f.f.f.f.f.f.f.f.f.f.f.f.f.r.f.G.}.{.{..X_.|._.#Xj.  X           5 5.c.r.g.8.r.r.w.6.$.@.@.@.@.@.@.@.@.@.@.@.@.@.&.&.*.*.*.@.` = $ $ $ $ $ $ . C b.g.x.j.j.6.@.@.@.@.@.@.@.@.@.@.@.@.@.@.@.@.@.@.@.@.@.@.@.@.@.@.@.@.@.@.@.@.@.@.@.@.@.@.@.@.@.@.@.@.@.@.@.@.@.@.@.@.@.@.@.@.@.@.@.@.@.@.@.@.@.@.@.@.@.@.@.@.@.@.@.@.@.@.@.@.@.@.@.@.@.@.@.@.@.@.@.@.@.@.@.@.@.@.@.@.@.@.@.@.@.@.@.@.@.@.@.@.@.@.@.@.@.@.@.@.@.@.@.@.@.@.@.@.@.@.@.@.@.@.@.@.@.@.@.@.$.$.$.$.$.$.$.$.",
"@.@.@.@.@.@.@.@.@.@.@.@.@.@.@.@.@.@.@.@.@.@.@.@.@.@.@.@.@.@.@.@.@.@.#.= . $ $ $ $ $ $ $ . . r e 8 8 8 8 d 8 ] *.@.@.@.@.@.@.@.@.@.@.@.@.*.5.*.$.=.=.*.O.@.*.=.*.@.@.*.*.@.@.@.@.@.@.@.@.@.@.@.@.@.@.@.@.@.@.@.@.@.@.@.@.@.@.@.@.@.@.@.@.@.@.@.@.@.@.@.@.@.@.@.@.@.@.@.@.@.@.@.@.@.@.@.@.@.@.@.@.@.@.@.@.@.@.@.@.@.@.@.@.@.*.w.C.@.2   k 9.=.@.*.$.$.$.$.$.$.$.$.@.@.@.@.@.@.@.@.@.@.@.@.@.@.@.@.@.@.@.@.@.@.@.@.@.@. .^ U ! ^ ! ( A X       D D.C.c.<.] *.$.@.@.@.@.@.@.=.*.@.@. .] ( ^ ! ! ! ! ^ ^ ^ ^ U U U U U U U U U U U U U U U U U U U U U U U U U U U U U U U U U U U U U U U U U U U U U U U U U U U U U U U U U U U U U U U U U U J J e . . . $ $ $ $ $ . j r.6.8.<.T ^ ] $.$.$.$.$.$.*.d   @         8 W..X_.}..X`.r.r.r.g.g.r.r.f.f.f.f.f.f.f.f.f.f.f.f.f.f.f.f.f.f.f.f.f.f.f.f.f.f.f.f.f.f.g.8.G.|.|._..X{.}._..Xc.          @   f r.r.r.r.r.r.r.w.=.@.@.@.@.@.@.@.@.@.@.@.@.@.&.&.&.&.$.@.` = $ $ $ $ $ $ . C c.g.x.j.j.6.@.@.@.@.@.@.@.@.@.@.@.@.@.@.@.@.@.@.@.@.@.@.@.@.@.@.@.@.@.@.@.@.@.@.@.@.@.@.@.@.@.@.@.@.@.@.@.@.@.@.@.@.@.@.@.@.@.@.@.@.@.@.@.@.@.@.@.@.@.@.@.@.@.@.@.@.@.@.@.@.@.@.@.@.@.@.@.@.@.@.@.@.@.@.@.@.@.@.@.@.@.@.@.@.@.@.@.@.@.@.@.@.@.@.@.@.@.@.@.@.@.@.@.@.@.@.@.@.@.@.@.@.@.@.@.@.@.@.@.@.$.$.$.$.$.$.$.$.",
"@.@.@.@.@.@.@.@.@.@.@.@.@.@.@.@.@.@.@.@.@.@.@.@.@.@.@.@.@.@.@.@.@.@.@.= . $ $ $ $ $ $ $ . . r e 8 8 8 8 d 8 ] *.@.@.@.@.@.@.@.@.@.@.@.@.*.*.=.@.*.*.$.@.*.@.@.*.@.@.*.=.@.@.@.@.@.@.@.@.@.@.@.@.@.@.@.@.@.@.@.@.@.@.@.@.@.@.@.@.@.@.@.@.@.@.@.@.@.@.@.@.@.@.@.@.@.@.@.@.@.@.@.@.@.@.@.@.@.@.@.@.@.@.@.@.@.@.@.@.@.@.@.@.@.@.O.=.c.e.f   8 6.=.=.$.@.@.@.$.$.$.$.@.@.@.@.@.@.@.@.@.@.@.@.@.@.@.@.@.@.@.@.@.@.@.@.@.@.] U J ! ! ! ^ 9   @     *.U.C.w. .@.@.$.*.*.$.@.@.@.] ( ! J U U U U ! ! ! ! ^ ^ ^ ^ U U U U U U U U U U U U U U U U U U U U U U U U U U U U U U U U U U U U U U U U U U U U U U U U U U U U U U U U U U U U U U U ! U U U J e . . . $ $ $ $ $ . j r.6.8.<.T ( @.$.$.$.$.$.$.x               V. X_.{..XW.g.r.r.g.f.f.a.r.f.a.f.f.f.f.f.f.f.f.f.f.f.f.f.f.f.f.f.f.f.f.f.f.f.f.f.f.f.f.r.g.f.G.}.|.{.}._._.).#XD.2 2     X     h g.g.g.r.w.r.g.6.$.@.@.@.@.@.@.@.@.@.@.@.@.&.&.&.&.$.@.` = $ $ $ $ $ $ . C c.g.x.j.j.6.@.@.@.@.@.@.@.@.@.@.@.@.@.@.@.@.@.@.@.@.@.@.@.@.@.@.@.@.@.@.@.@.@.@.@.@.@.@.@.@.@.@.@.@.@.@.@.@.@.@.@.@.@.@.@.@.@.@.@.@.@.@.@.@.@.@.@.@.@.@.@.@.@.@.@.@.@.@.@.@.@.@.@.@.@.@.@.@.@.@.@.@.@.@.@.@.@.@.@.@.@.@.@.@.@.@.@.@.@.@.@.@.@.@.@.@.@.@.@.@.@.@.@.@.@.@.@.@.@.@.@.@.@.@.@.@.@.@.@.@.$.$.$.$.$.$.$.$.",
"@.@.@.@.@.@.@.@.@.@.@.@.@.@.@.@.@.@.@.@.@.@.@.@.@.@.@.@.@.@.@.@.@.@.@.= . $ $ $ $ $ $ $ . . 6 e 8 8 8 8 d 8 ] *.@.@.@.@.@.@.@.@.@.@.@.@.$.$.$.$.$.$.$.$.@.@.@.@.$.@.*.*.@.@.@.@.@.@.@.@.@.@.@.@.@.@.@.@.@.@.@.@.@.@.@.@.@.@.@.@.@.@.@.@.@.@.@.@.@.@.@.@.@.@.@.@.@.@.@.@.@.@.@.@.@.@.@.@.@.@.@.@.@.@.@.@.@.@.@.@.@.@.@.@.@.@.@.@.] e.r.!   d =.@.*.@.@.@.@.@.@.@.@.@.@.@.@.@.@.@.@.@.@.@.@.@.@.@.@.@.@.@.@.@.@.@.@.*.' ^ J J ( J D X X     @ c.F.c.@.@.*.=.*.@.] ] ( ^ ^ ! ! ! ! ! ! ! ! ! ! ! ! U U U U U U U U U U U U U U U U U U U U U U U U U U U U U U U U U U U U U U U U U U U U U U U U U U U U U U U U U U U U U U U U U U U U U U U D e . . . $ $ $ $ $   j 9.=.8.@.^ @.$.$.$.O.@.@.(         X     8.@X_.}.}.`.c.9.g.f.f.f.f.f.f.f.f.f.f.f.f.f.f.f.f.f.f.f.f.f.f.f.f.f.f.f.f.f.f.f.f.f.f.f.f.f.f.f.f.A.|.}.}.}.}.}.}.@XA.@             A g.w.g.w.g.g.r.*.@.*.$.$.$.$.$.$.$.$.$.$.$.$.$.$.$.@.` = $ $ $ $ $ $ . C c.g.c.g.c.6.@.@.@.@.@.@.@.@.@.@.@.@.@.@.@.@.@.@.@.@.@.@.@.@.@.@.@.@.@.@.@.@.@.@.@.@.@.@.@.@.@.@.@.@.@.@.@.@.@.@.@.@.@.@.@.@.@.@.@.@.@.@.@.@.@.@.@.@.@.@.@.@.@.@.@.@.@.@.@.@.@.@.@.@.@.@.@.@.@.@.@.@.@.@.@.@.@.@.@.@.@.@.@.@.@.@.@.@.@.@.@.@.@.@.@.@.@.@.@.@.@.@.@.@.@.@.@.@.@.@.@.@.@.@.@.@.@.@.@.@.$.$.$.$.$.$.$.$.",
"@.@.@.@.@.@.@.@.@.@.@.@.@.@.@.@.@.@.@.@.@.@.@.@.@.@.@.@.@.@.@.@.@.@.@.= . $ $ $ $ $ $ $ . . 6 e 8 8 8 8 d 8 ' *.@.@.@.@.@.@.@.@.@.@.@.@.$.$.$.$.$.$.$.$.@.@.@.@.$.$.$.$.@.@.@.@.@.@.@.@.@.@.@.@.@.@.@.@.@.@.@.@.@.@.@.@.@.@.@.@.@.@.@.@.@.@.@.@.@.@.@.@.@.@.@.@.@.@.@.@.@.@.@.@.@.@.@.@.@.@.@.@.@.@.@.@.@.@.@.@.@.@.@.@.@.@.@.@.$.$.=.9.=.8 2 5.$.@.@.@.@.@.@.@.@.@.@.@.@.@.@.@.@.@.@.@.@.@.@.@.@.@.@.@.@.@.@.@.@.@.( ^ ! ^ ! ' 8   X X   A U.V.=.@.*.O.] ( ^ U U U ! ^ ^ ! ! ! ! ! ! ! ! ! ! ! U U U U U U U U U U U U U U U U U U U U U U U U U U U U U U U U U U U U U U U U U U U U U U U U U U U U U U U U U U U U U U U U U U U U U U U D e . . . $ $ $ $ $   x 9.6.6.=.] @.$.$.$.$.@.O.:             ] .X X{.|.(.f.a.r.r.f.f.f.f.f.f.f.f.f.f.f.f.f.f.f.f.f.f.f.f.f.f.f.f.f.f.f.f.f.f.f.f.f.f.f.f.f.f.f.f.f.D. X}.}.}.}.}._..XA.+   <   X X X H g.r.g.g.w.g.6.@.@.$.$.$.@.$.$.$.$.$.$.$.$.$.$.$.$.` = $ $ $ $ $ $ . C c.g.c.g.c.6.@.@.@.@.@.@.@.@.@.@.@.@.@.@.@.@.@.@.@.@.@.@.@.@.@.@.@.@.@.@.@.@.@.@.@.@.@.@.@.@.@.@.@.@.@.@.@.@.@.@.@.@.@.@.@.@.@.@.@.@.@.@.@.@.@.@.@.@.@.@.@.@.@.@.@.@.@.@.@.@.@.@.@.@.@.@.@.@.@.@.@.@.@.@.@.@.@.@.@.@.@.@.@.@.@.@.@.@.@.@.@.@.@.@.@.@.@.@.@.@.@.@.@.@.@.@.@.@.@.@.@.@.@.@.@.@.@.@.@.@.$.$.$.$.$.$.$.$.",
"@.@.@.@.@.@.@.@.@.@.@.@.@.@.@.@.@.@.@.@.@.@.@.@.@.@.@.@.@.@.@.@.@.@.@.= . . $ $ $ $ $ $ . . 6 e 8 8 8 8 d 8 ' *.@.@.@.@.@.@.@.@.@.@.@.@.$.$.$.$.$.$.$.$.@.@.@.@.$.$.$.$.@.@.@.@.@.@.@.@.@.@.@.@.@.@.@.@.@.@.@.@.@.@.@.@.@.@.@.@.@.@.@.@.@.@.@.@.@.@.@.@.@.@.@.@.@.@.@.@.@.@.@.@.@.@.@.@.@.@.@.@.@.@.@.@.@.@.@.@.@.@.@.@.@.@.@.@.@.$.@.@.=.r.Z 5 *.*.@.@.@.@.@.@.@.@.@.@.@.@.@.@.@.@.@.@.@.@.@.@.@.@.@.@.@.@.@.@.@.] J ^ ^ ! ! H X   X     =.G.j.@.$.@.( ^ U J J J ! ^ ^ ! ! ! ! ! ! ! ! ! ! ! ! U U U U U U U U U U U U U U U U U U U U U U U U U U U U U U U U U U U U U U U U U U U U U U U U U U U U U U U U U U U U U U U U U U U U U U U D e . . . $ $ $ $ $ . z 9.8.8.w.@.$.$.$.$.@.@.9             Z }..X).+X(.j.f.e.e.f.f.f.f.f.f.f.f.f.f.f.f.f.f.f.f.f.f.f.f.f.f.f.f.f.f.f.f.f.f.f.f.f.f.f.f.f.f.f.f.f.g.9.C.{.}.}.}.}.|.).#XF.@ X X   X O   ] g.8.g.g.r.w.=.@.@.$.@.$.$.$.$.$.$.$.$.$.$.$.$.$.` & $ $ $ $ $ $ . C c.g.c.g.c.6.@.@.@.@.@.@.@.@.@.@.@.@.@.@.@.@.@.@.@.@.@.@.@.@.@.@.@.@.@.@.@.@.@.@.@.@.@.@.@.@.@.@.@.@.@.@.@.@.@.@.@.@.@.@.@.@.@.@.@.@.@.@.@.@.@.@.@.@.@.@.@.@.@.@.@.@.@.@.@.@.@.@.@.@.@.@.@.@.@.@.@.@.@.@.@.@.@.@.@.@.@.@.@.@.@.@.@.@.@.@.@.@.@.@.@.@.@.@.@.@.@.@.@.@.@.@.@.@.@.@.@.@.@.@.@.@.@.@.@.@.$.$.$.$.$.$.$.$.",
"@.@.@.@.@.@.@.@.@.@.@.@.@.@.@.@.@.@.@.@.@.@.@.@.@.@.@.@.@.@.@.@.@.@.@.= . . $ $ $ $ $ $ . . 6 e 8 8 8 8 d 8 ' *.@.@.@.@.@.@.@.@.@.@.@.@.$.$.$.$.$.$.$.$.@.@.@.@.$.$.$.$.@.@.@.@.@.@.@.@.@.@.@.@.@.@.@.@.@.@.@.@.@.@.@.@.@.@.@.@.@.@.@.@.@.@.@.@.@.@.@.@.@.@.@.@.@.@.@.@.@.@.@.@.@.@.@.@.@.@.@.@.@.@.@.@.@.@.@.@.@.@.@.@.@.@.@.@. .@.*.=.O.@.e.] ] $.@.@.@.@.@.@.@.@.@.@.@.@.@.@.@.@.@.@.@.@.@.@.@.@.@.@.@.@.@.@.@.] H ^ ^ J ( 9   X     2 V.x.=.=.=.( H ^ ^ ^ ! ! ! U U ! ! ! ! ! ! ! ! ! ! ! ! U U U U U U U U U U U U U U U U U U U U U U U U U U U U U U U U U U U U U U U U U U U U U U U U U U U U U U U U U U U U U U U U U U U U U U J D e . . . $ $ $ $ $ . j 9.5.r.c.] $.$.$.$.5.f   +         8 /. X_.|.(.g.e.f.f.f.f.f.f.f.f.f.f.f.f.f.f.f.f.f.f.f.f.f.f.f.f.f.f.f.f.f.f.f.f.f.f.f.f.f.f.f.f.f.f.f.f.f.f.r.V.}.}.}.}..X{._..XY.3   X X X     ^ c.8.g.6.r.w.=.$.$.@.$.$.$.$.$.$.$.$.$.$.$.$.$.` & $ $ $ $ $ $ . C c.g.x.g.c.6.@.@.@.@.@.@.@.@.@.@.@.@.@.@.@.@.@.@.@.@.@.@.@.@.@.@.@.@.@.@.@.@.@.@.@.@.@.@.@.@.@.@.@.@.@.@.@.@.@.@.@.@.@.@.@.@.@.@.@.@.@.@.@.@.@.@.@.@.@.@.@.@.@.@.@.@.@.@.@.@.@.@.@.@.@.@.@.@.@.@.@.@.@.@.@.@.@.@.@.@.@.@.@.@.@.@.@.@.@.@.@.@.@.@.@.@.@.@.@.@.@.@.@.@.@.@.@.@.@.@.@.@.@.@.@.@.@.@.@.@.$.$.$.$.$.$.$.$.",
"@.@.@.@.@.@.@.@.@.@.@.@.@.@.@.@.@.@.@.@.@.@.@.@.@.@.@.@.@.@.@.@.@.@.@.= . $ $ $ $ $ $ $ . . 6 e 8 8 8 8 d 8 ] *.@.@.@.@.@.@.@.@.@.@.@.@.$.$.$.$.$.$.$.$.$.$.$.$.$.$.$.$.$.$.$.$.$.$.$.$.$.$.$.$.$.$.$.$.$.$.$.$.$.$.$.$.$.$.$.$.@.@.@.@.@.@.@.@.@.@.@.@.@.@.@.@.@.@.@.@.@.@.@.@.@.@.@.@.@.@.@.@.@.@.@.@.@.@.@.@.@.@.@.@.@.@.@.@.@.@.@.@.$.@.*.=.$.$.$.@.@.@.@.@.@.@.@.@.@.@.@.@.@.@.@.@.@.@.@.@.@.@.@.@.@.@.@.@.O.^ J ^ ^ ! Z X   X @   J Y.e.=.@.( J ! ! ! ! ! ! ! U U ! ! ! ! ! ! ! ! ! ! ! ! ! ! ! ! ! ! ! ! ! ! ! ! ! ! ! ! ! ! ! ! ! ! ! ! ! ! ! ! ! ! ! ! U U U U U U U U U U U U U U U U U U U U U U U U U U U U U U U U U U U U U U J A e . . . $ $ $ $ $ . g r.8.m.c.@.@.@.@.*.D   X X   X + 3 U. X). XR.r.r.g.r.r.a.f.f.f.f.f.f.f.f.f.f.f.f.f.f.f.f.f.r.r.g.g.f.f.f.f.f.f.f.f.f.f.f.f.f.f.f.f.f.f.f.f.r.r.r.f.c.{..X_.}.}.}.}..XG.7 @   X       ] g.w.r.g.g.q.=.@.*.$.$.$.$.$.$.$.$.$.$.$.$.$.` & $ $ $ $ $ $ . C c.g.x.x.j.6.@.@.@.@.@.@.@.@.@.@.@.@.@.@.@.@.@.@.@.@.@.@.@.@.@.@.@.@.@.@.@.@.@.@.@.@.@.@.@.@.@.@.@.@.@.@.@.@.@.@.@.@.@.@.@.@.@.@.@.@.@.@.@.@.@.@.@.@.@.@.@.@.@.@.@.@.@.@.@.@.@.@.@.@.@.@.@.@.@.@.@.@.@.@.@.@.@.@.@.@.@.@.@.@.@.@.@.@.@.@.@.@.@.@.@.@.@.@.@.@.@.@.@.@.@.@.@.@.@.@.@.@.@.@.@.@.@.@.@.@.$.$.$.$.$.$.$.$.",
"@.@.@.@.@.@.@.@.@.@.@.@.@.@.@.@.@.@.@.@.@.@.@.@.@.@.@.@.@.@.@.@.@.@.@.= . $ $ $ $ $ $ $ . . 6 e 8 8 8 8 d 8 ] *.@.@.@.@.@.@.@.@.@.@.@.@.$.$.$.$.$.$.$.$.$.$.$.$.$.$.$.$.$.$.$.$.$.$.$.$.$.$.$.$.$.$.$.$.$.$.$.$.$.$.$.$.$.$.$.$.@.@.@.@.@.@.@.@.@.@.@.@.@.@.@.@.@.@.@.@.@.@.@.@.@.@.@.@.@.@.@.@.@.@.@.@.@.@.@.@.@.@.@.@.@.@.@.@.@.@.@.@.$.$.@.*.*.*.*.@.$.@.@.@.@.@.@.@.@.@.@.@.@.@.@.@.@.@.@.@.@.@.@.@.@.@.@.@.' ! ! ! ^ ( 2           *.D.$.=.( J ! ^ ! ! ! ! ! ! ! ! ! ! ! ! ! ! ! ! ! ! ! ! ! ! ! ! ! ! ! ! ! ! ! ! ! ! ! ! ! ! ! ! ! ! ! ! ! ! ! ! ! ! ! ! U U U U U U U U U U U U U U U U U U U U U U U U U U U U U U U U U U U U U U J A e . . . $ $ $ $ $ . g 9.r.G.c.#.@.@.=.( X   X   X   X V.+X).|.E.f.f.w.r.r.r.a.r.f.f.f.f.f.f.f.f.f.f.f.f.f.f.f.f.r.r.r.f.f.f.f.f.f.f.f.f.f.f.f.f.f.f.f.f.f.f.f.f.r.f.a.f.r.c._.|._..X{.}._..XG.@ @ X @   X   @.c.r.g.g.g.6.@.=.@.$.$.$.$.$.$.$.$.$.$.$.$.` & $ $ $ $ $ $ . C c.g.x.x.j.6.@.@.@.@.@.@.@.@.@.@.@.@.@.@.@.@.@.@.@.@.@.@.@.@.@.@.@.@.@.@.@.@.@.@.@.@.@.@.@.@.@.@.@.@.@.@.@.@.@.@.@.@.@.@.@.@.@.@.@.@.@.@.@.@.@.@.@.@.@.@.@.@.@.@.@.@.@.@.@.@.@.@.@.@.@.@.@.@.@.@.@.@.@.@.@.@.@.@.@.@.@.@.@.@.@.@.@.@.@.@.@.@.@.@.@.@.@.@.@.@.@.@.@.@.@.@.@.@.@.@.@.@.@.@.@.@.@.@.@.@.$.$.$.$.$.$.$.$.",
"@.@.@.@.@.@.@.@.@.@.@.@.@.@.@.@.@.@.@.@.@.@.@.@.@.@.@.@.@.@.@.@.@.@.@.= . $ $ $ $ $ $ $ . . 6 e 8 8 8 8 d 8 ] *.@.@.@.@.@.@.@.@.@.@.@.@.$.$.$.$.$.$.$.$.$.$.$.$.$.$.$.$.$.$.$.$.$.$.$.$.$.$.$.$.$.$.$.$.$.$.$.$.$.$.$.$.$.$.$.$.@.@.@.@.@.@.@.@.@.@.@.@.@.@.@.@.@.@.@.@.@.@.@.@.@.@.@.@.@.@.@.@.@.@.@.@.@.@.@.@.@.@.@.@.@.@.@.@.@.@.@.@.@.$.$.@.@.@.@.@.@.@.@.@.@.@.@.@.@.@.@.@.@.@.@.@.@.@.@.@.@.@.@.@.@.@.@.@.^ J ^ ! ^ A           7 D.5.$.] J ! ^ ! ^ ! ! ! ! ! ! ! ! ! ! ! ! ! ! ! ! ! ! ! ! ! ! ! ! ! ! ! ! ! ! ! ! ! ! ! ! ! ! ! ! ! ! ! ! ! ! ! ! ! ! ! U U U U U U U U U U U U U U U U U U U U U U U U U U U U U U U U U U U U U U J A e . . . $ $ $ $ $ . x 9.V.Y.c.*.@.<.@.3         X   =..X{.|.W.f.8.g.9.w.r.r.r.r.f.f.f.f.f.f.f.f.f.f.f.f.f.f.f.f.f.r.r.r.f.f.f.f.f.f.f.f.f.f.f.f.f.f.f.f.f.f.f.f.r.r.r.r.g.e.g.{.}.)..X}.}.}.|.Y.3 X X X X   3 6.g.g.g.g.e.*.*.$.$.$.$.$.$.$.$.$.$.$.$.$.` & $ $ $ $ $ $ . C c.g.x.x.j.6.@.@.@.@.@.@.@.@.@.@.@.@.@.@.@.@.@.@.@.@.@.@.@.@.@.@.@.@.@.@.@.@.@.@.@.@.@.@.@.@.@.@.@.@.@.@.@.@.@.@.@.@.@.@.@.@.@.@.@.@.@.@.@.@.@.@.@.@.@.@.@.@.@.@.@.@.@.@.@.@.@.@.@.@.@.@.@.@.@.@.@.@.@.@.@.@.@.@.@.@.@.@.@.@.@.@.@.@.@.@.@.@.@.@.@.@.@.@.@.@.@.@.@.@.@.@.@.@.@.@.@.@.@.@.@.@.@.@.@.@.$.$.$.$.$.$.$.$.",
"@.@.@.@.@.@.@.@.@.@.@.@.@.@.@.@.@.@.@.@.@.@.@.@.@.@.@.@.@.@.@.@.@.@.@.= . $ $ $ $ $ $ $ . . 6 e 8 8 8 8 d 8 ] $.@.@.@.@.@.@.@.@.@.@.@.@.$.$.$.$.$.$.$.$.$.$.$.$.$.$.$.$.$.$.$.$.$.$.$.$.$.$.$.$.$.$.$.$.$.$.$.$.$.$.$.$.$.$.$.$.@.@.@.@.@.@.@.@.@.@.@.@.@.@.@.@.@.@.@.@.@.@.@.@.@.@.@.@.@.@.@.@.@.@.@.@.@.@.@.@.@.@.@.@.@.@.@.@.@.@.@.@.@.@.$.$.@.@.@.@.@.@.@.@.@.@.@.@.@.@.@.@.@.@.@.@.@.@.@.@.@.@.@.@.@.@.@.@.! ^ ^ H ! 3 X     X X H C.@.] J ! ^ ^ ! ^ ! ! ! ! ! ! ! ! ! ! ! ! ! ! ! ! ! ! ! ! ! ! ! ! ! ! ! ! ! ! ! ! ! ! ! ! ! ! ! ! ! ! ! ! ! ! ! ! ! ! ! U U U U U U U U U U U U U U U U U U U U U U U U U U U U U U U U U U U U U U J A e . . . $ . $ $ $ . j r.L.G.m.@.*.@.8   X     +   ' .X). XY.w.r.g.e.r.r.r.r.r.r.f.f.f.f.f.f.f.f.f.f.f.f.f.f.f.f.8.6.6.<.f.f.f.f.f.f.f.f.f.f.f.f.f.f.f.f.f.f.f.f.r.r.r.r.r.r.r.g.(.}._.}.}.(.}..XY.3 @     @   9 8.g.r.r.9.e.@.=.*.$.$.$.$.$.$.$.$.$.$.$.` & $ $ $ $ $ $ . C c.g.x.x.j.6.@.@.@.@.@.@.@.@.@.@.@.@.@.@.@.@.@.@.@.@.@.@.@.@.@.@.@.@.@.@.@.@.@.@.@.@.@.@.@.@.@.@.@.@.@.@.@.@.@.@.@.@.@.@.@.@.@.@.@.@.@.@.@.@.@.@.@.@.@.@.@.@.@.@.@.@.@.@.@.@.@.@.@.@.@.@.@.@.@.@.@.@.@.@.@.@.@.@.@.@.@.@.@.@.@.@.@.@.@.@.@.@.@.@.@.@.@.@.@.@.@.@.@.@.@.@.@.@.@.@.@.@.@.@.@.@.@.@.@.@.$.$.$.$.$.$.$.$.",
"@.@.@.@.@.@.@.@.@.@.@.@.@.@.@.@.@.@.@.@.@.@.@.@.@.@.@.@.@.@.@.@.@.@.@.= . $ $ $ $ $ $ $ . . 8 y 8 8 8 8 d 8 ] $.@.@.@.@.@.@.@.@.@.@.@.@.@.@.@.@.@.@.@.@.@.@.@.@.@.@.@.@.@.@.@.@.@.@.@.@.@.@.@.@.@.@.@.@.@.@.@.@.@.@.@.@.@.@.@.@.@.@.@.@.@.@.@.@.@.@.@.@.@.@.@.@.@.@.@.@.@.@.@.@.@.@.@.@.@.@.@.@.@.@.@.@.@.@.@.@.@.@.@.@.@.@.@.@.@.@.@.@.@.@.@.@.@.@.@.@.@.@.@.@.@.@.@.@.@.@.@.@.@.@.@.@.@.@.@.@.@.@.@.@.@.*.] H A ^ Z ( x       X   X 6.w.( J J U U ! ! ! ! ! ! U U U U U U U U U U U U U U U U U U U U U U U U U U U U U U U U U U U U U U U U U U U U U U U U U U U U U U U U U U U U U U U U U U U U U U U U U U U U U U U U U U U U U U J A g . . . $ $ $ $ . . j L.Y.Y.c.} =.f     @   @   A _.).#XU.a.g.g.f.f.r.r.f.f.f.f.f.f.f.f.g.f.f.r.r.r.r.r.f.w.6.=.$.$.$.$.=.6.r.f.r.r.a.f.r.r.r.r.f.f.f.f.f.f.f.f.f.f.f.f.f.f.f.f.g._..X_. X_._._.}.G.3           f e.f.e.9.g.8.@.*.$.$.$.$.$.$.$.$.$.$.$.` & $ $ $ $ % * . S b.g.l.x.g.6.@.@.@.@.@.@.@.@.@.@.@.@.@.@.@.@.@.@.@.@.@.@.@.@.@.@.@.@.@.@.@.@.@.@.@.@.@.@.@.@.@.@.@.@.@.@.@.@.@.@.@.@.@.@.@.@.@.@.@.@.@.@.@.@.@.@.@.@.@.@.@.@.@.@.@.@.@.@.@.@.@.@.@.@.@.@.@.@.@.@.@.@.@.@.@.@.@.@.@.@.@.@.@.@.@.@.@.@.@.@.@.@.@.@.@.@.@.@.@.@.@.@.@.@.@.@.@.@.@.@.@.@.@.@.@.@.@.@.@.@.$.$.$.$.$.$.$.$.",
"@.@.@.@.@.@.@.@.@.@.@.@.@.@.@.@.@.@.@.@.@.@.@.@.@.@.@.@.@.@.@.@.@.@.@.= . $ $ $ $ $ $ $ . . 8 y 8 8 8 8 d 8 ] $.@.@.@.@.@.@.@.@.@.@.@.@.@.@.@.@.@.@.@.@.@.@.@.@.@.@.@.@.@.@.@.@.@.@.@.@.@.@.@.@.@.@.@.@.@.@.@.@.@.@.@.@.@.@.@.@.@.@.@.@.@.@.@.@.@.@.@.@.@.@.@.@.@.@.@.@.@.@.@.@.@.@.@.@.@.@.@.@.@.@.@.@.@.@.@.@.@.@.@.@.@.@.@.@.@.@.@.@.@.@.@.@.@.@.@.@.@.@.@.@.@.@.@.@.@.@.@.@.@.@.@.@.@.@.@.@.@.@.@.@.*.] U U H J ( ( 3     X   X 5 f.O.! J ( U U ! ! ! ! ! ! U U U U U U U U U U U U U U U U U U U U U U U U U U U U U U U U U U U U U U U U U U U U U U U U U U U U U U U U U U U U U U U U U U U U U U U U U U U U U U U U U U U U U U J A g . . . . $ $ $ .   j L.A.Y.c.>.A X       @ X 8 `.}..XL.a.f.r.f.f.f.f.f.f.f.f.f.f.f.f.f.r.r.f.f.g.f.9.e.6.=.$.@.$.$.$.$.$.*.=.6.g.g.f.r.r.r.r.r.f.f.f.f.f.f.f.f.f.f.f.f.f.f.f.f.g.g./..X_._.}._._..XW.3   X X X   f f.r.r.f.e.=.*.*.$.$.$.$.$.$.$.$.$.$.` & $ $ $ $ % % . S B.g.g.l.g.6.@.@.@.@.@.@.@.@.@.@.@.@.@.@.@.@.@.@.@.@.@.@.@.@.@.@.@.@.@.@.@.@.@.@.@.@.@.@.@.@.@.@.@.@.@.@.@.@.@.@.@.@.@.@.@.@.@.@.@.@.@.@.@.@.@.@.@.@.@.@.@.@.@.@.@.@.@.@.@.@.@.@.@.@.@.@.@.@.@.@.@.@.@.@.@.@.@.@.@.@.@.@.@.@.@.@.@.@.@.@.@.@.@.@.@.@.@.@.@.@.@.@.@.@.@.@.@.@.@.@.@.@.@.@.@.@.@.@.@.@.$.$.$.$.$.$.$.$.",
"@.@.@.@.@.@.@.@.@.@.@.@.@.@.@.@.@.@.@.@.@.@.@.@.@.@.@.@.@.@.@.@.@.@.@.= . $ $ $ $ $ $ $ . . r e 8 8 8 8 d 8 ] $.@.@.@.@.@.@.@.@.@.@.@.@.@.@.@.@.@.@.@.@.@.@.@.@.@.@.@.@.@.@.@.@.@.@.@.@.@.@.@.@.@.@.@.@.@.@.@.@.@.@.@.@.@.@.@.@.@.@.@.@.@.@.@.@.@.@.@.@.@.@.@.@.@.@.@.@.@.@.@.@.@.@.@.@.@.@.@.@.@.@.@.@.@.@.@.@.@.@.@.@.@.@.@.@.@.@.@.@.@.@.@.@.@.@.@.@.@.@.@.@.@.@.@.@.@.@.@.@.@.@.@.@.@.@.@.@.@.@.@.@.] U H ^ J J ^ h             J 6.! J J ^ U U U U ! ! ! ! U U U U U U U U U U U U U U U U U U U U U U U U U U U U U U U U U U U U U U U U U U U U U U U U U U U U U U U U U U U U U U U U U U U U U U U U U U U U U U U U U U U U U U J N g . . . . . $ $ .   n L.F.F.D.P @           X R.#X}.Y.f.e.g.9.f.f.f.f.f.f.f.f.f.f.f.f.f.r.r.r.9.e.8.5.=.@.@.@.@.$.$.$.$.$.$.$.*.=.e.f.g.a.a.r.r.f.f.f.f.f.f.f.f.f.f.f.f.f.f.f.f.g.r.f.`._.}.}.}._._.#XY.3   @   @ + x x.f.r.9.6.*.*.*.$.$.$.$.$.$.$.$.$.` & $ $ $ $ % % . S B.g.j.j.g.6.@.@.@.@.@.@.@.@.@.@.@.@.@.@.@.@.@.@.@.@.@.@.@.@.@.@.@.@.@.@.@.@.@.@.@.@.@.@.@.@.@.@.@.@.@.@.@.@.@.@.@.@.@.@.@.@.@.@.@.@.@.@.@.@.@.@.@.@.@.@.@.@.@.@.@.@.@.@.@.@.@.@.@.@.@.@.@.@.@.@.@.@.@.@.@.@.@.@.@.@.@.@.@.@.@.@.@.@.@.@.@.@.@.@.@.@.@.@.@.@.@.@.@.@.@.@.@.@.@.@.@.@.@.@.@.@.@.@.@.@.$.$.$.$.$.$.$.$.",
"@.@.@.@.@.@.@.@.@.@.@.@.@.@.@.@.@.@.@.@.@.@.@.@.@.@.@.@.@.@.@.@.@.@.#.= . $ $ $ $ $ $ $ . . r e 8 8 8 8 d 8 ] $.@.@.@.@.@.@.@.@.@.@.@.@.@.@.@.@.@.@.@.@.@.@.@.@.@.@.@.@.@.@.@.@.@.@.@.@.@.@.@.@.@.@.@.@.@.@.@.@.@.@.@.@.@.@.@.@.@.@.@.@.@.@.@.@.@.@.@.@.@.@.@.@.@.@.@.@.@.@.@.@.@.@.@.@.@.@.@.@.@.@.@.@.@.@.@.@.@.@.@.@.@.@.@.@.@.@.@.@.@.@.@.@.@.@.@.@.@.@.@.@.@.@.@.@.@.@.@.@.@.@.@.@.@.@.@.@.@.@.@.@.H J ^ H J ( f     X   X   @ @.^ ^ ! J H U U U U ! ! ! ! U U U U U U U U U U U U U U U U U U U U U U U U U U U U U U U U U U U U U U U U U U U U U U U U U U U U U U U U U U U U U U U U U U U U U U U U U U U U U U U U U U U U U U J N g . . . $ . $ $ $   N P.F.R.g.=             D..X{.Y.w.f.r.8.f.f.f.f.f.r.f.f.f.f.f.f.f.f.g.r.e.6.@.@.@.@.@.$.*.=.*.$.$.$.$.$.$.$.@.=.6.8.a.f.r.r.f.f.f.f.f.f.f.f.f.f.f.f.f.f.f.f.f.f.r.r.W. X_.{.|._.}..XW.7           A x.w.w.9.=.*.*.$.$.$.$.$.$.$.$.$.` & $ $ $ $ % % . S B.g.j.j.g.6.@.@.@.@.@.@.@.@.@.@.@.@.@.@.@.@.@.@.@.@.@.@.@.@.@.@.@.@.@.@.@.@.@.@.@.@.@.@.@.@.@.@.@.@.@.@.@.@.@.@.@.@.@.@.@.@.@.@.@.@.@.@.@.@.@.@.@.@.@.@.@.@.@.@.@.@.@.@.@.@.@.@.@.@.@.@.@.@.@.@.@.@.@.@.@.@.@.@.@.@.@.@.@.@.@.@.@.@.@.@.@.@.@.@.@.@.@.@.@.@.@.@.@.@.@.@.@.@.@.@.@.@.@.@.@.@.@.@.@.@.$.$.$.$.$.$.$.$.",
"@.@.@.@.@.@.@.@.@.@.@.@.@.@.@.@.@.@.@.@.@.@.@.@.@.@.@.@.@.@.@.@.@.#.#.= . $ $ $ $ $ $ $ . . 6 e 8 8 8 8 d 8 ] $.@.@.@.@.&.&.&.@.@.@.@.@.@.@.@.@.@.@.@.@.@.@.@.@.@.@.@.@.@.@.@.@.@.@.@.@.@.@.@.@.@.@.@.@.@.@.@.@.@.@.@.@.@.@.@.@.@.@.@.@.@.@.@.@.@.@.@.@.@.@.@.@.@.@.@.@.@.@.@.@.@.@.@.@.@.@.@.@.@.@.@.@.@.@.@.@.@.@.@.@.@.@.@.@.@.@.@.@.@.@.@.@.@.@.@.@.@.@.@.@.@.@.@.@.@.@.@.@.@.@.@.@.*.*.@.@.@. .( J ! ( J ' J f X         X   @ J ! H ! ( ^ ! ! ! ! ! ! ! ! U U U U U U U U U U U U U U U U U U U U U U U U U U U U U U U U U U U U U U U U U U U U U U U U U U U U U U U U U U U U U U U U U U U U U U U U U U U U U U U U U U U U U U J N g . . . . $ $ $ . . n G.G.F.A   X         @.#X_.G.r.g.g.r.r.r.f.f.f.f.r.r.r.f.f.f.f.f.r.5.=.@.@.@.@.@.@.$.$.$.$.$.$.$.@.@.@.@.@.@.@.@.=.e.w.r.r.g.f.g.f.f.f.f.f.f.f.f.f.f.f.f.f.f.f.f.f.r.E._.{._.{.}.|..XY.7     X     J r.r.f.f.=.=.@.$.$.$.$.$.$.$.$.` & $ $ $ $ $ % . S b.g.j.j.g.6.@.@.@.@.@.@.@.@.@.@.@.@.@.@.@.@.@.@.@.@.@.@.@.@.@.@.@.@.@.@.@.@.@.@.@.@.@.@.@.@.@.@.@.@.@.@.@.@.@.@.@.@.@.@.@.@.@.@.@.@.@.@.@.@.@.@.@.@.@.@.@.@.@.@.@.@.@.@.@.@.@.@.@.@.@.@.@.@.@.@.@.@.@.@.@.@.@.@.@.@.@.@.@.@.@.@.@.@.@.@.@.@.@.@.@.@.@.@.@.@.@.@.@.@.@.@.@.@.@.@.@.@.@.@.@.@.@.@.@.@.$.$.$.$.$.$.$.$.",
"@.@.@.@.@.@.@.@.@.@.@.@.@.@.@.@.@.@.@.@.@.@.@.@.@.@.@.@.@.@.@.@.@.#.#.= . $ $ $ $ $ $ $ . . 6 e 8 8 8 8 d 8 ] $.@.@.@.@.&.&.&.@.@.@.@.@.@.@.@.@.@.@.@.@.@.@.@.@.@.@.@.@.@.@.@.@.@.@.@.@.@.@.@.@.@.@.@.@.@.@.@.@.@.@.@.@.@.@.@.@.@.@.@.@.@.@.@.@.@.@.@.@.@.@.@.@.@.@.@.@.@.@.@.@.@.@.@.@.@.@.@.@.@.@.@.@.@.@.@.@.@.@.@.@.@.@.@.@.@.@.@.@.@.@.@.@.@.@.@.@.@.@.@.@.@.@.@.@.@.@.@.@.@.@.@.@.@.@.@.$.@.( J ( ( H ( H 8 X   X   X X       d J ! J ] U ! ! ! ! ! ! ! ! U U U U U U U U U U U U U U U U U U U U U U U U U U U U U U U U U U U U U U U U U U U U U U U U U U U U U U U U U U U U U U U U U U U U U U U U U U U U U U U U U U U U U U J M j . . $ $ $ $ $ . $ j P.Y.J         <   ^ .X}.D.w.g.r.g.r.r.r.a.f.f.f.f.f.f.f.r.g.e.=.@.@.@.@.@.@.@.@.@.$.$.$.$.$.$.$.@.@.@.@.@.@.@.@.@.@.=.6.w.g.g.r.r.r.f.f.f.f.f.f.f.f.f.f.f.f.f.f.f.f.r.E._.}..X_.{._..XW.3 X X X   X ! x.e.g.6.@.=.$.$.$.$.$.$.$.$.` = $ $ $ $ $ $ . S b.g.j.j.g.6.@.@.@.@.@.@.@.@.@.@.@.@.@.@.@.@.@.@.@.@.@.@.@.@.@.@.@.@.@.@.@.@.@.@.@.@.@.@.@.@.@.@.@.@.@.@.@.@.@.@.@.@.@.@.@.@.@.@.@.@.@.@.@.@.@.@.@.@.@.@.@.@.@.@.@.@.@.@.@.@.@.@.@.@.@.@.@.@.@.@.@.@.@.@.@.@.@.@.@.@.@.@.@.@.@.@.@.@.@.@.@.@.@.@.@.@.@.@.@.@.@.@.@.@.@.@.@.@.@.@.@.@.@.@.@.@.@.@.@.@.$.$.$.$.$.$.$.$.",
"@.@.@.@.@.@.@.@.@.@.@.@.@.@.@.@.@.@.@.@.@.@.@.@.@.@.@.@.@.@.@.@.@.@.#.= . $ $ $ $ $ $ $ . . 6 e 8 8 8 8 d 8 ] $.@.@.@.@.@.@.@.@.@.@.@.@.@.@.@.@.@.@.@.@.@.@.@.@.@.@.@.@.@.@.@.@.@.@.@.@.@.@.@.@.@.@.@.@.@.@.@.@.@.@.@.@.@.@.@.@.@.@.@.@.@.@.@.@.@.@.@.@.@.@.@.@.@.@.@.@.@.@.@.@.@.@.@.@.@.@.@.@.@.@.@.@.@.@.@.@.@.@.@.@.@.@.@.@.@.@.@.@.@.@.@.@.@.@.@.@.@.@.@.@.@.@.@.@.@.@.@.@.@.@.@.@.@.@.@.O.! ' ( J J ( ( 3           X X       X k ( H J ( ! ! ! ! ! ! ! ! U U U U U U U U U U U U U U U U U U U U U U U U U U U U U U U U U U U U U U U U U U U U U U U U U U U U U U U U U U U U U U U U U U U U U U U U U U U U U U U U U U U U Y ! H M j . . $ . $ $ $     N W.@.  X     2   h .X}.G.w.g.6.r.f.r.r.r.r.f.f.f.f.f.r.0.6.=.*.@.$.@.@.@.@.@.@.@.@.$.$.$.$.$.$.$.@.@.@.@.@.@.@.@.@.@.@.*.=.e.r.r.r.r.r.r.f.f.f.f.f.f.f.f.f.f.f.f.f.f.f.r.E.{._.|._.|.)..X/.8   X X X X ! f.w.g.6.@.$.$.$.$.$.$.$.$.` & $ $ $ $ $ $ . S b.g.j.j.g.6.@.@.@.@.@.@.@.@.@.@.@.@.@.@.@.@.@.@.@.@.@.@.@.@.@.@.@.@.@.@.@.@.@.@.@.@.@.@.@.@.@.@.@.@.@.@.@.@.@.@.@.@.@.@.@.@.@.@.@.@.@.@.@.@.@.@.@.@.@.@.@.@.@.@.@.@.@.@.@.@.@.@.@.@.@.@.@.@.@.@.@.@.@.@.@.@.@.@.@.@.@.@.@.@.@.@.@.@.@.@.@.@.@.@.@.@.@.@.@.@.@.@.@.@.@.@.@.@.@.@.@.@.@.@.@.@.@.@.@.@.$.$.$.$.$.$.$.$.",
"@.@.@.@.@.@.@.@.@.@.@.@.@.@.@.@.@.@.@.@.@.@.@.@.@.@.@.@.@.@.@.@.@.@.#.= . $ $ $ $ $ $ $ . . 6 e 8 8 8 8 d 8 ' $.@.@.@.@.@.@.@.@.@.@.@.@.@.@.@.@.@.@.@.@.@.@.@.@.@.@.@.@.@.@.@.@.@.@.@.@.@.@.@.@.@.@.@.@.@.@.@.@.@.@.@.@.@.@.@.@.@.@.@.@.@.@.@.@.@.@.@.@.@.@.@.@.@.@.@.@.@.@.@.@.@.@.@.@.@.@.@.@.@.@.@.@.@.@.@.@.@.@.@.@.@.@.@.@.@.@.@.@.@.@.@.@.@.@.@.@.@.@.@.@.@.@.@.@.@.@.@.@.$.@.@.@.=.@.] ( ! J U ( ' H 3   X       f 8.X   X X     f ] H J U U U U ! ! ! ! U U U U U U U U U U U U U U U U U U U U U U U U U U U U U U U U U U U U U U U U U U U U U U U U U U U U U U U U U U U U U U U U U U U U U U U U U U U U U U U U U U U U U ! H M j . . $ . $ $ $ . . ( k.X X     X # f `.|.F.e.r.9.f.r.r.r.r.r.r.f.f.f.f.e.6.=.@.@.@.@.@.@.@.@.@.@.@.@.@.$.$.$.$.$.$.$.@.@.@.@.@.@.@.@.@.@.@.@.O.@.=.w.g.f.f.r.r.f.f.f.f.f.f.f.f.f.f.f.f.f.f.f.r.L.).{.|.).).{.}.`.8 X       @  .g.e.w.$.$.$.$.$.$.$.$.$.` & $ $ $ $ $ $ . S b.g.j.j.g.6.@.@.@.@.@.@.@.@.@.@.@.@.@.@.@.@.@.@.@.@.@.@.@.@.@.@.@.@.@.@.@.@.@.@.@.@.@.@.@.@.@.@.@.@.@.@.@.@.@.@.@.@.@.@.@.@.@.@.@.@.@.@.@.@.@.@.@.@.@.@.@.@.@.@.@.@.@.@.@.@.@.@.@.@.@.@.@.@.@.@.@.@.@.@.@.@.@.@.@.@.@.@.@.@.@.@.@.@.@.@.@.@.@.@.@.@.@.@.@.@.@.@.@.@.@.@.@.@.@.@.@.@.@.@.@.@.@.@.@.@.$.$.$.$.$.$.$.$.",
"@.@.@.@.@.@.@.@.@.@.@.@.@.@.@.@.@.@.@.@.@.@.@.@.@.@.@.@.@.@.@.@.@.@.@.= . $ $ $ $ $ $ $ $ . 6 e 8 8 8 8 d 8 ] $.@.@.@.@.@.@.@.@.@.@.@.@.@.@.@.@.@.@.@.@.@.@.@.@.@.@.@.@.@.@.@.@.@.@.@.@.@.@.@.@.@.@.@.@.@.@.@.@.@.@.@.@.@.@.@.@.@.@.@.@.@.@.@.@.@.@.@.@.@.@.@.@.@.@.@.@.@.@.@.@.@.@.@.@.@.@.@.@.@.@.@.@.@.@.@.@.@.@.@.@.@.@.@.@.@.@.@.@.@.@.@.@.@.@.@.@.@.@.@.@.@.@.@.@.@.@.@.$.*.*.$.@.@.] ( ^ ^ ! H ! H @         X H R.).@.  X @     X A J ^ J J U ! ! U U U U U U U U U U U U U U U U U U U U U U U U U U U U U U U U U U U U U U U U U U U U U U U U U U U U U U U U U U U U U U U U U U U U U U U U U U U U U U U U U U U U U U U U ! A x j . . $ $ $ $ $ $ . j f   @ X     X Y..Xr.r.a.a.f.f.g.g.f.f.f.f.9.8.=.=.@.@.@.@.$.$.$.$.@.@.@.@.@.@.@.@.$.$.$.$.$.$.$.$.@.@.@.@.@.@.@.@.$.$.$.$.@.@.@.=.e.r.f.f.f.f.f.f.r.a.a.a.f.f.f.f.f.f.f.f.6.U._._._. X_.{..X/.8 + X +   3 =.g.f.w.$.$.*.*.*.*.$.@.` = $ $ $ $ $ $ . S b.g.j.j.g.6.@.@.@.@.@.@.@.@.@.@.@.@.@.@.@.@.@.@.@.@.@.@.@.@.@.@.@.@.@.@.@.@.@.@.@.@.@.@.@.@.@.@.@.@.@.@.@.@.@.@.@.@.@.@.@.@.@.@.@.@.@.@.@.@.@.@.@.@.@.@.@.@.@.@.@.@.@.@.@.@.@.@.@.@.@.@.@.@.@.@.@.@.@.@.@.@.@.@.@.@.@.@.@.@.@.@.@.@.@.@.@.@.@.@.@.@.@.@.@.@.@.@.@.@.@.@.@.@.@.@.@.@.@.@.@.@.@.@.@.@.$.$.$.$.$.$.$.$.",
"@.@.@.@.@.@.@.@.@.@.@.@.@.@.@.@.@.@.@.@.@.@.@.@.@.@.@.@.@.@.@.@.@.@.@.= . $ $ $ $ $ $ $ . . 6 e 8 8 8 8 d 8 ' $.@.@.@.@.@.@.@.@.@.@.@.@.@.@.@.@.@.@.@.@.@.@.@.@.@.@.@.@.@.@.@.@.@.@.@.@.@.@.@.@.@.@.@.@.@.@.@.@.@.@.@.@.@.@.@.@.@.@.@.@.@.@.@.@.@.@.@.@.@.@.@.@.@.@.@.@.@.@.@.@.@.@.@.@.@.@.@.@.@.@.@.@.@.@.@.@.@.@.@.@.@.@.@.@.@.@.@.@.@.@.@.@.@.@.@.@.@.@.@.@.@.@.@.@.@.@.@.@.*.$.@.O.( ^ ! ! H J ' x X   X     X ' `.W.G.`.J       X     K ( J J J J ! U U U U U U U U U U U U U U U U U U U U U U U U U U U U U U U U U U U U U U U U U U U U U U U U U U U U U U U U U U U U U U U U U U U U U U U U U U U U U U U U U U U U U U U U ! A x j . . $ $ $ $ $ $ .   + X     X   c.#Xc.r.r.a.r.e.r.g.g.f.9.8.<.$.@.@.@.@.@.@.@.$.$.$.$.@.@.@.@.@.@.@.@.$.$.$.$.$.$.$.$.@.@.@.@.@.@.@.@.$.$.$.$.$.@.@.@.*.5.e.r.r.r.f.f.r.r.r.a.f.f.f.f.f.f.f.f.9.6.D..X.X_.{.{.}.{.).8   + :   7 6.g.f.=.$.*.*.*.*.$.@.` = $ $ $ $ $ $ . S b.g.j.j.g.6.@.@.@.@.@.@.@.@.@.@.@.@.@.@.@.@.@.@.@.@.@.@.@.@.@.@.@.@.@.@.@.@.@.@.@.@.@.@.@.@.@.@.@.@.@.@.@.@.@.@.@.@.@.@.@.@.@.@.@.@.@.@.@.@.@.@.@.@.@.@.@.@.@.@.@.@.@.@.@.@.@.@.@.@.@.@.@.@.@.@.@.@.@.@.@.@.@.@.@.@.@.@.@.@.@.@.@.@.@.@.@.@.@.@.@.@.@.@.@.@.@.@.@.@.@.@.@.@.@.@.@.@.@.@.@.@.@.@.@.@.$.$.$.$.$.$.$.$.",
"@.@.@.@.@.@.@.@.@.@.@.@.@.@.@.@.@.@.@.@.@.@.@.@.@.@.@.@.@.@.@.@.@.@.@.= . . $ $ $ $ $ $ . . 6 e 8 8 8 8 d 8 ] $.@.@.@.@.@.@.@.@.@.@.@.@.@.@.@.@.@.@.@.@.@.@.@.@.@.@.@.@.@.@.@.@.@.@.@.@.@.@.@.@.@.@.@.@.@.@.@.@.@.@.@.@.@.@.@.@.@.@.@.@.@.@.@.@.@.@.@.@.@.@.@.@.@.@.@.@.@.@.@.@.@.@.@.@.@.@.@.@.@.@.@.@.@.@.@.@.@.@.@.@.@.@.@.@.@.@.@.@.@.@.@.@.@.@.@.@.@.@.@.@.@.@.@.@.$.@.@.@.$.@. .( J J U ! ! ] f X   + X     e.(.Y.R.W.W.P.z           @ A J J J J U U U U U U U U U U U U U U U U U U U U U U U U U U U U U U U U U U U U U U U U U U U U U U U U U U U U U U U U U U U U U U U U U U U U U U U U U U U U U U U U U U U U U U U U ! ~ A x j . . $ $ $ $ $ . .       @ @ X =..Xc.i.i.i.i.r.9.9.r.r.8.6.=.@.@.@.@.@.@.@.@.@.$.$.$.$.@.@.@.@.@.@.@.@.$.$.$.$.$.$.$.$.@.@.@.@.@.@.@.@.$.$.$.$.$.$.$.@.@.@.*.5.e.9.r.r.r.r.r.r.f.f.f.f.f.f.f.f.g.r.f.G.}._.}.}.}.{..X).x   3 @ X 3 r.f.8.@.*.*.*.*.$.@.` = $ $ $ $ $ $ . B b.g.j.j.g.6.@.@.@.@.@.@.@.@.@.@.@.@.@.@.@.@.@.@.@.@.@.@.@.@.@.@.@.@.@.@.@.@.@.@.@.@.@.@.@.@.@.@.@.@.@.@.@.@.@.@.@.@.@.@.@.@.@.@.@.@.@.@.@.@.@.@.@.@.@.@.@.@.@.@.@.@.@.@.@.@.@.@.@.@.@.@.@.@.@.@.@.@.@.@.@.@.@.@.@.@.@.@.@.@.@.@.@.@.@.@.@.@.@.@.@.@.@.@.@.@.@.@.@.@.@.@.@.@.@.@.@.@.@.@.@.@.@.@.@.@.$.$.$.$.$.$.$.$.",
"@.@.@.@.@.@.@.@.@.@.@.@.@.@.@.@.@.@.@.@.@.@.@.@.@.@.@.@.@.@.@.@.@.@.@.= . . $ $ $ $ $ $ . . 8 y 8 8 8 8 d 8 ] $.@.@.@.@.@.@.@.@.@.@.@.@.@.@.@.@.@.@.@.@.@.@.@.@.@.@.@.@.@.@.@.@.@.@.@.@.@.@.@.@.@.@.@.@.@.@.@.@.@.@.@.@.@.@.@.@.@.@.@.@.@.@.@.@.@.@.@.@.@.@.@.@.@.@.@.@.@.@.@.@.@.@.@.@.@.@.@.@.@.@.@.@.@.@.@.@.@.@.@.@.@.@.@.@.@.@.@.@.@.@.@.@.@.@.@.@.@.@.@.@.@.@.@.@.$.@.@.@.@.O.( J ^ ! J J ! h @   X @ X 8 D.(.Y.W.T.W.(.W.D.O     @ X   3 J J J J U U U U U U U U U U U U U U U U U U U U U U U U U U U U U U U U U U U U U U U U U U U U U U U U U U U U U U U U U U U U U U U U U U U U U U U U U U U U U U U U U U U U U U U U ! ! Z x j . . $ $ $ $ . . . +       X H .Xm.w.8.i.i.i.i.g.r.8.<.@.@.$.$.*.*.*.$.@.@.@.@.$.$.$.$.@.@.@.@.@.@.@.@.$.$.$.$.$.$.$.$.@.@.@.@.@.@.@.@.$.$.$.$.@.$.$.$.$.@.@.@.=.6.e.9.r.r.r.r.f.f.f.f.f.f.f.f.e.f.g.f.G.}.}.}.{.`.{.|.).h     X X 5 g.r.=.*.*.*.*.$.@.` = $ $ $ $ $ $ . B b.g.j.j.g.6.@.@.@.@.@.@.@.@.@.@.@.@.@.@.@.@.@.@.@.@.@.@.@.@.@.@.@.@.@.@.@.@.@.@.@.@.@.@.@.@.@.@.@.@.@.@.@.@.@.@.@.@.@.@.@.@.@.@.@.@.@.@.@.@.@.@.@.@.@.@.@.@.@.@.@.@.@.@.@.@.@.@.@.@.@.@.@.@.@.@.@.@.@.@.@.@.@.@.@.@.@.@.@.@.@.@.@.@.@.@.@.@.@.@.@.@.@.@.@.@.@.@.@.@.@.@.@.@.@.@.@.@.@.@.@.@.@.@.@.@.$.$.$.$.$.$.$.$.",
"@.@.@.@.@.@.@.@.@.@.@.@.@.@.@.@.@.@.@.@.@.@.@.@.@.@.@.@.@.@.@.@.@.@.@.= . $ $ $ $ $ $ $ . . 6 e 8 8 8 8 d 8 ] $.@.@.@.@.@.@.@.@.@.@.@.@.@.@.@.@.@.@.@.@.@.@.@.@.@.@.@.@.@.@.@.@.@.@.@.@.@.@.@.@.@.@.@.@.@.@.@.@.@.@.@.@.@.@.@.@.@.@.@.@.@.@.@.@.@.@.@.@.@.@.@.@.@.@.@.@.@.@.@.@.@.@.@.@.@.@.@.@.@.@.@.@.@.@.@.@.@.@.@.@.@.@.@.@.@.@.@.@.@.@.@.@.@.@.@.@.@.@.@.@.@.@.@.@.*.@.@.=.] ( U J H ! U ! 9   X     X A Y.`.W.E.W.W.W.W.W.W.r.      X     7 ^ ^ ^ U U U U U U U U U U U U U U U U U U U U U U U U U U U U U U U U U U U U U U U U U U U U U U U U U U U U U U U U U U U U U U U U U U U U U U U U U U U U U U U U U U U U U U U U ! ! Z j j . . $ $ $ $ . .       X @ x ).V.9.x.r.f.f.i.6.=.*.@.@.@.@.@.@.@.@.$.$.@.@.@.@.$.$.$.$.$.$.$.$.$.$.$.$.$.$.$.$.$.$.$.$.$.$.$.$.$.$.$.$.$.$.$.$.$.$.$.$.$.$.$.$.$.*.=.6.f.f.f.g.f.f.f.f.f.f.f.f.f.f.f.f.6.D.}.}.}.|.}.{..X(.x   @ +   A g.r.=.@.*.*.*.@.` = $ $ $ $ $ $ . B b.g.j.j.g.6.@.@.@.@.@.@.@.@.@.@.@.@.@.@.@.@.@.@.@.@.@.@.@.@.@.@.@.@.@.@.@.@.@.@.@.@.@.@.@.@.@.@.@.@.@.@.@.@.@.@.@.@.@.@.@.@.@.@.@.@.@.@.@.@.@.@.@.@.@.@.@.@.@.@.@.@.@.@.@.@.@.@.@.@.@.@.@.@.@.@.@.@.@.@.@.@.@.@.@.@.@.@.@.@.@.@.@.@.@.@.@.@.@.@.@.@.@.@.@.@.@.@.@.@.@.@.@.@.@.@.@.@.@.@.@.@.@.@.@.@.$.$.$.$.$.$.$.$.",
"@.@.@.@.@.@.@.@.@.@.@.@.@.@.@.@.@.@.@.@.@.@.@.@.@.@.@.@.@.@.@.@.@.@.@.= . $ $ $ $ $ $ $ $ . 6 e 8 8 8 8 d 8 ] $.@.@.@.@.@.@.@.@.@.@.@.@.@.@.@.@.@.@.@.@.@.@.@.@.@.@.@.@.@.@.@.@.@.@.@.@.@.@.@.@.@.@.@.@.@.@.@.@.@.@.@.@.@.@.@.@.@.@.@.@.@.@.@.@.@.@.@.@.@.@.@.@.@.@.@.@.@.@.@.@.@.@.@.@.@.@.@.@.@.@.@.@.@.@.@.@.@.@.@.@.@.@.@.@.@.@.@.@.@.@.@.@.@.@.@.@.@.@.@.@.@.@.@.@.*.=.@.' U J J U ! ^ U 8   X @     ( W./.G.Y.E.W.G.g.g.G.R.).]     X       8 ( U U U U U U U U U U U U U U U U U U U U U U U U U U U U U U U U U U U U U U U U U U U U U U U U U U U U U U U U U U U U U U U U U U U U U U U U U U U U U U U U U U U U U U U U U ! Y Z M j . . $ $ $ $ . .         8 _.c.e.r.i.x.i.6.=.@.@.@.@.@.@.@.@.@.@.@.$.$.@.@.@.@.$.$.$.$.$.$.$.$.$.$.$.$.$.$.$.$.$.$.$.$.$.$.$.$.$.$.$.$.$.$.$.$.$.$.$.$.$.$.$.$.$.$.$.*.*.e.f.r.f.f.f.f.f.f.f.f.f.f.f.f.9.r.V.}..X}._.}._..X_.d   X     Z g.g.&.*.*.*.&.` = $ $ $ $ $ $ . B b.g.j.j.g.6.@.@.@.@.@.@.@.@.@.@.@.@.@.@.@.@.@.@.@.@.@.@.@.@.@.@.@.@.@.@.@.@.@.@.@.@.@.@.@.@.@.@.@.@.@.@.@.@.@.@.@.@.@.@.@.@.@.@.@.@.@.@.@.@.@.@.@.@.@.@.@.@.@.@.@.@.@.@.@.@.@.@.@.@.@.@.@.@.@.@.@.@.@.@.@.@.@.@.@.@.@.@.@.@.@.@.@.@.@.@.@.@.@.@.@.@.@.@.@.@.@.@.@.@.@.@.@.@.@.@.@.@.@.@.@.@.@.@.@.@.$.$.$.$.$.$.$.$.",
"@.@.@.@.@.@.@.@.@.@.@.@.@.@.@.@.@.@.@.@.@.@.@.@.@.@.@.@.@.@.@.@.@.@.@.= . $ $ $ $ $ $ $ $ . 6 e 8 8 8 8 d 8 ] $.@.@.@.@.@.@.@.@.@.@.@.@.@.@.@.@.@.@.@.@.@.@.@.@.@.@.@.@.@.@.@.@.@.@.@.@.@.@.@.@.@.@.@.@.@.@.@.@.@.@.@.@.@.@.@.@.@.@.@.@.@.@.@.@.@.@.@.@.@.@.@.@.@.@.@.@.@.@.@.@.@.@.@.@.@.@.@.@.@.@.@.@.@.@.@.@.@.@.@.@.@.@.@.@.@.@.@.@.@.@.@.@.@.@.@.@.@.@.@.@.@.@.@.@.*.@.] U J U ! ! ( J 3   +     X =.W.W.G././.Y.c.w.8.8.w.c.R.(.A X X     X   8 ( ! U U U U U U U U U U U U U U U U U U U U U U U U U U U U U U U U U U U U U U U U U U U U U U U U U U U U U U U U U U U U U U U U U U U U U U U U U U U U U U U U U U U U U U U ! J M M j . . $ $ $ $ $ .       X ).}.8.r.g.=.5.=.@.@.@.@.@.@.@.@.@.@.@.@.@.$.$.@.@.@.@.$.$.$.$.$.$.$.$.$.$.$.$.$.$.$.$.$.$.$.$.$.$.$.$.$.$.$.$.$.$.$.$.$.$.$.$.$.$.$.$.$.*.*.$.*.$.=.w.r.r.f.f.f.f.f.f.f.f.f.f.r.f.r.D._.}.}.|.{. X.X_.x   X + + A N.6.*.*.*.&.` = $ $ $ $ $ $ . B b.g.j.j.g.6.@.@.@.@.@.@.@.@.@.@.@.@.@.@.@.@.@.@.@.@.@.@.@.@.@.@.@.@.@.@.@.@.@.@.@.@.@.@.@.@.@.@.@.@.@.@.@.@.@.@.@.@.@.@.@.@.@.@.@.@.@.@.@.@.@.@.@.@.@.@.@.@.@.@.@.@.@.@.@.@.@.@.@.@.@.@.@.@.@.@.@.@.@.@.@.@.@.@.@.@.@.@.@.@.@.@.@.@.@.@.@.@.@.@.@.@.@.@.@.@.@.@.@.@.@.@.@.@.@.@.@.@.@.@.@.@.@.@.@.@.$.$.$.$.$.$.$.$.",
"@.@.@.@.@.@.@.@.@.@.@.@.@.@.@.@.@.@.@.@.@.@.@.@.@.@.@.@.@.@.@.@.@.@.@.= . $ $ $ $ $ $ $ $ . 6 e 8 8 8 8 d 8 ] $.@.@.@.@.@.@.@.@.@.@.@.@.@.@.@.@.@.@.@.@.@.@.@.@.@.@.@.@.@.@.@.@.@.@.@.@.@.@.@.@.@.@.@.@.@.@.@.@.@.@.@.@.@.@.@.@.@.@.@.@.@.@.@.@.@.@.@.@.@.@.@.@.@.@.@.@.@.@.@.@.@.@.@.@.@.@.@.@.@.@.@.@.@.@.@.@.@.@.@.@.@.@.@.@.@.@.@.@.@.@.@.@.@.@.@.@.@.@.@.@.@.@.@.@.@.] ( ( ! ! ! ! H :   +     3 8./.W.Y./.(.G.r.5.8.w.w.8.w.c.G.R.3     X     X x ^ U U U U U U U U U U U U U U U U U U U U U U U U U U U U U U U U U U U U U U U U U U U U U U U U U U U U U U U U U U U U U U U U U U U U U U U U U U U U U U U U U U U U U U U ! J M M j . . $ $ $ $ $ .       g.#XR.=.=.=.@.@.@.@.@.@.@.@.@.@.@.@.@.@.@.@.$.$.@.@.@.@.$.$.$.$.$.$.$.$.$.$.$.$.$.$.$.$.$.$.$.$.$.$.$.$.$.$.$.$.$.$.$.$.$.$.$.$.$.$.$.$.$.$.*.$.*.*.$.@.<.8.r.r.f.f.f.f.f.f.f.f.g.r.9.6.F._..X}.{.`. X}.).x   @ X   ( f.*.*.*.&.` = $ $ $ $ $ $ . B b.g.j.j.g.6.@.@.@.@.@.@.@.@.@.@.@.@.@.@.@.@.@.@.@.@.@.@.@.@.@.@.@.@.@.@.@.@.@.@.@.@.@.@.@.@.@.@.@.@.@.@.@.@.@.@.@.@.@.@.@.@.@.@.@.@.@.@.@.@.@.@.@.@.@.@.@.@.@.@.@.@.@.@.@.@.@.@.@.@.@.@.@.@.@.@.@.@.@.@.@.@.@.@.@.@.@.@.@.@.@.@.@.@.@.@.@.@.@.@.@.@.@.@.@.@.@.@.@.@.@.@.@.@.@.@.@.@.@.@.@.@.@.@.@.@.$.$.$.$.$.$.$.$.",
"@.@.@.@.@.@.@.@.@.@.@.@.@.@.@.@.@.@.@.@.@.@.@.@.@.@.@.@.@.@.@.@.@.@.@.= . $ $ $ $ $ $ $ . . 8 y 8 8 8 8 d 8 ] $.@.@.@.@.@.@.@.@.@.@.@.@.@.@.@.@.@.@.@.@.@.@.@.@.@.@.@.@.@.@.@.@.@.@.@.@.@.@.@.@.@.@.@.@.@.@.@.@.@.@.@.@.@.@.@.@.@.@.@.@.@.@.@.@.@.@.@.@.@.@.@.@.@.@.@.@.@.@.@.@.@.@.@.@.@.@.@.@.@.@.@.@.@.@.@.@.@.@.@.@.@.@.@.@.@.@.@.@.@.@.@.@.@.@.@.@.@.@.@.@.@.=.=.@.! ! ! ! ! H ( D +     X   8 D./.R.R.W.W.D.f.6.6.8.8.8.8.8.=.e.G.G.@   X X X X X x J ( J ! ! ! ! ! ! ! ! ! ! ! ! ! ! ! ! U U U U U U U U U U U U U U U U U U U U U U U U U U U U U U U U U U U U U U U U U U U U U U U U U U U U U U U U U U U U U U U U U U U U ! J M M j . . $ $ $ $ $ .     } .XE.V.@.@.@.@.@.@.@.@.@.@.@.@.@.@.@.@.@.@.@.@.@.@.@.@.@.@.@.@.@.@.@.@.@.@.@.@.@.@.@.@.@.@.@.@.@.@.@.@.@.@.@.@.@.@.@.@.@.@.@.@.@.@.@.@.@.@.@.@.@.@.@.@.@.@.*.=.8.r.r.9.9.r.r.f.f.f.f.g.r.6.m.{..X}.{.{.{._._.Z   X X + ] x.O.&.=.` = $ $ $ $ $ $ . B b.g.j.j.g.6.@.@.@.@.@.@.@.@.@.@.@.@.@.@.@.@.@.@.@.@.@.@.@.@.@.@.@.@.@.@.@.@.@.@.@.@.@.@.@.@.@.@.@.@.@.@.@.@.@.@.@.@.@.@.@.@.@.@.@.@.@.@.@.@.@.@.@.@.@.@.@.@.@.@.@.@.@.@.@.@.@.@.@.@.@.@.@.@.@.@.@.@.@.@.@.@.@.@.@.@.@.@.@.@.@.@.@.@.@.@.@.@.@.@.@.@.@.@.@.@.@.@.@.@.@.@.@.@.@.@.@.@.@.@.@.@.@.@.@.@.$.$.$.$.$.$.$.$.",
"@.@.@.@.@.@.@.@.@.@.@.@.@.@.@.@.@.@.@.@.@.@.@.@.@.@.@.@.@.@.@.@.@.@.@.= . $ $ $ $ $ $ $ . . 8 y 8 8 i 8 d 8 ' *.@.@.@.@.@.@.@.@.@.@.@.@.@.@.@.@.@.@.@.@.@.@.@.@.@.@.@.@.@.@.@.@.@.@.@.@.@.@.@.@.@.@.@.@.@.@.@.@.@.@.@.@.@.@.@.@.@.@.@.@.@.@.@.@.@.@.@.@.@.@.@.@.@.@.@.@.@.@.@.@.@.@.@.@.@.@.@.@.@.@.@.@.@.@.@.@.@.@.@.@.@.@.@.@.@.@.@.@.@.@.@.@.@.@.@.@.@.@.@.@.$.@. .( ! ! ! ! J ' x @         D U./.R.E.R.Y.m.5.6.w.w.8.8.8.8.r.9.6.*.D.=.  X X X X X X A J ^ ! ! ! ! ! ! ! ! ! ! ! ! ! ! ! ! U U U U U U U U U U U U U U U U U U U U U U U U U U U U U U U U U U U U U U U U U U U U U U U U U U U U U U U U U U U U U U U U U U U U ! J M x j . . $ $ $ $ $ .   g T.G.G.g.@.@.@.@.@.@.@.@.@.@.@.@.@.@.@.@.@.@.@.@.@.@.@.@.@.@.@.@.@.@.@.@.@.@.@.@.@.@.@.@.@.@.@.@.@.@.@.@.@.@.@.@.@.@.@.@.@.@.@.@.@.@.@.@.@.@.@.@.@.@.@.@.@.@.@.@.*.=.8.f.g.f.r.r.a.f.f.f.f.f.r.c.).}.|.{._.|.|.}.z   + X + O.r.O.&.` = $ $ $ $ $ $ . B b.g.j.j.g.6.@.@.@.@.@.@.@.@.@.@.@.@.@.@.@.@.@.@.@.@.@.@.@.@.@.@.@.@.@.@.@.@.@.@.@.@.@.@.@.@.@.@.@.@.@.@.@.@.@.@.@.@.@.@.@.@.@.@.@.@.@.@.@.@.@.@.@.@.@.@.@.@.@.@.@.@.@.@.@.@.@.@.@.@.@.@.@.@.@.@.@.@.@.@.@.@.@.@.@.@.@.@.@.@.@.@.@.@.@.@.@.@.@.@.@.@.@.@.@.@.@.@.@.@.@.@.@.@.@.@.@.@.@.@.@.@.@.@.@.@.$.$.$.$.$.$.$.$.",
"@.@.@.@.@.@.@.@.@.@.@.@.@.@.@.@.@.@.@.@.@.@.@.@.@.@.@.@.@.@.@.@.@.@.@.= . $ $ $ $ $ $ $ . . r e 8 8 8 8 d 8 ' *.@.@.@.@.@.@.@.@.@.@.@.@.@.@.@.@.@.@.@.@.@.@.@.@.@.@.@.@.@.@.@.@.@.@.@.@.@.@.@.@.@.@.@.@.@.@.@.@.@.@.@.@.@.@.@.@.@.@.@.@.@.@.@.@.@.@.@.@.@.@.@.@.@.@.@.@.@.@.@.@.@.@.@.@.@.@.@.@.@.@.@.@.@.@.@.@.@.@.@.@.@.@.@.@.@.@.@.@.@.@.@.@.@.@.@.@.@.@.@.@.@.] ( ^ ! ! ! ! ! x X   + X   ] R./.R.W./.G.g.=.6.6.8.6.6.8.8.8.=.w.9.6.=.c.^   X X X X   @ A ! ! ! ! ! ! ! ! ! ! ! ! ! ! ! ! ! U U U U U U U U U U U U U U U U U U U U U U U U U U U U U U U U U U U U U U U U U U U U U U U U U U U U U U U U U U U U U U U U U U U U ! J M x j . . $ $ $ $ $     F Y.c.Y.j.*.@.@.@.@.@.@.@.@.@.@.@.@.@.@.@.@.@.@.@.@.@.@.@.@.@.@.@.@.@.@.@.@.@.@.@.@.@.@.@.@.@.@.@.@.@.@.@.@.@.@.@.@.@.@.@.@.@.@.@.@.@.@.@.@.@.@.@.@.@.@.@.@.@.@.@.@.@.=.6.r.f.f.f.r.r.r.f.f.r.g.9.c.)._._.|.{.).}._.Z   + X 3 =.6.@.] = $ $ $ $ $ $ . S b.h.j.j.g.6.@.@.@.@.@.@.@.@.@.@.@.@.@.@.@.@.@.@.@.@.@.@.@.@.@.@.@.@.@.@.@.@.@.@.@.@.@.@.@.@.@.@.@.@.@.@.@.@.@.@.@.@.@.@.@.@.@.@.@.@.@.@.@.@.@.@.@.@.@.@.@.@.@.@.@.@.@.@.@.@.@.@.@.@.@.@.@.@.@.@.@.@.@.@.@.@.@.@.@.@.@.@.@.@.@.@.@.@.@.@.@.@.@.@.@.@.@.@.@.@.@.@.@.@.@.@.@.@.@.@.@.@.@.@.@.@.@.@.@.@.$.$.$.$.$.$.$.$.",
"@.@.@.@.@.@.@.@.@.@.@.@.@.@.@.@.@.@.@.@.@.@.@.@.@.@.@.@.@.@.@.@.@.@.#.= . $ $ $ $ $ $ $ . . r e 8 8 8 8 d 8 ' *.@.@.@.@.@.@.@.@.@.@.@.@.@.@.@.@.@.@.@.@.@.@.@.@.@.@.@.@.@.@.@.@.@.@.@.@.@.@.@.@.@.@.@.@.@.@.@.@.@.@.@.@.@.@.@.@.@.@.@.@.@.@.@.@.@.@.@.@.@.@.@.@.@.@.@.@.@.@.@.@.@.@.@.@.@.@.@.@.@.@.@.@.@.@.@.@.@.@.@.@.@.@.@.@.@.@.@.@.@.@.@.@.@.@.@.@.@.@.@.@.' U U ' ! ! ! ! f @ X     3 6./.(.U.W.E.C.e.=.e.6.=.5.f.8.8.8.6.6.8.e.8.8.6.w.9 X X X X X   @ J ! ! ! ! U U U U ! ! ! ! ! ! ! ! U U U U U U U U U U U U U U U U U U U U U U U U U U U U U U U U U U U U U U U U U U U U U U U U U U U U U U U U U U U U U U U U U U U U ! J M x j . . . $ $ $ $ . . A Y.G.U.g.@.@.@.@.@.@.@.@.@.@.@.@.@.@.@.@.@.@.@.@.@.@.@.@.@.@.@.@.@.@.@.@.@.@.@.@.@.@.@.@.@.@.@.@.@.@.@.@.@.@.@.@.@.@.@.@.@.@.@.@.@.@.@.@.@.@.@.@.@.@.@.@.@.@.@.@.@.$.@.@.@.6.e.f.f.f.r.r.r.g.8.r.9.c.)..X{.{.).}.|._.Z   + X 3 &.6.] = $ $ $ $ $ $ . S c.g.j.j.g.6.@.@.@.@.@.@.@.@.@.@.@.@.@.@.@.@.@.@.@.@.@.@.@.@.@.@.@.@.@.@.@.@.@.@.@.@.@.@.@.@.@.@.@.@.@.@.@.@.@.@.@.@.@.@.@.@.@.@.@.@.@.@.@.@.@.@.@.@.@.@.@.@.@.@.@.@.@.@.@.@.@.@.@.@.@.@.@.@.@.@.@.@.@.@.@.@.@.@.@.@.@.@.@.@.@.@.@.@.@.@.@.@.@.@.@.@.@.@.@.@.@.@.@.@.@.@.@.@.@.@.@.@.@.@.@.@.@.@.@.@.$.$.$.$.$.$.$.$.",
"@.@.@.@.@.@.@.@.@.@.@.@.@.@.@.@.@.@.@.@.@.@.@.@.@.@.@.@.@.@.@.@.@.#.#.= . $ $ $ $ $ $ $ . . 6 e 8 8 8 8 d 8 ] *.@.@.@.@.@.@.@.@.@.@.@.@.@.@.@.@.@.@.@.@.@.@.@.@.@.@.@.@.@.@.@.@.@.@.@.@.@.@.@.@.@.@.@.@.@.@.@.@.@.@.@.@.@.@.@.@.@.@.@.@.@.@.@.@.@.@.@.@.@.@.@.@.@.@.@.@.@.@.@.@.@.@.@.@.@.@.@.@.@.@.@.@.@.@.@.@.@.@.@.@.@.@.@.@.@.@.@.@.@.@.@.@.@.@.@.@.@.=.@.^ ! ! ! ! J U ( 7   @   X 7 c.(.E.Y./.R.g.6.8.8.5.O.U ( 5.f.6.=.6.8.8.8.8.0.=.e.@.  X +   X     3 ! J J ( U U U U U U U U ! ! ! ! U U U U U U U U U U U U U U U U U U U U U U U U U U U U U U U U U U U U U U U U U U U U U U U U U U U U U U U U U U U U U U U U U U U U ! H M x n . . . $ $ $ $ $ . N Y.G.L.l.@.@.@.@.@.@.@.@.@.@.@.@.@.@.@.@.@.@.@.@.@.@.@.@.@.@.@.@.@.@.@.@.@.@.@.@.@.@.@.@.@.@.@.@.@.@.@.@.@.@.@.@.@.@.@.@.@.@.@.@.@.@.@.@.@.@.@.@.@.@.@.@.@.@.@.@.@.@.@.@.@.@.$.6.r.g.f.r.r.r.r.9.9.8.g.`..X_.}._._._.|.Z X +   5 6.) = $ $ $ $ $ $ . S k.g.g.g.c.8.@.@.@.@.@.@.@.@.@.@.@.@.@.@.@.@.@.@.@.@.@.@.@.@.@.@.@.@.@.@.@.@.@.@.@.@.@.@.@.@.@.@.@.@.@.@.@.@.@.@.@.@.@.@.@.@.@.@.@.@.@.@.@.@.@.@.@.@.@.@.@.@.@.@.@.@.@.@.@.@.@.@.@.@.@.@.@.@.@.@.@.@.@.@.@.@.@.@.@.@.@.@.@.@.@.@.@.@.@.@.@.@.@.@.@.@.@.@.@.@.@.@.@.@.@.@.@.@.@.@.@.@.@.@.@.@.@.@.@.@.$.$.$.$.$.$.$.$.",
"@.@.@.@.@.@.@.@.@.@.@.@.@.@.@.@.@.@.@.@.@.@.@.@.@.@.@.@.@.@.@.@.@.#.#.= . $ $ $ $ $ $ $ . . 6 e 8 8 8 8 d 8 ] *.@.@.@.@.@.@.@.@.@.@.@.@.@.@.@.@.@.@.@.@.@.@.@.@.@.@.@.@.@.@.@.@.@.@.@.@.@.@.@.@.@.@.@.@.@.@.@.@.@.@.@.@.@.@.@.@.@.@.@.@.@.@.@.@.@.@.@.@.@.@.@.@.@.@.@.@.@.@.@.@.@.@.@.@.@.@.@.@.@.@.@.@.@.@.@.@.@.@.@.@.@.@.@.@.@.@.@.@.@.@.@.@.@.@.@.@.=.O.( ^ ! ! ! ! J ( 3 X   X X f Y./.Y.W.W.D.r.6.8.e.e.( D ! ^ U @.8.8.6.8.8.8.8.6.w.<.8.'   X     X     t ' J ^ U J J J U U U U ! ! ! ! U U U U U U U U U U U U U U U U U U U U U U U U U U U U U U U U U U U U U U U U U U U U U U U U U U U U U U U U U U U U U U U U U U U U ! H x x n . . . . $ $ $ $ . N Y.G.L.l.@.@.@.@.@.@.@.@.@.@.@.@.@.@.@.@.@.@.@.@.@.@.@.@.@.@.@.@.@.@.@.@.@.@.@.@.@.@.@.@.@.@.@.@.@.@.@.@.@.@.@.@.@.@.@.@.@.@.@.@.@.@.@.@.@.@.@.@.@.@.@.@.@.@.@.@.@.@.@.@.@.@.@.$.=.6.e.f.g.f.r.r.9.r.r.g.`..X).{._._..X|.A X #   f } $   * $ $ $ $ . S k.g.g.g.c.9.@.@.@.@.@.@.@.@.@.@.@.@.@.@.@.@.@.@.@.@.@.@.@.@.@.@.@.@.@.@.@.@.@.@.@.@.@.@.@.@.@.@.@.@.@.@.@.@.@.@.@.@.@.@.@.@.@.@.@.@.@.@.@.@.@.@.@.@.@.@.@.@.@.@.@.@.@.@.@.@.@.@.@.@.@.@.@.@.@.@.@.@.@.@.@.@.@.@.@.@.@.@.@.@.@.@.@.@.@.@.@.@.@.@.@.@.@.@.@.@.@.@.@.@.@.@.@.@.@.@.@.@.@.@.@.@.@.@.@.@.$.$.$.$.$.$.$.$.",
"@.@.@.@.@.@.@.@.@.@.@.@.@.@.@.@.@.@.@.@.@.@.@.@.@.@.@.@.@.@.@.@.@.@.#.= . $ $ $ $ $ $ $ . . 6 e 8 8 8 8 d 8 ] *.@.@.@.@.@.@.@.@.@.@.@.@.@.@.@.@.@.@.@.@.@.@.@.@.@.@.@.@.@.@.@.@.@.@.@.@.@.@.@.@.@.@.@.@.@.@.@.@.@.@.@.@.@.@.@.@.@.@.@.@.@.@.@.@.@.@.@.@.@.@.@.@.@.@.@.@.@.@.@.@.@.@.@.@.@.@.@.@.@.@.@.@.@.@.@.@.@.@.@.@.@.@.@.@.@.@.@.@.@.@.@.@.@.@.@.@.@.( U ^ ! ! ! ! J 3   X     ^ /.W.U./.R.m.e.=.e.8.e.' J J J H J ^ ] =.r.8.8.8.8.6.w.5.8.9.H         X     D @.H ! J J J U U U U ! ! ! ! U U U U U U U U U U U U U U U U U U U U U U U U U U U U U U U U U U U U U U U U U U U U U U U U U U U U U U U U U U U U U U U U U U U Y ~ H x M n . . . . $ $ $ $ . N Y.G.G.l.@.@.@.@.@.@.@.@.@.@.@.@.@.@.@.@.@.@.@.@.@.@.@.@.@.@.@.@.@.@.@.@.@.@.@.@.@.@.@.@.@.@.@.@.@.@.@.@.@.@.@.@.@.@.@.@.@.@.@.@.@.@.@.@.@.@.@.@.@.@.@.@.@.@.@.@.@.@.@.@.$.$.$.@.@.@.=.8.r.f.r.r.a.e.g.9.g./.|.).}._._.{.}.!   @ # 6 $ ; ; $ $ $ $ . F k.h.g.g.c.f.@.@.@.@.@.@.@.@.@.@.@.@.@.@.@.@.@.@.@.@.@.@.@.@.@.@.@.@.@.@.@.@.@.@.@.@.@.@.@.@.@.@.@.@.@.@.@.@.@.@.@.@.@.@.@.@.@.@.@.@.@.@.@.@.@.@.@.@.@.@.@.@.@.@.@.@.@.@.@.@.@.@.@.@.@.@.@.@.@.@.@.@.@.@.@.@.@.@.@.@.@.@.@.@.@.@.@.@.@.@.@.@.@.@.@.@.@.@.@.@.@.@.@.@.@.@.@.@.@.@.@.@.@.@.@.@.@.@.@.@.$.$.$.$.$.$.$.$.",
"@.@.@.@.@.@.@.@.@.@.@.@.@.@.@.@.@.@.@.@.@.@.@.@.@.@.@.@.@.@.@.@.@.@.#.= . $ $ $ $ $ $ $ . . 6 e 8 8 8 8 d 8 ] *.@.@.@.@.@.@.@.@.@.@.@.@.@.@.@.@.@.@.@.@.@.@.@.@.@.@.@.@.@.@.@.@.@.@.@.@.@.@.@.@.@.@.@.@.@.@.@.@.@.@.@.@.@.@.@.@.@.@.@.@.@.@.@.@.@.@.@.@.@.@.@.@.@.@.@.@.@.@.@.@.@.@.@.@.@.@.@.@.@.@.@.@.@.@.@.@.@.@.@.@.@.@.@.@.@.@.@.@.@.@.@.@.@.@.@.@.^ ! ^ ( ^ ! ! ! 2         @.(.E.W./.E.g.6.6.8.6.5.( J ^ ^ U J J H J  .=.8.8.8.8.0.5.w.6.e.5.h         X   X ^ @.J U J J U U U U ! ! ! ! U U U U U U U U U U U U U U U U U U U U U U U U U U U U U U U U U U U U U U U U U U U U U U U U U U U U U U U U U U U U U U U U U U U Y ! H x x v . . . . $ $ $ $ . N Y.G.G.l.@.@.@.@.@.@.@.@.@.@.@.@.@.@.@.@.@.@.@.@.@.@.@.@.@.@.@.@.@.@.@.@.@.@.@.@.@.@.@.@.@.@.@.@.@.@.@.@.@.@.@.@.@.@.@.@.@.@.@.@.@.@.@.@.@.@.@.@.@.@.@.@.@.@.@.@.@.@.@.@.@.*.$.@.@.@.@.$.=.w.f.r.a.9.e.r.8.c./..X_. X}.).{.{.!     o   * * $ $ $ $ . S k.h.g.g.c.f.&.&.&.@.@.@.@.@.@.@.@.@.@.@.@.@.@.@.@.@.@.@.@.@.@.@.@.@.@.@.@.@.@.@.@.@.@.@.@.@.@.@.@.@.@.@.@.@.@.@.@.@.@.@.@.@.@.@.@.@.@.@.@.@.@.@.@.@.@.@.@.@.@.@.@.@.@.@.@.@.@.@.@.@.@.@.@.@.@.@.@.@.@.@.@.@.@.@.@.@.@.@.@.@.@.@.@.@.@.@.@.@.@.@.@.@.@.@.@.@.@.@.@.@.@.@.@.@.@.@.@.@.@.@.@.@.@.@.@.@.$.$.$.$.$.$.$.$.",
"@.@.@.@.@.@.@.@.@.@.@.@.@.@.@.@.@.@.@.@.@.@.@.@.@.@.@.@.@.@.@.@.@.@.@.= . $ $ $ $ $ $ $ . . r e 8 8 8 8 d 8 ] *.@.@.@.@.@.@.@.@.@.@.@.@.@.@.@.@.@.@.@.@.@.@.@.@.@.@.@.@.@.@.@.@.@.@.@.@.@.@.@.@.@.@.@.@.@.@.@.@.@.@.@.@.@.@.@.@.@.@.@.@.@.@.@.@.@.@.@.@.@.@.@.@.@.@.@.@.@.@.@.@.@.@.@.@.@.@.@.@.@.@.@.@.@.@.@.@.@.@.@.@.@.@.@.@.@.@.@.@.*.@.@.@.@.@.] J ( ' H ^ J ^ A         3 g.).W.W.E.Y.j.6.e.e.e.=.] ^ ! ^ U ! U U J J J J *.e.e.5.8.8.8.8.5.8.8.t       X       O.6.! H ! U U U U ! ! ! ! U U U U U U U U U U U U U U U U U U U U U U U U U U U U U U U U U U U U U U U U U U U U U U U U U U U U U U U U U U U U U U U U U U U U ! H x x v . . . . $ $ $ $ . n Y.G.I.g.@.@.@.@.@.@.@.@.@.@.@.@.@.@.@.@.@.@.@.@.@.@.@.@.@.@.@.@.@.@.@.@.@.@.@.@.@.@.@.@.@.@.@.@.@.@.@.@.@.@.@.@.@.@.@.@.@.@.@.@.@.@.@.@.@.@.@.@.@.@.@.@.@.@.@.@.@.@.@.@.@.@.$.@.@.@.@.@.@.*.=.e.r.f.e.e.f.f.g.R.{.}.{.{.{.[.{._   O . . ; $ $ $ $ . F k.h.l.l.l.l.&.&.2.&.@.@.@.@.@.@.@.@.@.@.@.@.@.@.@.@.@.@.@.@.@.@.@.@.@.@.@.@.@.@.@.@.@.@.@.@.@.@.@.@.@.@.@.@.@.@.@.@.@.@.@.@.@.@.@.@.@.@.@.@.@.@.@.@.@.@.@.@.@.@.@.@.@.@.@.@.@.@.@.@.@.@.@.@.@.@.@.@.@.@.@.@.@.@.@.@.@.@.@.@.@.@.@.@.@.@.@.@.@.@.@.@.@.@.@.@.@.@.@.@.@.@.@.@.@.@.@.@.@.@.@.@.@.@.@.@.$.$.$.$.$.$.$.$.",
"@.@.@.@.@.@.@.@.@.@.@.@.@.@.@.@.@.@.@.@.@.@.@.@.@.@.@.@.@.@.@.@.@.@.@.= . $ $ $ $ $ $ $ . . 6 e 8 8 8 8 d 8 ] *.@.@.@.@.@.@.@.@.@.@.@.@.@.@.@.@.@.@.@.@.@.@.@.@.@.@.@.@.@.@.@.@.@.@.@.@.@.@.@.@.@.@.@.@.@.@.@.@.@.@.@.@.@.@.@.@.@.@.@.@.@.@.@.@.@.@.@.@.@.@.@.@.@.@.@.@.@.@.@.@.@.@.@.@.@.@.@.@.@.@.@.@.@.@.@.@.@.@.@.@.@.@.@.@.@.@.@.@.@.@.$.*.@.] U U ^ J J H ] A     @   h A.).U.W.W.A.e.8.8.5.w.6.( ^ ! ^ ! U U U U U U U U ( @.=.w.6.8.8.8.e.5.e.@.X X     X @   @ @.e.! J U U U U ! ! ! ! U U U U U U U U U U U U U U U U U U U U U U U U U U U U U U U U U U U U U U U U U U U U U U U U U U U U U U U U U U U U U U U U U U U U U H z x x o . . . . $ $ $ . n Y.G.I.g.@.@.@.@.@.@.@.@.@.@.@.@.@.@.@.@.@.@.@.@.@.@.@.@.@.@.@.@.@.@.@.@.@.@.@.@.@.@.@.@.@.@.@.@.@.@.@.@.@.@.@.@.@.@.@.@.@.@.@.@.@.@.@.@.@.@.@.@.@.@.@.@.@.@.@.@.@.@.@.@.@.@.@.@.@.@.@.@.@.@.$.*.=.e.f.f.6.g.g.g.R. X_._.{. X{. XJ O . . . $ $ $ $ . F k.h.l.l.l.l.=.&.*.&.&.@.@.@.@.@.@.@.@.@.@.@.@.@.@.@.@.@.@.@.@.@.@.@.@.@.@.@.@.@.@.@.@.@.@.@.@.@.@.@.@.@.@.@.@.@.@.@.@.@.@.@.@.@.@.@.@.@.@.@.@.@.@.@.@.@.@.@.@.@.@.@.@.@.@.@.@.@.@.@.@.@.@.@.@.@.@.@.@.@.@.@.@.@.@.@.@.@.@.@.@.@.@.@.@.@.@.@.@.@.@.@.@.@.@.@.@.@.@.@.@.@.@.@.@.@.@.@.@.@.@.@.@.@.@.@.$.$.$.$.$.$.$.$.",
"@.@.@.@.@.@.@.@.@.@.@.@.@.@.@.@.@.@.@.@.@.@.@.@.@.@.@.@.@.@.@.@.@.@.@.= . . $ $ $ $ $ $ . . r e 8 8 8 8 d 8 ] *.@.@.@.@.@.@.@.@.@.@.@.@.@.@.@.@.@.@.@.@.@.@.@.@.@.@.@.@.@.@.@.@.@.@.@.@.@.@.@.@.@.@.@.@.@.@.@.@.@.@.@.@.@.@.@.@.@.@.@.@.@.@.@.@.@.@.@.@.@.@.@.@.@.@.@.@.@.@.@.@.@.@.@.@.@.@.@.@.@.@.@.@.@.@.@.@.@.@.@.@.@.@.@.@.@.@.@.@.@.@.$.*.] U J ^ ^ J J ] x     @ X D R.W.U.W.R.g.6.6.r.6.<.=.] J ! ^ ! U U U U U U U U U ! U ] =.8.6.8.8.6.r.@.f.!   X           3 5.e.] ^ U U ! ! ! ! ! U U U U U U U U U U U U U U U U U U U U U U U U U U U U U U U U U U U U U U U U U U U U U U U U U U U U U U U U U U U U U U U U U U U U U H x x j . . . . . $ $ $ . n Y.G.I.g.@.@.@.@.@.@.@.@.@.@.@.@.@.@.@.@.@.@.@.@.@.@.@.@.@.@.@.@.@.@.@.@.@.@.@.@.@.@.@.@.@.@.@.@.@.@.@.@.@.@.@.@.@.@.@.@.@.@.@.@.@.@.@.@.@.@.@.@.@.@.@.@.@.@.@.@.@.@.@.@.@.@.@.@.@.@.@.@.@.@.@.@.$.@.6.r.r.g.r.g.g.G..X_.{._.{.|.[.`   * * $ $ $ $ . F k.k.l.l.l.l.5.&.&.&.&.@.@.@.@.@.@.@.@.@.@.@.@.@.@.@.@.@.@.@.@.@.@.@.@.@.@.@.@.@.@.@.@.@.@.@.@.@.@.@.@.@.@.@.@.@.@.@.@.@.@.@.@.@.@.@.@.@.@.@.@.@.@.@.@.@.@.@.@.@.@.@.@.@.@.@.@.@.@.@.@.@.@.@.@.@.@.@.@.@.@.@.@.@.@.@.@.@.@.@.@.@.@.@.@.@.@.@.@.@.@.@.@.@.@.@.@.@.@.@.@.@.@.@.@.@.@.@.@.@.@.@.@.@.@.@.$.$.$.$.$.$.$.$.",
"@.@.@.@.@.@.@.@.@.@.@.@.@.@.@.@.@.@.@.@.@.@.@.@.@.@.@.@.@.@.@.@.@.@.@.= . . $ $ $ $ $ $ . . e y 8 8 8 8 d 8 ] *.@.@.@.@.@.@.@.@.@.@.@.@.@.@.@.@.@.@.@.@.@.@.@.@.@.@.@.@.@.@.@.@.@.@.@.@.@.@.@.@.@.@.@.@.@.@.@.@.@.@.@.@.@.@.@.@.@.@.@.@.@.@.@.@.@.@.@.@.@.@.@.@.@.@.@.@.@.@.@.@.@.@.@.@.@.@.@.@.@.@.@.@.@.@.@.@.@.@.@.@.@.@.@.@.@.@.@.$.*.$.@.@.H U ^ ^ J U ( h     X   ] W.R.W.(.A.e.5.8.e.5.r.=.U D ( ^ ! U U U U U U U U U ! ^ ^ H J *.8.6.8.8.6.8.e.r.k X X           5 5.5.] ^ U ! ! ! ! ! U U U U U U U U U U U U U U U U U U U U U U U U U U U U U U U U U U U U U U U U U U U U U U U U U U U U U U U U U U U U U U U U U U U U U D x x j o . . . . $ $ $ . n Y.G.G.g.@.@.@.@.@.@.@.@.@.@.@.@.@.@.@.@.@.@.@.@.@.@.@.@.@.@.@.@.@.@.@.@.@.@.@.@.@.@.@.@.@.@.@.@.@.@.@.@.@.@.@.@.@.@.@.@.@.@.@.@.@.@.@.@.@.@.@.@.@.@.@.@.@.@.@.@.@.@.@.@.@.@.@.@.@.@.@.@.@.@.@.@.@.=.@.@.6.8.g.g.f.f.G. X|.{.[.)..XW.. . $ $ $ $ $ . F k.k.l.l.l.l.0.&.@.&.&.@.@.@.@.@.@.@.@.@.@.@.@.@.@.@.@.@.@.@.@.@.@.@.@.@.@.@.@.@.@.@.@.@.@.@.@.@.@.@.@.@.@.@.@.@.@.@.@.@.@.@.@.@.@.@.@.@.@.@.@.@.@.@.@.@.@.@.@.@.@.@.@.@.@.@.@.@.@.@.@.@.@.@.@.@.@.@.@.@.@.@.@.@.@.@.@.@.@.@.@.@.@.@.@.@.@.@.@.@.@.@.@.@.@.@.@.@.@.@.@.@.@.@.@.@.@.@.@.@.@.@.@.@.@.@.$.$.$.$.$.$.$.$.",
"@.@.@.@.@.@.@.@.@.@.@.@.@.@.@.@.@.@.@.@.@.@.@.@.@.@.@.@.@.@.@.@.@.@.@.= . $ $ $ $ $ $ $ . . 6 e 8 8 8 8 d 8 ' *.@.@.@.@.@.@.@.@.@.@.@.@.@.@.@.@.@.@.@.@.@.@.@.@.@.@.@.@.@.@.@.@.@.@.@.@.@.@.@.@.@.@.@.@.@.@.@.@.@.@.@.@.@.@.@.@.@.@.@.@.@.@.@.@.@.@.@.@.@.@.@.@.@.@.@.@.@.@.@.@.@.@.@.@.@.@.@.@.@.@.@.@.@.@.@.@.@.@.@.@.@.@.@.@.*.*.@.@.=.O.( U J ^ J D ! ( 7 X X X 3 6.`.E.E.W.D.r.6.8.8.e.8.5.! ! ! ! ! ! U U U ! ! ! ! ! ! ! ! ! ! ! H  .6.r.e.8.6.8.6.6.3   X       X   ( r.6.( ! ! U U U U U U U U U U U U U U U U U U U U U U U U U U U U U U U U U U U U U U U U U U U U U U U U U U U U U U U U U U U U U U U U U U U U U U U U ! A x j j o . . . . $ $ $ . A Y.D.G.g.@.*.&.@.@.@.@.@.@.@.@.@.@.@.@.@.@.@.@.@.@.@.@.@.@.@.@.@.@.@.@.@.@.@.@.@.@.@.@.@.@.@.@.@.@.@.@.@.@.@.@.@.@.@.@.@.@.@.@.@.@.@.@.@.@.@.@.@.@.@.@.@.@.@.@.@.@.@.@.@.@.@.@.@.@.@.@.@.@.@.@.@.@.@.@.@.$.=.5.e.f.g.e.G.}.[..X_..XW.= . $ $ $ $ $ . F k.g.l.l.l.l.w.&.&.*.*.$.$.$.$.$.$.$.@.@.@.@.@.@.@.@.@.@.@.@.@.@.@.@.@.@.@.@.@.@.@.@.@.@.@.@.@.@.@.@.@.@.@.@.@.@.@.@.@.@.@.@.@.@.@.@.@.@.@.@.@.@.@.@.@.@.@.@.@.@.@.@.@.@.@.@.@.@.@.@.@.@.@.@.@.@.@.@.@.@.@.@.@.@.@.@.@.@.@.@.@.@.@.@.@.@.@.@.@.@.@.@.@.@.@.@.@.@.@.@.@.@.@.@.@.@.@.@.@.@.@.@.@.@.@.@.$.$.$.$.$.$.$.$.",
"@.@.@.@.@.@.@.@.@.@.@.@.@.@.@.@.@.@.@.@.@.@.@.@.@.@.@.@.@.@.@.@.@.@.@.= . $ $ $ $ $ $ $ . . 6 e 8 8 8 8 d 8 ' *.@.@.@.@.@.@.@.@.@.@.@.@.@.@.@.@.@.@.@.@.@.@.@.@.@.@.@.@.@.@.@.@.@.@.@.@.@.@.@.@.@.@.@.@.@.@.@.@.@.@.@.@.@.@.@.@.@.@.@.@.@.@.@.@.@.@.@.@.@.@.@.@.@.@.@.@.@.@.@.@.@.@.@.@.@.@.@.@.@.@.@.@.@.@.@.@.@.@.@.@.@.@.@.@.@.@.@.$.O.( U ^ U J H U  .5 X X X 3 g.).Y.(.U.g.r.6.8.8.e.e.=.' ! ! ! ! ! ! ! U U ! ! ! ! ! ! ! ! ! ! ! U ( @.=.e.e.8.6.9.8.=.@ X       X   ] r.6.( ! U U U U U U U U U U U U U U U U U U U U U U U U U U U U U U U U U U U U U U U U U U U U U U U U U U U U U U U U U U U U U U U U U U U U U U U U U ! A x x j o   . . . $ $ $ . A Y.F.G.g.@.*.&.@.@.@.@.@.@.@.@.@.@.@.@.@.@.@.@.@.@.@.@.@.@.@.@.@.@.@.@.@.@.@.@.@.@.@.@.@.@.@.@.@.@.@.@.@.@.@.@.@.@.@.@.@.@.@.@.@.@.@.@.@.@.@.@.@.@.@.@.@.@.@.@.@.@.@.@.@.@.@.@.@.@.@.@.@.@.@.@.@.@.@.@.@.@.@.*.=.5.r.f.8.I.[.{.}..XW.= . $ $ $ $ $ . F c.g.l.l.l.l.w.&.&.*.*.$.$.$.$.$.$.$.@.@.@.@.@.@.@.@.@.@.@.@.@.@.@.@.@.@.@.@.@.@.@.@.@.@.@.@.@.@.@.@.@.@.@.@.@.@.@.@.@.@.@.@.@.@.@.@.@.@.@.@.@.@.@.@.@.@.@.@.@.@.@.@.@.@.@.@.@.@.@.@.@.@.@.@.@.@.@.@.@.@.@.@.@.@.@.@.@.@.@.@.@.@.@.@.@.@.@.@.@.@.@.@.@.@.@.@.@.@.@.@.@.@.@.@.@.@.@.@.@.@.@.@.@.@.@.@.$.$.$.$.$.$.$.$.",
"@.@.@.@.@.@.@.@.@.@.@.@.@.@.@.@.@.@.@.@.@.@.@.@.@.@.@.@.@.@.@.@.@.@.@.= . $ $ $ $ $ $ $ . . 6 e 8 8 8 8 d 8 ' *.@.@.@.@.@.@.@.@.@.@.@.@.@.@.@.@.@.@.@.@.@.@.@.@.@.@.@.@.@.@.@.@.@.@.@.@.@.@.@.@.@.@.@.@.@.@.@.@.@.@.@.@.@.@.@.@.@.@.@.@.@.@.@.@.@.@.@.@.@.@.@.@.@.@.@.@.@.@.@.@.@.@.@.@.@.@.@.@.@.@.@.@.@.@.@.@.@.@.@.@.@.@.@.@.@.@.@.O.( J ! ^ J ^ ' ( @ X X   d G.(.E.W.U.9.=.6.8.8.8.8.=.] H ! ! ! ! ! ! ! ! ! ! ! ! ! ! ! ! ! ! ! ! ( ! ! ] =.e.e.6.=.e.r. .            O.e.6.( ! ! U U U U U U U U U U U U U U U U U U U U U U U U U U U U U U U U U U U U U U U U U U U U U U U U U U U U U U U U U U U U U U U U U U U U Y U U Y ! A x M j o . . . . $ $ $ . A Y.F.G.g.@.*.&.@.@.@.@.@.@.@.@.@.@.@.@.@.@.@.@.@.@.@.@.@.@.@.@.@.@.@.@.@.@.@.@.@.@.@.@.@.@.@.@.@.@.@.@.@.@.@.@.@.@.@.@.@.@.@.@.@.@.@.@.@.@.@.@.@.@.@.@.@.@.@.@.@.@.@.@.@.@.@.@.@.@.@.@.@.@.@.@.@.@.@.@.@.@.@.@.@.*.*.6.r.w.D. X}..XW.= . $ $ $ $ $ . F c.g.l.l.l.l.w.&.&.*.*.$.$.$.$.$.$.$.@.@.@.@.@.@.@.@.@.@.@.@.@.@.@.@.@.@.@.@.@.@.@.@.@.@.@.@.@.@.@.@.@.@.@.@.@.@.@.@.@.@.@.@.@.@.@.@.@.@.@.@.@.@.@.@.@.@.@.@.@.@.@.@.@.@.@.@.@.@.@.@.@.@.@.@.@.@.@.@.@.@.@.@.@.@.@.@.@.@.@.@.@.@.@.@.@.@.@.@.@.@.@.@.@.@.@.@.@.@.@.@.@.@.@.@.@.@.@.@.@.@.@.@.@.@.@.@.$.$.$.$.$.$.$.$.",
"@.@.@.@.@.@.@.@.@.@.@.@.@.@.@.@.@.@.@.@.@.@.@.@.@.@.@.@.@.@.@.@.@.@.@.= . $ $ $ $ $ $ $ . . 6 e 8 8 8 8 d 8 ' $.@.@.@.@.@.@.@.@.@.@.@.@.@.@.@.@.@.@.@.@.@.@.@.@.@.@.@.@.@.@.@.@.@.@.@.@.@.@.@.@.@.@.@.@.@.@.@.@.@.@.@.@.@.@.@.@.@.@.@.@.@.@.@.@.@.@.@.@.@.@.@.@.@.@.@.@.@.@.@.@.@.@.@.@.@.@.@.@.@.@.@.@.@.@.@.@.@.@.@.@.@.@.@.@.=.@.] ( U ! ^ H ! ] D @   X X J E.W.E.W.A.9.e.e.8.8.8.w.5.' H ^ ! ! ! ! ! ! ! ! ! ! ! ! ! ! ! ! ! ! ! ! U J J ^ ] =.e.e.9.6.8.5.            @.6.6.( ! U U U U U U U U U U U U U U U U U U U U U U U U U U U U U U U U U U U U U U U U U U U U U U U U U U U U U U U U U U U U U U U U U U U U U U U U Y ! A x M j O   . . . $ $ $ . A Y.F.G.g.@.*.&.@.@.@.@.@.@.@.@.@.@.@.@.@.@.@.@.@.@.@.@.@.@.@.@.@.@.@.@.@.@.@.@.@.@.@.@.@.@.@.@.@.@.@.@.@.@.@.@.@.@.@.@.@.@.@.@.@.@.@.@.@.@.@.@.@.@.@.@.@.@.@.@.@.@.@.@.@.@.@.@.@.@.@.@.@.@.@.@.@.@.@.@.@.@.@.@.@.@.]  .=.6.f.I._..X~.- . ; $ $ $ $ . F c.h.l.l.l.l.w.&.&.*.$.$.$.$.$.$.$.$.@.@.@.@.@.@.@.@.@.@.@.@.@.@.@.@.@.@.@.@.@.@.@.@.@.@.@.@.@.@.@.@.@.@.@.@.@.@.@.@.@.@.@.@.@.@.@.@.@.@.@.@.@.@.@.@.@.@.@.@.@.@.@.@.@.@.@.@.@.@.@.@.@.@.@.@.@.@.@.@.@.@.@.@.@.@.@.@.@.@.@.@.@.@.@.@.@.@.@.@.@.@.@.@.@.@.@.@.@.@.@.@.@.@.@.@.@.@.@.@.@.@.@.@.@.@.@.@.$.$.$.$.$.$.$.$.",
"@.@.@.@.@.@.@.@.@.@.@.@.@.@.@.@.@.@.@.@.@.@.@.@.@.@.@.@.@.@.@.@.@.@.@.= . $ $ $ $ $ $ $ . . 6 e 8 8 8 8 d 8 ] $.@.@.@.@.@.@.@.@.@.@.@.@.@.@.@.@.@.@.@.@.@.@.@.@.@.@.@.@.@.@.@.@.@.@.@.@.@.@.@.@.@.@.@.@.@.@.@.@.@.@.@.@.@.@.@.@.@.@.@.@.@.@.@.@.@.@.@.@.@.@.@.@.@.@.@.@.@.@.@.@.@.@.@.@.@.@.@.@.@.@.@.@.@.@.@.@.@.@.@.@.@.@.*.*.@.] ^ J ! J J H ( D +   X X *.W.R.W.Q.z.8.8.8.8.6.e.8.*.W W W E U U U U U U U U U U U U U U U U U U U U U U U U ! ^ =.e.e.=.w.*.          @ *.w.<.( ^ U J J J J U U U U U U U U U U U U U U U U U U U U U U U U U U U U U U U U U U U U U U U U U U U U U U U U U U U U U U U U U U U U U U U U U U U U U x x j v o . . . $ $ $ $ . A Y.D.I.s.&.&.&.@.@.@.@.@.@.$.@.@.@.@.@.@.@.@.@.@.@.@.@.@.@.@.@.@.@.@.@.@.@.@.@.@.@.@.@.@.@.@.@.@.@.@.@.@.@.@.@.@.@.@.@.@.@.@.@.@.@.@.@.@.@.@.@.@.@.@.@.@.@.@.@.@.@.@.@.@.@.@.@.@.@.@.@.@.@.@.@.@.@.@.@.@.@.@.@.@.@.@.@.@.@.=.6.A..X~.. . . $ $ $ $ . I c.h.l.l.l.l.g.=.&.*.@.@.@.@.@.@.@.@.@.@.@.@.@.@.@.@.@.@.@.@.@.@.@.@.@.@.@.@.@.@.@.@.@.@.@.@.@.@.@.@.@.@.@.@.@.@.@.@.@.@.@.@.@.@.@.@.@.@.@.@.@.@.@.@.@.@.@.@.@.@.@.@.@.@.@.@.@.@.@.@.@.@.@.@.@.@.@.@.@.@.@.@.@.@.@.@.@.@.@.@.@.@.@.@.@.@.@.@.@.@.@.@.@.@.@.@.@.@.@.@.@.@.@.@.@.@.@.@.@.@.@.@.@.@.@.@.$.$.$.$.$.$.$.$.",
"@.@.@.@.@.@.@.@.@.@.@.@.@.@.@.@.@.@.@.@.@.@.@.@.@.@.@.@.@.@.@.@.@.@.@.= . $ $ $ $ $ $ $ . . 6 e 8 8 8 8 d 8 ] $.@.@.@.@.@.@.@.@.@.@.@.@.@.@.@.@.@.@.@.@.@.@.@.@.@.@.@.@.@.@.@.@.@.@.@.@.@.@.@.@.@.@.@.@.@.@.@.@.@.@.@.@.@.@.@.@.@.@.@.@.@.@.@.@.@.@.@.@.@.@.@.@.@.@.@.@.@.@.@.@.@.@.@.@.@.@.@.@.@.@.@.@.@.@.@.@.@.@.@.@.@.$.$.@.] ^ J J ! U H ] x   X   @ f.W.W.W.G.r.q.8.8.8.8.6.w.=.J W W W J U U U U U U U U U U U U U U U U U U U U U U U U ! ^ =.e.8.<.e.@.          @ =.e.=.^ ! J J J J J U U U U U U U U U U U U U U U U U U U U U U U U U U U U U U U U U U U U U U U U U U U U U U U U U U U U U U U U U U U U U U U U U U U U U x x j v o   . . $ $ $ $ . A Y.D.I.s.@.&.&.@.@.@.@.@.@.@.@.@.@.@.@.@.@.@.@.@.@.@.@.@.@.@.@.@.@.@.@.@.@.@.@.@.@.@.@.@.@.@.@.@.@.@.@.@.@.@.@.@.@.@.@.@.@.@.@.@.@.@.@.@.@.@.@.@.@.@.@.@.@.@.@.@.@.@.@.@.@.@.@.@.@.@.@.@.@.@.@.@.@.@.@.@.@.@.@.@.@.@.@.@.@.$.O.<.c.Y.- $ $ $ $ $ $ . I b.h.l.l.l.l.g.=.&.*.@.@.@.@.@.@.@.@.@.@.@.@.@.@.@.@.@.@.@.@.@.@.@.@.@.@.@.@.@.@.@.@.@.@.@.@.@.@.@.@.@.@.@.@.@.@.@.@.@.@.@.@.@.@.@.@.@.@.@.@.@.@.@.@.@.@.@.@.@.@.@.@.@.@.@.@.@.@.@.@.@.@.@.@.@.@.@.@.@.@.@.@.@.@.@.@.@.@.@.@.@.@.@.@.@.@.@.@.@.@.@.@.@.@.@.@.@.@.@.@.@.@.@.@.@.@.@.@.@.@.@.@.@.@.@.@.$.$.$.$.$.$.$.$.",
"@.@.@.@.@.@.@.@.@.@.@.@.@.@.@.@.@.@.@.@.@.@.@.@.@.@.@.@.@.@.@.@.@.@.@.= . $ $ $ $ $ $ $ . . 6 e 8 8 8 8 d 8 ] $.@.@.@.@.@.@.@.@.@.@.@.@.@.@.@.@.@.@.@.@.@.@.@.@.@.@.@.@.@.@.@.@.@.@.@.@.@.@.@.@.@.@.@.@.@.@.@.@.@.@.@.@.@.@.@.@.@.@.@.@.@.@.@.@.@.@.@.@.@.@.@.@.@.@.@.@.@.@.@.@.@.@.@.@.@.@.@.@.@.@.@.@.@.@.@.@.@.@.@.@.*.$. .( ^ J J J J ! ] h   @   7 c._.W.W.C.q.8.w.8.8.8.8.8.@.^ J W W J J U U U U U U U U U U U U U U U U U U U U U U U U ! ^ =.e.6.5.e.'           : =.6.@.J U U J J J J U U U U U U U U U U U U U U U U U U U U U U U U U U U U U U U U U U U U U U U U U U U U U U U U U U U U U U U U U U U U U U U U U U U U U M M j j O   . . . $ $ $ . A Y.G.I.s.&.&.&.@.@.@.@.@.@.@.@.@.@.@.@.@.@.@.@.@.@.@.@.@.@.@.@.@.@.@.@.@.@.@.@.@.@.@.@.@.@.@.@.@.@.@.@.@.@.@.@.@.@.@.@.@.@.@.@.@.@.@.@.@.@.@.@.@.@.@.@.@.@.@.@.@.@.@.@.@.@.@.@.@.@.@.@.@.@.@.@.@.@.@.@.@.@.@.@.@.@.@.@.@.@.@.O.O.*.#.& . % $ $ $ $ . I c.g.l.l.l.l.g.*.&.*.@.@.@.@.@.@.@.@.@.@.@.@.@.@.@.@.@.@.@.@.@.@.@.@.@.@.@.@.@.@.@.@.@.@.@.@.@.@.@.@.@.@.@.@.@.@.@.@.@.@.@.@.@.@.@.@.@.@.@.@.@.@.@.@.@.@.@.@.@.@.@.@.@.@.@.@.@.@.@.@.@.@.@.@.@.@.@.@.@.@.@.@.@.@.@.@.@.@.@.@.@.@.@.@.@.@.@.@.@.@.@.@.@.@.@.@.@.@.@.@.@.@.@.@.@.@.@.@.@.@.@.@.@.@.@.@.$.$.$.$.$.$.$.$.",
"@.@.@.@.@.@.@.@.@.@.@.@.@.@.@.@.@.@.@.@.@.@.@.@.@.@.@.@.@.@.@.@.@.@.#.= . $ $ $ $ $ $ $ . . 6 e 8 8 8 8 d 8 ] $.@.@.@.@.@.@.@.@.@.@.@.@.@.@.@.@.@.@.@.@.@.@.@.@.@.@.@.@.@.@.@.@.@.@.@.@.@.@.@.@.@.@.@.@.@.@.@.@.@.@.@.@.@.@.@.@.@.@.@.@.@.@.@.@.@.@.@.@.@.@.@.@.@.@.@.@.@.@.@.@.@.@.@.@.@.@.@.@.@.@.@.@.@.@.@.@.@.@.@.@.=.@.( H J J J D ( J 8       X *._.E.Y.F.w.w.8.6.6.8.8.8.] J H ( W W J J U U U U U U U U U U U U U U U U U U U U U U U U ! ^ =.e.6.6.8.^           2 5.6. .H J J J J J J U U U U U U U U U U U U U U U U U U U U U U U U U U U U U U U U U U U U U U U U U U U U U U U U U U U U U U U U U U U U U U U U U U U U Y M M M j O   . . . $ $ $ . A Y.G.I.s.@.&.&.@.@.@.@.@.@.@.@.@.@.@.@.@.@.@.@.@.@.@.@.@.@.@.@.@.@.@.@.@.@.@.@.@.@.@.@.@.@.@.@.@.@.@.@.@.@.@.@.@.@.@.@.@.@.@.@.@.@.@.@.@.@.@.@.@.@.@.@.@.@.@.@.@.@.@.@.@.@.@.@.@.@.@.@.@.@.@.@.@.@.@.@.@.@.@.@.@.@.@.@.@.@.@.*.$.@.^ = $ . $ $ $ $ . I b.g.l.l.l.l.g.=.&.*.@.@.@.@.@.@.@.@.@.@.@.@.@.@.@.@.@.@.@.@.@.@.@.@.@.@.@.@.@.@.@.@.@.@.@.@.@.@.@.@.@.@.@.@.@.@.@.@.@.@.@.@.@.@.@.@.@.@.@.@.@.@.@.@.@.@.@.@.@.@.@.@.@.@.@.@.@.@.@.@.@.@.@.@.@.@.@.@.@.@.@.@.@.@.@.@.@.@.@.@.@.@.@.@.@.@.@.@.@.@.@.@.@.@.@.@.@.@.@.@.@.@.@.@.@.@.@.@.@.@.@.@.@.@.@.@.$.$.$.$.$.$.$.$.",
"@.@.@.@.@.@.@.@.@.@.@.@.@.@.@.@.@.@.@.@.@.@.@.@.@.@.@.@.@.@.@.@.@.#.#.= . $ $ $ $ $ $ $ . . 8 y 8 8 8 8 d 8 ' $.@.@.@.@.&.&.&.&.@.@.@.@.@.@.@.@.@.@.@.@.@.@.@.@.@.@.@.@.@.@.@.@.@.@.@.@.@.@.@.@.@.@.@.@.@.@.@.@.@.@.@.@.@.@.@.@.@.@.@.@.@.@.@.@.@.@.@.@.@.@.@.@.@.@.@.@.@.@.@.@.@.@.@.@.@.@.@.@.@.@.@.@.@.@.@.@.$.@.@.*.] ( U J ^ ( H ( ( 8 @ +     X Z Y.W.(.G.w.8.8.8.8.8.=. .^ J ^ ^ J J J J U U U U U U U U U U U U U U U U U U U U U U U U ^ ! =.e.w.6.r.A           3 6.6.] ! ! J J J J J U U U U U U U U U U U U U U U U U U U U U U U U U U U U U U U U U U U U U U U U U U U U U U U U U U U U U U U U U U U U U U U U U U U U J M M x j O   . . . $ $ $ . A Y.G.P.s.o.*.&.@.@.@.@.@.@.@.@.@.@.@.@.@.@.@.@.@.@.@.@.@.@.@.@.@.@.@.@.@.@.@.@.@.@.@.@.@.@.@.@.@.@.@.@.@.@.@.@.@.@.@.@.@.@.@.@.@.@.@.@.@.@.@.@.@.@.@.@.@.@.@.@.@.@.@.@.@.@.@.@.@.@.@.@.@.@.@.@.@.@.@.@.@.@.@.@.@.@.@.@.@.@.@.@.@.@.} . . $ $ $ $ % . P c.g.l.l.l.l.l.=.@.@.@.@.@.@.@.@.@.@.@.@.@.@.@.@.@.@.@.@.@.@.@.@.@.@.@.@.@.@.@.@.@.@.@.@.@.@.@.@.@.@.@.@.@.@.@.@.@.@.@.@.@.@.@.@.@.@.@.@.@.@.@.@.@.@.@.@.@.@.@.@.@.@.@.@.@.@.@.@.@.@.@.@.@.@.@.@.@.@.@.@.@.@.@.@.@.@.@.@.@.@.@.@.@.@.@.@.@.@.@.@.@.@.@.@.@.@.@.@.@.@.@.@.@.@.@.@.@.@.@.@.@.@.@.@.@.@.$.$.$.$.$.$.$.$.",
"@.@.@.@.@.@.@.@.@.@.@.@.@.@.@.@.@.@.@.@.@.@.@.@.@.@.@.@.@.@.@.@.@.#.#.= . $ $ $ $ $ $ $ . . e y 8 8 8 8 d 8 ] $.@.@.@.@.&.&.&.&.@.@.@.@.@.@.@.@.@.@.@.@.@.@.@.@.@.@.@.@.@.@.@.@.@.@.@.@.@.@.@.@.@.@.@.@.@.@.@.@.@.@.@.@.@.@.@.@.@.@.@.@.@.@.@.@.@.@.@.@.@.@.@.@.@.@.@.@.@.@.@.@.@.@.@.@.@.@.@.@.@.@.@.@.@.@.@.@.$.*.@.( U J J U J D ( J @     X       7 C.W.(.H.8.8.8.8.8.=.} ^ J ^ ^ J J J J J U U U U U U U U U U U U U U U U U U U U U U U U ^ U =.e.e.6.r.x           3 6.6.( ! ! J J J J J U U U U U U U U U U U U U U U U U U U U U U U U U U U U U U U U U U U U U U U U U U U U U U U U U U U U U U U U U U U U U U U U U U U U J M M x j =   . . . $ $ $   A Y.G.P.s.o.*.&.@.@.@.@.@.@.@.@.@.@.@.@.@.@.@.@.@.@.@.@.@.@.@.@.@.@.@.@.@.@.@.@.@.@.@.@.@.@.@.@.@.@.@.@.@.@.@.@.@.@.@.@.@.@.@.@.@.@.@.@.@.@.@.@.@.@.@.@.@.@.@.@.@.@.@.@.@.@.@.@.@.@.@.@.@.@.@.@.@.@.@.@.@.@.@.@.@.@.@.@.@.@.@.@.@.@.} . . $ $ $ $ $ . P c.g.l.l.l.l.l.=.@.@.@.@.@.@.@.@.@.@.@.@.@.@.@.@.@.@.@.@.@.@.@.@.@.@.@.@.@.@.@.@.@.@.@.@.@.@.@.@.@.@.@.@.@.@.@.@.@.@.@.@.@.@.@.@.@.@.@.@.@.@.@.@.@.@.@.@.@.@.@.@.@.@.@.@.@.@.@.@.@.@.@.@.@.@.@.@.@.@.@.@.@.@.@.@.@.@.@.@.@.@.@.@.@.@.@.@.@.@.@.@.@.@.@.@.@.@.@.@.@.@.@.@.@.@.@.@.@.@.@.@.@.@.@.@.@.@.$.$.$.$.$.$.$.$.",
"@.@.@.@.@.@.@.@.@.@.@.@.@.@.@.@.@.@.@.@.@.@.@.@.@.@.@.@.@.@.@.@.@.@.#.= . $ $ $ $ $ $ $ $ . r e 8 8 8 8 d 7 ] $.@.@.@.@.@.@.@.@.@.@.@.@.@.@.@.@.@.@.@.@.@.@.@.@.@.@.@.@.@.@.@.@.@.@.@.@.@.@.@.@.@.@.@.@.@.@.@.@.@.@.@.@.@.@.@.@.@.@.@.@.@.@.@.@.@.@.@.@.@.@.@.@.@.@.@.@.@.@.@.@.@.@.@.@.@.@.@.@.@.@.@.@.@.@.@.@.@.@.] J J U ! ! ! ( J X   X @ 2 X     X 8.W.W.R.8.8.8.8.=.@.^ J ^ ^ U U U U U U U U U U U U U U U U U U U U U U U U U U U U U U ^ ! 5.e.8.6.9.f           9 e.6.^ ^ ! J J U J J U U U U U U U U U U U U U U U U U U U U U U U U U U U U U U U U U U U U U U U U U U U U U U U U U U U U U U U U U U U U U U U U U U Y U J M M x j O   . . . $ $ $ . A Y.G.P.s.o.*.&.@.@.@.@.@.@.@.@.@.@.@.@.@.@.@.@.@.@.@.@.@.@.@.@.@.@.@.@.@.@.@.@.@.@.@.@.@.@.@.@.@.@.@.@.@.@.@.@.@.@.@.@.@.@.@.@.@.@.@.@.@.@.@.@.@.@.@.@.@.@.@.@.@.@.@.@.@.@.@.@.@.@.@.@.@.@.@.@.@.@.@.@.@.@.@.@.@.@.@.@.@.@.@.@.$.@.} . $ $ $ $ $ $ . I b.g.l.l.l.l.l.=.@.@.@.@.@.@.@.@.@.@.@.@.@.@.@.@.@.@.@.@.@.@.@.@.@.@.@.@.@.@.@.@.@.@.@.@.@.@.@.@.@.@.@.@.@.@.@.@.@.@.@.@.@.@.@.@.@.@.@.@.@.@.@.@.@.@.@.@.@.@.@.@.@.@.@.@.@.@.@.@.@.@.@.@.@.@.@.@.@.@.@.@.@.@.@.@.@.@.@.@.@.@.@.@.@.@.@.@.@.@.@.@.@.@.@.@.@.@.@.@.@.@.@.@.@.@.@.@.@.@.@.@.@.@.@.@.@.@.$.$.$.$.$.$.$.$.",
"@.@.@.@.@.@.@.@.@.@.@.@.@.@.@.@.@.@.@.@.@.@.@.@.@.@.@.@.@.@.@.@.@.@.@.= . $ $ $ $ $ $ $ $ . r e 8 8 8 8 d 8 ] $.@.@.@.@.@.@.@.@.@.@.@.@.@.@.@.@.@.@.@.@.@.@.@.@.@.@.@.@.@.@.@.@.@.@.@.@.@.@.@.@.@.@.@.@.@.@.@.@.@.@.@.@.@.@.@.@.@.@.@.@.@.@.@.@.@.@.@.@.@.@.@.@.@.@.@.@.@.@.@.@.@.@.@.@.@.@.@.@.@.@.@.@.@.@.@.@.@.' ^ ^ ! ! ! ! ( A @     @ ] ] @       H W.W.T.8.6.8.8.@.^ J ^ ^ J J J U U U U U U U U U U U U U U U U U U U U U U U U U U U U ! ! 5.8.8.6.w.8           8 9.5.^ ^ ! J J J J J U U U U U U U U U U U U U U U U U U U U U U U U U U U U U U U U U U U U U U U U U U U U U U U U U U U U U U U U U U U U U U U U U U Y Y J M M x j O   . . . $ $ $ . A Y.G.P.s.o.*.&.@.@.@.@.@.@.@.@.@.@.@.@.@.@.@.@.@.@.@.@.@.@.@.@.@.@.@.@.@.@.@.@.@.@.@.@.@.@.@.@.@.@.@.@.@.@.@.@.@.@.@.@.@.@.@.@.@.@.@.@.@.@.@.@.@.@.@.@.@.@.@.@.@.@.@.@.@.@.@.@.@.@.@.@.@.@.@.@.@.@.@.@.@.@.@.@.@.@.@.@.@.@.@.@.$.@.} . . $ $ $ $ $ . I c.g.l.l.l.l.l.=.@.@.@.@.@.@.@.@.@.@.@.@.@.@.@.@.@.@.@.@.@.@.@.@.@.@.@.@.@.@.@.@.@.@.@.@.@.@.@.@.@.@.@.@.@.@.@.@.@.@.@.@.@.@.@.@.@.@.@.@.@.@.@.@.@.@.@.@.@.@.@.@.@.@.@.@.@.@.@.@.@.@.@.@.@.@.@.@.@.@.@.@.@.@.@.@.@.@.@.@.@.@.@.@.@.@.@.@.@.@.@.@.@.@.@.@.@.@.@.@.@.@.@.@.@.@.@.@.@.@.@.@.@.@.@.@.@.@.$.$.$.$.$.$.$.$.",
"@.@.@.@.@.@.@.@.@.@.@.@.@.@.@.@.@.@.@.@.@.@.@.@.@.@.@.@.@.@.@.@.@.@.@.= . $ $ $ $ $ $ $ . . 6 e 8 8 8 8 d 8 ] $.@.@.@.@.@.@.@.@.@.@.@.@.@.@.@.@.@.@.@.@.@.@.@.@.@.@.@.@.@.@.@.@.@.@.@.@.@.@.@.@.@.@.@.@.@.@.@.@.@.@.@.@.@.@.@.@.@.@.@.@.@.@.@.@.@.@.@.@.@.@.@.@.@.@.@.@.@.@.@.@.@.@.@.@.@.@.@.@.@.@.@.@.@.@.$.@.! ! ! ! ^ J J @.h X   X   ] e.w.x   @   8 J.W.G.8.6.w.@.^ J ! ! U U U U U U U U U U U U U U U U U U U U U U U U U U U U U U U U ! ! 5.8.6.8.=.3           h r.6.^ ! J J J J J J U U U U U U U U U U U U U U U U U U U U U U U U U U U U U U U U U U U U U U U U U U U U U U U U U U U U U U U U U U U U U U U U ! U U U D Z M x x @   . . . . $ $ . A Y.G.P.s.o.&.&.@.@.@.@.@.@.@.@.@.@.@.@.@.@.@.@.@.@.@.@.@.@.@.@.@.@.@.@.@.@.@.@.@.@.@.@.@.@.@.@.@.@.@.@.@.@.@.@.@.@.@.@.@.@.@.@.@.@.@.@.@.@.@.@.@.@.@.@.@.@.@.@.@.@.@.@.@.@.@.@.@.@.@.@.@.@.@.@.@.@.@.@.@.@.@.@.@.@.@.@.&.&.&.&.@.@.} . . $ $ $ $ $ . I c.g.l.l.l.l.c.8.@.=.@.@.@.@.@.@.@.@.@.@.@.@.@.@.@.@.@.@.@.@.@.@.@.@.@.@.@.@.@.@.@.@.@.@.@.@.@.@.@.@.@.@.@.@.@.@.@.@.@.@.@.@.@.@.@.@.@.@.@.@.@.@.@.@.@.@.@.@.@.@.@.@.@.@.@.@.@.@.@.@.@.@.@.@.@.@.@.@.@.@.@.@.@.@.@.@.@.@.@.@.@.@.@.@.@.@.@.@.@.@.@.@.@.@.@.@.@.@.@.@.@.@.@.@.@.@.@.@.@.@.@.@.@.@.@.@.$.$.$.$.$.$.$.$.",
"@.@.@.@.@.@.@.@.@.@.@.@.@.@.@.@.@.@.@.@.@.@.@.@.@.@.@.@.@.@.@.@.@.@.@.= . $ $ $ $ $ $ $ . . 6 e 8 8 8 8 d 8 ] $.@.@.@.@.@.@.@.@.@.@.@.@.@.@.@.@.@.@.@.@.@.@.@.@.@.@.@.@.@.@.@.@.@.@.@.@.@.@.@.@.@.@.@.@.@.@.@.@.@.@.@.@.@.@.@.@.@.@.@.@.@.@.@.@.@.@.@.@.@.@.@.@.@.@.@.@.@.@.@.@.@.@.@.@.@.@.@.@.@.@.@.@.*.@. .( ! ! ! ! J ( O.f     X @ @.w.=.8. .@ @     6.(.T.8.6.w.@.J W ! J U U U U U U U U U U U U U U U U U U U U U U U U U U U U U U U U U ! 5.8.6.8.*.@           z r.=.^ U J J J J J J U U U U U U U U U U U U U U U U U U U U U U U U U U U U U U U U U U U U U U U U U U U U U U U U U U U U U U U U U U U U U U U U U U U U D Z x x x @   . . . $ $ $ . A Y.G.P.s.o.&.&.@.@.@.@.@.@.@.@.@.@.@.@.@.@.@.@.@.@.@.@.@.@.@.@.@.@.@.@.@.@.@.@.@.@.@.@.@.@.@.@.@.@.@.@.@.@.@.@.@.@.@.@.@.@.@.@.@.@.@.@.@.@.@.@.@.@.@.@.@.@.@.@.@.@.@.@.@.@.@.@.@.@.@.@.@.@.@.@.@.@.@.@.@.@.@.@.@.@.@.@.&.&.&.&.@.@.] . . $ $ $ $ $ . I c.g.j.l.l.l.c.0.@.*.@.@.@.@.@.@.@.@.@.@.@.@.@.@.@.@.@.@.@.@.@.@.@.@.@.@.@.@.@.@.@.@.@.@.@.@.@.@.@.@.@.@.@.@.@.@.@.@.@.@.@.@.@.@.@.@.@.@.@.@.@.@.@.@.@.@.@.@.@.@.@.@.@.@.@.@.@.@.@.@.@.@.@.@.@.@.@.@.@.@.@.@.@.@.@.@.@.@.@.@.@.@.@.@.@.@.@.@.@.@.@.@.@.@.@.@.@.@.@.@.@.@.@.@.@.@.@.@.@.@.@.@.@.@.@.@.$.$.$.$.$.$.$.$.",
"@.@.@.@.@.@.@.@.@.@.@.@.@.@.@.@.@.@.@.@.@.@.@.@.@.@.@.@.@.@.@.@.@.@.@.= . . $ $ $ $ $ $ . . 6 e 8 8 8 8 d 8 ] $.@.@.@.@.@.@.@.@.@.@.@.@.@.@.@.@.@.@.@.@.@.@.@.@.@.@.@.@.@.@.@.@.@.@.@.@.@.@.@.@.@.@.@.@.@.@.@.@.@.@.@.@.@.@.@.@.@.@.@.@.@.@.@.@.@.@.@.@.@.@.@.@.@.@.@.@.@.@.@.@.@.@.@.@.@.@.@.@.@.@.@.@.@. .( J ! ! ! ! ^ ] 8       X  .8.8.w.6.w.J   @   F OXT.q.6.w.@.^ ^ U U U U U U U U U U U U U U U U U U U U U U U U U U U U U U U U U U U ^ 6.8.6.e.O.+           x f.$.! J J J J J J J U U U U U U U U U U U U U U U U U U U U U U U U U U U U U U U U U U U U U U U U U U U U U U U U U U U U U U U U U U U U U U U U U U U U D Z x x n =   . . . $ $ $   A Y.G.P.s.o.&.&.@.@.@.@.@.@.@.@.@.@.@.@.@.@.@.@.@.@.@.@.@.@.@.@.@.@.@.@.@.@.@.@.@.@.@.@.@.@.@.@.@.@.@.@.@.@.@.@.@.@.@.@.@.@.@.@.@.@.@.@.@.@.@.@.@.@.@.@.@.@.@.@.@.@.@.@.@.@.@.@.@.@.@.@.@.@.@.@.@.@.@.@.@.@.@.@.@.@.@.@.&.&.&.&.@.@.] . . $ $ $ $ $ . I b.g.j.l.l.l.l.e.@.@.@.@.@.@.@.@.@.@.@.@.@.@.@.@.@.@.@.@.@.@.@.@.@.@.@.@.@.@.@.@.@.@.@.@.@.@.@.@.@.@.@.@.@.@.@.@.@.@.@.@.@.@.@.@.@.@.@.@.@.@.@.@.@.@.@.@.@.@.@.@.@.@.@.@.@.@.@.@.@.@.@.@.@.@.@.@.@.@.@.@.@.@.@.@.@.@.@.@.@.@.@.@.@.@.@.@.@.@.@.@.@.@.@.@.@.@.@.@.@.@.@.@.@.@.@.@.@.@.@.@.@.@.@.@.@.@.$.$.$.$.$.$.$.$.",
"@.@.@.@.@.@.@.@.@.@.@.@.@.@.@.@.@.@.@.@.@.@.@.@.@.@.@.@.@.@.@.@.@.@.@.= . . $ $ $ $ $ $ . . 6 e 8 8 8 8 d 8 ] $.@.@.@.@.@.@.@.@.@.@.@.@.@.@.@.@.@.@.@.@.@.@.@.@.@.@.@.@.@.@.@.@.@.@.@.@.@.@.@.@.@.@.@.@.@.@.@.@.@.@.@.@.@.@.@.@.@.@.@.@.@.@.@.@.@.@.@.@.@.@.@.@.@.@.@.@.@.@.@.@.@.@.@.@.@.@.@.@.@.@.@.@.' ^ U ! ! ! ! ! ] 3       9 *.8.w.6.] @.r.6.7   X 7 G.T.q.6.w.@.^ P U J U U U U U U U U U U U U U U U U U U U U U U U U U U U U U U U U J ^ 6.8.6.9.] X           Z f.@.U J J J J J J J U U U U U U U U U U U U U U U U U U U U U U U U U U U U U U U U U U U U U U U U U U U U U U U U U U U U U U U U U U U U U U U U U U U U A Z M x n =   . . . $ $ $ . A Y.G.P.s.o.&.&.@.@.@.@.@.@.@.@.@.@.@.@.@.@.@.@.@.@.@.@.@.@.@.@.@.@.@.@.@.@.@.@.@.@.@.@.@.@.@.@.@.@.@.@.@.@.@.@.@.@.@.@.@.@.@.@.@.@.@.@.@.@.@.@.@.@.@.@.@.@.@.@.@.@.@.@.@.@.@.@.@.@.@.@.@.@.@.@.@.@.@.@.@.@.@.@.@.@.@.@.&.&.&.&.@.@.] . . $ $ $ $ $ . I c.g.j.l.l.l.l.r.*.@.@.@.@.@.@.@.@.@.@.@.@.@.@.@.@.@.@.@.@.@.@.@.@.@.@.@.@.@.@.@.@.@.@.@.@.@.@.@.@.@.@.@.@.@.@.@.@.@.@.@.@.@.@.@.@.@.@.@.@.@.@.@.@.@.@.@.@.@.@.@.@.@.@.@.@.@.@.@.@.@.@.@.@.@.@.@.@.@.@.@.@.@.@.@.@.@.@.@.@.@.@.@.@.@.@.@.@.@.@.@.@.@.@.@.@.@.@.@.@.@.@.@.@.@.@.@.@.@.@.@.@.@.@.@.@.@.$.$.$.$.$.$.$.$.",
"@.@.@.@.@.@.@.@.@.@.@.@.@.@.@.@.@.@.@.@.@.@.@.@.@.@.@.@.@.@.@.@.@.@.@.= . $ $ $ $ $ $ $ . . 8 y 8 8 8 8 d 8 ] $.@.@.@.@.@.@.@.@.@.@.@.@.@.@.@.@.@.@.@.@.@.@.@.@.@.@.@.@.@.@.@.@.@.@.@.@.@.@.@.@.@.@.@.@.@.@.@.@.@.@.@.@.@.@.@.@.@.@.@.@.@.@.@.@.@.@.@.@.@.@.@.@.@.@.@.@.@.@.@.@.@.@.@.@.$.*.$.@.*.@.] ( J ^ ^ H U D ] ( 7   X   8 =.9.w.6.( ` ^ @.g.@.o X X r.(.r.6.w.] ^ J U U U U U U U U U U U U U U U U U U U U U U U U U U U U U U U U J J J ^ 6.8.6.r.J             D f. .! U J J J J J U U U U U U U U U U U U U U U U U U U U U U U U U U U U U U U U U U U U U U U U U U U U U U U U U U U U U U U U U U U U U U U U U U U U U A M M M A =   . . . $ $ $ . S Y.G.U.s. .&.&.@.@.@.@.@.@.@.@.@.@.@.@.@.@.@.@.@.@.@.@.@.@.@.@.@.@.@.@.@.@.@.@.@.@.@.@.@.@.@.@.@.@.@.@.@.@.@.@.@.@.@.@.@.@.@.@.@.@.@.@.@.@.@.@.@.@.@.@.@.@.@.@.@.@.@.@.@.@.@.@.@.@.@.@.@.@.@.@.@.@.@.@.@.@.@.@.@.@.@.@.&.&.&.&.@.#.} . $ $ $ $ $ $ . I c.g.j.l.l.l.x.g.@.@.@.@.@.@.@.@.@.@.@.@.@.@.@.@.@.@.@.@.@.@.@.@.@.@.@.@.@.@.@.@.@.@.@.@.@.@.@.@.@.@.@.@.@.@.@.@.@.@.@.@.@.@.@.@.@.@.@.@.@.@.@.@.@.@.@.@.@.@.@.@.@.@.@.@.@.@.@.@.@.@.@.@.@.@.@.@.@.@.@.@.@.@.@.@.@.@.@.@.@.@.@.@.@.@.@.@.@.@.@.@.@.@.@.@.@.@.@.@.@.@.@.@.@.@.@.@.@.@.@.@.@.@.@.@.@.@.$.$.$.$.$.$.$.$.",
"@.@.@.@.@.@.@.@.@.@.@.@.@.@.@.@.@.@.@.@.@.@.@.@.@.@.@.@.@.@.@.@.@.@.@.= . $ $ $ $ $ $ $ . . e y 8 8 8 8 d 8 ] $.@.@.@.@.@.@.@.@.@.@.@.@.@.@.@.@.@.@.@.@.@.@.@.@.@.@.@.@.@.@.@.@.@.@.@.@.@.@.@.@.@.@.@.@.@.@.@.@.@.@.@.@.@.@.@.@.@.@.@.@.@.@.@.@.@.@.@.@.@.@.@.@.@.@.@.@.@.@.@.@.@.@.@.@.@.@.@.=.@.@.( U ^ ^ J H ( ( ^ :       8 6.e.9.=.] J J J ( 6.r.x     ( W.g.8.8.] J J U U U U U U U U U U U U U U U U U U U U U U U U U U U U U U U U J J J ^ 6.8.6.r.A             J r.] U U J J J J U U U U U U U U U U U U U U U U U U U U U U U U U U U U U U U U U U U U U U U U U U U U U U U U U U U U U U U U U U U U U U U U U U Y U U U A M M x A =   . . . $ $ $ . S Y.G.U.s. .&.&.@.@.@.@.@.@.@.@.@.@.@.@.@.@.@.@.@.@.@.@.@.@.@.@.@.@.@.@.@.@.@.@.@.@.@.@.@.@.@.@.@.@.@.@.@.@.@.@.@.@.@.@.@.@.@.@.@.@.@.@.@.@.@.@.@.@.@.@.@.@.@.@.@.@.@.@.@.@.@.@.@.@.@.@.@.@.@.@.@.@.@.@.@.@.@.@.@.@.@.@.&.&.&.&.@.#.} . $ $ $ $ $ $ . I c.p.j.l.l.l.x.r.@.@.@.@.@.@.@.@.@.@.@.@.@.@.@.@.@.@.@.@.@.@.@.@.@.@.@.@.@.@.@.@.@.@.@.@.@.@.@.@.@.@.@.@.@.@.@.@.@.@.@.@.@.@.@.@.@.@.@.@.@.@.@.@.@.@.@.@.@.@.@.@.@.@.@.@.@.@.@.@.@.@.@.@.@.@.@.@.@.@.@.@.@.@.@.@.@.@.@.@.@.@.@.@.@.@.@.@.@.@.@.@.@.@.@.@.@.@.@.@.@.@.@.@.@.@.@.@.@.@.@.@.@.@.@.@.@.@.$.$.$.$.$.$.$.$.",
"@.@.@.@.@.@.@.@.@.@.@.@.@.@.@.@.@.@.@.@.@.@.@.@.@.@.@.@.@.@.@.@.@.@.@.= . $ $ $ $ $ $ $ $ . 6 e 8 8 8 8 d 8 ] $.@.@.@.@.@.@.@.@.@.@.@.@.@.@.@.@.@.@.@.@.@.@.@.@.@.@.@.@.@.@.@.@.@.@.@.@.@.@.@.@.@.@.@.@.@.@.@.@.@.@.@.@.@.@.@.@.@.@.@.@.@.@.@.@.@.@.@.@.@.@.@.@.@.@.@.@.@.@.@.@.@.@.@.@.@.@.@.=.] ( ^ ! ^ U J ! ] J @     X 8 5.g.9.=.U H ^ J J ^ ( =.=.@   7 P.g.8.8.] J J U U U U U U U U U U U U U U U U U U U U U U U U U U U U ! ! U U J J U ! 6.8.6.w.z             ( 9.( J J J J J J J J U U U U U U U U U U U U U U U U U U U U U U U U U U U U U U U U U U U U U U U U U U U U U U U U U U U U U U U U U U U U U U U U U U U U Z M M M A =   . . . $ $ $ . S Y.G.P.s. .&.&.@.@.@.@.@.@.@.@.@.@.@.@.@.@.@.@.@.@.@.@.@.@.@.@.@.@.@.@.@.@.@.@.@.@.@.@.@.@.@.@.@.@.@.@.@.@.@.@.@.@.@.@.@.@.@.@.@.@.@.@.@.@.@.@.@.@.@.@.@.@.@.@.@.@.@.@.@.@.@.@.@.@.@.@.@.@.@.@.@.@.@.@.@.@.@.@.@.@.@.@.&.&.&.&.@.#.} . $ $ $ $ $ $ . I c.g.j.l.l.l.l.6.@.*.@.@.@.@.@.@.@.@.@.@.@.@.@.@.@.@.@.@.@.@.@.@.@.@.@.@.@.@.@.@.@.@.@.@.@.@.@.@.@.@.@.@.@.@.@.@.@.@.@.@.@.@.@.@.@.@.@.@.@.@.@.@.@.@.@.@.@.@.@.@.@.@.@.@.@.@.@.@.@.@.@.@.@.@.@.@.@.@.@.@.@.@.@.@.@.@.@.@.@.@.@.@.@.@.@.@.@.@.@.@.@.@.@.@.@.@.@.@.@.@.@.@.@.@.@.@.@.@.@.@.@.@.@.@.@.@.$.$.$.$.$.$.$.$.",
"@.@.@.@.@.@.@.@.@.@.@.@.@.@.@.@.@.@.@.@.@.@.@.@.@.@.@.@.@.@.@.@.@.@.@.= . $ $ $ $ $ $ $ $ . r e 8 8 8 8 d 8 ] $.@.@.@.@.@.@.@.@.@.@.@.@.@.@.@.@.@.@.@.@.@.@.@.@.@.@.@.@.@.@.@.@.@.@.@.@.@.@.@.@.@.@.@.@.@.@.@.@.@.@.@.@.@.@.@.@.@.@.@.@.@.@.@.@.@.@.@.@.@.@.@.@.@.@.@.@.@.@.@.@.@.@.@.@.$.*.$.@.( U ! ^ J H ! ] J X X X   x 6.<.e.@.H ( H ] J J J ( ( g.H X X g.g.8.6.( J J U U U U U U U U U U U U U U U U U U U U U U U U U U U U ! ! U U J U U ^ 6.8.6.e.f             ] e.^ J J J J J J J J U U U U U U U U U U U U U U U U U U U U U U U U U U U U U U U U U U U U U U U U U U U U U U U U U U U U U U U U U U U U U U U U U U U U Z M M M N >   . . . . $ $ . S Y.G.I.s. .&.&.@.@.@.@.@.@.@.@.@.@.@.@.@.@.@.@.@.@.@.@.@.@.@.@.@.@.@.@.@.@.@.@.@.@.@.@.@.@.@.@.@.@.@.@.@.@.@.@.@.@.@.@.@.@.@.@.@.@.@.@.@.@.@.@.@.@.@.@.@.@.@.@.@.@.@.@.@.@.@.@.@.@.@.@.@.@.@.@.@.@.@.@.@.@.@.@.@.@.@.@.&.&.&.&.@.#.} . $ $ $ $ $ $ . I c.g.j.l.l.l.l.2.@.*.@.@.@.@.@.@.@.@.@.@.@.@.@.@.@.@.@.@.@.@.@.@.@.@.@.@.@.@.@.@.@.@.@.@.@.@.@.@.@.@.@.@.@.@.@.@.@.@.@.@.@.@.@.@.@.@.@.@.@.@.@.@.@.@.@.@.@.@.@.@.@.@.@.@.@.@.@.@.@.@.@.@.@.@.@.@.@.@.@.@.@.@.@.@.@.@.@.@.@.@.@.@.@.@.@.@.@.@.@.@.@.@.@.@.@.@.@.@.@.@.@.@.@.@.@.@.@.@.@.@.@.@.@.@.@.@.$.$.$.$.$.$.$.$.",
"@.@.@.@.@.@.@.@.@.@.@.@.@.@.@.@.@.@.@.@.@.@.@.@.@.@.@.@.@.@.@.@.@.@.@.= . $ $ $ $ $ $ $ . . 6 e 8 8 8 8 d 8 ] $.@.@.@.@.@.@.@.@.@.@.@.@.@.@.@.@.@.@.@.@.@.@.@.@.@.@.@.@.@.@.@.@.@.@.@.@.@.@.@.@.@.@.@.@.@.@.@.@.@.@.@.@.@.@.@.@.@.@.@.@.@.@.@.@.@.@.@.@.@.@.@.@.@.@.@.@.@.@.@.@.@.@.@.$.$.*.] H ! ! ! ^ ^ U ] Z     X   Z w.e.e.@.^ J ^ U U U U J J ^ @.6.8   ] c.w.=.( J U U U U U U U U U U U U U U U U U U U U U U U U U U U U U U U U U U U J ! 5.8.6.8.3             O.e.! E J J J J J U U ! ! U U U U U U U U U U U U U U U U U U U U U U U U U U U U U U U U U U U U U U U U U U U U U U U U U U U U U U U U U U U U U U ! ! Y U Z M M M N >   . . . . . *   S Y.Z.Y.s. .@.@.@.@.@.@.@.@.@.@.@.@.@.@.@.@.@.@.@.@.@.@.@.@.@.@.@.@.@.@.@.@.@.@.@.@.@.@.@.@.@.@.@.@.@.@.@.@.@.@.@.@.@.@.@.@.@.@.@.@.@.@.@.@.@.@.@.@.@.@.@.@.@.@.@.@.@.@.@.@.@.@.@.@.@.@.@.@.@.@.@.@.@.@.@.@.@.@.@.@.@.@.@.@.@.@.@.#.} . $ $ $ $ $ $ . I c.g.g.g.g.g.6.@.=.&.@.@.@.@.@.@.@.@.@.@.@.@.@.@.@.@.@.@.@.@.@.@.@.@.@.@.@.@.@.@.@.@.@.@.@.@.@.@.@.@.@.@.@.@.@.@.@.@.@.@.@.@.@.@.@.@.@.@.@.@.@.@.@.@.@.@.@.@.@.@.@.@.@.@.@.@.@.@.@.@.@.@.@.@.@.@.@.@.@.@.@.@.@.@.@.@.@.@.@.@.@.@.@.@.@.@.@.@.@.@.@.@.@.@.@.@.@.@.@.@.@.@.@.@.@.@.@.@.@.@.@.@.@.@.@.@.$.$.$.$.$.$.$.$.",
"@.@.@.@.@.@.@.@.@.@.@.@.@.@.@.@.@.@.@.@.@.@.@.@.@.@.@.@.@.@.@.@.@.@.@.= . $ $ $ $ $ $ $ . . 6 e 8 8 i 8 d 8 ] *.@.@.@.@.@.@.@.@.@.@.@.@.@.@.@.@.@.@.@.@.@.@.@.@.@.@.@.@.@.@.@.@.@.@.@.@.@.@.@.@.@.@.@.@.@.@.@.@.@.@.@.@.@.@.@.@.@.@.@.@.@.@.@.@.@.@.@.@.@.@.@.@.@.@.@.@.@.@.@.@.@.@.$.*.*.] U U ! ! ! ! ^ @.h   @     Z 5.e.8.] U ^ ( ! U U U U J J J ^ 3.@.  f g.8.8.( J U J U U U U U U U U U U U U U U U U U U U U U U U U U U U U U U U U U J ^ 6.8.8.6.3             @.6.J E J J J J J U U ! ! U U U U U U U U U U U U U U U U U U U U U U U U U U U U U U U U U U U U U U U U U U U U U U U U U U U U U U U U U U U U U U ! ! U U Z M M M n 3   . . . . . *   S Y.Z.Y.s. .@.@.@.@.@.@.@.@.@.@.@.@.@.@.@.@.@.@.@.@.@.@.@.@.@.@.@.@.@.@.@.@.@.@.@.@.@.@.@.@.@.@.@.@.@.@.@.@.@.@.@.@.@.@.@.@.@.@.@.@.@.@.@.@.@.@.@.@.@.@.@.@.@.@.@.@.@.@.@.@.@.@.@.@.@.@.@.@.@.@.@.@.@.@.@.@.@.@.@.@.@.@.@.@.@.@.@.#.} . $ $ $ $ $ $ . I c.g.c.x.g.e.=.@.=.@.@.@.@.@.@.@.@.@.@.@.@.@.@.@.@.@.@.@.@.@.@.@.@.@.@.@.@.@.@.@.@.@.@.@.@.@.@.@.@.@.@.@.@.@.@.@.@.@.@.@.@.@.@.@.@.@.@.@.@.@.@.@.@.@.@.@.@.@.@.@.@.@.@.@.@.@.@.@.@.@.@.@.@.@.@.@.@.@.@.@.@.@.@.@.@.@.@.@.@.@.@.@.@.@.@.@.@.@.@.@.@.@.@.@.@.@.@.@.@.@.@.@.@.@.@.@.@.@.@.@.@.@.@.@.@.@.$.$.$.$.$.$.$.$.",
"@.@.@.@.@.@.@.@.@.@.@.@.@.@.@.@.@.@.@.@.@.@.@.@.@.@.@.@.@.@.@.@.@.@.@.= . $ $ $ $ $ $ $ . . 6 e 8 8 i 8 d 8 ] *.@.@.@.@.@.@.@.@.@.@.@.@.@.@.@.@.@.@.@.@.@.@.@.@.@.@.@.@.@.@.@.@.@.@.@.@.@.@.@.@.@.@.@.@.@.@.@.@.@.@.@.@.@.@.@.@.@.@.@.@.@.@.@.@.@.@.@.@.@.@.@.@.@.@.@.@.@.@.@.@.@.$.*.@.] U J ^ ! ! ! ! ] 8     X   D e.e.6.( H ^ J U ( U U U U J J J J J w.z   @.r.=.^ U U J U U U U U U U U U U U U U U U U U U U U U U U U U U U U U U U U U J ! 6.8.8.*.@             *.=.H W J J J J J J J U U U U U U U U U U U U U U U U U U U U U U U U U U U U U U U U U U U U U U U U U U U U U U U U U U U U U U U U U U U U U U U U U U Y U Z M M M n 3   . . . . . $   S Y.Z.P.s. .@.@.@.@.@.@.@.@.@.@.@.@.@.@.@.@.@.@.@.@.@.@.@.@.@.@.@.@.@.@.@.@.@.@.@.@.@.@.@.@.@.@.@.@.@.@.@.@.@.@.@.@.@.@.@.@.@.@.@.@.@.@.@.@.@.@.@.@.@.@.@.@.@.@.@.@.@.@.@.@.@.@.@.@.@.@.@.@.@.@.@.@.@.@.@.@.@.@.@.@.@.@.@.@.@.@.@.#.` $ $ $ $ $ $ $ . I c.g.c.c.x.6.&.=.@.*.@.@.@.@.@.@.@.@.@.@.@.@.@.@.@.@.@.@.@.@.@.@.@.@.@.@.@.@.@.@.@.@.@.@.@.@.@.@.@.@.@.@.@.@.@.@.@.@.@.@.@.@.@.@.@.@.@.@.@.@.@.@.@.@.@.@.@.@.@.@.@.@.@.@.@.@.@.@.@.@.@.@.@.@.@.@.@.@.@.@.@.@.@.@.@.@.@.@.@.@.@.@.@.@.@.@.@.@.@.@.@.@.@.@.@.@.@.@.@.@.@.@.@.@.@.@.@.@.@.@.@.@.@.@.@.@.$.$.$.$.$.$.$.$.",
"@.@.@.@.@.@.@.@.@.@.@.@.@.@.@.@.@.@.@.@.@.@.@.@.@.@.@.@.@.@.@.@.@.@.#.= . $ $ $ $ $ $ $ . . 6 e 8 8 i 8 d 8 ] *.@.@.@.@.@.@.@.@.@.@.@.@.@.@.@.@.@.@.@.@.@.@.@.@.@.@.@.@.@.@.@.@.@.@.@.@.@.@.@.@.@.@.@.@.@.@.@.@.@.@.@.@.@.@.@.@.@.@.@.@.@.@.@.@.@.@.@.@.@.@.@.@.@.@.@.@.@.@.@.@.$.*.@.@.H J ^ ^ ! ! ! ! @   + X X J 8.9.5.U J H U ( ^ J U U U U J J J J H J *.3 A r.@.( J U U U U U U U U U U U U U U U U U U U U U U U U U U U U U U U U U U U U ^ 6.8.8.@.@             =.*.H W J J J J J J J U U U U U U U U U U U U U U U U U U U U U U U U U U U U U U U U U U U U U U U U U U U U U U U U U U U U U U U U U U U U U U U U U U Y J A M M M n 3   . . . . . $   S !.Z.P.s.@.@.@.@.@.@.@.@.@.@.@.@.@.@.@.@.@.@.@.@.@.@.@.@.@.@.@.@.@.@.@.@.@.@.@.@.@.@.@.@.@.@.@.@.@.@.@.@.@.@.@.@.@.@.@.@.@.@.@.@.@.@.@.@.@.@.@.@.@.@.@.@.@.@.@.@.@.@.@.@.@.@.@.@.@.@.@.@.@.@.@.@.@.@.@.@.@.@.@.@.@.@.@.@.@.@.@.@.#.` $ $ $ $ $ $ $ . I c.g.g.j.j.6.@.=.@.*.@.@.@.@.@.@.@.@.@.@.@.@.@.@.@.@.@.@.@.@.@.@.@.@.@.@.@.@.@.@.@.@.@.@.@.@.@.@.@.@.@.@.@.@.@.@.@.@.@.@.@.@.@.@.@.@.@.@.@.@.@.@.@.@.@.@.@.@.@.@.@.@.@.@.@.@.@.@.@.@.@.@.@.@.@.@.@.@.@.@.@.@.@.@.@.@.@.@.@.@.@.@.@.@.@.@.@.@.@.@.@.@.@.@.@.@.@.@.@.@.@.@.@.@.@.@.@.@.@.@.@.@.@.@.@.@.$.$.$.$.$.$.$.$.",
"@.@.@.@.@.@.@.@.@.@.@.@.@.@.@.@.@.@.@.@.@.@.@.@.@.@.@.@.@.@.@.@.@.#.#.= . $ $ $ $ $ $ $ . . r e 8 8 8 8 d 7 ] *.@.@.@.@.@.@.@.@.@.@.@.@.@.@.@.@.@.@.@.@.@.@.@.@.@.@.@.@.@.@.@.@.@.@.@.@.@.@.@.@.@.@.@.@.@.@.@.@.@.@.@.@.@.@.@.@.@.@.@.@.@.@.@.@.@.@.@.@.@.@.@.@.@.@.@.@.@.@.@.@.=.@.( H U ^ U U U ' J   X     5 $.w.e.=.! ! ! ! ! ! ! ! ! ! ! ! U U J U ^ H @.J 3 e.$.A ! U U U U U U U U U U U U U U U U U U U U U U U U U U U U U U U U U U U U ^ 6.8.r.@.            @ >.@.^ J J J J J J J J U U U U U U U U U U U U U U U U U U U U U U U U U U U U U U U U U U U U U U U U U U U U U U U U U U U U U U U U U U U U U U U U U U U J x x x M j 3   . . . . . .   j T.Z.Z.w.@.@.@.@.@.@.@.@.@.@.@.@.@.@.@.@.@.@.@.@.@.@.@.@.@.@.@.@.@.@.@.@.@.@.@.@.@.@.@.@.@.@.@.@.@.@.@.@.@.@.@.@.@.@.@.@.@.@.@.@.@.@.@.@.@.@.@.@.@.@.@.@.@.@.@.@.@.@.@.@.@.@.@.@.@.@.@.@.@.@.@.@.@.@.@.@.@.@.@.@.@.@.@.@.@.$.@.$.>./ $ * . $ $ $ $ $ I k.g.g.x.c.6.*.&.&.*.@.@.@.@.@.@.@.@.@.@.@.@.@.@.@.@.@.@.@.@.@.@.@.@.@.@.@.@.@.@.@.@.@.@.@.@.@.@.@.@.@.@.@.@.@.@.@.@.@.@.@.@.@.@.@.@.@.@.@.@.@.@.@.@.@.@.@.@.@.@.@.@.@.@.@.@.@.@.@.@.@.@.@.@.@.@.@.@.@.@.@.@.@.@.@.@.@.@.@.@.@.@.@.@.@.@.@.@.@.@.@.@.@.@.@.@.@.@.@.@.@.@.@.@.@.@.@.@.@.@.@.@.@.@.@.@.$.$.$.$.$.$.$.$.",
"@.@.@.@.@.@.@.@.@.@.@.@.@.@.@.@.@.@.@.@.@.@.@.@.@.@.@.@.@.@.@.@.@.#.#.= . $ $ $ $ $ $ $ . . r e 8 8 8 8 d 7 ' *.@.@.@.@.@.@.@.@.@.@.@.@.@.@.@.@.@.@.@.@.@.@.@.@.@.@.@.@.@.@.@.@.@.@.@.@.@.@.@.@.@.@.@.@.@.@.@.@.@.@.@.@.@.@.@.@.@.@.@.@.@.@.@.@.@.@.@.@.@.@.@.@.@.@.@.@.=.@.@.*.] ( ! U U ] J J ] x @       x 6.r.f.=.( ! ! ! ! ! ! ! ! ! ! ! ! U U U J J J J @.f @.=.D ! U U U U U U U U U U U U U U U U U U U U U U U U U U U U U U U U U U U U ^ 6.8.r.]             @ 6.] ^ J J J J J J J J U U U U U U U U U U U U U U U U U U U U U U U U U U U U U U U U U U U U U U U U U U U U U U U U U U U U U U U U U U U U U U U U U U Y J x x M M j 3   . . . . . % . < z.!.D.r.@.@.@.@.@.@.@.@.@.@.@.@.@.@.@.@.@.@.@.@.@.@.@.@.@.@.@.@.@.@.@.@.@.@.@.@.@.@.@.@.@.@.@.@.@.@.@.@.@.@.@.@.@.@.@.@.@.@.@.@.@.@.@.@.@.@.@.@.@.@.@.@.@.@.@.@.@.@.@.@.@.@.@.@.@.@.@.@.@.@.@.@.@.@.@.@.@.@.@.@.@.@.@.@.@.@.] ..-.n . $ $ $ $ $ $ $ S k.g.g.x.c.6.&.&.*.&.@.@.@.@.@.@.@.@.@.@.@.@.@.@.@.@.@.@.@.@.@.@.@.@.@.@.@.@.@.@.@.@.@.@.@.@.@.@.@.@.@.@.@.@.@.@.@.@.@.@.@.@.@.@.@.@.@.@.@.@.@.@.@.@.@.@.@.@.@.@.@.@.@.@.@.@.@.@.@.@.@.@.@.@.@.@.@.@.@.@.@.@.@.@.@.@.@.@.@.@.@.@.@.@.@.@.@.@.@.@.@.@.@.@.@.@.@.@.@.@.@.@.@.@.@.@.@.@.@.@.@.@.@.@.@.@.$.$.$.$.$.$.$.$.",
"@.@.@.@.@.@.@.@.@.@.@.@.@.@.@.@.@.@.@.@.@.@.@.@.@.@.@.@.@.@.@.@.@.@.#.= . $ $ $ $ $ $ $ . . 6 e 8 8 8 8 d 8 ] *.@.@.@.@.@.@.@.@.@.@.@.@.@.@.@.@.@.@.@.@.@.@.@.@.@.@.@.@.@.@.@.@.@.@.@.@.@.@.@.@.@.@.@.@.@.@.@.@.@.@.@.@.@.@.@.@.@.@.@.@.@.@.@.@.@.@.@.@.@.@.@.@.@.@.@.@.@.5.=.( J J ^ ( U U J ' h   X   @ ^ r.w.8.=.' J ! ! ! ! ! ! ! ! ! ! ! ! U U U U H ^ J ] H ^ @.H ! U U U U U U U U U U U U U U U U U U U U U U U U U U U U U U U U U U U U ^ 5.6.w.J             3 w.] J J J ! ! J J J J U U U U U U U U U U U U U U U U U U U U U U U U U U U U U U U U U U U U U U U U U U U U U U U U U U U U U U U U U U U U U U U U U U Y J x x x j v 3   . . . . . $ $ . P J.(.p.@.*.*.*.*.*.*.*.*.$.$.$.$.$.$.$.$.$.$.$.$.$.$.$.$.$.$.$.$.$.$.$.$.$.$.$.$.$.$.$.$.$.$.$.$.$.$.$.$.$.$.$.$.$.$.$.$.$.$.$.$.$.$.$.$.$.$.$.$.$.$.$.$.$.$.$.$.$.$.$.$.$.$.$.$.$.$.$.$.$.$.$.$.$.$.$.$.$.$.$.$.$.$.$.$.@.6.=.T - . $ $ $ $ $ $ . v h.k.g.x.c.6.@.$.@.@.@.@.@.@.@.@.@.@.@.@.@.@.@.@.@.@.@.@.@.@.@.@.@.@.@.@.@.@.@.@.@.@.@.@.@.@.@.@.@.@.@.@.@.@.@.@.@.@.@.@.@.@.@.@.@.@.@.@.@.@.@.@.@.@.@.@.@.@.@.@.@.@.@.@.@.@.@.@.@.@.@.@.@.@.@.@.@.@.@.@.@.@.@.@.@.@.@.@.@.@.@.@.@.@.@.@.@.@.@.@.@.@.@.@.@.@.@.@.@.@.@.@.@.@.@.@.@.@.@.@.@.@.@.@.@.@.$.$.$.$.$.$.$.$.",
"@.@.@.@.@.@.@.@.@.@.@.@.@.@.@.@.@.@.@.@.@.@.@.@.@.@.@.@.@.@.@.@.@.@.#.= . $ $ $ $ $ $ $ . . 6 e 8 8 8 8 d 8 ] *.@.@.@.@.@.@.@.@.@.@.@.@.@.@.@.@.@.@.@.@.@.@.@.@.@.@.@.@.@.@.@.@.@.@.@.@.@.@.@.@.@.@.@.@.@.@.@.@.@.@.@.@.@.@.@.@.@.@.@.@.@.@.@.@.@.@.@.@.@.@.@.@.$.$.@.@.O.@.] J ! ! ^ ^ ^ ^ ' 7   X   k @.6.8.=.] ( U H ! ! ! ! ! ! ! ! ! ! ! ! U U U U J ( ( J ^ J ] ! ! U U U U U U U U U U U U U U U U U U U U U U U U U U U U U U U U U U U U ! 5.6.w.D   X         3 w.( H J J ! ! J J J J U U U U U U U U U U U U U U U U U U U U U U U U U U U U U U U U U U U U U U U U U U U U U U U U U U U U U U U U U U U U U U U U U U U J x x x j j 3   . . . . . . % $ . g #.#.P T T T T T T T T T T T T T T T T T T T T T T T T T T T T T T T T T T T T T T T T T T T T T T T T T T T T T T T T T T T T T T T T T T T T T T T T T T T T T T T T T T T T T T T T T T T T T T T T T T T T T T T T P T b = . $ * $ $ $ $ $ . e h.k.g.j.c.6.$.@.@.@.@.@.@.@.@.@.@.@.@.@.@.@.@.@.@.@.@.@.@.@.@.@.@.@.@.@.@.@.@.@.@.@.@.@.@.@.@.@.@.@.@.@.@.@.@.@.@.@.@.@.@.@.@.@.@.@.@.@.@.@.@.@.@.@.@.@.@.@.@.@.@.@.@.@.@.@.@.@.@.@.@.@.@.@.@.@.@.@.@.@.@.@.@.@.@.@.@.@.@.@.@.@.@.@.@.@.@.@.@.@.@.@.@.@.@.@.@.@.@.@.@.@.@.@.@.@.@.@.@.@.@.@.@.@.@.@.$.$.$.$.$.$.$.$.",
"@.@.@.@.@.@.@.@.@.@.@.@.@.@.@.@.@.@.@.@.@.@.@.@.@.@.@.@.@.@.@.@.@.@.@.= . $ $ $ $ $ $ $ . . 8 y 8 8 8 8 d 8 ' *.@.@.@.@.@.@.@.@.@.@.@.@.@.@.@.@.@.@.@.@.@.@.@.@.@.@.@.@.@.@.@.@.@.@.@.@.@.@.@.@.@.@.@.@.@.@.@.@.@.@.@.@.@.@.@.@.@.@.@.@.@.@.@.@.@.@.@.@.@.@.@.$.$.*.=.=.@.( J ! ' U U J ] ! @       x 6.6.6.=.( U U U U ! ! ! ! ! ! ! ! ! ! ! ! ! ! ! ! ! ! ! ! U U U U U U U U U U U U U U U U U U U U U U U U U U U U U U U U U U U U U U U U U ^ 6.8.r.h             f w.( H U U U U U U U U U U U U U U U U U U U U U U U U U U U U U U U U U U U U U U U U U U U U U U U U U U U U U U U U U U U U U U U U U U U U U U U U U U U H M M M x n 3   . . . . . $ . . . . . . . . . . . . . . . . . . . . . . . . . . . . . . . . . . . . . . . . . . . . . . . . . . . . . . . . . . . . . . . . . . . . . . . . . . . . . . . . . . . . . . . . . . . . . . . . . . . . . . . . . . . . . . . . . . . . $ $ $ $ $ $ $ $ 1 y.h.g.g.k.6.$.@.@.@.@.@.@.@.@.@.@.@.@.@.@.@.@.@.@.@.@.@.@.@.@.@.@.@.@.@.@.@.@.@.@.@.@.@.@.@.@.@.@.@.@.@.@.@.@.@.$.$.$.$.$.@.@.@.@.@.@.@.@.@.@.@.@.@.@.@.@.@.@.@.@.@.@.@.@.@.@.@.@.@.@.@.@.@.@.@.@.@.@.@.@.@.@.@.@.@.@.@.@.@.@.@.@.@.@.@.@.@.@.@.@.@.@.@.@.@.@.@.@.@.@.@.@.@.@.@.@.@.@.@.@.@.@.@.@.@.$.$.$.$.$.$.$.$.",
"@.@.@.@.@.@.@.@.@.@.@.@.@.@.@.@.@.@.@.@.@.@.@.@.@.@.@.@.@.@.@.@.@.@.@.= . $ $ $ $ $ $ $ . . 8 y 8 8 8 8 d 7 ' *.@.@.@.@.@.@.@.@.@.@.@.@.@.@.@.@.@.@.@.@.@.@.@.@.@.@.@.@.@.@.@.@.@.@.@.@.@.@.@.@.@.@.@.@.@.@.@.@.@.@.@.@.@.@.@.@.@.@.@.@.@.@.@.@.@.@.@.@.@.@.@.$.$.$.@.@.] J H U ( ( D ] Z @ +   : ( r.r.r.] H U U U U U ! ! ! ! ! ! ! ! ! ! ! ! ! ! ! ! ! ! ! ! U U U U U U U U U U U U U U U U U U U U U U U U U U U U U U U U U U U U U U U U U ^ 6.8.e.d             f 8.^ J U U U U U U U U U U U U U U U U U U U U U U U U U U U U U U U U U U U U U U U U U U U U U U U U U U U U U U U U U U U U U U U U U U U U U U U U U U U H M M M x n 3   . . . $ $ $ $ $ $ . . . $ . $ $ $ $ $ $ $ $ $ $ $ $ $ $ $ $ $ $ $ $ $ $ $ $ $ $ $ $ $ $ $ $ $ $ $ $ $ $ $ $ $ $ $ $ $ $ $ $ $ $ $ $ $ $ $ $ $ $ $ $ $ $ $ $ $ $ $ $ $ $ $ $ $ $ $ $ $ $ $ $ $ $ $ $ $ $ $ $ $ $ $ $ $ $ $ $ $ $ $ $ $ $ $ . $ . $ $ $ $ $ $ $ $ $ $ $ ,.n.h.g.j.6.@.@.@.@.@.@.@.@.@.@.@.@.@.@.@.@.@.@.@.@.@.@.@.@.@.@.@.@.@.@.@.@.@.@.@.@.@.@.@.@.*.*.*.*.*.*.$.@.@.@.@.@.=.=.=.=.*.*.*.*.*.*.$.$.$.@.@.@.@.@.@.@.@.@.@.@.@.@.@.@.@.@.@.@.@.@.@.@.@.@.@.@.@.@.@.@.@.@.@.@.@.@.@.@.@.@.@.@.@.@.@.@.@.@.@.@.@.@.@.@.@.@.@.@.@.@.@.@.@.@.@.@.@.@.@.@.@.@.@.@.$.$.$.$.$.$.$.$.",
"@.@.@.@.@.@.@.@.@.@.@.@.@.@.@.@.@.@.@.@.@.@.@.@.@.@.@.@.@.@.@.@.@.@.@.= . . $ $ $ $ $ $ . . r e 8 8 8 8 d 7 ] *.@.@.@.@.@.@.@.@.@.@.@.@.@.@.@.@.@.@.@.@.@.@.@.@.@.@.@.@.@.@.@.@.@.@.@.@.@.@.@.@.@.@.@.@.@.@.@.@.@.@.@.@.@.@.@.@.@.@.@.@.@.@.@.@.@.@.@.@.@.@.@.@.@.@.] ] J J U J U ! ( k X     d =.e.6.$.^ ^ ^ ! ! U U U ! ! ! ! ! ! ! ! ! ! ! ! ! ! ! ! ! ! ! ! U U U U U U U U U U U U U U U U U U U U U U U U U U U U U U U U U U U U U U U U ! ^ 6.8.6.9             h 6.U U ! ! ! ! U U U U U U U U U U U U U U U U U U U U U U U U U U U U U U U U U U U U U U U U U U U U U U U U U U U U U U U U U U U U U U U U U U U U U ! U H Z Z M x n 3   . . . $ $ $ $ $ $ . . . . . . . . . . . . $ $ $ $ $ $ $ $ $ $ $ $ $ $ $ $ $ $ $ $ $ $ $ $ $ $ $ $ $ $ $ $ $ $ $ $ $ $ $ $ $ $ $ $ $ $ $ $ $ $ $ $ $ $ $ $ $ $ $ $ $ $ $ $ $ $ $ $ $ $ $ $ $ $ $ $ $ $ $ $ $ $ $ $ $ $ $ $ $ $ $ $ $ $ $ . . . . . $ $ $ $ $ $ $ $ * . m n.h.g.j.6.@.@.@.@.@.@.@.@.@.@.@.@.@.@.@.@.@.@.@.@.@.@.@.@.@.@.@.@.@.@.@.@.@.@.$.$.$.$.*.*.@.@.@.@.( ( ( ( ( ^ ^ ^ ' ' ' ' @.@.@.@.*.*.*.*.*.$.$.@.@.@.@.@.@.@.@.@.@.@.@.@.@.@.@.@.@.@.@.@.@.@.@.@.@.@.@.@.@.@.@.@.@.@.@.@.@.@.@.@.@.@.@.@.@.@.@.@.@.@.@.@.@.@.@.@.@.@.@.@.@.@.@.@.@.@.@.@.@.@.@.@.$.$.$.$.$.$.$.$.",
"@.@.@.@.@.@.@.@.@.@.@.@.@.@.@.@.@.@.@.@.@.@.@.@.@.@.@.@.@.@.@.@.@.@.@.= . . $ $ $ $ $ $ . . r e 8 8 8 8 d 8 ] *.@.@.@.@.@.@.@.@.@.@.@.@.@.@.@.@.@.@.@.@.@.@.@.@.@.@.@.@.@.@.@.@.@.@.@.@.@.@.@.@.@.@.@.@.@.@.@.@.@.@.@.@.@.@.@.@.@.@.@.@.@.@.@.@.@.@.@.@.@.@.@.@.@. .( ^ H ^ ^ J ! J f     + H w.r.=.! ( J ! U J J U U U ! ! ! ! ! ! ! ! ! ! ! ! ! ! ! ! ! ! ! ! U U U U U U U U U U U U U U U U U U U U U U U U U U U U U U U U U U U U U U U U ! ! 5.8.5.3             k 5.J ! ! ! ! ! U U U U U U U U U U U U U U U U U U U U U U U U U U U U U U U U U U U U U U U U U U U U U U U U U U U U U U U U U U U U U U U U U U U U J ! Y H Z M M x n 3   . . . . $ $ . . . . . . .                 . . . . . . . . . . . . . . . . . . . . . . . . . . . . . . . . . . . . . . . . . . . . . . . . . . . . . . . . . . . . . . . . . . . . . . . . . . . . . . . . . . . . . . . . . . . . . . . . . . . . $ $ $ $ $ $ $ $ * . - 7.h.g.j.6.@.@.@.@.@.@.@.@.@.@.@.@.@.@.@.@.@.@.@.@.@.@.@.@.@.@.@.@.@.@.@.@.@.@.@.@.] ] ] ] ! ! U U J J J J J J U U U U U U ! ^ ^ ^ ^ ( ( (  .@.*.$.$.$.$.$.$.$.$.$.@.@.@.@.@.@.@.@.@.@.@.@.@.@.@.@.@.@.@.@.@.@.@.@.@.@.@.@.@.@.@.@.@.@.@.@.@.@.@.@.@.@.@.@.@.@.@.@.@.@.@.@.@.@.@.@.@.@.@.@.@.@.@.@.$.$.$.$.$.$.$.$.",
"@.@.@.@.@.@.@.@.@.@.@.@.@.@.@.@.@.@.@.@.@.@.@.@.@.@.@.@.@.@.@.@.@.@.@.= . $ $ $ $ $ $ $ . . 6 e 8 8 8 8 d 8 ] *.@.@.@.@.@.@.@.@.@.@.@.@.@.@.@.@.@.@.@.@.@.@.@.@.@.@.@.@.@.@.@.@.@.@.@.@.@.@.@.@.@.@.@.@.@.@.@.@.@.@.@.@.@.@.@.@.@.@.@.@.@.@.@.@.@.@.@.@.@.@.*.=.] ( ^ ^ H J ( J ! 5     3 ] g.6.] ( J J J J J J J U U U ! ! ! ! ! ! ! ! ! ! ! ! ! ! ! ! ! ! ! ! ! ! ! ! ! ! ! ! ! ! ! ! ! ! ! ! U U U U U U U U U U U U U U U U U U U U U U U U ! ! 5.8.*.+ X           A 5.J J U U U U U U U U U U U U U U U U U U U U U U U U U U U U U U U U U U U U U U U U U U U U U U U U U U U U U U U U U U U U U U U U U U U U U U U U J ! ! D x x x x V 4   . . . . . . . $   g #.%.>.3.3.3.3.>.>.>.>.3.3.3.3.3.3.3.3.3.3.3.3.3.3.3.3.3.3.3.3.3.3.3.3.3.3.3.3.3.3.3.3.3.3.3.3.3.3.3.3.3.3.3.3.3.3.3.3.3.3.3.3.3.3.3.3.3.3.3.3.3.3.3.3.3.3.3.3.3.3.3.3.3.3.3.3.3.3.3.3.3.3.3.3.3.3.3.3.3.3.3.3.7.=.F 6 .   . = . . $ $ $ $ $ $ $ $ $ u c.j.c.6.@.@.@.@.@.@.@.@.@.@.@.@.@.@.@.@.$.@.@.@.=.*.@.@.@.$.*.=.@.@.@.@.] ( ^ ! ^ ! J J H J U U J J J U H A Z x A A A D D H ! ^ J J J J ^ ^ ^ ^ ( ' ] ]  .@.@.$.*.$.@.@.*.$.@.@.@.@.@.@.@.@.@.@.@.@.@.@.@.@.@.@.@.@.@.@.@.@.@.@.@.@.@.@.@.@.@.@.@.@.@.@.@.@.@.@.@.@.@.@.@.@.@.@.@.@.@.@.@.@.@.@.$.$.$.$.$.$.$.$.",
"@.@.@.@.@.@.@.@.@.@.@.@.@.@.@.@.@.@.@.@.@.@.@.@.@.@.@.@.@.@.@.@.@.@.@.= . $ $ $ $ $ $ $ . . 6 e 8 8 8 8 d 8 ] *.@.@.@.@.@.@.@.@.@.@.@.@.@.@.@.@.@.@.@.@.@.@.@.@.@.@.@.@.@.@.@.@.@.@.@.@.@.@.@.@.@.@.@.@.@.@.@.@.@.@.@.@.@.@.@.@.@.@.@.@.@.@.@.@.@.@.@.@.@.$.@.] ( U J ^ J A ! x @     h 6.9.@.U J J ! J J J J J U U U U ! ! ! ! ! ! ! ! ! ! ! ! ! ! ! ! ! ! ! ! ! ! ! ! ! ! ! ! ! ! ! ! ! ! ! ! U U U U U U U U U U U U U U U U U U U U U U U U ! J <.8.@.X X           D =.J J U U U U U U U U U U U U U U U U U U U U U U U U U U U U U U U U U U U U U U U U U U U U U U U U U U U U U U U U U U U U U U U U U U U U U U U U J ! ! D x x x x V 3   . . . . . . . . P M.R.Y.Y.Y.Y.Y.Y.Y.Y.Y.R.R.R.R.R.R.R.R.R.R.R.R.R.R.R.R.R.R.R.R.R.R.R.R.R.R.R.R.R.R.R.R.R.R.R.R.R.R.R.R.R.R.R.R.R.R.R.R.R.R.R.R.R.R.R.R.R.R.R.R.R.R.R.R.R.R.R.R.R.R.R.R.R.R.R.R.R.R.R.R.R.R.R.R.R.R.R.R.R.R.R.R.R.G.Y.G.C.7.x   . . . . . $ $ $ $ $ $ $ . ..c.p.<.@.@.@.@.@.@.@.@.@.@.@.@.@.@.@.@.@.@.@.@.@.@.$.$.@.@.@.O.^ ^ ^ ^ ^ ! ! ^ ^ ^ U J ^ U H D Z Z x x x Z Z Z A Z x x x Z A A H H H H U U U U H J U U J J ^ ( ] ]  .@.@.@.*.=.*.$.@.@.@.@.@.@.@.@.@.@.@.@.@.@.@.@.@.@.@.@.@.@.@.@.@.@.@.@.@.@.@.@.@.@.@.@.@.@.@.@.@.@.@.@.@.@.@.@.@.@.@.@.@.@.$.$.$.$.$.$.$.$.",
"@.@.@.@.@.@.@.@.@.@.@.@.@.@.@.@.@.@.@.@.@.@.@.@.@.@.@.@.@.@.@.@.@.@.@.= . $ $ $ $ $ $ $ . . 6 e 8 8 8 8 d 8 ] *.@.@.@.@.@.@.@.@.@.@.@.@.@.@.@.@.@.@.@.@.@.@.@.@.@.@.@.@.@.@.@.@.@.@.@.@.@.@.@.@.@.@.@.@.@.@.@.@.@.@.@.@.@.@.@.@.@.@.@.@.@.@.@.@.@.@.@.@.@.O.( J ^ J J J H ( f     + U r.=.^ ^ ^ ! J J J J J J J U U U U ! ! ! ! ! ! ! ! ! ! ! ! ! ! ! ! ! ! ! ! ! ! ! ! ! ! ! ! ! ! ! ! ! ! ! ! U U U U U U U U U U U U U U U U U U U U U U U U ! U <.e.]               J @.J U U U U U U U U U U U U U U U U U U U U U U U U U U U U U U U U U U U U U U U U U U U U U U U U U U U U U U U U U U U U U U U U U U U U U U U U U J ^ ! A x x x x V 3   . . . . . . . 4 v.Z.A.C.D.D.D.D.D.D.D.D.D.D.D.D.D.D.D.D.D.D.D.D.D.D.D.D.D.D.D.D.D.D.D.D.D.D.D.D.D.D.D.D.D.D.D.D.D.D.D.D.D.D.D.D.D.D.D.D.D.D.D.D.D.D.D.D.D.D.D.D.D.D.D.D.D.D.D.D.D.D.D.D.D.D.D.D.D.D.D.D.D.D.D.D.D.D.D.D.D.D.D.D.D.F.G.G.G.R.Z.=.= . . . . $ $ $ $ $ $ $ . + <.c.r.@.@.@.@.@.@.@.@.@.@.@.@.@.@.@.@.*.*.$.@.*.@. .] ^ ! J J U ! ! ! ! ! ! ! J J H D A A A A A Z x k 8 7 3 @ 3 8 h x Z Z Z Z Z x x x D D D D H H J J J J ! ^ J J ! ^ ( ( ] ] @.@.@.@.@.@.@.@.@.@.@.@.@.@.@.@.@.@.@.@.@.@.@.@.@.@.@.@.@.@.@.@.@.@.@.@.@.@.@.@.@.@.@.@.@.@.@.@.@.@.@.@.@.@.@.@.$.$.$.$.$.$.$.$.",
"@.@.@.@.@.@.@.@.@.@.@.@.@.@.@.@.@.@.@.@.@.@.@.@.@.@.@.@.@.@.@.@.@.@.@.= . $ $ $ $ $ $ $ . . 6 e 8 8 8 8 d 8 ] $.@.@.@.@.@.@.@.@.@.@.@.@.@.@.@.@.@.@.@.@.@.@.@.@.@.@.@.@.@.@.@.@.@.@.@.@.@.@.@.@.@.@.@.@.@.@.@.@.@.@.@.@.@.@.@.@.@.@.@.@.@.@.@.@.@.@.@.@.@.( J ! ^ ^ J H H d     d 6.r.' U J H ! J J J J J J J J U U U U ! ! ! ! ! ! ! ! ! ! ! ! ! ! ! ! ! ! ! ! ! ! ! ! ! ! ! ! ! ! ! ! ! ! ! ! U U U U U U U U U U U U U U U U U U U U U U U U ! J <.e.]     X         U  .J U U U U U U U U U U U U U U U U U U U U U U U U U U U U U U U U U U U U U U U U U U U U U U U U U U U U U U U U U U U U U U U U U U U U U U U U U J ^ ! A x x x x V 3   . . . . . = . n T.Z.A.G.G.F.G.F.G.F.F.F.F.G.G.G.G.G.G.G.G.G.G.G.G.G.G.G.G.G.G.G.G.G.G.G.G.G.G.G.G.G.G.G.G.G.G.G.G.G.G.G.G.G.G.G.G.G.G.G.G.G.G.G.G.G.G.G.G.G.G.G.G.G.G.G.G.G.G.G.G.G.G.G.G.G.G.G.G.G.G.G.G.G.G.G.G.G.G.G.G.G.G.G.G.G.G.I.Y.Y.G.Y.Z.x o . . $ $ $ $ $ $ $ $ . 3 r.k.@.@.@.@.@.@.@.@.@.@.@.@.@.@.@.@.$.@.] ( U J J J H J U ^ ! ! ! ! ! ! ! ! A A Z x A x f 8 3 @ X                 X 3 8 k x Z Z Z Z x x x x x Z A A D H J J ^ ! U J ^ ! J J J ( ] ] @.@.@.@.@.@.@.@.@.@.@.@.@.@.@.@.@.@.@.@.@.@.@.@.@.@.@.@.@.@.@.@.@.@.@.@.@.@.@.@.@.@.@.@.@.@.@.@.@.@.@.@.$.$.$.$.$.$.$.$.",
"@.@.@.@.@.@.@.@.@.@.@.@.@.@.@.@.@.@.@.@.@.@.@.@.@.@.@.@.@.@.@.@.@.@.@.= . $ $ $ $ $ $ $ . . 6 e 8 8 8 8 d 8 ] $.@.@.@.@.@.@.@.@.@.@.@.@.@.@.@.@.@.@.@.@.@.@.@.@.@.@.@.@.@.@.@.@.@.@.@.@.@.@.@.@.@.@.@.@.@.@.@.@.@.@.@.@.@.@.@.@.@.@.@.@.@.@.@.@.@.*.@.] U J ! ( J J H H 3     D 6.$.J J J J J J ! ! U U U U U U U U U U U U U U U U U U U U U U U U U U U U U U U U U U U U U U U U U U U U U U U U U U U U U U U U U U U U U U U U U U U U U U U J 5.e.H   X X         ! @.J J J J J J U U U U U U U U U U U U U U U U U U U U U U U U U U U U U U U U U U U U U U U U U U U U U U U U U U U U U U U U U U U U U U U U U U U U U ^ U A x x x x V 3   . . . . . *   G T.Z.A.G.G.Y.G.V.g.l.l.l.l.l.l.l.l.l.l.l.l.l.l.l.l.l.l.l.l.l.l.l.l.l.l.l.l.l.l.l.l.l.l.l.l.l.l.l.l.l.l.l.l.l.l.l.l.l.l.l.l.l.l.l.l.l.l.l.l.l.l.l.l.l.l.l.l.l.l.l.l.l.l.l.l.l.l.l.l.l.l.l.l.l.l.l.l.l.l.l.l.l.l.g.g.l.g.g.g.g.c.c.D.Y.W   . * $ $ $ $ $ $ $ * . g p.6. .O.@. .@.$.$.@.@.$.*.@.] ' ( ! E J H ( ^ U U U U T ^ T U J J D A A Z z h t 7 @ +                                 + @ 3 7 h Z Z Z x x x x x x x x x Z A H J U ( ( ( ( U U U U U ( ] @.=.=.$.@.$.*.*.*.*.$.@.@.@.$.*.*.$.$.@.@.@.@.@.@.@.@.@.@.@.@.@.@.@.@.@.@.@.@.@.@.@.@.@.@.@.@.@.@.$.$.$.$.$.$.$.$.",
"@.@.@.@.@.@.@.@.@.@.@.@.@.@.@.@.@.@.@.@.@.@.@.@.@.@.@.@.@.@.@.@.@.@.@.= . $ $ $ $ $ $ $ . . 6 e 8 8 8 8 d 8 ' $.@.@.@.@.@.@.@.@.@.@.@.@.@.@.@.@.@.@.@.@.@.@.@.@.@.@.@.@.@.@.@.@.@.@.@.@.@.@.@.@.@.@.@.@.@.@.@.@.@.@.@.@.@.@.@.@.@.@.@.@.@.@.@.@.*.@.] ! J J U ^ A A x @ X 3 ] =.' J H J J J J J ! ! U U U U U U U U U U U U U U U U U U U U U U U U U U U U U U U U U U U U U U U U U U U U U U U U U U U U U U U U U U U U U U U U U U U U U U U J 5.e.Z   X X         ( ] J J J J J J U U U U U U U U U U U U U U U U U U U U U U U U U U U U U U U U U U U U U U U U U U U U U U U U U U U U U U U U U U U U U U U U U U U U U ^ U A x x x x V 3   . . . . . O   K T.Z.A.G.G.C.6.O.@.@.@.@.@.@.@.@.@.@.@.@.@.@.@.@.@.@.@.@.@.@.@.@.@.@.@.@.@.@.@.O.O.@.O.@.@.@.@.@.@.@.@.O.O.@.O.@.@.@.@.@.@.@.@.O.O.@.@.@.@.@.@.O.O.@.@.@.@.@.@.O.O.@.@.@.@.@.@.O.O.@.@.@.@.@.@.O.O.@.@.@.@.@.@.@.@.@.O.O.@.@.@.@.*.8.C.)   . $ $ . $ $ $ $ $ $ . g 9.@.@.=.=.$.@.@. .] ( ( ! ! ! ! ^ ! U J ( ^ U U J J J J J A M z z f 5 :                 X @ 2 3 7 9 5 3 + X X                 X 3 8 h x A Z x x x x x Z x x Z Z H H H H ! ! ! U J J J ^ ( ] @.@.@.@.@.@.=.=.$.@.@.@.@.@.$.$.$.$.@.@.@.@.@.@.@.@.@.@.@.@.@.@.@.@.@.@.@.@.@.@.@.@.@.@.@.@.$.$.$.$.$.$.$.$.",
"@.@.@.@.@.@.@.@.@.@.@.@.@.@.@.@.@.@.@.@.@.@.@.@.@.@.@.@.@.@.@.@.@.@.@.= . $ $ $ $ $ $ $ . . 6 e 8 8 8 8 d 8 ' $.@.@.@.@.@.@.@.@.@.@.@.@.@.@.@.@.@.@.@.@.@.@.@.@.@.@.@.@.@.@.@.@.@.@.@.@.@.@.@.@.@.@.@.@.@.@.@.@.@.@.@.@.@.@.@.@.@.@.@.@.@.@.@.@.@.] ! J U U J H Z k @   k @.] ^ U ^ ( J J J J J U U U U U U U U U U U U U U U U U U U U U U U U U U U U U U U U U U U U U U U U U U U U U U U U U U U U U U U U U U U U U U U U U U U U U U U U J J 5.9.k     X         ' ( J J J J J J U U U U U U U U U U U U U U U U U U U U U U U U U U U U U U U U U U U U U U U U U U U U U U U U U U U U U U U U U U U U U U U U U U U U ! ^ U A x x x x V 4   . . . . . O   G T.Z.G.G.G.<.*.@.@.$.$.$.$.*.*.*.*.*.*.*.*.*.*.*.*.*.*.*.*.$.@.$.$.$.$.$.$.$.@.@.@.$.$.$.$.$.$.$.$.$.@.@.@.$.$.$.$.$.$.$.$.$.$.@.@.$.$.$.$.$.$.@.@.$.$.$.$.$.$.@.@.$.$.$.$.$.$.@.@.$.$.$.$.$.$.@.@.$.$.$.$.$.$.$.$.$.@.@.*.*.$.$.*.$.@.e.( = $ * . $ $ $ $ $ $ .   g >.$. .] ) ( ^ D H J U ^ ^ ^ ^ ^ ^ ! U J H D A M j h h t 5 @           @ : 3 5 t f k z k x A D A A A Z x h 8 3 @ +           X X X + @ 3 8 f k A Z Z x x x x z Z Z Z Z H H H H ^ ^ ^ ^ ( ^ ! ! ' ' ' ' @.@.@.@.*.*.*.*.$.$.$.$.@.@.@.@.@.@.@.@.@.@.@.@.@.@.@.@.@.@.@.@.@.@.@.@.@.@.@.@.$.$.$.$.$.$.$.$.",
"@.@.@.@.@.@.@.@.@.@.@.@.@.@.@.@.@.@.@.@.@.@.@.@.@.@.@.@.@.@.@.@.@.@.#.= . $ $ $ $ $ $ $ . . r e 8 8 8 8 d 8 ] $.@.@.@.@.@.@.@.@.@.@.@.@.@.@.@.@.@.@.@.@.@.@.@.@.@.@.@.@.@.@.@.@.@.@.@.@.@.@.@.@.@.@.@.@.@.@.@.@.@.@.@.@.@.@.@.@.@.@.@.@.@.@.@.@.] ! J ^ ( ! H Z k   X A @.H J ( H ! ^ J J J J J U U U U U U U U U U U U U U U U U U U U U U U U U U U U U U U U U U U U U U U U U U U U U U U U U U U U U U U U U U U U U U U U U U U U U U U U U J 5.9.t     X         ] ^ J U J J J J U U U U U U U U U U U U U U U U U U U U U U U U U U U U U U U U U U U U U U U U U U U U U U U U U U U U U U U U U U U U U U U U U U U U ! ^ U A x x x x V 4   . . . . . O   G T.Z.G.G.G.*.@.@.$.*.$.$.$.*.*.*.*.*.*.*.*.*.*.*.*.*.*.*.*.@.@.@.@.$.$.$.$.@.@.@.$.$.$.$.$.$.$.$.$.@.@.@.$.$.$.$.$.$.$.$.$.$.$.$.$.$.$.$.$.$.$.$.$.$.$.$.$.$.$.$.$.$.$.$.$.$.$.$.$.$.$.$.$.$.$.$.$.$.$.$.$.$.$.$.$.$.@.@.*.*.@.@.@.$.@.@.*.I = . $ . $ $ $ ; $ $ %   g T ) F J U T ^ U J J ( U H D Z Z Z x k k f f 8 5 : @ 3 5 t h k k x x Z A A Z Z Z Z Z Z Z x Z Z Z Z x x Z Z Z Z k 8 3 : @                 X @ 3 8 k Z A A x x x x x x x x x x Z D J ^ ^ ! U ! U J J J U ^ ( ( ( ] ] ] @.@.*.$.@.@.@.@.@.@.@.@.@.@.@.@.@.@.@.@.@.@.@.@.@.@.@.@.@.@.@.@.$.$.$.$.$.$.$.$.",
"*.*.*.*.@.@.@. .*.*.*.*.*.*.*.*.*.*.*.*. . . .O. .] ] ( ( ] @.@.@.#.} = . $ $ $ $ $ $ $ . . r e 8 8 8 8 d 8 ] $.@.@.@.@.&.&.&.&.@.@.@.@.@.@.@.@.@.@.@.@.@.@.@.@.@.@.@.@.@.@.@.@.@.@.@.@.@.@.@.@.@.@.@.@.@.@.@.@.@.@.@.@.@.@.@.@.@.@.@.@.@.=.*.' J J J J x Z A d   : J ] ! ! ! ! U U U U U U U U U U U U U U U U U U U U U U U U U U U U U U U U U U U U U U U U U U U U U U U U U U U U U U U U U U U U U U U U U U U U U U U U U U U U U U U U ^ H *.e.9             @ ] ^ J ! ! ! U U U U U U U U U U U U U U U U U U U U U U U U U U U U U U U U U U U U U U U U U U U U U U U U U U U U U U U U U U U U U U U U U U ! ! ! ! ( J H A x x V V D 3     . . . . .   G Y.G.G.G.c.@.@.@.@.@.@.@.@.$.$.$.$.@.$.$.$.$.$.$.$.$.$.$.$.@.@.@.@.@.@.@.@.@.@.@.@.@.@.@.@.@.@.@.@.@.@.@.@.@.@.@.@.@.@.@.@.@.@.@.@.@.@.@.@.@.@.@.@.@.@.@.@.@.@.@.@.@.@.@.@.@.@.@.@.@.@.@.@.@.@.@.@.@.@.@.@.@.@.@.@.@.@.@.@.@.@.@.@.@.@.@.@.*.P = . % % $ $ $ $ $ $ $ . = I ^ H U J ( U D D x x x x x x x x h h h h h x M M M M M M x x x x x x x x L x x x Z Z Z Z Z Z Z Z x x Z Z Z Z Z Z Z z t 9 @ X     X           + @ 9 8 f z A Z Z x x x x x x x x A x Z A A H J ^ ( ! ! ! U U J U U ! ! ^ ^ ] ] O.@.@.@.@.@.@.@.@.@.$.*.*.*.*.*.*.*.$.$.$.@.@.@.@.$.$.*.*.*.$.@.@.@.",
"@.@.@.@.=.*.$.@.@.@.@.@.O.O.O.O.( ( ( ( U U U U U J J J H J ^ ( ) @.#.4 . $ $ $ $ $ $ $ $ . r e 8 8 8 8 d 8 ] $.@.@.@.@.@.@.&.&.@.@.@.@.@.@.@.@.@.@.@.@.@.@.@.@.@.@.@.@.@.@.@.@.@.@.@.@.@.@.@.@.@.@.@.@.@.@.@.@.@.@.@.@.@.@.@.@.@.@.@.@.*. .( ( ^ J D Z x Z 3   8 ! ^ H ! ! ! ! U U U U U U U U U U U U U U U U U U U U U U U U U U U U U U U U U U U U U U U U U U U U U U U U U U U U U U U U U U U U U U U U U U U U U U U U U U U U U U U U ! J =.8.2             @ ] ^ J ! ! ! U U U U U U U U U U U U U U U U U U U U U U U U U U U U U U U U U U U U U U U U U U U U U U U U U U U U U U U U U U U U U U J J J J U U U U J H D A x x x x D 3     . . . . .   G Y.G.G.G.c.@.@.@.@.@.@.@.@.$.$.$.$.@.$.$.@.$.$.$.$.$.$.$.$.@.@.@.@.@.@.@.@.@.@.@.@.@.@.@.@.@.@.@.@.@.@.@.@.@.@.@.@.@.@.@.@.@.@.@.@.@.@.@.@.@.@.@.@.@.@.@.@.@.@.@.@.@.@.@.@.@.@.@.@.@.@.@.@.@.@.@.@.@.@.@.@.@.@.@.@.@.@.@.@.@.@.@.@.@.@.@.@.@.=.] 4   $ $ $ $ $ $ $ % . $ - A ( D J J D x x L L x x x x x x x x M M M M M M M M M M x x x x x x x x L x x x x x Z Z Z Z Z Z x x x x x x x x Z Z x x x k 8 5 X       X     X   X @ @ : 3 t h f k x Z Z Z Z A Z Z x x x x Z Z A A A A J J U U U U ! U J J ^ ^ ^ ^ ^ ^ ( ( ] ] O.O.O.O.@.@.$.$.$.$.*.*.$.$.$.$.$.$.$.$.@.@.@.@.",
"$.$.$.$.@.O.] ] ( ( ( ( ^ ! ! U U J J J J J J J J U ! ^ J J J U F T / = . $ $ $ $ $ $ $ $ . r e 8 8 8 8 d 8 ] $.@.@.@.@.@.@.@.@.@.@.@.@.@.@.@.@.@.@.@.@.@.@.@.@.@.@.@.@.@.@.@.@.@.@.@.@.@.@.@.@.@.@.@.@.@.@.@.@.@.@.@.@.@.@.@.@.@.@.@.@.@.^ H J J D x k Z @   h J J J ^ ! ! ! ! U U U U U U U U U U U U U U U U U U U U U U U U U U U U U U U U U U U U U U U U U U U U U U U U U U U U U U U U U U U U U U U U U U U U U U U U U U U U U U U U J J =.6.+             @ ] ^ J ! U U U U U U U U U U U U U U U U U U U U U ! U U U U U U U U U U U U U U U U U U U U U U U U U U U U U U U U U U U U U U U U U U ^ ^ ^ ^ H H H D A A Z Z x x x x D 7     . . . . .   G Y.Z.G.G.c.@.@.@.@.@.@.@.@.$.$.$.$.$.$.$.$.$.$.$.$.$.$.$.$.@.@.@.@.@.@.@.@.@.@.@.@.@.@.@.@.@.@.@.@.@.@.@.@.@.@.@.@.@.@.@.@.@.@.@.@.@.@.@.@.@.@.@.@.@.@.@.@.@.@.@.@.@.@.@.@.@.@.@.@.@.@.@.@.@.@.@.@.@.@.@.@.@.@.@.@.@.@.@.@.@.@.@.@.@.@.@.@.*.@.=.) 4 $ $ $ $ $ $ $ $ $ $ . 6 D J U H A z x L L L L M x M M Z Z M M M M M M M M M M M M M x x x x x Z Z M M M M M x x x x x M M Z Z Z Z Z M x x x x x x M M x 8 : X X                     X   X @ 2 8 f k h x x M M Z x x Z L L x x x x x x D D D D H J J U U J J J ( ^ U J J J J J ( ( ( ( ] ] ] ] ]  . . .@.@.@.@.$.$.$.$.",
"' ' ' ' J H D A Z Z Z Z Z Z x x x x x x Z Z Z Z Z A D H ^ ^ ! U U F F = . $ $ $ $ $ $ $ $ . r e 8 8 8 8 d 8 ] $.@.@.@.@.@.@.@.@.@.@.@.@.@.@.@.@.@.@.@.@.@.@.@.@.@.@.@.@.@.@.@.@.@.@.@.@.@.@.@.@.@.@.@.@.@.@.@.@.@.@.@.@.@.@.@.@.@.@.@.@.! U J D x x x x   @ D ( H J H ! ! ! ! ! U U U U U U U U U U U U U U U U U U U U U U U U U U U U U U U U U U U U U U U U U U U U U U U U U U U U U U U U U U U U U U U U U U U U U U U U U U U U U U U U J ! 5.6.+             @ ] ^ J ! U U U U U U U U U U U U U U U U U U U U U U U U U U U U U U U U U U U U U U U U U U U U U U U U U U U U U U U U U U U U U U U U D D D D x x x x x x x x x x x x A 7     . . . . .   G Y.G.G.G.c.@.@.@.@.@.@.@.@.$.$.$.$.$.$.$.$.$.$.$.$.$.$.$.$.@.@.@.@.@.@.@.@.@.@.@.@.@.@.@.@.@.@.@.@.@.@.@.@.@.@.@.@.@.@.@.@.@.@.@.@.@.@.@.@.@.@.@.@.@.@.@.@.@.@.@.@.@.@.@.@.@.@.@.@.@.@.@.@.@.@.@.@.@.@.@.@.@.@.@.@.@.@.@.@.@.@.@.@.@.@.@.@.$.@.] *.} w . ; $ $ $ $ . $ $ . . 4 F T J D x M L x L x x x x M x x x x x x M M M M M M M M x x x x x x Z Z M M M M M M H H H H H H J J H J J J H D D D H D A A H D A x d 5 : @ X X X X                     X X X @ 5 8 f k x Z A A A A x x x x j j j x x x x Z A A A A J J U ! U U U U U U U U ! ! ! ! ^ ^ ^ ^ ^ ^ ^ ^ ( ( ( ( ",
"Z Z Z M M x x x x x M M M M M M x x M M M M M M M x x x A D J U J U T o . $ $ $ $ $ $ $ $ . r e 8 8 8 8 d 8 ' @.@.@.@.@.@.@.@.@.@.@.@.@.@.@.@.@.@.@.@.@.@.@.@.@.@.@.@.@.@.@.@.@.@.@.@.@.@.@.@.@.@.@.@.@.@.@.@.@.@.@.@.@.@.@.@.@.@.@. .( J J A k A H d   7 H ^ D H H H H H H H H H H H H H H H H H H H H J J J J J J J J J J J J J J J J J J J J J J J J J J J J J J J J J J J J J J J J J J J J J J J J J J J J J J J J J J J J J J J J J J J J J J <.@.X         X   @ ( J J J J J J J J J J J ! ! ! ! ! ! ! ! ! ! ! U U U U U ^ ^ ^ ^ ! ! ! ! J J J J ! ! ! ! ! ! ! ! ! ! ! ! ! ! ! ! ( ( ( ( ^ U H D A A A A Z x x x Z Z Z Z L L x x x x M M A 6   . . . . . . . G Y.G.G.G.c.@.@.@.@.@.@.@.@.$.$.$.$.$.$.$.$.$.$.$.$.$.$.$.$.@.@.@.@.@.@.@.@.@.@.@.@.@.@.@.@.@.@.@.@.@.@.@.@.@.@.@.@.@.@.@.@.@.@.@.@.@.@.@.@.@.@.@.@.@.@.@.@.@.@.@.@.@.@.@.@.@.@.@.@.@.@.@.@.@.@.@.@.@.@.@.@.@.@.@.@.@.@.@.@.@.@.@.@.@.@.@.@.@.@.@.@.=.%.v   * $ . . $ $ $ $ $ . 4 F T H M h x x x x x x M M M j M j j j M M M M M M M M M M A A A A D H J J U U U U U U U U J J U J J J J J J J J J U U U U U U U U U U U U D D D D j z f f 5 3 > :   X X               X @ > 3 8 f z x N A A N N N N x x x x j x x x Z Z Z A A A A F H J J U U U U U U U U U U U J J J J J ",
"M M M M x z x x x x M M M M M M x x M M M M M M M x x x A D J J U T J O . $ $ $ $ $ $ $ $ . r e 8 8 8 8 d 8 ' @.@.@.@.@.@.@.@.@.@.@.@.@.@.@.@.@.@.@.@.@.@.@.@.@.@.@.@.@.@.@.@.@.@.@.@.@.@.@.@.@.@.@.@.@.@.@.$.$.$.$.*.*.$.$.$.$.@.] ^ H Z x M D A 8 @ 7 A Z x D x x x x x x x x Z Z Z Z Z Z Z Z Z Z Z Z x x x x x x x x x x x x x x x x x x x x x x x x x x x x x x x x x x x x x x x x x x x x x x x x x x x x x x x x x x x x x x x x x x x x x x ] J           X   @ H A A A A A A A A A Z Z A A A A A A A A A D A A A A A A D D D D H H H H J J J J J J J J ^ ^ ^ ^ U U U U ! ! ! ! H H H H A Z x z x x x x x x x x Z Z Z Z x L x x x x M M A 6   . . . . . . . G Y.G.G.G.c.@.@.@.@.@.@.@.@.$.$.$.$.$.$.$.$.$.$.$.$.$.$.$.$.@.@.@.@.@.@.@.@.@.@.@.@.@.@.@.@.@.@.@.@.@.@.@.@.@.@.@.@.@.@.@.@.@.@.@.@.@.@.@.@.@.@.@.@.@.@.@.@.@.@.@.@.@.@.@.@.@.@.@.@.@.@.@.@.@.@.@.@.@.@.@.@.@.@.@.@.@.@.@.@.@.@.@.@.@.@.@.@.@.$.@.@.@.<. .g . . $ $ $ $ $ $ $ $ $ 4 F T Y D M M M j x z j j j j M x n n N N F F H H H H J J J J J J J J J J J J J J J J P J J J J J J J J J J J J J J J J J J J J J J J ^ ^ T T ^ ^ ^ ^ U J ^ ^ T U J J J H z z z j t 7 3 : @ @ + + X + @ 3 8 8 f f j z M M M M M x x z z z x x j j x x M M M M Z Z D D D D D D D D N N M M ",
"A A A D A A D D D D D D D D D D D D D D D D D D J J J J J F J J T T N . . $ $ $ $ $ $ $ $ . r e 8 8 8 8 d 8 ' @.@.@.@.@.@.@.@.@.@.@.@.@.@.@.@.@.@.@.@.@.@.@.@.@.@.@.@.@.@.@.@.@.@.@.@.@.@.@.@.@.@.@.@.@.@.@.@.@.@.@.@.@.@.@.$.$.] U H A x x x x 5 + k Z Z A Z k x x x x x x L x x x x x x x x x x x x x Z Z Z Z Z Z Z Z Z Z Z Z Z Z Z Z Z Z Z Z Z Z Z Z Z Z Z Z Z Z Z Z Z Z Z Z Z Z Z Z Z Z Z Z Z Z Z Z Z Z Z Z Z Z Z Z x x x x x x x x L L x x x x ' H           X   @ x x x x x x x x x x x x x x x x x x x x Z Z M M x x x x x x x x x x x x x x x x Z Z Z Z A A A A D D D D Z Z Z Z x x x M Z Z x x Z Z Z Z x x x x Z Z Z Z M M M M M M M M A 6   . . . . . .   F Y.G.G.G.c.@.@.@.@.@.@.@.@.$.$.$.$.$.$.$.$.$.$.$.$.$.$.$.$.@.@.@.@.@.@.@.@.@.@.@.@.@.@.@.@.@.@.$.@.@.@.@.@.@.@.@.@.@.@.@.@.@.@.@.@.@.@.@.@.@.@.@.@.@.@.@.@.@.@.@.@.@.@.@.@.@.@.@.@.@.@.@.@.@.@.@.@.@.@.@.@.@.@.@.@.@.@.@.@.@.@.@.@.@.@.@.@.$.$.$.$.$. .@.@.e . . * . $ $ $ $ % $ . 3 F ) H J J J J J F F J F F J J J J T T T T T T T T T T T T T T T P P P P P P P P P P P J J P P P P P P P P P P P P P P P P P P P P P P T T T P J J J J J J U U T ^ T U U U U U ^ ^ ^ ^ U J D A M x h y h f t 8 f h z x Z Z Z Z A A A A A A A A A A A A A A A A A Z Z Z Z Z A A A A D D ",
"J J ^ ^ W W ^ W W P P P P P J J J J P P J J T T T T T T P P P P T I g . . $ $ $ $ $ $ $ $ . r e 8 8 8 8 d 8 ' @.@.@.@.@.@.@.@.@.@.@.@.@.@.@.@.@.@.@.@.@.@.@.@.@.@.@.@.@.@.@.@.@.@.@.@.@.@.@.@.@.@.@.@.@.@.@.@.@.] ] ] ] ( ( ( ( J D A x Z H Z 3 3 z x x Z Z x k x x x x x x x x x x x x x x x x Z Z Z Z x x x x x x x x x x x x x x x x x x x x x x x x x x x x x x x x x x x x x x x x x x x x x x x x x x x x x x x x x x x x x x x x x x x x x k ( Z               @ Z x x M x M M x x x x x Z Z Z Z Z Z Z Z Z Z Z Z Z Z Z Z x x x x x x x x x x x x x x x x x Z Z Z Z Z Z Z x x x x x x x x x x x x x x x x x x x x Z Z Z Z M M M M M M M M A 6   . . . . . .   F Y.G.G.G.c.@.@.@.@.@.@.@.@.$.$.$.$.$.$.$.$.$.$.$.$.$.$.$.$.@.@.@.@.@.@.$.$.@.@.@.@.@.@.@.@.@.@.$.$.@.@.@.@.@.@.@.@.@.@.@.@.@.@.@.@.@.@.@.@.@.@.@.@.@.@.@.@.@.@.@.@.@.@.@.@.@.@.@.@.@.@.@.@.@.@.@.@.@.@.@.@.@.@.@.@.@.@.@.@.@.@.@.@.@.@.@.@.$.$.$.$. .$.=.@.) g .   . . $ $ . $ $ $ . = x / P P P P P P P P P P P P P P P P P P P P P P P P P P T P P P P P P P P P P P P P P P P P P P P P P P P P P P P P P P P P P P P P P P P F I P T ^ F J T T T T T J P P J J J J T T ^ ^ ^ ^ ^ ^ T T ^ ^ ( ( ^ ^ U J U U U U T T ^ ^ T T T T T T U U U J U U U U U U U U U U T T T T ",
"T T P T P P P P P P P P P P P P P P P P P P ^ P P P P P P P P P S e $   . $ $ $ $ $ $ $ $ $ - e 8 8 8 8 t 7 ' @.@.@.@.@.$.$.$.$.@.@.@.@.@.@.@.@.$.$.$.$.$.$.$.$.$.$.%.=.*.%.@.@.@.@.@.@.@.@.@.@.=.$.@.]  .] ( ( J J U ^ U J J D M M M M D f @ x j j j j j j j j M M M M M M M M M M M M M M M M M M M M M M M M M M M M M M M M M M M M M M M M M M M M M M M M M M M M M M M M M M M M M M M M M M M M M M M M M M M M M M M M M M M M Z M M M x M  .z               : M M M M j M M M M M M j M M M M x j j j j j j j x x j j j j x x M M M M M M M M M M M M M M M M Z Z M M M M M M M M M M j M M M M M j j M M M M M M M M M M M M M M M x A =   . . . . . = . F W.G.G.G.k.@.@.@.@.@.@.@.$.*.*.@.@.@.@.@.@.@.@.@.@.@.@.@.@.@.@.@.@.=.%.=.$.$.$.$.$.$.$.$.$.$.$.$.$.$.$.$.$.$.$.$.$.$.$.$.$.$.$.@.@.@.@.@.@.@.@.$.$.@.@.@.@.@.@.@.@.@.@.@.@.@.@.@.@.@.@.@.@.@.@.@.@.@.@.@.@.@.@.@.@.@.@.@.@.@.@.@.@.$.$.$.$.$.$.$.$.$.$.$.$.@.] n O . $ . $ $ $ $ $ $ . . 4 S F P / P P P P P P P P P P P P P P P P P P P P P P P P P P P P P P P P P P P P P P P P P P P P P P P P P P P P P P P P P P P P P P P P P P / T P P P T T T T P P P P P J P T T T T P P P J P T T T T P J J J J U U U U T T T P J J J P J J J J J J J J J J P P T T T T T T T T ",
"4 4 4 4 4 4 4 4 4 4 4 4 4 4 4 4 4 4 4 4 4 4 4 4 4 1 4 4 q q q 4 ; $ . . $ $ $ $ $ $ $ $ $ $ = 4 7 7 7 7 t 7 ( @.@.@.@.@.@.@.@.@.@.@.@.@.@.@.@.@.@.@.@.@.@.@.@.@.=.$.@.@.@.@.$.%.=.*.@...........] ^ U U U U U U U U ^ ^ J D A N h M A M t 3 M x j j j M j j M M M M M M M M M M M M M M M M M M M M M M M M M M M M M M M M M M M M M M M M M M M M M M M M M M M M M M M M M M M M M M M M M M M M M M M M M M M M M M x x x x x x x x x x x x x z ( f               : M M M j j j M M M M M j M M M M x j j j j j j j M x j j j j j j M M M M M M M M M M M M M M M M M M M M M M M M j j j x x j j M x x x x M M M M M M M M x x x x Z x x A 7 o   . . . . . = . n D.C.C.A.c.@.@.$.$.$.$.*.$.@.@.@.@.@.@.@.@.@.@.@.@.@.@.@.@.$.$.$.$.@.@.@.@.@.@.$.@.@.@.@.@.$.@.$.$.$.@.@.@.@.@.@.@.@.@.@.@.@.@.@.@.@.@.@.@.@.@.$.$.$.$.*.*.*.*.*.*.*.*.*.*.=.=.=.%.*.$.$.$.$.$.$.$.$.$.$.$.@.@.@.@.@.@.@.@.@.@.@.@... . . . . . . . .]  . . .( U F O . . $ $ $ $ $ $ $ $ . * = 1 4 1 1 1 1 1 1 4 4 1 1 1 1 1 1 1 1 1 1 1 1 4 4 4 1 1 - - - - - - - - - - - - - - - 1 1 - - - - - - - - - - - - - - - - - - 1 1 1 1 4 4 4 4 - - 4 4 4 4 4 - - - , , = - 4 4 4 4 1 4 4 4 6 6 6 6 6 4 4 4 4 4 4 4 4 4 6 6 6 6 4 4 4 4 4 4 4 4 4 4 4 4 4 4 6 6 6 6 6 6 6 6 6 6 ",
". . . . . . . . . . . . . . . . . . . . . . . . . . . . $ $ . . . $ $ $ $ $ $ $ $ $ $ $ $ $ . = f d t t t 7 ( @.%.%.%.%.=.=.=.=.=.=.=.=.@.@.@.@.$.$.$.$.$.$.$.$...@.@.$.@.@.$.$.@. .] ( U U U U J J J J J J J U U U U J A A M M A A M 8 t x M f j j M M M M M M M M M M M M M M M M M M M M M M M M M M M M M M M M M M M M M M M M M M M M M M M M M M M M M M M M M M M M M M M M M M M M M M M M M M M M M M M M M M M M M M x M M M M M M M M M ( t               : M M M x j j M M M M j j j j M M M M j j M M M M M M j j M M j j M M M M Z Z M M M M M M M M M M A A A A Z M M M M M M M M M M M M M M M M M M M Z Z Z M M M M M M A x t @ o . . . . . . . . 8 y.1.6.9.=.] ] ] ]  . . .@.@.@.$.$.$.@.@.@.@.@.@.@.@.@.@.@.$.$.$.$.$.$.$.$.$.$.*.*.*.*.*.*.%.%.*.=.*.*.%.$.$.@.@.@.@.@.@.@.@.@.@.@.@.@.@.@.@.@.@.@.@.......................] ] ] ] ] ) ) ) ) ) ) ) ) ) ) ) ^ ^ ^ ^ ^ ^ ^ ^ ^ ^ ^ ^ ^ T T T T T T T U U U U Y ~ ^ T g = .   $ $ $ $ $ $ $ $ $ $ * * $ $ $ $ $ $ $ $ $ $ $ $ $ $ $ $ $ $ $ $ $ $ $ $ $ . . $ . . . . $ . . . . . . $ . . . . . . . . . . $ $ . . . . . . . . $ $ $ $ $ $ * $ $ $ $ $ $ $ $ $ $ $ $ $ $ $ $ $ $ $ $ $ . . . $ $ $ $ . . . . . . . . . . . . . . . . . . . . . . . . . . . . . . . . $ $ $ $ $ ",
". . . . $ $ $ $ $ $ $ $ $ $ $ $ . . $ $ $ $ $ $ $ $ $ $ $ $ $ $ $ $ $ $ $ $ $ $ $ $ $ $ $ $ . = 6 6 6 6 e 6 ) #.} } } ] } } } } @.@.@.@.#.#.#.#.@.@.@.@.@.@.@.@.@.@.@...) ^ ^ T J J J J J J J P J J T T T T T T J F F A N N N N N j f f N A z x j j x M x x x x n n n n n n n n n n n n n n n n n n n n n n n n n n n n n n n n n n n n n n n n n n n n n n n n n n n n n n n n n n n n n n n n n n n n n n n n n n n n x x j j j j x x x x x z M x T 6               > x x x x j j j x x n j j j j x x x j j j x x x n x x j j x x x j n n n n j j g g g g g g g g g g j j j j g g g g g g g g f g g g f f f f g g g g j j g j h h h h j 8 @ X o o . . . . . . . . = =.6.6.6.@.J J J J U U U U ^ ( ] ] @.@.@.@.@.@.@.@.@.@..... . . .] ] ] ] ] ] ) ) ) ) ) ) ) ) ) ) ) ) ) ) ) ^ ^ ^ ^ ^ ^ ^ ^ T T U U U U U J J J J J J J J J J J J J J J J J J J J J J J J J J J J J J J J J J J J J J J J J J J J J T T T T T T T T H H H H J Y T ( x . . * $ $ $ $ $ $ $ $ $ $ $ $ . . . . . . . . . . . . . . . . . . . . $ $ $ . . . . . . . . . . . . . . . . . . . . . . . . . . . . . . . . . . . . . . . . . $ $ $ $ . . . . $ $ $ $ $ $ $ $ . $ $ $ $ $ $ $ $ $ $ $ $ $ $ $ $ $ $ $ $ $ $ $ $ $ $ $ $ $ $ $ $ $ $ $ $ $ $ $ $ $ $ $ $ $ $ $ $ $ $ $ ",
"$ $ $ $ $ . . . . . $ $ $ $ $ $ $ $ $ $ $ $ $ $ $ $ $ $ $ $ $ $ $ $ $ $ $ $ $ $ $ $ $ $ $ $ . . $ $ $ $ % % % % % $ $ $ $ * = = = = ; ; = = = = = = = = = = = = = = = = = = = = = = = = = = = = = = = = = = = = = = = = = = = = = O . . . . . o o o . . . . . . . . . . . . . . . . . . . . . . . . . . . . . . . . . . . . . . . . . . . . . . . . . . . . . . . . . . . . . . . . . . . . . . . . . . . . . . . . . . . . . . . . . . . . . .     X                   . . . . . . . . . . . . . . . . . . . . . . . . . . . . o o . . . . . . . . . . . . . . . . . . . . . . . . . . . . . . . . . . . . . . . . . . . . . . . . . . . . . . . . . . . . . . . . . e 6.r.y.7.^ ^ ^ ^ ( ( ( ( ^ ^ ^ ^ ^ ^ ^ ^ ^ ^ ^ ^ ^ ^ ^ ^ T T ^ ^ ^ ^ ^ ^ ^ ^ ^ ^ ^ ^ ^ ^ ^ ^ ^ ^ ^ ^ ^ ^ ^ ^ ^ ^ ^ ^ ^ ^ T T T T ^ ^ ^ ^ T T T T ^ ^ ^ ^ ^ ^ ^ ^ ^ ^ ^ ^ T T ^ ^ ^ ^ ^ ^ ^ ^ T T ^ ^ ^ ^ ^ ^ ^ ^ ^ ^ ^ ^ ^ ^ ^ ^ ^ ^ ^ ^ ^ ^ ^ ^ ^ ^ ^ ^ T ^ P S = . . . $ $ $ $ $ $ $ $ $ $ $ $ $ $ $ $ $ $ $ $ $ $ $ $ $ $ $ $ $ $ $ $ $ $ $ $ $ $ $ $ $ $ $ $ $ $ $ $ $ $ $ $ $ $ $ $ $ $ $ $ $ $ $ $ $ $ $ $ $ $ $ $ $ $ $ $ $ $ $ $ $ $ $ $ $ $ $ $ $ $ $ $ $ $ $ $ $ $ $ $ $ $ $ $ $ $ $ $ $ $ $ $ $ $ $ $ $ $ $ $ $ $ $ $ $ $ $ $ $ $ $ $ $ $ $ $ $ $ $ $ $ $ . ; ",
"$ $ $ $ $ $ . . $ . $ $ $ $ $ $ $ $ $ $ $ $ $ $ $ $ $ $ $ $ $ $ $ $ $ $ $ $ $ $ $ $ $ $ $ $ . $ $ $ $ $ $ $ $ $ $ $ $ $ $ $ $ $ $ $ $ $ $ $ $ $ $ $ . . $ $ $ $ $ $ $ $ $ $ $ $ $ $ $ $ $ $ $ $ $ $ $ $ $ $ $ $ $ $ . . . . . . $ . . . . . . . . . . . . . . . . . . . . . . . . . . . . . . . . . . . . . . . . . . . . . . . . . . . . . . . . . . . . . . . . . . . . . . . . . . . . . . . . . . . . . . . . . . . . . . . . . . . . . . . .   .       . .       . . . . . . . . . . . . . . . . . . . . . . . . . . . . . . . . . . . . . . . . . . . . . . . . . . . . . . . . . . . . . . . . . . . . . . . . . . . . . . . . . . . . . . . . . . . . . . . . $ - I [ I b v v v v n n n b v v j j j j j j j j j n n n n n n n n n n n n n n n n n n n n n n n N n n n n n n n n n n n n n n n n n n n n n n n n n n n n n n n n n n n n n n n n n n N A n n n n n n n n n n n n n n n n n n n n n n n n n n n n n n n n n v r = . . . $ $ $ $ $ $ $ $ $ $ $ $ $ $ $ $ $ $ $ $ $ $ $ $ $ $ $ $ $ $ $ $ $ $ $ $ $ $ $ $ $ $ $ $ $ $ $ $ $ $ $ $ $ $ $ $ $ $ $ $ $ $ $ $ $ $ $ $ $ $ $ $ $ $ $ $ $ $ $ $ $ $ $ $ $ $ $ $ $ $ $ $ $ $ $ $ $ $ $ $ $ $ $ $ $ $ $ $ $ $ $ $ $ $ $ $ $ $ $ $ $ $ $ $ $ $ $ $ $ $ $ $ $ $ $ $ $ $ $ $ $ $ $ . ; ",
"$ $ $ $ $ $ $ $ $ $ $ $ $ . . . $ $ $ $ $ $ $ $ $ $ $ $ $ $ $ $ $ $ $ $ $ $ $ $ . . . . . . $ $ $ $ $ $ $ $ $ $ $ $ $ $ $ $ $ $ $ $ $ $ $ $ $ $ . . . . . . . . $ . . $ $ $ $ $ $ $ $ $ $ $ $ $ $ $ $ $ $ $ $ $ . . $ . . . $ $ . . . . $ $ $ $ $ $ $ $ $ $ $ $ $ $ $ $ $ $ $ $ $ $ $ $ $ $ $ $ $ $ $ $ $ $ $ $ $ $ $ $ $ $ $ $ $ $ $ $ $ $ $ $ $ $ $ $ $ $ $ $ $ $ $ $ $ $ $ $ $ $ $ $ $ $ $ $ $ $ $ $ $ $ $ $ $ $ $ $ $ $ $ $ $ $ $ $ $ $ $ . . . . . . . . . . . . . . . . . $ $ . . . . $ $ $ $ $ $ $ $ $ $ $ $ $ $ $ $ $ $ $ $ $ $ $ $ $ $ $ $ $ $ $ $ $ $ $ $ $ $ $ $ $ $ . $ $ $ . . . . . . $ $ $ $ $ $ . . $ $ $ $ $ $ . . $ $ $ $ $ $ $ $ $ . $ $ $ $ $ $ $ $ . $ . $ . . . . . . . . . . . . . . . . . . . . . . . . . . . . . . . . . . . . . . . . . . . . . . . . . . . . . . . . . . . . . . . . . . . . . . . . . . . . . . . . . . . . . . . . . . . . . . . . . . . . . . . . . . . . . . . . . . . . . . . . . $ .   $ $ $ $ $ $ $ $ $ $ $ $ $ $ $ $ $ $ $ $ $ $ $ $ $ $ $ $ $ $ $ $ $ $ $ $ $ $ $ $ $ $ $ $ $ $ $ $ $ $ $ $ $ $ $ $ $ $ $ $ $ $ $ $ $ $ $ $ $ $ $ $ $ $ $ $ $ $ $ $ $ $ $ $ $ $ $ $ $ $ $ $ $ $ $ $ $ $ $ $ $ $ $ $ $ $ $ $ $ $ $ $ $ $ $ $ $ $ $ $ $ $ $ $ $ $ $ $ $ $ $ $ $ $ $ $ $ $ $ $ $ $ $ $ $ $ . ; ",
". $ $ $ $ $ $ $ $ $ $ $ $ . . . $ $ $ $ $ $ $ $ $ $ $ $ $ $ $ $ $ . . . . . . . . . . . . . $ $ $ $ $ $ $ $ $ $ $ $ $ $ $ . $ $ $ $ $ $ $ $ $ $ $ $ $ $ $ $ $ $ $ $ $ $ $ $ $ $ $ $ $ $ $ $ $ $ $ $ $ $ $ $ $ $ $ $ $ $ $ $ $ $ $ $ $ $ $ $ $ $ $ $ $ $ $ $ $ $ $ $ $ $ $ $ $ $ $ $ $ $ $ $ $ $ $ $ $ $ $ $ $ $ $ $ $ $ $ $ $ $ $ $ $ $ $ $ $ $ $ $ $ $ $ $ $ $ $ $ $ $ $ $ $ $ $ $ $ $ $ $ $ $ $ $ $ $ $ $ $ $ $ $ $ $ $ . . . . . $ . . . . . . . . . . . . . . . . $ $ $ $ $ $ $ $ $ $ $ $ $ $ $ $ $ $ $ $ $ $ $ $ $ $ $ $ $ $ $ $ $ $ $ $ $ $ $ $ $ $ $ $ $ $ $ $ $ $ $ $ $ $ $ $ $ $ $ $ $ $ $ $ $ $ $ $ $ $ $ $ $ $ $ $ $ $ $ $ $ $ $ $ $ $ $ $ $ $ $ $ $ $ $ $ $ $ % $ . $ $ . $ $ $ $ $ . . . $ $ $ $ $ $ $ $ $ $ $ $ $ $ $ $ $ $ $ $ $ $ $ $ $ $ $ $ $ $ $ $ $ $ $ $ $ $ $ $ $ $ $ $ $ $ $ $ $ $ $ $ $ $ $ $ . $ $ . $ $ $ $ $ $ $ $ $ . . $ $ $ $ $ $ $ $ $ $ $ $ $ $ $ $ $ $ $ $ $ $ $ $ $ $ $ $ $ $ $ $ $ $ $ $ $ $ . $ $ . $ $ $ $ $ $ $ $ $ $ $ $ $ $ $ $ $ $ $ $ $ $ $ $ $ $ $ $ $ $ $ $ $ $ $ $ $ $ $ $ $ $ $ $ $ $ $ $ $ $ $ $ $ $ $ $ $ $ $ $ $ $ $ $ $ $ $ $ $ $ $ $ $ $ $ $ $ $ $ $ $ $ $ $ $ $ $ $ $ $ $ $ $ $ $ $ $ $ $ $ $ $ $ $ $ $ $ $ $ $ $ $ $ $ $ $ $ $ $ $ $ $ $ $ $ $ $ $ $ $ $ $ $ $ $ $ $ $ $ $ $ $ $ $ $ $ . ; ",
". . $ $ $ . . . $ $ $ $ $ $ $ $ $ $ $ $ $ $ $ $ $ $ $ $ $ $ $ $ . . . . . . . .         . . . $ $ % $ $ $ $ $ $ $ $ $ $ $ $ % $ $ $ $ $ $ $ $ $ $ $ $ $ $ $ $ $ $ $ $ $ $ $ $ $ $ $ $ $ $ $ $ $ $ $ $ $ $ $ $ $ $ $ $ $ $ $ $ $ $ $ $ $ $ $ $ $ $ $ $ $ $ $ $ $ $ $ $ $ $ $ $ $ $ $ $ $ $ $ $ $ $ $ $ $ $ $ $ $ $ $ $ $ $ $ $ $ $ $ $ $ $ $ $ $ $ $ $ $ $ $ $ $ $ $ $ $ $ $ $ $ $ $ $ $ $ $ $ $ $ $ $ $ $ $ $ $ $ $ $ $ $ $ $ $ $ $ $ $ $ $ $ $ $ $ $ $ $ $ $ $ $ $ $ $ $ $ $ $ $ $ $ $ $ $ $ $ $ $ $ $ $ $ $ $ $ $ $ . . $ $ $ $ $ $ $ $ $ $ $ . $ * $ . . . $ $ $ $ $ $ $ $ $ $ $ $ $ $ $ $ $ $ $ $ $ $ $ $ $ $ $ $ $ $ $ $ $ $ $ $ $ $ $ $ $ $ $ $ $ $ $ $ $ $ $ $ $ $ $ $ $ $ $ $ $ $ $ $ $ $ $ $ $ $ $ $ $ $ $ $ $ $ $ $ $ $ $ $ $ $ $ $ $ $ $ $ $ $ $ $ $ $ $ $ $ $ $ $ $ $ $ $ $ $ $ $ $ $ $ $ $ . . $ $ $ $ $ $ $ $ $ $ $ $ $ . . $ $ $ $ $ $ $ $ $ $ $ $ $ $ $ $ $ $ $ $ $ $ $ $ $ $ $ $ $ $ $ $ $ $ $ $ $ $ $ $ $ $ $ $ $ $ $ $ $ $ $ * * * * $ $ $ $ $ $ $ $ $ $ $ $ $ $ $ $ $ $ $ $ $ $ $ $ $ $ $ $ $ $ $ $ $ $ $ $ $ $ $ $ $ $ $ $ $ $ $ $ $ $ $ $ $ $ $ $ $ $ $ $ $ $ $ $ $ $ $ $ $ $ $ $ $ $ $ $ $ $ $ $ $ $ $ $ $ $ $ $ $ $ $ $ $ $ $ $ $ $ $ $ $ $ $ $ $ $ $ $ $ $ $ $ $ $ $ $ $ $ $ $ $ $ $ $ $ $ $ $ $ $ $ $ % . . . $ $ $ ; ",
". . $ . . $ $ $ $ $ $ $ $ $ $ $ . . . . . . . . . . . . . . . . . . . .             X o . $ $ $ $ $ $ $ $ $ $ $ $ $ $ $   $ % . % % % % % % % % * * * * * * * * * * * * $ $ $ $ $ $ $ $ $ * * * $ $ $ $ $ $ * * * * $ $ $ $ % % % % % ; $ $ $ $ $ $ $ $ $ $ $ $ $ ; % $ $ $ $ $ $ $ $ $ $ $ $ $ $ $ $ $ $ $ $ $ $ $ $ $ $ $ $ $ $ $ $ $ $ $ $ $ $ $ $ $ $ $ $ $ $ $ $ $ $ $ $ $ $ $ $ $ $ $ $ $ $ $ $ $ $ $ $ $ $ $ $ $ $ $ $ $ $ $ $ $ $ $ $ $ $ $ $ $ $ $ $ $ $ $ $ $ $ $ $ $ $ $ $ $ $ $ $ $ $ $ $ $ $ $ $ $ $ $ * ; $ . $ $ $ $ $ $ $ $ $ $ * . % . % * . % $ $ $ $ $ $ $ $ $ $ $ $ $ $ $ $ $ $ $ $ $ $ $ $ $ $ $ $ $ $ $ $ $ $ $ $ $ $ $ $ $ $ $ $ $ $ $ $ $ $ $ $ $ $ $ . $ $ $ $ $ $ $ $ $ $ $ $ $ $ $ $ $ $ $ $ $ $ $ $ $ $ $ $ $ $ $ $ $ $ $ $ $ $ $ $ $ $ $ $ $ $ $ $ $ $ $ $ $ $ $ $ $ $ $ $ . $ * $ $ . $ $ $ $ $ $ $ $ $ . . $ $ . . . . . . . . . . . . . . . . . . . . . . . . . . . . . . . . . . . . . . . . . $ . . . . . . . . . . . . . . . . . . . . . . . . . . . . . . . . . . . . . . . . . . . . . . . . . . . . . . . . . . . . . . . . . . . . . . . . . . . . . . . . . . . . . . . . . . . . . . . . . . . . . . . . . . . . . . . . . . . . . . . . . . . . . . . . . . . . . . . . . . . . . . . $ * ; % $ $ $ % ",
". $ $ $ . $ $ . . . . . . . . . . . . . . . . . . . . . . . . . . . .             @ @   . . $ $ $ $ $ $ $ $ $ $ $ $ $ $ * % $ . $ $ . . . . . . . . . . . . . . . . . . . . . . . . . . . . . . . . . . . . . . . . . . . . . . . . . $ $ $ $ $ $ $ $ $ $ $ $ $ $ . . $ $ $ $ $ $ $ $ $ $ $ $ $ $ $ $ $ $ $ $ $ . . . . . . . . $ $ $ $ $ $ $ $ $ $ $ $ $ $ $ $ $ $ $ $ $ $ $ $ $ $ $ $ $ $ $ $ $ $ $ $ $ $ $ $ $ $ $ $ $ $ $ $ $ $ $ $ $ $ $ $ $ . . $ $ $ $ $ $ $ $ $ $ $ $ $ $ $ $ $ $ $ $ $ $ $ $ $ $ $ $ $ $ $ $ . $ . . . . . . . . . . . . = - $ $ $ - $ = = = = = = = = % % = = % % % % % % % % = = % % % % % % = = = = = = = = = = = = = = = = ; ; ; ; % % = % % = $ % = = = % % % % = % % = = = = = = = = = = = = = = = = = = = = = = = = = = = = = = = = = = = = = = = = = = = = = = = = = = % . . $ $ . . . . . . . $ $ $ $ $ . . 4 - - - - - - - - - - - - - - - - - - - - - - - - - - - - - - - - - - - - - - - - - - - - - - - - 1 4 4 4 , - - - - - - - - - - - - - - - - - - - - - - - - - - - - - - - - - - - - - - - - - - - - - - - - - - - - - - - - - - - - - - - - - - - - - - - - - - - - - - - - - - - - - - - - - - - - - - - - - - - - - - - - - - - - - - - - - - - - - - - - - - - - - - - - - - - 1 q . . . . $ = ",
". $ . . = g S C C C C C n n n n n n n n C C n n n n n n n n N N @   X X             X f n m m m r 1 $ $ $ $ $ $ $ $ $ $ $ . = v P P P P Q P P P P P P P P P P P P P P P P P P P P P P P P P P P P P P P P P P P P P P P P P P P ^ S r = $ $ $ $ $ $ $ $ $ $ $ $ $ P y.v.v.c.c.c.c.c.c.c.c.c.c.c.c.c.c.c.c.c.c.c.z.z.z.z.c.k.k.k.v.c.c.c.c.c.c.c.c.c.c.c.c.c.c.c.v.c.c.c.c.c.c.c.c.c.c.c.c.c.c.c.c.c.c.c.c.c.c.c.c.c.c.c.c.c.c.c.c.c.c.c.c.c.c.c.c.v.v.v.v.v.v.v.v.v.v.v.v.v.v.v.v.v.v.v.v.v.v.v.v.v.v.v.v.v.v.v.g.b.h.:.r . . . . . . . . . . . . . . u >.g.h.v.v.v.v.v.v.v.v.v.h.h.h.h.h.h.h.h.z.h.h.h.z.z.z.z.z.h.h.h.h.h.h.h.h.h.h.h.v.h.h.h.v.h.h.h.h.h.h.h.h.h.z.h.h.v.h.h.z.z.z.z.v.v.z.z.z.z.z.c.h.h.h.z.z.z.z.z.k.k.k.k.h.h.h.h.h.h.h.h.h.h.h.h.h.h.h.h.h.h.h.h.h.h.h.h.h.h.h.h.h.h.h.h.h.h.h.h.v.7.b . . . . . $ $ $ $ $ $ $ . . S t.Z.Z.Z.Z.Z.K.K.Z.Z.Z.Z.Z.Z.K.K.Z.Z.K.K.Z.Z.Z.Z.Z.Z.Z.Z.Z.K.Z.K.Z.Z.Z.Z.Z.Z.K.K.Z.Z.K.Z.Z.Z.Z.Z.Z.Z.Z.Z.Z.Z.A.A.Z.Z.Z.Z.Z.Z.Z.Z.Z.Z.Z.Z.Z.Z.Z.Z.Z.Z.Z.Z.Z.Z.Z.Z.Z.Z.Z.Z.Z.Z.A.Z.Z.Z.Z.Z.Z.Z.Z.Z.Z.Z.Z.Z.Z.Z.Z.Z.Z.Z.Z.Z.Z.Z.Z.Z.Z.Z.Z.Z.Z.Z.Z.Z.Z.Z.Z.Z.Z.Z.Z.Z.Z.Z.Z.Z.Z.Z.A.Z.Z.Z.Z.Z.Z.Z.Z.Z.Z.Z.Z.Z.Z.Z.Z.Z.Z.Z.Z.Z.Z.Z.Z.Z.Z.Z.Z.Z.Z.Z.Z.Z.Z.Z.Z.Z.Z.Z.Z.Z.Z.Z.Z.Z.Z.Z.Z.Z.Z.Z.J.J.b./ . . $ ; ",
"$ $   a >.z.H.B.c.c.c.c.c.c.c.c.c.c.c.c.c.c.c.c.c.c.c.c.c.c.c.c.9.3   X             M D.g.h.h.h.b.y.g . $ $ $ $ $ $ = . = / v.!.T.T.T.T.R.R.R.R.R.R.R.R.R.R.R.R.R.R.R.R.R.T.T.T.R.R.R.R.T.T.T.T.T.T.T.T.R.R.R.R.R.R.R.R.R.R.R.R.Y.Y.G.6.4 $ $ $ $ $ $ $ $ $ $ $ r.J.T.G.P.G.Z.Y.P.P.P.P.P.P.P.P.P.P.P.P.P.P.P.P.L.L.L.L.L.L.L.L.L.L.L.L.L.L.L.L.L.L.L.L.L.L.L.L.L.L.L.L.L.L.L.L.L.L.L.L.L.L.L.L.L.L.L.L.L.L.L.L.L.L.P.P.L.L.L.L.L.L.L.L.L.L.L.L.L.P.P.P.J.J.J.J.P.P.P.P.J.J.J.J.P.P.J.J.J.P.P.P.J.J.P.P.P.P.J.J.G.T.G.Y.h.3   . . . . . . . . . . . e G.L.P.Y.J.P.Y.Y.J.J.J.J.J.P.P.P.P.J.J.J.J.J.J.J.J.J.J.J.J.G.G.J.J.J.J.J.J.J.J.J.J.G.G.J.J.J.J.J.J.J.J.J.J.G.G.J.G.J.P.Z.G.J.J.J.J.G.G.J.J.J.J.P.L.L.L.L.L.L.L.L.L.L.L.L.L.L.G.G.G.G.G.G.G.G.G.G.G.G.G.G.G.G.G.G.G.G.G.G.G.G.G.G.G.G.G.G.L.P.P.L.L.L.Y.E.#.. * $ $ $ $ $ $ . . . 3 6.W.^.R.W.W.W.W.W.W.W.W.W.~.~.~.W.W.W.W.~.~.W.W.W.W.W.W.W.W.W.W.W.W.W.~.W.W.W.W.W.W.~.~.W.W.W.W.~.W.W.W.W.W.W.W.W.W.W.W.W.W.W.W.W.W.W.W.W.W.W.W.W.W.W.W.W.W.W.W.W.W.W.W.W.W.W.W.W.W.W.W.W.W.W.W.W.W.W.W.W.W.W.W.W.W.W.W.W.W.W.W.W.W.W.W.W.W.W.W.W.W.W.W.W.W.W.W.W.W.W.W.W.W.W.W.W.W.W.W.W.W.W.W.W.W.W.W.W.W.W.W.W.W.W.W.W.W.W.W.W.W.W.W.W.W.W.W.W.W.W.W.W.W.W.W.W.W.W.W.W.W.W.W.W.W.W.W.W.W.OX(.#.. = - ",
". $ = 7.B.g.s.z.g.g.p.p.g.g.p.p.g.g.p.p.g.g.g.g.g.g.g.g.g.g.g.g.m.i.t             @ L.C.j.j.j.g.g.b.q.= . $ $ $ ; % . = 7.J.J.M.G.G.G.G.G.G.G.G.A.A.A.A.A.A.A.A.A.A.A.A.A.A.A.A.A.S.S.A.A.A.A.A.A.A.A.A.S.S.A.A.A.A.A.A.S.A.S.A.A.Y.C.T.y.1 $ $ $ $ $ $ $ $ . b Y.A.G.A.G.A.D.A.A.A.A.A.A.A.A.A.G.G.A.A.S.S.S.S.A.A.A.A.A.A.A.A.A.A.A.A.A.A.A.A.A.A.A.A.A.A.A.A.A.A.A.A.A.A.A.A.A.A.A.A.A.A.A.A.A.A.A.A.A.A.A.A.A.A.A.A.A.A.A.A.A.A.A.A.A.A.A.A.A.A.A.A.A.A.A.A.A.A.A.A.A.A.A.A.A.A.A.A.A.A.A.A.A.A.A.A.A.A.A.A.G.c.L.C.W.@.  . . . . . . . . . . . r.G.G.G.G.G.G.D.C.G.A.A.A.A.G.G.G.G.A.A.A.A.G.G.S.G.S.S.S.S.A.A.A.A.S.S.S.S.G.G.G.G.F.F.G.G.G.G.G.G.G.G.G.G.A.A.A.A.S.G.A.A.S.S.S.S.A.A.A.A.G.G.G.G.G.G.G.G.G.G.G.G.G.G.G.G.G.G.G.G.G.G.G.G.G.G.G.G.G.G.G.G.G.G.G.G.G.G.G.G.G.G.G.G.F.F.F.F.A.A.A.A.F.A.A.Y.w $ $ $ $ $ $ $ % . r b.(.L.E.U.R.R.R.R.R.R.R.R.R.R.R.R.R.R.R.R.R.R.R.R.R.R.R.R.R.R.R.R.R.R.R.R.R.R.R.R.R.E.E.E.R.R.R.R.R.R.R.R.R.R.R.Y.R.R.R.R.R.R.R.R.R.R.R.R.R.R.R.R.R.R.R.R.R.R.R.R.R.R.R.R.R.R.R.R.R.R.R.R.R.R.R.R.R.R.R.R.R.R.R.R.R.R.R.R.R.R.R.R.R.R.R.R.R.R.R.R.R.R.R.R.R.R.R.R.R.R.R.R.R.R.R.R.R.R.R.R.R.R.R.R.R.R.R.R.R.R.R.R.R.R.R.R.R.R.R.R.R.R.R.R.R.R.R.R.R.R.R.R.R.R.R.R.R.R.R.R.R.R.W.W.Y.Y.Y.Y.Y.Y.R.Q.T.e   - ",
"* $ g b.s.g.z.c.c.x.j.j.j.j.j.j.j.j.j.j.k.k.k.k.k.k.c.c.k.k.k.k.j.c.i.f           M.'.g.j.j.j.g.h.h.b.n . $ $ $ . % . I ~.Z.Z.C.A.A.A.A.G.G.G.G.G.G.G.G.G.G.G.G.G.G.G.G.G.G.G.G.G.G.G.G.G.G.G.G.G.G.G.G.G.G.G.G.G.G.G.G.G.G.G.G.A.G.Y.J.W.| ; ; $ $ $ $ $ $ . b Y.G.G.Y.A.G.L.L.G.G.L.L.G.G.G.G.G.G.G.G.G.G.L.L.G.G.G.G.G.G.G.G.G.G.G.G.G.G.G.G.G.G.G.G.G.G.G.G.G.G.G.G.G.G.G.G.G.G.G.G.G.G.G.G.G.G.G.G.G.G.G.G.G.G.G.G.G.G.G.G.G.G.G.G.G.G.G.G.G.G.G.G.G.G.G.G.G.G.G.G.G.G.G.G.G.G.G.G.G.G.G.G.G.G.G.G.G.G.G.G.Y.Y.Y.Y.R.g.= . $ $ $ $ $ $ $ . $ = b.G.A.A.A.A.D.L.Y.G.G.G.G.G.G.G.G.G.G.G.G.G.G.G.G.G.G.G.G.G.G.G.G.G.G.G.G.G.G.G.G.G.G.G.G.G.G.G.G.G.G.G.G.G.G.G.G.G.G.G.S.G.G.G.G.G.G.G.G.G.G.G.G.G.G.G.G.G.G.G.G.G.G.G.G.G.G.G.G.G.G.G.G.G.G.G.G.G.G.G.G.G.G.G.G.G.G.G.G.G.G.G.G.G.G.G.L.L.L.L.L.L.L.A.R.C.w $ $ $ $ $ $ $ . r J.~.Y.Y.R.^.W.W.W.W.R.R.R.R.R.R.R.R.R.R.R.R.R.R.R.R.R.R.R.R.E.E.E.E.E.E.W.W.E.E.E.E.E.E.W.W.R.R.R.R.W.W.R.R.R.R.R.R.E.W.R.R.R.R.R.R.R.R.R.R.R.R.R.R.R.R.R.R.R.R.R.R.R.R.R.R.R.R.E.E.E.R.R.R.R.E.R.R.E.E.R.R.R.R.R.R.R.R.R.R.R.R.E.E.E.R.R.R.R.E.R.R.E.E.R.R.R.R.R.R.R.R.R.R.R.E.R.R.E.R.R.R.R.R.R.R.E.E.R.R.R.R.R.R.E.E.E.E.R.R.R.R.E.E.R.R.R.R.R.R.E.E.E.E.R.R.R.R.W.W.W.W.R.R.R.R.Y.Y.Y.Y.Y.Y.Y.Y.~.T   = ",
". . F b.r.g.z.z.g.g.g.g.g.g.g.g.g.g.g.g.g.g.g.g.g.g.g.g.g.g.g.g.j.g.g.c.X       ] ).Y.j.j.j.j.j.g.y.h.F . $ $ $ $ ; . #.T.J.Z.P.L.L.L.L.D.D.D.D.C.C.C.C.C.C.C.C.C.C.C.C.C.C.C.C.C.C.C.C.C.C.C.C.C.D.C.C.C.C.C.C.C.C.C.C.C.C.C.C.C.C.D.C.Z.h.4 . $ $ $ $ $ $ $ $ 9.L.G.G.P.L.C.g.r.r.i.i.i.i.r.r.r.r.r.r.r.r.i.i.9.9.9.9.9.9.9.9.9.9.9.9.9.9.9.9.9.9.9.9.9.9.9.9.9.9.9.9.9.9.9.9.9.9.9.9.9.9.9.9.9.r.9.9.9.9.9.9.9.9.9.9.9.9.9.9.9.9.9.9.9.9.9.9.9.9.9.9.9.9.9.9.9.r.9.9.9.9.9.9.9.9.9.9.9.9.9.9.9.9.9.9.9.9.9.9.9.r.9.r.p.=.. . $ $ $ $ $ $ $ $ . = c.P.G.G.G.G.D.c.i.9.9.9.9.9.9.9.9.9.9.9.9.9.9.9.9.9.9.9.9.9.9.9.9.9.9.9.9.9.9.r.9.r.9.9.9.9.9.9.9.9.9.9.9.9.9.9.9.w.9.9.9.w.9.9.9.9.9.9.9.9.9.9.r.r.9.9.9.9.9.9.9.9.9.9.9.9.r.r.r.r.r.r.r.r.r.r.r.r.r.r.r.r.r.r.r.r.r.r.r.r.r.r.r.r.r.r.r.r.9.9.w.9.g.i.9.j . $ $ $ $ $ $ $ r Z.W.L.W.L.R.R.C.C.C.C.c.c.c.c.m.m.m.m.m.m.m.m.m.m.m.m.m.m.m.m.m.m.m.m.m.m.m.m.m.m.m.m.m.m.V.V.m.c.c.c.m.m.m.m.c.c.c.c.m.m.m.m.c.c.c.c.m.m.c.c.c.c.c.c.m.m.m.c.c.c.c.c.c.c.c.c.c.c.c.c.c.c.c.c.c.m.c.c.c.c.c.c.c.c.c.c.c.c.c.c.c.c.c.c.c.c.c.c.c.m.c.c.c.c.c.c.c.c.c.c.c.c.c.c.c.c.c.c.c.c.c.c.c.c.c.c.m.m.m.c.c.c.c.c.m.m.m.m.c.c.c.c.m.m.m.c.c.c.c.c.m.m.m.m.c.c.c.c.C.C.C.C.Y.Y.Y.Y.W.W.W.W.W.E.R.Y.W.T . = ",
". . F c.g.l.z.z.g.g.g.g.g.g.g.g.g.g.g.g.g.g.g.g.g.g.g.g.m.c.c.x.g.f.r.6.3   X @ g.g.8.e.c.x.g.g.c.g.b.G . $ $ $ . $ . } T.G.G.G.G.Y.D.r.=.*.@.@.$.$.$.@.@.@.@.@.@.@.@.@.@.@.@.@.@.@.@.@.@.@.@.@.@.@.@.@.@.@.@.$.@.@.@.@.@.@.@.@.@.@.@.@.*.3.F   $ $ $ $ $ $ $ . D L.L.A.U.g.<.$.@.@.$.@.@.@.@.@.@.@.@.@.@.@.@.@.@.@.@.@.@.@.@.@.@.@.@.@.@.@.@.@.@.@.@.@.@.@.@.@.@.@.@.@.@.@.@.@.@.@.@.@.@.@.@.@.$.@.@.@.@.@.@.@.@.@.@.@.@.$.$.$.@.@.@.@.@.@.@.@.$.@.@.@.@.@.@.@.$.@.@.@.@.@.@.@.@.@.@.@.@.@.$.$.@.@.@.@.@.@.@.@.@.@.@.@.=.) . . $ $ $ $ $ $ $ $ . 4 b.G.G.F.Y.Z.w.@.] @.@.@.@.@.@.@.@.@.@.@.@.@.@.@.@.@.@.@.@.@.@.@.@.@.@.@.@.@.@.@.@.@.@.@.@.@.@.@.@.@.@.@.@.@.@.@.@.@.@.@.O.@.@.@.@.@.@.@.@.@.@.@.@.@.@.@.@.@.@.@.@.@.@.@.@.@.@.@.@.@.@.@.@.@.@.@.@.@.@.@.@.@.@.@.@.@.@.@.@.@.@.@.@.@.@.@.O.O.@.@.O.] @.F o . $ $ $ $ $ . . a T.R.R.Y.R.E.Y.D.r.r.r.r.r.r.r.r.r.r.r.r.a.a.a.r.r.r.r.a.r.r.r.r.f.f.f.r.r.r.f.r.r.r.r.a.r.r.r.a.r.r.r.r.a.a.r.r.r.r.r.f.a.a.r.r.r.r.i.f.a.a.r.r.r.r.i.f.a.a.r.r.r.r.r.r.r.r.a.a.f.f.f.a.r.r.a.a.a.r.r.r.r.r.r.r.r.r.r.r.r.r.a.a.f.f.f.a.r.r.a.a.a.r.r.r.r.r.r.r.r.r.r.r.r.r.a.a.r.r.r.r.r.r.r.r.r.r.a.f.a.a.r.r.r.r.a.f.a.a.r.r.r.r.a.f.a.a.r.r.r.r.a.f.a.a.r.r.r.r.r.r.r.9.9.w.g.g.g.g.V.D.G.U.Y.Y.R.W.~.T . = ",
". . F c.l.l.z.z.g.g.g.g.g.g.j.j.x.x.x.x.x.c.c.c.c.j.g.r.w.e.6.6.=.=.*.H       J c.j.=.*.$.5.9.g.c.g.c.F . $ $ $ $ $ . } T.G.G.G.G.g.=. .@.@.*.$.$.@.@.@.@.@.@.@.@.@.@.@.@.@.@.@.@.@.@.@.@.@.@.@.@.@.@.@.@.@.$.$.@.@.@.@.@.@.@.@.@.@.@.@.@.@.] 3 . $ $ $ $ $ $ . + c.Y.G.C.=.*.@.@.@.$.$.@.@.@.@.@.@.@.@.@.@.@.@.@.@.@.@.@.@.@.@.$.$.@.$.@.@.@.@.$.$.@.$.@.@.@.@.$.$.@.$.@.@.@.@.$.$.@.$.@.@.@.@.$.$.@.@.@.@.@.@.@.@.@.@.$.$.$.$.@.@.@.@.@.@.@.@.$.@.@.@.@.@.@.@.$.@.@.@.@.@.@.@.@.@.@.@.@.@.$.$.@.@.@.@.@.@.@.@.@.@.@.@.=.) . . $ $ $ $ $ $ $ $ . - M.G.G.Y.Y.s...$.=.=.$.$.$.$.*.*.*.*.$.$.$.$.$.$.$.$.$.$.$.$.@.$.$.$.$.$.$.@.$.$.$.$.$.$.$.$.$.$.$.$.$.$.$.$.$.$.$.@.$.*.@.@.$.$.$.$.$.$.$.$.$.$.$.$.$.$.$.$.$.$.$.$.$.$.$.$.$.$.$.$.$.$.@.@.*.*.$.$.$.$.@.@.$.$.$.$.$.$.@.@.*.*.$.$.$.$.@.@.@.@.$.O.n . . = $ $ $ $ % $ s J.R.R.R.R.E.E.F.f.r.r.r.r.r.r.r.r.r.r.r.r.a.a.r.r.r.r.r.a.r.r.r.r.f.f.i.r.r.r.r.r.r.r.r.r.r.r.r.a.r.r.r.r.a.a.r.i.r.r.r.i.a.a.r.r.r.r.r.i.a.a.r.r.r.r.r.i.a.a.r.r.r.r.r.r.r.r.a.a.f.f.f.a.r.a.a.a.r.r.r.r.r.r.r.r.r.r.r.r.r.r.a.a.f.f.f.a.r.a.a.a.r.r.r.r.r.r.r.r.r.r.r.r.r.r.a.a.r.r.r.r.r.r.r.r.r.r.a.f.a.a.r.r.r.r.a.a.r.r.r.r.r.r.a.f.a.a.r.r.r.r.a.a.r.r.r.r.r.r.r.r.r.r.r.r.r.r.r.r.f.f.i.r.g.l.c.B.Z.S   = ",
"$ . F c.l.l.l.l.g.g.g.g.j.g.j.g.g.g.g.g.r.r.r.9.e.6.=.*.*.$.@.@.*.*.*.d   @   =.c.g.*.@.@.$.=.=.g.g.b.W . $ $ $ $ . . | T.G.G.G.c.*.*.*.*.$.@.@.@.$.@.@.@.@.@.@.@.@.@.@.@.@.@.@.@.$.$.$.@.@.@.@.@.@.@.@.@.@.$.$.@.@.@.@.@.@.@.@.@.@.@.@.O.@.=.x . $ $ $ $ $ $ . X ] L.G.C.@.@.$.@.@.$.@.@.@.@.@.@.@.@.@.@.$.@.@.@.@.@.@.@.@.@.@.$.$.$.$.@.@.@.@.$.$.$.$.@.@.@.@.$.$.$.$.@.@.@.@.$.$.$.$.@.@.@.@.@.@.@.@.@.@.@.@.@.@.@.@.@.@.$.$.@.@.@.@.@.@.@.@.$.$.@.@.@.@.@.@.@.@.@.@.@.@.@.@.@.@.@.@.@.$.$.$.@.@.@.@.@.@.@.@.@.@.@.@.=.) . . $ $ $ $ $ $ $ $ . - M.G.G.Y.G.>.@.=.=.@.@.@.@.@.$.$.$.$.@.@.@.@.@.@.@.@.@.@.$.$.@.@.@.@.@.@.@.@.@.@.@.@.@.@.@.@.@.@.@.@.@.@.@.@.@.@.@.@.@.$.@.@.@.@.@.@.@.@.@.@.@.@.@.@.@.@.$.$.@.@.@.@.@.@.@.@.@.@.@.@.@.@.@.@.$.@.@.@.@.@.@.@.@.@.@.@.@.@.@.@.$.@.@.@.@.@.@.@.*.*.( f . . $ . $ . $ $ . g J.~.R.R.R.R.R.Y.f.i.r.i.r.r.s.y.f.g.r.i.r.r.g.s.r.r.r.r.g.a.p.p.r.r.f.f.r.y.y.y.a.a.a.a.y.s.r.r.r.r.r.r.i.p.s.r.r.r.r.r.i.i.y.y.r.r.r.i.i.i.s.r.r.r.r.r.i.i.s.y.r.r.y.s.r.r.a.r.a.f.y.p.r.r.r.r.s.s.f.r.r.r.a.r.g.g.y.s.r.r.a.r.a.f.y.p.r.r.r.r.s.s.f.r.r.r.a.r.g.g.y.s.r.r.a.r.a.f.a.a.g.g.r.r.r.r.r.r.f.f.y.r.r.r.r.a.a.f.y.r.r.r.r.r.f.f.y.r.r.r.r.a.a.f.y.r.r.r.i.i.r.r.g.g.r.r.r.y.g.g.g.g.r.w.g.f.w.7.h.v   = ",
"$ . F c.g.l.l.l.g.g.g.g.6.6.6.6.@.@.@.@.@.@.@.@.@.@.@.@.=.*.@.@.@.*.*.:     3 r.g.f.*.@.@.@.@.$.@.*.g.P . $ $ $ $ . . | T.G.G.G.g.@.*.@.@.@.@.@.@.$.@.$.@.@.@.@.@.@.@.$.@.@.@.@.@.$.$.$.@.@.@.@.@.@.@.@.@.@.$.$.@.@.@.@.@.@.@.@.@.@.@.@.O.@.@.] . $ $ $ $ $ $ . o 8 A.Z.G.6.O.=.@.$.$.$.@.@.@.@.@.@.@.@.@.$.@.@.@.@.@.@.@.@.@.@.$.$.$.$.@.@.@.@.$.$.$.$.@.@.@.@.$.$.$.$.@.@.@.@.$.$.$.$.@.@.@.@.@.$.$.$.@.@.@.@.@.@.@.@.@.$.$.$.@.@.@.@.@.@.@.@.@.$.$.$.@.@.@.@.@.$.$.@.@.@.@.@.@.@.@.@.@.$.$.$.@.@.@.@.@.@.@.@.@.@.@.@.=.) . $ $ $ $ $ $ $ $ $ . = M.G.F.G.D.6.@.$.*.*.*.$.$.$.*.*.*.*.$.$.$.$.$.$.$.$.$.$.$.$.@.@.$.$.$.$.$.@.$.$.$.$.@.@.@.$.$.$.$.@.$.$.*.*.@.$.$.@.$.*.@.@.$.$.$.$.@.@.@.$.$.$.$.$.$.$.$.$.@.@.$.$.$.$.$.$.$.$.$.$.$.$.$.$.$.$.$.$.$.$.$.$.$.$.$.$.$.$.$.$.$.$.$.$.$.$.$.$.@.H 7 o . $ $ . $ $ $ . g T.W.Y.R.R.R.R.W.g.f.f.i.i.i.r.s.a.g.f.f.i.r.p.a.r.y.r.r.r.g.g.g.p.r.r.f.f.f.y.y.y.a.f.a.r.r.r.r.r.r.r.r.r.i.p.s.a.r.r.i.i.i.i.y.y.r.r.r.r.i.i.s.y.r.r.r.r.i.i.s.y.r.r.s.y.r.r.f.a.f.f.y.r.r.r.r.r.g.a.f.r.r.r.a.f.f.g.s.y.r.r.f.a.f.f.y.r.r.r.r.r.g.a.f.r.r.r.a.f.f.g.s.y.r.r.f.a.f.f.a.a.a.g.s.s.r.r.r.r.f.f.y.y.r.r.r.a.f.f.y.r.r.r.r.r.f.f.y.y.r.r.r.a.f.f.y.r.r.r.i.i.g.g.g.g.g.g.g.g.g.g.g.g.r.r.f.g.p.r.h.N . = ",
"$ . K c.g.g.c.g.w.5.*.$.@.@.@.@.@.@.@.@.@.@.@.@.@.@.@.@.@.@.@.@.@.=.^       x c.c.6.@.@.@.@.@.@.@.@.=.x . $ $ $ $ . . -.T.G.G.I.g.O.$.@.@.@.@.@.@.@.@.@.@.@.@.@.@.@.@.@.@.@.@.@.@.@.@.@.@.@.@.@.@.@.@.@.@.@.@.@.@.@.@.@.@.@.@.@.@.@.@.@.@.@.@.@.e $ $ % $ $ $ $ $   r.T.L.g.O.$.$.@.@.@.@.@.@.@.@.@.@.@.@.@.@.@.@.@.@.@.@.@.@.@.@.@.@.@.@.@.@.@.@.@.@.@.@.@.@.@.@.@.@.@.@.@.@.@.@.@.@.@.@.@.@.@.@.@.@.@.@.@.@.@.@.@.@.@.@.@.@.@.@.@.@.@.@.@.@.@.@.@.@.@.@.@.@.@.@.@.@.@.@.@.@.@.@.@.@.@.@.@.@.@.@.@.@.@.@.@.@.@.@.@.@.@.=.) . . $ $ $ $ $ $ $ $ . = M.G.G.A.D.=.@.$.$.$.$.$.$.$.@.@.@.@.$.$.$.$.@.@.@.@.@.@.@.@.@.@.@.@.@.@.@.@.@.@.@.@.@.@.@.@.@.@.@.@.@.@.@.@.@.@.@.@.@.$.@.@.@.@.@.@.@.@.@.@.@.@.@.@.@.@.@.@.@.@.@.@.@.@.@.@.@.@.@.@.@.@.@.@.@.@.@.@.@.@.@.@.@.@.@.@.@.@.@.@.@.$.$.@.@.=.=.( f 5 O . $ $ $ $ $ % . C T.T.Y.R.R./.E.R.c.f.f.r.r.r.a.a.f.f.f.f.f.f.f.f.f.f.f.f.f.f.f.f.f.f.f.f.f.f.f.f.f.f.f.f.f.f.f.f.f.f.f.f.f.f.f.f.f.f.f.f.f.f.f.f.f.f.f.f.f.f.f.f.f.f.f.f.f.f.f.f.f.f.f.f.f.f.f.f.f.f.f.f.f.f.f.f.f.f.f.f.f.f.f.f.f.f.f.f.f.f.f.f.f.f.f.f.f.f.f.f.f.f.f.f.f.f.f.f.f.f.f.f.f.f.f.f.f.f.f.f.f.f.f.f.f.f.f.f.f.f.f.f.f.f.f.f.f.f.f.f.f.f.f.f.f.f.f.f.f.f.f.f.f.f.f.f.f.f.f.f.f.f.f.f.f.f.f.f.f.f.f.f.f.f.f.f.f.f.g.s.g.n . = ",
"$ . K c.g.g.q.=.@.@.O.O.@.@.$.@.@.@.@.@.@.@.@.@.@.@.@.@.@.@.@.@.=.5.h   X X O.V.g.=.@.@.@.@.@.@.@.@.=.x . $ $ $ $ . . -.Q.G.G.I.g.O.$.@.@.@.@.@.@.@.@.@.@.@.@.@.@.@.@.@.@.@.@.@.@.@.@.@.@.@.@.@.@.@.@.@.@.@.@.@.@.@.@.@.@.@.@.@.@.@.@.@.@.@.@.@.T $ * $ $ $ $ $ * . S Z.P.D.<.@.$.@.@.@.@.@.@.@.@.@.@.@.@.@.@.@.@.@.@.@.@.@.@.@.@.@.@.@.@.@.@.@.@.@.@.@.@.@.@.@.@.@.@.@.@.@.@.@.@.@.@.@.@.@.@.@.@.@.@.@.@.@.@.@.@.@.@.@.@.@.@.@.@.@.@.@.@.@.@.@.@.@.@.@.@.@.@.@.@.@.@.@.@.@.@.@.@.@.@.@.@.@.@.@.@.@.@.@.@.@.@.@.@.@.@.@.=.) . . $ $ $ $ $ $ $ $ . = C.G.G.A.D.=.@.$.$.$.$.$.$.$.@.@.@.@.$.$.$.$.@.@.@.@.@.@.@.@.@.@.@.@.@.@.@.@.@.@.@.@.@.@.@.@.@.@.@.@.@.@.@.@.@.@.@.@.@.$.@.@.@.@.@.@.@.@.@.@.@.@.@.@.@.@.@.@.@.@.@.@.@.@.@.@.@.@.@.@.@.@.@.@.@.@.@.@.@.@.@.@.@.@.@.@.@.@.@.@.$.*.$.O.=.$.D f > O . . $ $ $ $ - . c T.T.P.W.Y.W.Y.E.G.f.f.r.r.r.r.a.a.f.f.f.f.f.f.f.f.f.f.f.f.f.f.f.f.f.f.f.f.f.f.f.f.f.f.f.f.f.f.f.f.f.f.f.f.f.f.f.f.f.f.f.f.f.f.f.f.f.f.f.f.f.f.f.f.f.f.f.f.f.f.f.f.f.f.f.f.f.f.f.f.f.f.f.f.f.f.f.f.f.f.f.f.f.f.f.f.f.f.f.f.f.f.f.f.f.f.f.f.f.f.f.f.f.f.f.f.f.f.f.f.f.f.f.f.f.f.f.f.f.f.f.f.f.f.f.f.f.f.f.f.f.f.f.f.f.f.f.f.f.f.f.f.f.f.f.f.f.f.f.f.f.f.f.f.f.f.f.f.f.f.f.f.f.f.f.f.f.f.f.f.f.f.f.f.f.f.f.f.f.f.g.s.g.n . = ",
"$ . F b.h.h.=. .@.*.*.*.$.@.@.@.@.@.@.@.@.@.@.@.@.@.@.@.@.$.@.@.@.@.: X   3 x.c.r.@.O.@.@.@.@.@.@.@.=.x . $ $ $ $ . . #.Q.G.G.I.g.O.$.@.@.@.@.@.@.@.@.@.@.@.@.@.@.@.@.@.@.@.@.@.@.@.@.@.@.@.@.@.@.@.@.@.@.@.@.@.@.@.@.@.@.@.@.@.@.@.@.@.@.@.@.@.=.r . $ $ $ $ $ $ $ = g.R.Y.g. .$.@.@.@.@.@.@.@.@.@.@.@.@.@.@.@.@.@.@.@.@.@.@.@.@.@.@.@.@.@.@.@.@.@.@.@.@.@.@.@.@.@.@.@.@.@.@.@.@.@.@.@.@.@.@.@.@.@.@.@.@.@.@.@.@.@.@.@.@.@.@.@.@.@.@.@.@.@.@.@.@.@.@.@.@.@.@.@.@.@.@.@.@.@.@.@.@.@.@.@.@.@.@.@.@.@.@.@.@.@.@.@.@.@.@.@.=.) . . $ $ $ $ $ $ $ $ . = C.G.G.A.D.=.@.$.$.$.$.$.$.$.@.@.@.@.$.$.$.$.@.@.@.@.@.@.@.@.@.@.@.@.@.@.@.@.@.@.@.@.@.@.@.@.@.@.@.@.@.@.@.@.@.@.@.@.@.$.@.@.@.@.@.@.@.@.@.@.@.@.@.@.@.@.@.@.@.@.@.@.@.@.@.@.@.@.@.@.@.@.@.@.@.@.@.@.@.@.@.@.@.@.@.@.@.@.@.@.@.@.@.=.] d 7 8 X   . . $ $ . . * b ~.T.Y.W.L.R.Y.E.L.f.f.r.a.f.f.f.f.f.f.f.f.f.f.f.f.f.f.f.f.f.f.f.f.f.f.f.f.f.f.f.f.f.f.f.f.f.f.f.f.f.f.f.f.f.f.f.f.f.f.f.f.f.f.f.f.f.f.f.f.f.f.f.f.f.f.f.f.f.f.f.f.f.f.f.f.f.f.f.f.f.f.f.f.f.f.f.f.f.f.f.f.f.f.f.f.f.f.f.f.f.f.f.f.f.f.f.f.f.f.f.f.f.f.f.f.f.f.f.f.f.f.f.f.f.f.f.f.f.f.f.f.f.f.f.f.f.f.f.f.f.f.f.f.f.f.f.f.f.f.f.f.f.f.f.f.f.f.f.f.f.f.f.f.f.f.f.f.f.f.f.f.f.f.f.f.f.f.f.f.f.f.f.f.f.f.f.f.f.f.f.g.s.g.n . = ",
"$ . F b.g.c.=.@.@.@.@.@.@.@.@.@.@.@.@.@.@.@.@.@.@.@.@.@.@.$.@.@.@.U       x V.r.6.@.@.@.@.@.@.@.@.@.=.x . $ $ $ $ . . -.Q.G.G.I.g.O.$.@.@.@.@.@.@.@.@.@.@.@.@.@.@.@.@.@.@.@.@.@.@.@.@.@.@.@.@.@.@.@.@.@.@.@.@.@.@.@.@.@.@.@.@.@.@.@.@.@.@.@.@.@.@./ $ $ $ $ $ $ . $ = ` Y.G.A.O.$.$.@.@.@.@.@.@.@.@.@.@.@.@.@.@.@.@.@.@.@.@.@.@.@.@.@.@.@.@.@.@.@.@.@.@.@.@.@.@.@.@.@.@.@.@.@.@.@.@.@.@.@.@.@.@.@.@.@.@.@.@.@.@.@.@.@.@.@.@.@.@.@.@.@.@.@.@.@.@.@.@.@.@.@.@.@.@.@.@.@.@.@.@.@.@.@.@.@.@.@.@.@.@.@.@.@.@.@.@.@.@.@.@.@.@.=.) . . $ $ $ $ $ $ $ $ . = C.G.G.A.Z.=.@.$.$.$.$.$.$.$.@.@.@.@.$.$.$.$.@.@.@.@.@.@.@.@.@.@.@.@.@.@.@.@.@.@.@.@.@.@.@.@.@.@.@.@.@.@.@.@.@.@.@.@.@.$.@.@.@.@.@.@.@.@.@.@.@.@.@.@.@.@.@.@.@.@.@.@.@.@.@.@.@.@.@.@.@.@.@.@.@.@.@.@.@.@.@.@.@.@.@.@.@.@.@.@.=.e.=.H f t 3 @     . $ $ . . . b T.~.T.T.Y.R.Y.R.G.g.9.r.r.a.f.f.i.f.f.f.f.f.f.f.f.f.f.f.f.f.f.f.f.f.f.f.f.f.f.f.f.f.f.f.f.f.f.f.f.f.f.f.f.f.f.f.f.f.f.f.f.f.f.f.f.f.f.f.f.f.f.f.f.f.f.f.f.f.f.f.f.f.f.f.f.f.f.f.f.f.f.f.f.f.f.f.f.f.f.f.f.f.f.f.f.f.f.f.f.f.f.f.f.f.f.f.f.f.f.f.f.f.f.f.f.f.f.f.f.f.f.f.f.f.f.f.f.f.f.f.f.f.f.f.f.f.f.f.f.f.f.f.f.f.f.f.f.f.f.f.f.f.f.f.f.f.f.f.f.f.f.f.f.f.f.f.f.f.f.f.f.f.f.f.f.f.f.f.f.f.f.f.f.f.f.f.f.f.f.f.f.g.s.g.n . = ",
"* . F b.g.c.*.@.@.@.@.@.@.@.@.@.@.@.@.@.@.@.@.@.@.@.@.@.@.*.@.$.=.x       @.V.f.*.@.@.@.@.@.@.@.@.@.>.b . $ $ $ $ . . -.R.G.G.I.g.O.$.@.@.@.@.@.@.@.@.@.@.@.@.@.@.@.@.@.@.@.@.@.@.@.@.@.@.@.@.@.@.@.@.@.@.@.@.@.@.@.@.@.@.@.@.@.@.@.@.@.@.@.@.@.$.>.6 . $ $ $ $ $ $ $ e Z.G.A.e. .$.@. .@.@.@.@.@.@.@.@.@.@.@.@.@.@.@.@.@.@.@.@.@.$.=.=.@.$.*.@.@.$.$.*.*.$.@.@.$.$.*.*.$.$.@.@.@.@.@.@.@.@.@.@.@.@.@.@.@.@.@.@.@.@.@.@.@.@.@.@.@.@.@.@.@.@.@.@.@.@.@.@.@.@.@.@.@.@.@.@.@.@.@.@.@.@.@.@.@.@.@.@.@.@.@.@.@.@.@.@.@.@.@.@.=.) . . $ $ $ $ $ $ $ $ . = C.G.G.A.Z.=.@.$.$.$.$.$.$.$.$.$.$.$.$.$.$.$.@.@.@.@.@.@.@.@.@.@.@.@.@.@.@.@.@.@.@.@.@.@.@.@.@.@.@.@.@.@.@.@.@.@.@.@.@.@.@.@.@.@.@.@.@.@.@.@.@.@.@.@.@.@.@.@.@.@.@.@.@.@.@.@.@.@.@.@.@.@.@.@.@.@.@.@.@.@.@.@.@.@.@.@.@.*.] @.*.] Z 8 7 8 @   . . $ $ $ . . p Y.W.T.W.W.E.R.R.Y.g.9.j.r.r.f.a.f.f.f.f.f.f.f.f.f.f.f.f.f.f.f.f.f.f.f.f.f.f.f.f.f.f.f.f.f.f.f.f.f.f.f.f.f.f.f.f.f.f.f.f.f.f.f.f.f.f.f.f.f.f.f.f.f.f.f.f.f.f.f.f.f.f.f.f.f.f.f.f.f.f.f.f.f.f.f.f.f.f.f.f.f.f.f.f.f.f.f.f.f.f.f.f.f.f.f.f.f.f.f.f.f.f.f.f.f.f.f.f.f.f.f.f.f.f.f.f.f.f.f.f.f.f.f.f.f.f.f.f.f.f.f.f.f.f.f.f.f.f.f.f.f.f.f.f.f.f.f.f.f.f.f.f.f.f.f.f.f.f.f.f.f.f.f.f.f.f.f.f.f.f.f.f.f.f.f.f.f.f.f.f.a.a.g.s.g.n . = ",
"* . F b.g.c.*.@.@.@.@.@.@.@.@.@.@.@.@.@.@.@.@.@.@.@.@.@.@.*.@.$.@.2     @ 8.g.f.@.@.@.@.@.@.@.@.@.@.>.b . $ $ $ $ $ . -.R.G.G.I.g.O.$.@.@.@.@.@.@.@.@.@.@.@.@.@.@.@.@.@.@.@.@.@.@.@.@.@.@.@.@.@.@.@.@.@.@.@.@.@.@.@.@.@.@.@.@.@.@.@.@.@.@.@.@.@.@.*.I = $ $ $ $ $ $ . . =.Y.G.j...@.$.@.@.@.@.@.@.@.@.@.@.@.@.@.@.@.@.@.@.@.@.@.@.@.$.*.=.*.@.@.] ] ] ] $.*.*.@.@.@.@.@.$.$.$.$.@.@.@.@.@.@.@.@.@.@.@.@.@.@.@.@.@.@.@.@.@.@.@.@.@.@.@.@.@.@.@.@.@.@.@.@.@.@.@.@.@.@.@.@.@.@.@.@.@.@.@.@.@.@.@.@.@.@.@.@.@.@.@.@.@.@.@.@.=.) . . $ $ $ $ $ $ $ $ . = C.G.G.A.Z.=.@.$.$.$.$.$.$.$.$.$.$.$.$.$.$.$.@.@.@.@.@.@.@.@.@.@.@.@.@.@.@.@.@.@.@.@.@.@.@.@.@.@.@.@.@.@.@.@.@.@.@.@.@.@.@.@.@.@.@.@.@.@.@.@.@.@.@.@.@.@.@.@.@.@.@.@.@.@.@.@.@.@.@.@.@.@.@.@.@.@.@.@.@.@.@.@.@.@.@.@.@.@.=.=.^ 8 7 f 5   X o . . $ $ $ . 3 G.(.U.R.Y.R.W.W.E.c.g.f.r.r.r.f.f.f.f.f.f.f.f.f.f.f.f.f.f.f.f.f.f.f.f.f.f.f.f.f.f.f.f.f.f.f.f.f.f.f.f.f.f.f.f.f.f.f.f.f.f.f.f.f.f.f.f.f.f.f.f.f.f.f.f.f.f.f.f.f.f.f.f.f.f.f.f.f.f.f.f.f.f.f.f.f.f.f.f.f.f.f.f.f.f.f.f.f.f.f.f.f.f.f.f.f.f.f.f.f.f.f.f.f.f.f.f.f.f.f.f.f.f.f.f.f.f.f.f.f.f.f.f.f.f.f.f.f.f.f.f.f.f.f.f.f.f.f.f.f.f.f.f.f.f.f.f.f.f.f.f.f.f.f.f.f.f.f.f.f.f.f.f.f.f.f.f.f.f.f.f.f.f.f.f.f.f.f.f.f.f.a.a.g.s.g.n . = ",
". . S b.g.c.*.@.@.@.@.@.@.@.@.@.@.@.@.@.@.@.@.@.@.@.@.@.@.*.@.$.J   X   x c.g.8.@.@.@.@.@.@.@.@.@.@.=.b . $ $ $ $ $ . -.R.G.G.G.g.O.*.@.@.@.@.@.@.@.@.@.@.@.@.@.@.@.@.@.@.@.@.@.@.@.@.@.@.@.@.@.@.@.@.@.@.@.@.@.@.@.@.@.@.@.@.@.@.@.@.@.@.@.@.@.+.+.-.e $ $ $ $ $ $ . o n A.L.L.%.@.*.@.@.@.@.@.@.@.@.@.@.@.@.@.@.@.@.@.@.@.@.$.*.$.@.@.] ( ! U ! ! ! ! ^ ( ' ] @.@.$.$.$.$.$.$.@.@.@.@.@.@.@.@.@.@.@.@.@.@.@.@.@.@.@.@.@.@.@.@.@.@.@.@.@.@.@.@.@.@.@.@.@.@.@.@.@.@.@.@.@.@.@.@.@.@.@.@.@.@.@.@.@.@.@.@.@.@.@.@.@.@.@.@.=.) . . $ $ $ $ $ $ $ $ . = C.G.G.A.D.=.#.$.$.$.$.$.$.$.$.$.$.$.$.$.$.$.@.@.@.@.@.@.@.@.@.&.&.&.&.&.&.&.@.@.@.@.@.@.@.@.@.@.@.@.&.&.&.&.@.@.@.@.@.@.@.@.@.@.@.@.&.&.&.&.&.&.&.&.&.&.&.&.&.&.&.&.&.&.&.&.&.&.&.&.&.&.@.@.@.@.@.@.@.@.@.@.@.@.@.@.$.@.] x 8 5 t 5     @   . $ $ $ $ . g.`.G.^.E.W.R.W.Y.D.r.g.g.r.r.r.r.a.f.f.f.f.f.f.f.f.f.f.f.f.f.f.f.f.f.f.f.f.f.f.f.f.f.f.f.f.f.f.f.f.f.f.f.f.f.f.f.f.f.f.f.f.f.f.f.f.f.f.f.f.f.f.f.f.f.f.f.f.f.f.f.f.f.f.f.f.f.f.f.f.f.f.f.f.f.f.f.f.f.f.f.f.f.f.f.f.f.f.f.f.f.f.f.f.f.f.f.f.f.f.f.f.f.f.f.f.f.f.f.f.f.f.f.f.f.f.f.f.f.f.f.f.f.f.f.f.f.f.f.f.f.f.f.f.f.f.f.f.f.f.f.f.f.f.f.f.f.f.f.f.f.f.f.f.f.f.f.f.f.f.f.f.f.f.f.f.f.f.f.f.f.f.f.f.f.f.f.f.f.f.f.f.a.a.s.s.g.n . = ",
". . F b.g.c.*.@.@.@.@.@.@.@.@.@.@.@.@.@.@.@.@.@.@.@.@.@.@.*.@.$.8   X   ] c.c.=.@.@.@.@.@.@.@.@.@.@.=.x . $ $ $ $ $ . -.R.G.G.G.f.O.*.@.@.@.@.@.@.@.@.@.@.@.@.@.@.@.@.@.@.@.@.@.@.@.@.@.@.@.@.@.@.@.@.@.@.@.@.@.@.@.@.@.@.@.@.@.@.@.@.@.@.@.@.@.@. .@.F . $ $ $ $ $ . . = g.Y.G.9.@.*.%.@.@.@.@.@.@.@.@.@.@.@.@.@.@.@.@.@.@.@.@.] ] ( ( ( ^ J H J J J J J ! ! ( ^ ( ] ] @.@.$.$.@.@.@.@.@.@.@.@.@.@.@.@.@.@.@.@.@.@.@.@.@.@.@.@.@.@.@.@.@.@.@.@.@.@.@.@.@.@.@.@.@.@.@.@.@.@.@.@.@.@.@.@.@.@.@.@.@.@.@.@.@.@.@.@.@.@.@.@.=.) . . $ $ $ $ $ $ $ $ . = C.G.G.A.D.=.#.$.$.$.$.$.$.$.$.$.$.$.$.$.$.$.@.@.@.@.@.@.@.@.&.&.&.&.&.&.&.&.@.@.@.@.@.@.@.@.@.@.@.@.&.&.&.&.@.@.@.@.@.@.@.@.@.@.@.@.&.&.&.&.&.&.&.&.&.&.&.&.&.&.&.&.&.&.&.&.&.&.&.&.&.&.@.@.@.@.@.@.@.@.@.@.@.@.@.@.@.U 8 8 t h 3 +   X   . . . $ $ . / W.Y.W.U.R.R.E.E.D.e.f.f.f.f.r.r.a.a.f.f.f.f.f.f.f.f.f.f.f.f.f.f.f.f.f.f.f.f.f.f.f.f.f.f.f.f.f.f.f.f.f.f.f.f.f.f.f.f.f.f.f.f.f.f.f.f.f.f.f.f.f.f.f.f.f.f.f.f.f.f.f.f.f.f.f.f.f.f.f.f.f.f.f.f.f.f.f.f.f.f.f.f.f.f.f.f.f.f.f.f.f.f.f.f.f.f.f.f.f.f.f.f.f.f.f.f.f.f.f.f.f.f.f.f.f.f.f.f.f.f.f.f.f.f.f.f.f.f.f.f.f.f.f.f.f.f.f.f.f.f.f.f.f.f.f.f.f.f.f.f.f.f.f.f.f.f.f.f.f.f.f.f.f.f.f.f.f.f.f.f.f.f.f.f.f.f.f.f.f.f.f.f.f.a.g.s.g.n . = ",
". . F b.g.p.*.@.@.@.@.@.@.@.@.@.@.@.@.@.@.@.@.@.@.@.@.@.*.$.O.@.X     + e.g.r.=.@.@.@.@.@.@.@.@.$.@.6.C . $ $ $ $ $ . -.R.G.G.G.a.O.*.@.@.@.@.@.@.@.@.@.@.@.@.@.@.@.@.@.@.@.@.@.@.@.@.@.@.@.@.@.@.@.@.@.@.@.@.@.@.@.@.@.@.@.@.@.@.@.$.@.@.@.@.$.@.#.#.#.> $ ; . $ $ . . . P A.G.C.*.*.*.*.*.*.*.*.*.*.*.*.*.@.@.@.@. .] ' ( ^ J J J U J J J J J U U ! ! U U U ! ! ! ! ! ^ ^ ( ( ] @.$.=.$.$.$.$.@.@.@.@.@.@.@.@.@.@.@.@.@.@.@.@.@.@.@.@.@.@.@.@.@.@.@.@.*.*.*.*.$.$.$.$.$.$.$.$.*.*.*.*.$.$.$.$.@.@.@.@.$.$.$.$.%.$.$.$.*.` = . $ $ $ $ $ $ $ $ . , b.A.A.A.C.=.@.@.@.@.@.@.@.@.$.$.$.$.$.$.%.%.@.@.@.@.$.$.$.@.@.@.@.@.@.@.@.@.@.@.@.@.&.&.&.&.&.&.&.@.@.@.@.@.@.@.@. .@.@.@.@.&.&.&.&.&.&.&.&.&.&.@.@.@.@.@.@.=.=.=.=.=.=.=.=.=.=.=.=.&.&.&.&.&.&.&.@. . . . .^ ^ ^ ^ A y 8 f t 3 X         . . . % . g Y.W.G.E.E.R.Y.R.D.r.w.f.f.f.f.f.f.f.f.f.f.f.f.f.f.f.f.f.f.f.f.f.f.f.f.f.f.f.f.f.f.f.f.f.f.f.f.f.f.f.f.f.f.f.f.f.f.f.f.f.f.f.f.f.f.f.f.f.f.f.f.f.f.f.f.f.f.f.f.f.f.f.f.f.f.f.f.f.f.f.f.f.f.f.f.f.f.f.f.f.f.f.f.f.f.f.f.f.f.f.f.f.f.f.f.f.f.f.f.f.f.f.f.f.f.f.f.f.f.f.f.f.f.f.f.f.f.f.f.f.f.f.f.f.f.f.f.f.f.f.f.f.f.f.f.f.f.f.f.f.f.f.f.f.f.f.f.f.f.f.f.f.f.f.f.r.r.r.r.r.r.a.a.f.f.r.r.r.r.r.r.r.r.r.r.f.f.f.f.r.r.r.r.r.r.r.r.p.n . - ",
". . F b.g.p.*.@.@.@.@.@.@.@.@.@.@.@.@.@.@.@.@.@.@.@.@.@.@.*.@.U X     f j.g.8.O.@.@.@.@.@.@.@.@.*.@.>.x . $ $ $ $ $ . -.Y.G.G.G.a.O.*.@.@.@.@.@.@.@.@.@.@.@.@.@.@.@.@.@.@.@.@.@.@.@.@.@.@.@.@.@.@.@.@.@.@.@.@.@.@.@.@.@.@.@.@.@.@.$.$.@.@.@.@.$.#.#.@.@.S . * $ $ $ $ . . 3 G.D.A.6.] ) ) ) ) ) ( ( ( ( ( ^ ! U U U J H U U J J ^ ( ( ^ J J J J U U U ! ! ! U U ! ! ! ! ^ ^ U J ^ ( ' ] ] @.@.*.$.*.*.*.*.*.*.*.@.@.@.@.@.@.@.@.@.@.@.@.@.@.@.@.@.@.@.@.*.*.*.*.$.$.$.$.$.$.$.$.@.@.@.@.@.@.$.$.$.$.*.*.$.$.$.$.%.*.=.=.*.} . . $ $ $ $ $ $ $ $ = = M.L.A.A.Z.=.@.@.*.*.*.*.*.*.%.$.$.$.$.$.%.%.@.@.@.@.@.@.@.@.@.@.@.@.&.&.&.&.@.@.@.@.&.&.&.@.&.&.&.&.&.&.&.&.@.@.@.@.*.=.&.*.&.&.&.&.=.=.=.=.=.=.=.=.&.&.&.&.&.@.@.@.] ] ] ] E E E E A A A A h h h h 8 8 8 8 8 8 8 8 y 5 8 t 3 X       . . . . * =   >.W.E.W.R.U.R.W.c.f.g.g.f.f.f.f.f.f.f.f.f.f.f.f.f.f.f.f.f.f.f.f.f.f.f.f.f.f.f.f.f.f.f.f.f.f.f.f.f.f.f.f.f.f.f.f.f.f.f.f.f.f.f.f.f.f.f.f.f.f.f.f.f.f.f.f.f.f.f.f.f.f.f.f.f.f.f.f.f.f.f.f.f.f.f.f.f.f.f.f.f.f.f.f.f.f.f.f.f.f.f.f.f.f.f.f.f.f.f.f.f.f.f.f.f.f.f.f.f.f.f.f.f.f.f.f.f.f.f.f.f.f.f.f.f.f.f.f.f.f.f.f.f.f.f.f.f.f.f.f.f.f.f.f.f.f.f.f.f.f.f.f.f.f.f.f.r.r.r.r.r.r.a.a.f.f.f.f.r.r.r.r.r.r.r.r.f.f.f.f.r.r.r.r.r.r.r.r.h.B . = ",
".   S b.g.p.=.@.@.@.@.@.@.@.@.@.@.@.@.@.@.@.@.@.@.@.@.@.O.*.=.k     X ' m.g.5.O.@.@.@.@.@.@.@.@.*.@.*.g . $ $ $ $ $ . -.Y.G.G.G.r. .*.$.@.@.@.@.@.@.@.@.@.@.@.@.@.@.@.@.@.@.@.@.@.@.@.@.@.@.@.@.@.@.@.@.@.@.@.@.@.@.@.@.@.@.@.@.@.@.@.@.@.@.@.@.#.#.@.@.%.- . $ $ $ . .     ] g.r.*.J J J J J J J J J J ! U J H ( ( ! U ( ( U J J x h x ( ( ( ( ^ U U U ! ! ! ! ! ! ! ! ^ ^ U J J U ! ! J ^ ( ] ]  .@.@.$.$.$.$.@.@.@.@.@.@.@.@.@.@.@.@.@.@.@.@.@.@.@.@.*.*.*.*.$.$.$.$.$.$.$.$.*.*.*.*.*.*.*.*.$.$.$.@.@.@.@.@.@.........J   $ $ $ $ $ $ $ $ $ $ - b.G.A.G.Z.>.$.$.$.@.@.@.@.@.$.$.@.@.@.@.@.@.@.@.@.@.@.@.@.@.*.*.*.*.*.*.*.*.=.=.=.=.*.*.$.$.$.$.$.@.@.@.@.@.@.@.@.@.@.@.O.@.( ( ( ( ^ ! ! E E J J J x x x x d d d d d d i i i i 8 8 8 8 8 8 8 8 8 8 8 7 8 8 8 8 8 8 7 t t > X       . . . $ $ * $ = C.W.G.E.L.W.W.D.r.f.g.f.f.f.f.f.f.f.f.f.f.f.f.f.f.f.f.f.f.f.f.f.f.f.f.f.f.f.f.f.f.f.f.f.f.f.f.f.f.f.f.f.f.f.f.f.f.f.f.f.f.f.f.f.f.f.f.f.f.f.f.f.f.f.f.f.f.f.f.f.f.f.f.f.f.f.f.f.f.f.f.f.f.f.f.f.f.f.f.f.f.f.f.f.f.f.f.f.f.f.f.f.f.f.f.f.f.f.f.f.f.f.f.f.f.f.f.f.f.f.f.f.f.f.f.f.f.f.f.f.f.f.f.f.f.f.f.f.f.f.f.f.f.f.f.f.f.f.f.f.f.f.f.f.f.f.f.f.f.f.f.f.f.f.f.f.r.r.r.r.r.r.r.r.f.a.r.r.f.f.f.f.f.f.f.f.r.r.r.r.r.r.r.r.r.r.r.r.y.v . & ",
". . S b.g.g.=.@.@.@.@.@.@.@.@.@.@.@.@.@.@.@.@.@.@.@.@.@.@.@.O.3     @ 6.c.f.5.*.@.@.@.@.@.@.@.@.*.@.#.p . $ $ $ $ $ . -.Y.G.G.G.r. .*.$.@.@.@.@.@.@.@.@.@.@.@.@.@.@.@.@.@.@.@.@.@.@.@.@.@.@.@.@.@.@.@.@.@.@.@.@.@.@.@.@.@.@.@.@.@.@.@.@.@.@.@.@.@.$.@.@.<.j . $ $ $ . . . o g p.r.9.( J ^ ^ T T ^ ^ ^ ^ ! U J H h f f t 8 3 +   @ z ' @.*.*.*.*.] ^ U U U U ! ! ! ! ! ! J U ^ ( ^ ! ! U J J J J J ^ ( ] @.@.@.@.@.@.@.@.@.@.@.@.@.@.@.@.@.@.@.@.@.@.@.@.*.*.*.*.$.$.$.$.$.$.$.$.@.@.@.@. . . . .( ( ( ( ^ ^ T U T T U U T y . $ . $ $ $ $ $ $ $ * . :.T.D.G.Z.>.$.$.$.$.*.*.%.%.$.$.@.@.@.@.@.@.@.@.@.@. . . . .] ] ] ] ( ( ( ( J J J J D D A D x x x x x x x x f f f t 8 8 8 8 8 8 8 7 7 9 9 9 9 9 9 9 9 9 7 8 8 8 8 8 8 8 8 8 8 i i d d d d d d d d d t t 8 8 8 8 8 8 y t >         X . . $ $ $ $ . g W.W.E.W.^.Y.V.r.g.f.r.f.f.f.f.f.f.f.f.f.f.f.f.f.f.f.f.f.f.f.f.f.f.f.f.f.f.f.f.f.f.f.f.f.f.f.f.f.f.f.f.f.f.f.f.f.f.f.f.f.f.f.f.f.f.f.f.f.f.f.f.f.f.f.f.f.f.f.f.f.f.f.f.f.f.f.f.f.f.f.f.f.f.f.f.f.f.f.f.f.f.f.f.f.f.f.f.f.f.f.f.f.f.f.f.f.f.f.f.f.f.f.f.f.f.f.f.f.f.f.f.f.f.f.f.f.f.f.f.f.f.f.f.f.f.f.f.f.f.f.f.f.f.f.f.f.f.f.f.f.f.f.f.f.f.f.f.f.f.f.f.f.f.f.f.f.r.r.r.r.r.r.r.r.e.e.e.e.8.8.8.8.<.<.<.<.=.=.=.=.=.=.=.=.=.=.*.=.>.u . - ",
".   F b.g.g.=.@.@.@.@.@.@.@.@.@.@.@.@.@.@.@.@.@.@.@.@.@.*.*.!   +   d g.c.0.*.@.@.@.@.@.@.@.@.@.*.] ^ e . $ $ $ $ $ . #.Y.G.G.G.r. .*.$.@.@.@.@.@.@.@.@.@.@.@.@.@.@.@.@.@.@.@.@.@.@.@.@.@.@.@.@.@.@.@.@.@.@.@.@.@.@.@.@.@.@.@.@.@.@.@.@.@.@.@.@.@.@.@.@.%.` o $ $ $ . . .   X f J ....F J D M z x h 8 3 2 +                 8 ] g.f.6.$.@.@.@.@.@.@.@.@.' ^ J J ^ ! U J ! ^ ^ ^ ! ! ! ! ! ! ! ! U U U U ^ ^ ^ ^  .@.@.@.@.@.@.@.$.$.$.$.@.@.@.@.$.$.$.$.@.@.@.@.] ] ] ] ( ( ( ( ( ^ U U J J J U U ! ! ^ J J U U F J T ^ A + . . . $ $ $ $ $ $ $ $ . e h.A.Z.b.-.( ( ( ( P J J J F F F F j j h h f f f f y y y t t 8 8 8 8 8 6 6 7 7 7 7 7 7 8 8 8 8 8 8 8 6 6 6 8 8 8 8 8 8 7 8 8 8 8 8 t 8 f f i p 8 8 8 8 8 8 f f f f 8 8 8 8 f f f f f f f f 8 8 8 8 y y y y h t 6 3 @ X   X X .   . . . $ $ $ $ . / (.Y.Q.Y.E.V.f.r.f.f.f.f.f.f.f.f.f.f.f.f.f.f.f.f.f.f.f.f.f.f.f.f.f.f.f.f.f.f.f.f.f.f.f.f.f.f.f.f.f.f.f.f.f.f.f.f.f.f.f.f.f.f.f.f.f.f.f.f.f.f.f.f.f.f.f.f.f.f.f.f.f.f.f.f.f.f.f.f.f.f.f.f.f.f.f.f.f.f.f.f.f.f.f.f.f.f.f.f.f.f.f.f.f.f.f.f.g.g.g.g.f.f.f.f.g.f.r.r.f.f.r.r.f.f.f.f.r.r.r.r.f.f.f.f.f.f.f.f.f.f.f.f.r.r.r.r.r.r.r.r.w.w.w.w.0.0.e.e.6.6.6.6.=.=.=.=.=.=.=.=.*.$.@.$.$.$.$.$.@.@.@.@.@.@.@.@.@.@.@.@.@.@.@.@.@.@.@.@.>.g . = ",
". . F b.g.g.=.@.@.@.@.@.@.@.@.@.@.@.@.@.@.@.@.@.@.@.@.@.@.*.h   @   ( m.g.5.@.@.@.@.@.@.@.@.@.@.@.J W 4 . $ $ $ $ $ . -.R.G.G.G.r. .*.$.@.@.@.@.@.@.@.@.@.@.@.@.@.@.@.@.@.@.@.@.@.@.@.@.@.@.@.@.@.@.@.@.@.@.@.@.@.@.@.@.@.@.@.@.@.@.@.@.@.@.@.@.@.@.@.@.@.@.v $ $ $ . . .         + @ @ + X                       X   2 ' g.L.x.=.@.@.@.@.@.@.@.@.@.@.@.*.@.] ( ! ! U J ! ^ ^ ^ U U U U U U U U U U U U U U U U J ! ^ ( ] ] @.@.@.@.@.@.' ' ' ' ( ( ( ( J J J J J J J J U U U U U U U U J J J J J J J J ( ^ U J T T T ^ 6   . . . $ $ $ $ $ $ $ * $ . > ` >.>.P F F F F F F D D A A A S N N N N v v j j j j j j f f g f f y y y y y y y 6 8 6 6 6 6 6 6 6 4 6 6 6 6 6 6 6 6 4 6 6 6 6 6 6 4 4 4 4 4 4 4 4 4 4 4 4 4 4 4 3 3 4 4 4 4 4 4 4 4 4 4 3 3 4 4 4 4 4 4 > O + X X X X X . . . . . $ $ $ $ $ . X.(.Y.Q.Y.V.g.f.a.f.f.f.f.f.f.f.f.f.f.f.f.f.f.f.f.f.f.f.f.f.f.f.f.f.f.f.f.f.f.f.f.f.f.f.f.f.f.f.f.f.f.f.f.f.f.f.f.f.f.f.f.f.f.f.f.f.f.f.f.f.f.f.f.f.f.f.f.f.f.f.f.f.f.f.f.f.f.f.f.f.f.f.f.f.f.f.f.f.f.f.f.f.f.f.f.f.f.f.f.f.f.f.f.f.f.f.f.r.r.r.r.f.f.f.f.f.f.r.w.9.r.f.g.r.r.r.r.e.e.e.e.8.8.8.8.6.6.6.6.6.6.6.6.=.=.=.=.@.@.@.@.$.$.$.$.@.@.@.@.@.@.@.@.@.@.@.@.@.@.@.@.@.$.$.$.$.$.$.$.@.@.@.@.@.@.@.@.@.@.@.@.@.@.@.@.@.@.@.@.>.g . = ",
". . F b.g.p.*.@.@.@.@.@.@.@.@.@.@.@.@.@.@.@.@.@.@.@.@.@.$.@.@       r.V.f.=.@.@.@.@.@.@.@.@.@.@.] H A = . $ $ $ $ $ . -.R.G.G.G.r. .*.$.@.@.@.@.@.@.@.@.@.@.@.@.@.@.@.@.@.@.@.@.@.@.@.@.@.@.@.@.@.@.@.@.@.@.@.@.@.@.@.@.@.@.@.@.@.@.@.@.@.@.@.@.@.@.@.@. .=.} = $ $ . . .       X                       X         x 6.G.Y.j.=.@.@.=.@.$.@.@.@.@.@.@.@.@.*.*.*.@.@. .( ^ ^ ! ! ! U U U U U U U U U U U U U U U U ! ! U ^ ^ ^ ! U ^ ^ ^ ^ J J J J ! ! ! U ! ! ! ! ^ ^ ^ ^ U U U U U U U U ! ! ! ! ! ! ^ ^ ^ ^ ^ ^ ) ^ U F +       . $ $ $ $ $ $ $ $ $ $ .   . $ = . . . . . . . . . . . . $ $ . . . . . . . . . . & & & $ $ . . . . . . . . . . . . . . . . . . . . . . . . . . . . . . . . . . . . . . . . . . . . . . . . . . . . . . . . . . . . . . . . . . . . . . . . . . . . . . . . $ $ $ . $ . 7.(.Y.Q.Y.f.f.f.f.f.f.f.f.f.f.f.f.f.f.f.f.f.f.f.f.f.f.f.f.f.f.f.f.f.f.f.f.f.f.f.f.f.f.f.f.f.f.f.f.f.f.f.f.f.f.f.f.f.f.f.f.f.f.f.f.f.f.f.f.f.f.f.f.f.f.f.f.f.f.f.f.f.f.f.f.f.f.f.f.f.f.f.f.f.f.f.f.f.f.f.f.f.f.f.f.f.f.f.f.f.f.f.f.f.f.f.f.f.f.f.f.f.f.f.f.r.r.w.e.e.8.6.5.=.=.=.=.@.@.@.@.@.@.@.@.@.@.@.@.@.@.@.@.$.$.$.$.@.@.@.@.*.*.*.*.@.@.@.@.@.@.@.@.$.$.$.$.$.$.$.$.$.$.$.$.$.$.$.$.@.@.@.@.@.@.@.@.@.@.@.@.@.@.@.@.@.@.@.@.>.g . = ",
". . F b.g.p.=.@.@.@.@.@.@.@.@.@.@.@.@.@.@.@.@.@.@.@.@.@.=.(     X d x.g.e.*.@.@.@.@.@.@.@.@.@.@.! J g = . $ $ $ $ $ . -.R.G.G.G.r. .*.$.@.@.@.@.@.@.@.@.@.@.@.@.@.@.@.@.@.@.@.@.@.@.@.@.@.@.@.@.@.@.@.@.@.@.@.@.@.@.@.@.@.@.@.@.@.@.@.@.@.@.@.@.@.@.@.@.$...*.g $ $ . . .                       X X     X + h  .m.Y.Y.g.$.@.@.=.$.@.*.@.@.@.@.@.@.@.@.@.@.@.@.@.$.*.*.=.@.] ^ ! U U U U U U U U U U U U U U U U ^ U J J ^ ! J ! U U U U ! ! ! ! U U U J J J J J J J J J U U U U U U U U ^ ^ ^ ^ ^ ^ ^ ^ H A x f y 7 : X         . $ . . $ $ $ $ $ . . = . . . . . . . . . . . . . . . . . . . . . . . . . . . $ $ $ $ . . . . . . . . . . . . . . . . . . . . . . . . . . . . . . . . . . . $ $ . . . . . . . . $ $ $ $ . . . . $ $ $ $ $ $ $ $ . . . . $ $ $ $ $ $ $ $ $ $ . . . . . . . . $ $ . * . u.OXY.Q.Y.r.r.f.f.f.f.f.f.f.f.f.f.f.f.f.f.f.f.f.f.f.f.f.f.f.f.f.f.f.f.f.f.f.f.f.f.f.f.f.f.f.f.f.f.f.f.f.f.f.f.f.f.f.f.f.f.f.f.f.f.f.f.f.f.f.f.f.f.f.f.f.f.f.f.f.f.f.f.f.f.f.f.f.f.f.f.f.f.f.f.f.f.f.f.f.f.f.f.f.f.f.f.f.f.f.f.f.f.f.f.f.f.w.w.w.w.=.=.=.=.=.*.@.@.@.@.@.@.$.$.$.$.@.@.@.@.$.$.$.$.@.@.@.@.@.@.@.@.@.@.@.@.@.@.@.@.@.@.@.@.@.@.@.@.@.@.@.@.$.$.$.$.$.$.$.$.$.$.$.$.$.$.$.$.@.@.@.@.@.@.@.@.@.@.@.@.@.@.@.@.@.@.@.@.>.g . = ",
". . S b.j.g.=.@.@.@.@.@.@.@.@.@.@.@.@.@.@.@.@.@.@.@.@.@.=.f       ( C.c.6.$.@.@.@.@.@.@.@.@.@.@.J F 3 = . $ $ $ $ $ . :.T.F.F.G.a.O.*.$.@.@.@.@.@.@.@.@.@.@.@.@.@.@.@.@.@.@.@.@.@.@.@.@.@.@.@.@.@.@.@.@.@.@.@.@.@.@.@.@.@.@.@.@.@.@.@.@.@.@.@.@.@.@.@.@.*.$.*./ = . $ . . .             X     X     @ h  .j.G.Y.F.g.=.O.$.$.$.$.@.@.@.@.@.@.@.@.@.@.@.@.@.@.@.@.$.$.$.$.$.$.$.$.O.] ( ! J J J J ! ! ! ! ! U U U U ! ! U J U ! ! U U U U ! ! ! ! ^ ! U U ! U J H J J ^ ! ! ^ ( ( ( ( ^ ^ J D x k f 7 @ + @ X               .     . . $ $ $ $ $ $ $ $ $ . . . . . . $ $ $ $ $ $ $ $ $ $ $ $ $ $ $ $ $ $ $ $ $ $ $ $ $ $ $ $ $ $ $ $ $ $ $ $ $ $ $ $ $ $ $ $ $ $ $ . $ $ $ $ $ $ $ $ $ $ $ $ $ $ $ $ $ $ $ $ $ $ $ $ $ $ $ $ $ $ $ $ $ $ $ $ $ $ $ $ $ $ $ $ $ $ $ $ $ $ $ $ $ $ $ . . . . . . $ $ . $ . y.W.R./.F.w.r.f.f.f.a.a.a.f.f.f.f.f.f.f.f.f.f.f.f.f.f.f.f.f.f.f.f.f.f.f.f.f.f.f.f.f.f.f.f.f.f.f.f.f.f.f.f.f.f.f.f.f.f.f.f.f.f.f.f.f.f.f.f.f.f.f.f.f.f.f.f.f.f.f.f.f.f.f.f.f.f.f.f.f.f.f.f.f.f.f.f.f.f.f.f.f.f.f.f.f.f.r.r.8.8.8.8.5.=.$.*.*.*.$.@.@.@.@.@.@.@.@.@.@.@.@.@.@.@.@.@.@.@.@.@.@.@.@.@.@.@.@.@.@.@.@.@.@.@.@.@.@.@.@.@.@.@.@.@.@.@.@.@.@.@.@.@.@.@.@.@.@.@.@.@.@.@.@.@.@.@.@.@.@.@.@.@.@.@.@.@.@.@.@.@.@.@.@.@.&.&.@.#.=.g . & ",
". . S b.j.g.=.@.@.@.@.@.@.@.@.@.@.@.@.@.@.@.@.@.@.@.@.@.@.@       <.j.c.=.@.@.@.@.@.@.@.@.@.@.@.( j = 3 . $ $ $ $ $ . :.T.D.F.G.a.O.*.*.@.@.@.@.@.@.@.@.@.@.@.@.@.@.@.@.@.@.@.@.@.@.@.@.@.@.@.@.@.@.@.@.@.@.@.@.@.@.@.@.@.@.@.@.@.@.@.@.@.@.@.@.@.@.@.@.@.@.@.=.a . % $ . .                   X 3 ( f.G.F.L.C.g.$.@.@.=.$.$.$.$.@.@.@.@.@.@.@.@.@.@.@.@.@.@.@.@.$.$.$.$.$.$.$.*.=.*.@.@.' ( U H J J J J U U ! J U U U ! ^ ! U ! U U U ! ! J J H H H J U ( ( ( ( ( ( ^ ^ J A z f 9 3 3 : + X         X X X X   X X             . . . $ $ $ $ $ $ $ $ $ . . . . . . . . $ $ $ $ $ $ $ $ $ $ $ $ $ $ $ $ $ $ $ $ $ $ $ $ $ $ $ $ $ $ $ $ $ $ $ $ $ $ $ $ $ $ $ $ $ $ $ $ $ $ $ $ $ $ $ $ $ $ $ $ $ $ $ $ $ $ $ $ $ $ $ $ $ $ $ $ $ $ $ $ $ $ $ $ $ $ $ $ $ $ $ $ $ $ $ $ $ $ $ $ $ $ $ . . . . $ $ $ $ . y.W.Y.W.V.r.a.f.a.a.a.a.a.f.f.f.f.f.f.f.f.f.f.f.f.f.f.f.f.f.f.f.f.f.f.f.f.f.f.f.f.f.f.f.f.f.f.f.f.f.f.f.f.f.f.f.f.f.f.f.f.f.f.f.f.f.f.f.f.f.f.f.f.f.f.f.f.f.f.f.f.f.f.f.f.f.f.f.f.f.f.f.f.f.f.f.f.f.f.f.f.f.f.f.f.9.g.r.5.@.@.@.@.@.$.$.*.$.@.@.@.@.@.@.@.@.@.@.@.@.@.@.@.@.@.@.@.@.@.@.@.@.@.@.@.@.@.@.@.@.@.@.@.@.@.@.@.@.@.@.@.@.@.@.@.@.@.@.@.@.@.@.@.@.@.@.@.@.@.@.@.@.@.@.@.@.@.@.@.@.@.@.@.@.@.@.@.@.@.@.@.@.@.@.@.&.&.@.#.=.g . & ",
". . S b.j.g.=.@.@.@.@.@.@.@.@.@.@.@.@.@.@.@.@.@.@.@.@.@.^   X   8 c.j.g.$.@.$.$.@.@.@.@.@.@.@.@.] h = 4 . $ $ $ $ $ . -.T.F.F.G.a.O.*.*.@.@.@.@.@.@.@.@.@.@.@.@.@.@.@.@.@.@.@.@.@.@.@.@.@.@.@.@.@.@.@.@.@.@.@.@.@.@.@.@.@.@.@.@.@.@.@.@.@.@.@.@.@.@.@.@.@.@.@.=./ . $ * . .               > N 9.F.Y.G.G.G.c.8.O.@.$.$.$.$.$.$.$.@.@.@.@.@.@.@.@.@.@.@.@.@.@.@.@.$.$.$.$.$.$.$.$.$.@.@.@.=.$.@.] ( ^ J U U U U J U U U U U U U J J J J J U ^ ( ( ] ' ( ( J H A x f 8 2 + X X                             X         X @ 3 8 @   . . . $ $ $ $ $ $ $ $ $ . . . . . . . . . . . . . . . . . . . . . . . . . . . . . . . . . . . . . . . . . . . . . . . . . . . . . . . . . . . . . . . . . . . . . . . . . . . . . . . . . . . . . . . . . . . . . . . . . . . . . . . . . . . . . . . $ $ $ $ $ $ $ $ $ y.W.Y.E.c.r.f.f.r.r.a.a.a.f.f.f.f.f.f.f.f.f.f.f.f.f.f.f.f.f.f.f.f.f.f.f.f.f.f.f.f.f.f.f.f.f.f.f.f.f.f.f.f.f.f.f.f.f.f.f.f.f.f.f.f.f.f.f.f.f.f.f.f.f.f.f.f.f.f.f.f.f.f.f.f.f.f.f.f.f.f.f.f.f.f.f.f.f.f.f.f.f.f.f.f.e.r.e.@.@.@.@.@.@.@.@.@.@.@.@.@.@.@.@.@.@.@.@.@.@.@.@.@.@.@.@.@.@.@.@.@.@.@.@.@.@.@.@.@.@.@.@.@.@.@.@.@.@.@.@.@.@.@.@.@.@.@.@.@.@.@.@.@.@.@.@.@.@.@.@.@.@.@.@.@.@.@.@.@.@.@.@.@.@.@.@.@.@.@.@.@.@.@.@.@.&.&.@.#.=.g . & ",
". . S b.j.g.=.@.@.@.@.@.@.@.@.@.@.@.@.@.@.@.@.@.@.@.$.@.k   X   J C.c.w.@.@.$.$.@.@.@.@.@.@.@.@.( j 4 > . $ $ $ $ $ . :.T.F.F.G.a.O.*.*.@.@.@.@.@.@.@.@.@.@.@.@.@.@.@.@.@.@.@.@.@.@.@.@.@.@.@.@.@.@.@.@.@.@.@.@.@.@.@.@.@.@.@.@.@.@.@.@.@.@.@.@.@.@.@.@.*.$.*.@.#.6 . ; $ . .             g.R.Y.F.G.Y.D.r.@.@.@.=.=.*.*.$.$.$.$.@.@.@.@.@.@.@.@.@.@.@.@.@.@.@.@.$.$.$.$.$.$.$.$.*.*.*.*.*.*.*.*.=.@.] ( ( ^ U U U U U U ( ( ' ' ( ( ( ( ( J Z k f 8 3 @                             + @ @ 2 5 8 f z A J ^ ( ] @.6.r.c.D.Y.... . . . $ $ $ $ $ $ . . . . . . . . o o . . . . . . . . . . . . . . . . . . . . . . . . . . . . . . . . . . . . . . . . . . . . . . . . . . . . . . . . . . . . . . . . . . . . . . . . . . . . . . . . . . . . . . . . . . . . . . . . . . . . . . . . . $ $ $ $ $ $ $ . y.~.Y.Y.j.a.f.a.r.a.a.a.f.f.f.f.f.f.f.f.f.f.f.f.f.f.f.f.f.f.f.f.f.f.f.f.f.f.f.f.f.f.f.f.f.f.f.f.f.f.f.f.f.f.f.f.f.f.f.f.f.f.f.f.f.f.f.f.f.f.f.f.f.f.f.f.f.f.f.f.f.f.f.f.f.f.f.f.f.f.f.f.f.f.f.f.f.f.f.f.f.f.f.f.f.r.8.=.@.$.$.$.$.@.@.@.@.@.@.@.@.@.@.@.@.@.@.@.@.@.@.@.@.@.@.@.@.@.@.@.@.@.@.@.@.@.@.@.@.@.@.@.@.@.@.@.@.@.@.@.@.@.@.@.@.@.@.@.@.@.@.@.@.@.@.@.@.@.@.@.@.@.@.@.@.@.@.@.@.@.@.@.@.@.@.@.@.@.@.@.@.@.@.@.@.&.&.@.#.=.g . ; ",
". . S b.g.g.=.@.@.@.@.@.@.@.@.@.@.@.@.@.@.@.@.@.@.@.*.@.@     X 5.c.g.=.@.$.$.$.@.@.@.@.@.@.@.@.( j 3 = . $ $ $ $ $ . :.T.F.F.I.a.O.*.$.@.@.@.@.@.@.@.@.@.@.@.@.@.@.@.@.@.@.@.@.@.@.@.@.@.@.@.@.@.@.@.@.@.@.@.@.@.@.@.@.@.@.@.@.@.@.@.@.@.@.@.@.@.@.@.@.@.@.@.@.*.F . . $ $ . .           A.Y.A.D.D.e.@.$.$.$.$.@.@.@.@.$.$.$.$.@.@.@.@.@.@.@.@.@.@.@.@.@.@.@.@.@.@.@.@.@.@.@.@.@.@.@.@.@.@.@.@.$.$.$.$.@.@.] ] ( ( ] ] J H Z k 8 9 2 @ X       X X @ 3 8 d h k D H J ! ' ] @.=.9.f.c.C.A.F.G.G.G.G.L.L.G.G.Y.R.Y.G.G.G.T.y.  = . . . . $ . $ . . $ . = j x n A A C C C C C C C C N N N N C C C A A A A A A A A A N N N A A A A A A A A A A C C A A A A N A A A C C C A A A A A A N A A A A N A N N N N A A A A A A A A A A A C A A A A A A C C C C A A A A A A A A A A A A A N g > . $ $ $ $ $ $ $ $ u.(.Y.Y.i.f.f.a.a.a.a.a.f.f.f.f.f.f.f.f.f.f.f.f.f.f.f.f.f.f.f.f.f.f.f.f.f.f.f.f.f.f.f.f.f.f.f.f.f.f.f.f.f.f.f.f.f.f.f.f.f.f.f.f.f.f.f.f.f.f.f.f.f.f.f.f.f.f.f.f.f.f.f.f.f.f.f.f.f.f.f.f.f.f.f.f.f.f.f.f.f.f.f.f.f.f.=.@.*.@.@.@.@.@.@.@.@.@.@.@.@.@.@.@.@.@.@.@.@.@.@.@.@.@.@.@.@.@.@.@.@.@.@.@.@.@.@.@.@.@.@.@.@.@.@.@.@.@.@.@.@.@.@.@.@.@.@.@.@.@.@.@.@.@.@.@.@.@.@.@.@.@.@.@.@.@.@.@.@.@.@.@.@.@.@.@.@.@.@.@.@.@.@.@.@.&.&.@.#.=.g . & ",
". . S b.g.g.=.@.@.@.@.@.@.@.@.@.@.@.@.@.@.@.@.@.$.@.*.^ X X X 9 f.x.f.*.@.$.$.@.@.@.@.@.@.@.@.@.( j 3 = . $ $ $ $ $ . :.T.F.F.I.a.O.*.$.@.@.@.@.@.@.@.@.@.@.@.@.@.@.@.@.@.@.@.@.@.@.@.@.@.@.@.@.@.@.@.@.@.@.@.@.@.@.@.@.@.@.@.@.@.@.@.@.@.@.@.@.@.@.@.@.@.@.@.@.@.} 6 . $ $ . .           G.OXD.g.@.@.@.$.$.$.$.@.@.@.@.$.$.$.$.@.@.@.@.@.@.@.@.@.@.@.@.@.@.@.@.@.@.@.@.@.@.@.@.@.@.@.@.@.@.@.@.@.@.@.@.$.@.*.*.@.' J H x x Z Z H U ( ( @.*.<.6.8.9.f.g.c.c.C.D.G.G.G.L.Y.Y.Y.Y.U.G.G.F.F.G.G.G.G.F.F.G.G.G.G.G.G.G.G.C.J.g.. . . . $ $ . . . . . . r >.z.c.c.c.c.c.c.c.N.N.c.c.c.c.c.c.c.c.c.b.b.b.b.B.B.B.B.b.b.b.b.b.B.B.b.B.b.b.b.B.B.B.B.b.b.b.b.b.b.b.b.b.b.b.b.B.B.B.B.b.b.b.b.b.b.b.b.b.b.b.b.b.B.b.B.B.b.b.b.b.b.B.B.b.b.b.b.b.b.b.b.b.b.b.b.b.b.B.B.b.b.b.b.b.b.b.b.b.c.p.F . . $ $ $ $ $ $ u.OXY.L.r.f.a.a.a.a.a.a.a.f.f.f.f.f.f.f.f.f.f.f.f.f.f.f.f.f.f.f.f.f.f.f.f.f.f.f.f.f.f.f.f.f.f.f.f.f.f.f.f.f.f.f.f.f.f.f.f.f.f.f.f.f.f.f.f.f.f.f.f.f.f.f.f.f.f.f.f.f.f.f.f.f.f.f.f.f.f.f.f.f.f.f.f.f.f.f.f.f.f.f.f.e.=.@.@.@.@.@.@.@.@.@.@.@.@.@.@.@.@.@.@.@.@.@.@.@.@.@.@.@.@.@.@.@.@.@.@.@.@.@.@.@.@.@.@.@.@.@.@.@.@.@.@.@.@.@.@.@.@.@.@.@.@.@.@.@.@.@.@.@.@.@.@.@.@.@.@.@.@.@.@.@.@.@.@.@.@.@.@.@.@.@.@.@.@.@.@.@.@.@.@.&.&.@.#.=.g . & ",
". . S b.g.g.=.@.@.@.@.@.@.@.@.@.@.@.@.@.@.@.@.@.*.@.*.k   X   H V.x.r.@.$.$.$.@.@.@.@.@.@.@.@.@.( j 3 = . $ $ $ $ $ . :.T.F.G.G.a.O.*.$.@.@.@.@.@.@.@.@.@.@.@.@.@.@.@.@.@.@.@.@.@.@.@.@.@.@.@.@.@.@.@.@.@.@.@.@.@.@.@.@.@.@.@.@.@.@.@.@.@.@.@.@.@.@.@.@.@.@.@.@.] %.F . $ $ $ .           M..XM.=.@.=.@.$.$.$.$.@.@.@.@.$.$.$.$.@.@.@.@.@.@.@.@.@.@.@.@.@.@.@.@.@.@.@.@.@.@.@.@.@.@.@.@.@.@.@.@.@.@.@.@.@.@.=.=.<.6.8.6.6.6.6.5.<.<.5.<.=.=.=.=.=.=.=.=.=.=.=.=.=.=.=.=.=.*.@.@.=.=.=.=.=.=.=.<.6.6.6.6.6.6.8.8.j.D.J.J.J.y..   . . . . . . . . . - >.v.g.g.g.g.g.g.g.g.g.g.g.g.g.g.g.g.g.g.g.g.g.g.g.g.l.l.g.g.g.g.g.g.g.g.g.g.g.g.g.g.l.l.g.g.g.g.g.g.g.g.g.g.g.g.g.g.l.l.g.g.g.g.g.g.g.g.g.g.g.g.g.g.g.g.g.g.g.g.g.g.g.l.l.g.g.g.g.g.g.g.g.g.g.g.g.g.g.l.l.g.g.g.g.g.g.g.g.g.j.j.k.g . . $ $ $ $ $ u.W.R.A.r.f.a.a.a.r.r.r.r.f.f.f.f.f.f.f.f.f.f.f.f.f.f.f.f.f.f.f.f.f.f.f.f.f.f.f.f.f.f.f.f.f.f.f.f.f.f.f.f.f.f.f.f.f.f.f.f.f.f.f.f.f.f.f.f.f.f.f.f.f.f.f.f.f.f.f.f.f.f.f.f.f.f.f.f.f.f.f.f.f.f.f.f.f.f.f.f.f.f.f.f.<.*.@.@.@.@.@.@.@.@.@.@.@.@.@.@.@.@.@.@.@.@.@.@.@.@.@.@.@.@.@.@.@.@.@.@.@.@.@.@.@.@.@.@.@.@.@.@.@.@.@.@.@.@.@.@.@.@.@.@.@.@.@.@.@.@.@.@.@.@.@.@.@.@.@.@.@.@.@.@.@.@.@.@.@.@.@.@.@.@.@.@.@.@.@.@.@.@.@.@.&.&.@.#.=.g . & ",
". . S b.g.g.=.@.@.@.@.@.@.@.@.@.@.@.@.@.@.@.@.@.*.$.$.3       =.c.g.9.@.$.$.@.@.@.@.@.@.@.@.@.@.( j 3 = . $ $ $ $ $ . :.T.G.G.G.a.O.*.$.@.@.@.@.@.@.@.@.@.@.@.@.@.@.@.@.@.@.@.@.@.@.@.@.@.@.@.@.@.@.@.@.@.@.@.@.@.@.@.@.@.@.@.@.@.@.@.@.@.@.@.@.@.@.@.@.@.@.@.@. .] #.4 $ $ $ .           p.$Xk.O.*. .@.@.$.$.$.@.@.@.@.$.$.$.$.@.@.@.@.@.@.@.@.@.@.@.@.@.@.@.@.@.@.@.@.@.@.@.@.@.@.@.@.@.@.@.@.@.@.@.@.@.@.@.@.@.@.@. .@.@.@.@.@.@.*.=.@.@.@.@.@.@.$.*.*.$.@.@.*.$.@.@.@.@.@.@.@.@.@.O. .O.O.@.@.@.@.@.@.@.@.$. .r.D.H.W.7.. . . . . . $ $ . . . C h.h.c.g.g.s.g.g.g.g.g.g.g.g.g.g.g.g.g.g.g.g.g.g.g.g.l.l.g.g.g.g.g.g.g.g.g.g.g.g.g.g.l.l.g.g.g.g.g.g.g.g.g.g.g.g.g.g.l.l.g.g.g.g.g.g.g.g.g.g.g.g.g.g.g.g.g.g.g.g.g.g.l.l.l.l.g.g.g.g.g.g.g.g.g.g.g.g.l.l.l.l.g.g.g.g.g.g.g.g.x.f.x.@.. . $ $ $ $ . u.W.R.V.r.r.a.a.a.r.r.r.r.f.f.f.f.f.f.f.f.f.f.f.f.f.f.f.f.f.f.f.f.f.f.f.f.f.f.f.f.f.f.f.f.f.f.f.f.f.f.f.f.f.f.f.f.f.f.f.f.f.f.f.f.f.f.f.f.f.f.f.f.f.f.f.f.f.f.f.f.f.f.f.f.f.f.f.f.f.f.f.f.f.f.f.f.f.f.f.f.f.f.f.f.*.*.@.@.@.@.@.@.@.@.@.@.@.@.@.@.@.@.@.@.@.@.@.@.@.@.@.@.@.@.@.@.@.@.@.@.@.@.@.@.@.@.@.@.@.@.@.@.@.@.@.@.@.@.@.@.@.@.@.@.@.@.@.@.@.@.@.@.@.@.@.@.@.@.@.@.@.@.@.@.@.@.@.@.@.@.@.@.@.@.@.@.@.@.@.@.@.@.@.@.&.&.@.#.=.g . & ",
". . S b.g.g.=.@.@.@.@.@.@.@.@.@.@.@.@.@.@.@.@.@.@.=.( X     9 c.g.x.=.O.$.$.@.@.@.@.@.@.@.@.@.@.( z 3 < . $ $ $ $ $ . ,.Y.A.G.G.a.O.*.$.@.@.@.@.@.@.@.@.@.@.@.@.@.@.@.@.@.@.@.@.@.@.@.@.@.@.@.@.@.@.@.@.@.@.@.@.@.@.@.@.@.@.@.@.@.@.@.@.@.@.@.@.@.@.@.@.@.@.@.@.=.P #.n . * $ $ . .       8.%Xm.O.@.@.@.@.@.@.@.@.@.@.@.$.$.$.$.@.@.@.@.@.@.@.@.@.@.@.@.@.@.@.@.@.@.@.@.@.@.@.@.@.@.@.@.@.@.@.@.@.@.@.@.@.@.@.@.@.@.@.@.@.@.@.@.@.@.@.@.@.@.$.$.@.@.@.@.$.$.$.$.@.@.@.@.@.@.@.@.@.@.@.@.@.@.@.@.@.@.$.$.@.@.@.@.$.@.*.r.Y.-.  . . . $ . $ $ $ $ . I b.p.g.g.g.g.g.j.l.l.l.l.l.g.g.g.g.g.g.g.j.j.l.l.l.l.l.l.l.l.l.g.g.g.j.g.j.g.l.g.g.g.l.l.l.l.g.g.g.g.g.g.j.j.l.l.l.l.x.x.c.c.x.x.x.x.x.x.x.x.x.x.c.c.c.c.c.x.x.x.x.x.x.x.c.x.x.j.x.x.c.c.c.c.g.g.g.g.g.g.g.g.a.g.x.c.c.x.l.l.g.g.c.*.. $ $ $ $ $ $ u.W.Y.j.r.r.r.r.r.r.r.a.r.f.f.f.f.f.f.f.f.f.f.f.f.f.f.f.f.f.f.f.f.f.f.f.f.f.f.f.f.f.f.f.f.f.f.f.f.f.f.f.f.f.f.f.f.f.f.f.f.f.f.f.f.f.f.f.f.f.f.f.f.f.f.f.f.f.f.f.f.f.f.f.f.f.f.f.f.f.f.f.f.f.f.f.f.f.f.f.f.f.g.w.=.$.$.$.@.$.$.$.$.@.@.@.@.@.@.@.@.@.@.@.@.@.@.@.@.@.@.@.@.@.@.@.@.@.@.@.@.@.@.@.@.@.@.@.@.@.@.@.@.@.@.@.@.@.@.@.@.@.@.@.@.@.@.@.@.@.@.@.@.@.@.@.@.@.@.@.@.@.@.@.@.@.@.@.@.@.@.@.@.@.@.@.@.@.@.@.@.@.@.@.@.@.@.@.#.=.g . = ",
". . S b.g.g.=.@.@.@.@.@.@.@.@.@.@.@.@.@.@.@.@.@.@.*.h       H j.g.f.*.@.$.@.@.@.@.@.@.@.@.@.@.@.( z 3 < . $ $ $ $ $ . ,.Y.A.G.G.a.O.*.$.@.@.@.@.@.@.@.@.@.@.@.@.@.@.@.@.@.@.@.@.@.@.@.@.@.@.@.@.@.@.@.@.@.@.@.@.@.@.@.@.@.@.@.@.@.@.@.@.@.@.@.@.@.@.@.@.@.@.@.@.$.) / } = * . $ . .       =.$Xm.=.@.*.@.@.@.@.@.@.@.@.@.$.$.$.$.@.@.@.@.@.@.@.@.@.@.@.@.@.@.@.@.@.@.@.@.@.@.@.@.@.@.@.@.@.@.@.@.@.@.@.@.@.@.@.@.@.@.@.@.@.@.@.@.@.@.@.@.@.@.@.@.@.@.@.@.@.@.@.@.@.@.@.@.@.@.@.@.@.@.@.@.@.@.@.@.@.@.$.@.@.@.@.@.@.@.@.@.9.P . . . . $ . $ $ $ $ . I b.p.g.g.g.g.g.j.l.l.l.l.l.g.g.g.g.g.g.g.g.g.g.g.g.g.x.x.x.l.l.l.g.g.j.j.j.j.l.l.l.l.x.x.x.x.c.c.c.c.c.c.c.c.c.c.c.c.x.x.x.x.l.l.g.g.g.g.g.g.g.g.g.f.a.a.a.r.r.r.r.r.r.w.w.w.6.6.6.6.=.=.=.=.=.=.=.*.*.*.*.*. .@.=.6.r.g.l.l.g.g.c.=.. $ $ $ $ $ $ u.~.Y.g.r.r.r.r.r.r.r.a.a.f.f.f.f.f.f.f.f.f.f.f.f.f.f.f.f.f.f.f.f.f.f.f.f.f.f.f.f.f.f.f.f.f.f.f.f.f.f.f.f.f.f.f.f.f.f.f.f.f.f.f.f.f.f.f.f.f.f.f.f.f.f.f.f.f.f.f.f.f.f.f.f.f.f.f.f.f.f.f.f.f.f.f.f.f.f.f.f.f.r.6.*.$.$.$.$.$.$.$.$.@.@.@.@.@.@.@.@.@.@.@.@.@.@.@.@.@.@.@.@.@.@.@.@.@.@.@.@.@.@.@.@.@.@.@.@.@.@.@.@.@.@.@.@.@.@.@.@.@.@.@.@.@.@.@.@.@.@.@.@.@.@.@.@.@.@.@.@.@.@.@.@.@.@.@.@.@.@.@.@.@.@.@.@.@.@.@.@.@.@.@.@.&.@.@.#.=.g . = ",
". . S b.g.g.<.@.@.@.@.@.@.@.@.@.@.@.@.@.@.@.@.@.@.O.3     X =.g.x.e.@.=.$.@.@.@.@.@.@.@.@.@.@.@.( z 3 < . $ $ $ $ $ . ,.Y.A.G.G.r. .*.$.@.@.@.@.@.@.@.@.@.@.@.@.@.@.@.@.@.@.@.@.@.@.@.@.@.@.@.@.@.@.@.@.@.@.@.@.@.@.@.@.@.@.@.@.@.@.@.@.@.@.@.@.@.@.@.@.@.@.@.@.@.@.J @.b . . $ $ .       ) &XC.e.O.=.@.@.@.@.@.@.@.@.@.$.$.$.$.@.@.@.@.@.@.@.@.@.@.@.@.@.@.@.@.@.@.@.@.@.@.@.@.@.@.@.@.@.@.@.@.@.@.@.@.@.@.@.@.@.@.@.@.@.@.@.@.@.@.@.@.@.@.@.@.@.@.@.@.@.@.@.@.@.@.@.@.@.@.@.@.@.@.@.@.@.@.@.@.@.@.@.@.@.@.@.@.@.@.@.#.#.I .   . . . . $ $ $ $ . I b.p.g.g.g.g.g.j.j.j.g.g.g.g.c.c.c.c.c.x.x.x.x.x.x.x.c.c.c.x.x.j.j.j.g.g.g.g.g.g.g.g.g.g.g.g.r.r.r.a.r.r.r.9.9.w.w.e.6.6.6.6.=.=.=.=.=.=.=.=.=.=.=.*.$.$.$.@.@.@.@.@.@.@.@.@.@.@.@.@.@.@.@.@.@.@.@.@.@.@.@.@.@.@.@.@.*.6.r.f.l.l.N.=.. $ $ $ $ $ . u.~.G.r.r.i.i.i.i.i.i.i.i.f.f.f.f.f.f.f.f.f.f.f.f.f.f.f.f.f.f.f.f.f.f.f.f.f.f.f.f.f.f.f.f.f.f.f.f.f.f.f.f.f.f.f.f.f.f.f.f.f.f.f.f.f.f.f.f.f.f.f.f.f.f.f.f.f.f.f.f.f.f.f.f.f.f.f.f.f.f.f.f.f.f.f.f.f.f.f.f.r.6.=.$.$.$.$.$.$.$.$.$.@.@.@.@.@.@.@.@.@.@.@.@.@.@.@.@.@.@.@.@.@.@.@.@.@.@.@.@.@.@.@.@.@.@.@.@.@.@.@.@.@.@.@.@.@.@.@.@.@.@.@.@.@.@.@.@.@.@.@.@.@.@.@.@.@.@.@.@.@.@.@.@.@.@.@.@.@.@.@.@.@.@.@.@.@.@.@.@.@.@.@.@.&.&.@.#.=.g . = ",
". . S b.g.g.<.@.@.@.@.@.@.@.@.@.@.@.@.@.@.@.@.@.=.! @ X   2 r.g.g.6.@.=.@.@.@.@.@.@.@.@.@.@.@.@.( z 3 < . $ $ $ $ $ . ,.Y.A.G.G.r. .*.$.@.@.@.@.@.@.@.@.@.@.@.@.@.@.@.@.@.@.@.@.@.@.@.@.@.@.@.@.@.@.@.@.@.@.@.@.@.@.@.@.@.@.@.@.@.@.@.@.@.@.@.@.@.@.@.@.@.@.@.@.@.*.^ ) / $ * * . . .     J _.C.g. .=.@.@.@.@.@.@.@.@.@.$.$.$.$.@.@.@.@.@.@.@.@.@.@.@.@.@.@.@.@.@.@.@.@.@.@.@.@.@.@.@.@.@.@.@.@.@.@.@.@.@.@.@.@.@.@.@.@.@.@.@.@.@.@.@.@.@.@.@.@.@.@.@.@.@.@.@.@.@.@.@.@.@.@.@.@.@.@.@.@.@.@.@.@.@.@.@.@.@.@.@.@.@.@.@.#.} n   . . . . . $ $ $ $ . I b.p.g.g.h.g.g.j.j.j.g.g.g.g.f.f.f.r.r.r.r.r.9.9.r.9.8.8.8.6.6.6.6.6.5.=.=.=.=.=.=.*.*.$.$.$.@.@.@.@.@.@.@.@.@.@.@.@.@.@.@.@.@.@.@.@.@.@.@.@.@.@.@.@.@.@.@.@.@.@.@.@.@.@.@.@.@.@.@.@.$.$.$.$.*.*.*.*.$.@.@.@.$.*.*.*.O.@.&.5.a.g.c.=.. $ $ $ $ $ $ u.~.A.e.r.i.i.i.i.i.i.i.i.f.f.f.f.f.f.f.f.f.f.f.f.f.f.f.f.f.f.f.f.f.f.f.f.f.f.f.f.f.f.f.f.f.f.f.f.f.f.f.f.f.f.f.f.f.f.f.f.f.f.f.f.f.f.f.f.f.f.f.f.f.f.f.f.f.f.f.f.f.f.f.f.f.f.f.f.f.f.f.f.f.f.f.f.f.f.f.f.9.=.@.@.$.$.$.$.$.$.$.$.@.@.@.@.@.@.@.@.@.@.@.@.@.@.@.@.@.@.@.@.@.@.@.@.@.@.@.@.@.@.@.@.@.@.@.@.@.@.@.@.@.@.@.@.@.@.@.@.@.@.@.@.@.@.@.@.@.@.@.@.@.@.@.@.@.@.@.@.@.@.@.@.@.@.@.@.@.@.@.@.@.@.@.@.@.@.@.@.@.@.@.@.&.&.@.@.=.g . = ",
". . S b.g.g.<.@.@.@.@.@.@.@.@.@.@.@.@.@.@.@.@.@.=.x   X   H V.r.r.*.@.=.@.@.@.@.@.@.@.@.@.@.@.@.( x 3 3 . $ $ $ $ $ . ,.Y.G.G.G.r. .*.$.@.@.@.@.@.@.@.@.@.@.@.@.@.@.@.@.@.@.@.@.@.@.@.@.@.@.@.@.@.@.@.@.@.@.@.@.@.@.@.@.@.@.@.@.@.@.@.@.@.@.@.@.@.@.@.@.@.@.@.@.@.=. .J } b $ $ $ . . .   e Y.C.C.=...*.@.@.@.@.@.@.@.@.$.$.$.$.@.@.@.@.@.@.$.@.@.@.@.@.@.@.@.@.@.@.@.@.@.@.@.@.@.@.@.@.@.@.@.@.*.*.*.*.@.@.@.@.@.@.@.@.@.@.@.@.@.@.$.$.$.$.$.$.$.$.$.$.$.$.$.$.@.@.@.@.@.@.@.@.@.@.@.@.@.@.@.@.@.@.@.@.@.@.@.@.@.@.@.@.^ F . . . . $ $ $ $ $ $ . I b.g.g.j.h.g.c.c.g.r.6.6.6.6.=.*.$.$.$.@.@.@.@.@.@.@.@.@.@.@.@.@.$.$.$.$.$.$.*.$.$.$.$.$.$.$.@.@.@.@.$.$.@.@.@.@.@.@.@.@.$.$.@.@.@.@.@.@.@.@.@.@.@.@.@.@.@.@.@.@.@.@.@.@.@.@.@.@.@.@.$.$.$.$.@.@.@.@.@.@.@.@.$.$.$.$.$.$.*.&.@.&.g.@.$ $ $ $ $ $ . u.(.c.f.r.i.i.i.i.i.i.i.i.f.f.f.f.f.f.f.f.f.f.f.f.f.f.f.f.f.f.f.f.f.f.f.f.f.f.f.f.f.f.f.f.f.f.f.f.f.f.f.f.f.f.f.f.f.f.f.f.f.f.f.f.f.f.f.f.f.f.f.f.f.f.f.f.f.f.f.f.f.f.f.f.f.f.f.f.f.f.f.f.f.f.f.f.f.f.f.r.6.*.@.@.$.$.$.$.$.$.$.@.@.@.*.6.@.@.@.@.@.@.@.@.@.@.@.@.@.@.@.@.@.@.@.@.@.@.@.@.@.@.@.@.@.@.@.@.@.@.@.@.@.@.@.@.@.@.@.@.@.@.@.@.@.@.@.@.@.@.@.@.@.@.@.@.@.@.@.@.@.@.@.@.@.@.@.@.@.@.@.@.@.@.@.@.@.@.@.@.@.@.@.@.&.&.@.#.=.g . = ",
". . S b.g.g.<.@.@.@.@.@.@.@.@.@.@.@.@.@.@.@.@.@.=.3   X   $.c.g.6.@.@.*.@.@.@.@.@.@.@.@.@.@.@.@.( x 3 < . $ $ $ $ $ . :.T.H.G.G.r. .*.$.@.@.@.@.@.@.@.@.@.@.@.@.@.@.@.@.@.@.@.@.@.@.@.@.@.@.@.@.@.@.@.@.@.@.@.@.@.@.@.@.@.@.@.@.@.@.@.@.@.@.@.@.@.@.@.@.@.@.@.@.@.*.@.T ^ ^ = . . . . .   O g.Y.C.i.@.@.@.@.@.@.@.@.@.@.$.$.$.$.@.@.@.@.@.@.@.@.@.@.@.@.@.@.@.@.@.@.@.@.@.@.@.@.@.@.$.$.*.*.*.*.@.@.@.@.@.@.@.@.@.@.$.@.@.@.@.@.$.$.$.$.$.$.$.$.$.$.$.$.$.$.$.$.*.*.*.*.*.*.*.*.*.*.$.$.*.*.*.*.*.*.*.$.@.@.@.@.=.$...` ^ F . . . . $ $ $ $ $ $ . I c.g.g.g.g.6.=.=.@.@.@.@.@.@.@.@.$.@.@.@.@.@.@.@.@.@.@.@.@.@.@.@.$.$.$.$.$.$.*.*.$.$.$.$.$.$.@.@.@.@.$.$.@.@.@.@.@.@.@.@.$.$.@.$.@.@.@.@.@.@.@.@.@.@.@.@.@.@.@.@.@.@.@.@.@.@.@.@.@.@.$.$.$.$.@.@.@.@.@.@.@.@.$.$.$.$.$.@.*.&.O.O.=.K . $ $ $ $ $ . u.OXc.f.r.i.i.i.i.i.i.i.i.f.f.f.f.f.f.f.f.f.f.f.f.f.f.f.f.f.f.f.f.f.f.f.f.f.f.f.f.f.f.f.f.f.f.f.f.f.f.f.f.f.f.f.f.f.f.f.f.f.f.f.f.f.f.f.f.f.f.f.f.f.f.f.f.f.f.f.f.f.f.f.f.f.f.f.f.f.f.f.f.f.f.f.f.f.f.r.e.=.@.@.$.$.$.$.$.$.$.@.@.@.@.@.<.@.@.@.@.@.@.@.@.@.@.@.@.@.@.@.@.@.@.@.@.@.@.@.@.@.@.@.@.@.@.@.@.@.@.@.@.@.@.@.@.@.@.@.@.@.@.@.@.@.@.@.@.@.@.@.@.@.@.@.@.@.@.@.@.@.@.@.@.@.@.@.@.@.@.@.@.@.@.@.@.@.@.@.@.@.@.@.@.&.&.@.#.=.g . = ",
". . S b.g.g.<.@.@.@.@.@.@.@.@.@.@.@.@.@.@.@.@.@.]       2 g.x.c.=.@.@.@.@.@.@.@.@.@.@.@.@.@.@.@.( x 3 < . $ $ $ $ $ . :.T.G.G.G.a.O.*.$.@.@.@.@.@.@.@.@.@.@.@.@.@.@.@.@.@.@.@.@.@.@.@.@.@.@.@.@.@.@.@.@.@.@.@.@.@.@.@.@.@.@.@.@.@.@.@.@.@.@.@.@.@.@.@.@.@.@.@.@.@.$.$.( H @.e   . . . o   X ) ^.A.C.=.@.@.@.@.@.@.@.@.@.$.$.$.$.@.@.@.@.@.@.@.@.@.@.@.@.@.@.@.@.@.@.@.@.@.@.@.@.@.@.@.@.$.$.$.$.*.*.*.*.*.*.*.*.$.$.$.$.$.$.$.$.$.$.$.$.$.$.$.$.$.$.$.$.$.$.$.$.@.@.@.@.@.@.@.@.@.@.@.@. . . . . . . .] ] ] ' ' ] ( U F ^ F . . . . $ $ $ $ $ $ . I c.g.g.r.6.#.@.@.@.@.*.*.*.*.$.@.@.@.@.@.@.@.@.@.@.@.@.@.@.@.@.@.$.$.$.$.$.$.$.$.$.$.$.$.$.$.@.@.@.@.$.$.@.@.@.@.@.@.@.@.$.$.@.@.@.@.@.@.@.@.@.@.@.@.@.@.@.@.@.@.@.@.@.@.@.@.@.@.@.@.$.$.$.$.@.@.@.@.@.@.@.@.$.$.$.$.$.*.&.&.&.*.@.A . $ $ $ $ $ . u.W.j.i.i.i.i.i.i.i.i.i.i.f.f.f.f.f.f.f.f.f.f.f.f.f.f.f.f.f.f.f.f.f.f.f.f.f.f.f.f.f.f.f.f.f.f.f.f.f.f.f.f.f.f.f.f.f.f.f.f.f.f.f.f.f.f.f.f.f.f.f.f.f.f.f.f.f.f.f.f.f.f.f.f.f.f.f.f.f.f.f.f.f.f.f.f.f.f.r.=.*.@.@.$.$.$.$.$.$.@.@.@.$.@.] =.$.@.@.@.@.@.@.@.@.@.@.@.@.@.@.@.@.@.@.@.@.@.@.@.@.@.@.@.@.@.@.@.@.@.@.@.@.@.@.@.@.@.@.@.@.@.@.@.@.@.@.@.@.@.@.@.@.@.@.@.@.@.@.@.@.@.@.@.@.@.@.@.@.@.@.@.@.@.@.@.@.@.@.@.@.@.@.@.&.&.@.#.=.g . = ",
". . S b.g.g.<.@.@.@.@.@.@.@.@.@.@.@.@.@.@.@.@.@.H X     x c.g.x.=.@.@.@.@.@.@.@.@.@.@.@.@.@.@.@.( x 3 = . $ $ $ $ $ . :.T.G.G.I.a.O.*.$.@.@.@.@.@.@.@.@.@.@.@.@.@.@.@.@.@.@.@.@.@.@.@.@.@.@.@.@.@.@.@.@.@.@.@.@.@.@.@.@.@.@.@.@.@.@.@.@.@.@.@.@.@.@.@.@.@.@.@.@.@.$.@.' D ) F . . . . . .   5 G.L.G.8.$.@.@.@.@.@.@.@.@.$.$.$.$.@.@.@.@.@.@.@.@.@.@.@.@.@.@.@.@.@.@.@.@.@.@.@.@.@.@.@.@. . . . .O.O.O.O.] ] ] ] ] ] ] ] ] ] ' ' ] ] ' ' ' ' ' ' ] ' ( ( ( ( ( ( ! ! ! ! ! ! U U U U U J J J J J J J J J J J U U J J J J ^ F . . . . $ $ $ $ $ $ . I c.g.c.6.@.@.@.$.*.$.@.@.@.@.@.@.@.@.@.@.@.@.@.@.@.@.@.@.@.@.@.@.$.$.$.$.$.$.$.$.$.$.$.$.$.$.@.@.@.@.$.$.@.@.@.@.@.@.@.@.$.$.@.@.@.@.@.@.@.@.@.@.@.@.@.@.@.@.@.@.@.@.@.@.@.@.@.@.@.@.$.$.$.$.@.@.@.@.@.@.@.@.$.$.$.$.$.$.&.&.O.&.O.A . $ $ $ $ $ . u.Y.g.r.f.i.i.i.i.i.i.i.i.f.f.f.f.f.f.f.f.f.f.f.f.f.f.f.f.f.f.f.f.f.f.f.f.f.f.f.f.f.f.f.f.f.f.f.f.f.f.f.f.f.f.f.f.f.f.f.f.f.f.f.f.f.f.f.f.f.f.f.f.f.f.f.f.f.f.f.f.f.f.f.f.f.f.f.f.f.f.f.f.f.f.f.f.f.r.e.@.@.@.$.$.$.$.$.$.@.@.@.@.@.=.J 6.$.@.@.@.@.@.@.@.@.@.@.@.@.@.@.@.@.@.@.@.@.@.@.@.@.@.@.@.@.@.@.@.@.@.@.@.@.@.@.@.@.@.@.@.@.@.@.@.@.@.@.@.@.@.@.@.@.@.@.@.@.@.@.@.@.@.@.@.@.@.@.@.@.@.@.@.@.@.@.@.@.@.@.@.@.@.@.@.&.&.@.#.:.g . = ",
"$ . S b.g.j.<.@.$.$.$.$.@.@.@.@.@.@.@.@.@.@.@.@.A       D C.x.r.@.@.@.@.@.@.@.@.@.@.@.@.@.@.@.@.^ N 3 = . $ $ $ $ $ . :.T.G.G.G.a.O.*.$.@.@.@.@.@.@.@.@.@.@.@.@.@.@.@.@.@.@.@.@.@.@.@.@.@.@.@.@.@.@.@.@.@.@.@.@.@.@.@.@.@.@.@.@.@.@.@.@.@.@.@.@.@.@.@.@.@.@.@.@.@.$.@.@.( J ] 6 $ $ . . o .   ..c.r.*.T ^ ^ ~ T U U ~ ~ ! ! ! ! ! ! ! ! ! ! U U U Y U Y J J J Y J J J J J J J J J J J J J J J J J J J J J J U J J J Y Y J J J J J J J J J J J J J J J J J J J J J J J J J J J J J J J J J J J J J J J J J J J J J J J J F F . $ . . $ $ $ $ $ $ . I c.g.c.*.@.#.@.@.@.@.@.@.@.@.@.@.@.@.@.@.@.@.@.@.@.@.@.@.@.@.@.@.@.@.@.@.@.@.@.@.@.@.@.@.@.@.@.@.@.@.@.@.@.@.@.@.@.@.@.@.@.@.@.@.@.@.@.@.@.@.@.@.@.@.@.@.@.@.@.@.@.@.@.@.@.@.@.@.@.@.@.@.@.@.@.@.@.@.@.@.@.@.$.$.$.$.$.$.*.*.=.O.^ V . $ $ $ $ ; . y.J.9.w.i.i.i.i.i.r.9.9.9.r.r.r.r.r.r.r.r.9.9.9.9.f.f.f.f.f.f.f.f.f.f.f.f.f.f.f.f.f.f.f.f.f.f.f.f.f.f.f.f.f.f.f.f.f.f.f.f.f.f.f.f.f.f.f.f.r.r.r.r.r.r.r.r.f.f.r.r.r.r.r.r.f.f.f.f.f.f.f.f.f.f.f.f.f.8.*.@.@.@.$.$.$.$.$.$.@.@.@.@.O.] z j.*.@.@.@.@.@.@.@.@.@.@.@.@.@.@.@.@.@.@.@.@.@.@.@.@.@.@.@.@.@.@.@.@.@.@.@.@.@.@.@.@.@.@.@.@.@.@.@.@.@.@.@.@.@.@.@.@.@.@.@.@.@.@.@.@.@.@.@.@.@.@.@.@.@.@.@.@.@.@.@.@.@.@.@.@.@.@.@.&.&.@.#.=.g . = ",
"$ . S b.g.j.<.@.$.$.$.$.@.@.@.@.@.@.@.@.@.@.@.@.D       Z m.x.r.@.@.@.@.@.@.@.@.@.@.@.@.@.@.@.@.^ N 3 = . $ $ $ $ $ . :.T.Z.G.G.a.O.*.$.@.@.@.@.@.@.@.@.@.@.@.@.@.@.@.@.@.@.@.@.@.@.@.@.@.@.@.@.@.@.@.@.@.@.@.@.@.@.@.@.@.@.@.@.@.@.@.@.@.@.@.@.@.@.@.@.@.@.@.@.@.$.@.$.] D J P % $ . . $     = } 8.>.J J J J J J J J J J J J J H J H H J J J J J J J J J J J J J J J J J J J J J J J J J J J J J J J J J J J J J J Y Y J J J J J J J J J J J J J J J J J J J J J J J J J J J J J J J J J J J J J J J J J J J J J J J J / S . $ . . $ $ $ $ $ $ . I c.g.x.*.@.#.@.@.@.@.@.@.@.@.@.@.@.@.@.@.@.@.@.@.@.@.@.@.@.@.@.@.@.@.@.@.@.@.@.@.@.@.@.@.@.@.@.@.@.@.@.@.@.@.@.@.@.@.@.@.@.@.@.@.@.@.@.@.@.@.@.@.@.@.@.@.@.@.@.@.@.@.@.@.@.@.@.@.@.@.@.@.@.@.@.@.@.@.@.@.@.@.$.$.$.$.$.$.*.*.&.] ^ V . $ $ $ $ $ . v.A.9.r.i.i.i.i.i.i.i.i.i.f.f.f.f.r.r.r.r.r.r.r.r.f.f.f.f.f.f.f.f.f.f.f.f.f.f.f.f.f.f.f.f.f.f.f.f.f.f.f.f.f.f.f.f.f.f.f.f.f.f.f.f.f.f.f.f.r.r.r.r.f.f.f.f.f.f.f.f.r.r.r.r.g.g.g.g.r.r.r.r.r.r.r.r.e.=.@.@.$.@.$.$.$.$.$.$.@.@.@.@.=.J d c.*.@.@.@.@.@.@.@.@.@.@.@.@.@.@.@.@.@.@.@.@.@.@.@.@.@.@.@.@.@.@.@.@.@.@.@.@.@.@.@.@.@.@.@.@.@.@.@.@.@.@.@.@.@.@.@.@.@.@.@.@.@.@.@.@.@.@.@.@.@.@.@.@.@.@.@.@.@.@.@.@.@.@.@.@.@.@.@.&.&.@.#.=.g . = ",
"$ . S b.g.x.5.@.$.$.$.$.@.@.@.@.@.@.@.@.@.@.@.@.J X     f c.x.e.@.@.@.@.@.@.@.@.@.@.@.@.@.@.@.@.( N 3 = . $ $ $ $ $ . :.T.Z.G.I.a.O.*.$.@.@.@.@.@.@.@.@.@.@.@.@.@.@.@.@.@.@.@.@.@.@.@.@.@.@.@.@.@.@.@.@.@.@.@.@.@.@.@.@.@.@.@.@.@.@.@.@.@.@.@.@.@.@.@.@.@.@.@.@.@.@.@.@.@.H D ^ r $ . . . . = . . P q.#.J J J J J J J J H H H H H J H H H H J J J J J J J J J J J J J J J J J J J J J J J J J J J J J J J J J J J J J J J J J J J J J J J J J J J J J J J J J J J J J J J J J J J J J J J J J J J J J J J J Y Y J J J J T u . . . . $ $ $ $ $ $ . I c.g.x.*.@.#.@.@.@.@.@.@.@.@.@.@.@.@.@.@.@.@.@.@.@.@.@.@.@.@.@.@.@.@.@.@.@.@.@.@.@.@.@.@.@.@.@.@.@.@.@.@.@.@.@.@.@.@.@.@.@.@.@.@.@.@.@.@.@.@.@.@.@.@.@.@.@.@.@.@.@.@.@.@.@.@.@.@.@.@.@.@.@.@.@.@.@.@.@.@.@.@.$.$.$.$.$.$.*.*.O._ E V * $ $ $ $ $ $ y.b.e.r.r.r.i.i.r.i.i.i.i.f.f.f.f.r.r.r.r.g.g.g.g.f.f.f.f.f.f.f.f.f.f.f.f.f.f.f.f.f.f.f.f.f.f.f.f.f.f.f.f.f.f.f.f.f.f.f.f.f.f.f.f.f.f.f.f.a.r.r.r.r.r.r.r.f.f.f.f.r.r.r.r.r.r.r.r.w.w.w.w.w.w.w.w.=.$.@.@.$.$.$.$.$.$.$.$.@.@.@.@.=.d x V.*.@.@.@.@.@.@.@.@.@.@.@.@.@.@.@.@.@.@.@.@.@.@.@.@.@.@.@.@.@.@.@.@.@.@.@.@.@.@.@.@.@.@.@.@.@.@.@.@.@.@.@.@.@.@.@.@.@.@.@.@.@.@.@.@.@.@.@.@.@.@.@.@.@.@.@.@.@.@.@.@.@.@.@.@.@.@.@.&.&.@.#.=.g . = ",
"$ . S b.g.x.5.@.$.$.$.$.@.@.@.@.@.@.@.@.@.@.@.@.^ +     8 c.c.e.@.@.@.@.@.@.@.@.@.@.@.@.@.@.@.@.( A 3 = . $ $ $ $ $ . ,.T.G.G.I.a.O.*.$.@.@.@.@.@.@.@.@.@.@.@.@.@.@.@.@.@.@.@.@.@.@.@.@.@.@.@.@.@.@.@.@.@.@.@.@.@.@.@.@.@.@.@.@.@.@.@.@.@.@.@.@.@.@.@.@.@.@.@.@.@.@.@.@.@.( H T S % . . . $ . - = . a P ^ ^ ^ ^ T T T T ^ ^ ^ ^ W ^ ^ ^ ^ ^ ^ T P J J J J J J J J J J J J J J J J J J J J J J J J J J J J J J J J J J J J J J J J J J J J J J J J J J J J J J J J J J J J J J J J J J J J J J J J J J J J J J J J J J P B = . . . . $ $ $ $ $ . . I c.g.x.*.@.@.@.@.@.@.@.@.@.@.@.@.@.@.@.@.@.@.@.@.@.@.@.@.@.@.@.@.@.@.@.@.@.@.@.@.@.@.@.@.@.@.@.@.@.@.@.@.@.@.@.@.@.@.@.@.@.@.@.@.@.@.@.@.@.@.@.@.@.@.@.@.@.@.@.@.@.@.@.@.@.@.@.@.@.@.@.@.@.@.@.@.@.@.@.@.@.@.$.$.$.$.$.$.*.*.] ^ E A * $ $ $ $ * $ X.6.@.*.@.@.$.$.$.$.$.*.*.=.=.=.=.<.<.<.<.6.6.6.6.w.w.w.w.w.w.w.w.w.w.w.w.f.f.f.f.f.f.f.f.f.f.f.f.i.f.f.f.f.f.f.f.f.f.f.f.f.f.f.f.f.f.f.f.a.r.r.r.e.e.e.e.5.5.5.5.=.=.=.=.@.@.@.@.@.@.@.@.@.@.@.$.*.$.@.@.@.$.$.$.$.$.$.$.@.$.@.@.@.+ ^ C.*.@.@.@.@.@.@.@.@.@.@.@.@.@.@.@.@.@.@.@.@.@.@.@.@.@.@.@.@.@.@.@.@.@.@.@.@.@.@.@.@.@.@.@.@.@.@.@.@.@.@.@.@.@.@.@.@.@.@.@.@.@.@.@.@.@.@.@.@.@.@.@.@.@.@.@.@.@.@.@.@.@.@.@.@.@.@.@.&.&.@.#.=.g . = ",
"* . S b.g.x.5.@.$.$.$.$.@.@.@.@.@.@.@.@.@.@.@.@.] @ X   3 c.g.w.@.@.@.@.@.@.@.@.@.@.@.@.@.@.@.@. .A 3 = . $ $ $ $ $ . ,.T.G.I.I.a.O.*.$.@.@.@.@.@.@.@.@.@.@.@.@.@.@.@.@.@.@.@.@.@.@.@.@.@.@.@.@.@.@.@.@.@.@.@.@.@.@.@.@.@.@.@.@.@.@.@.@.@.@.@.@.@.@.@.@.@.@.@.@.@.@.@.@.$.' J J ) 4 . . $ $ . % $ $ . . r y b A F F F F F F F F S F F F F F F F F F S S S S F F F F F F K K K K K K K H H H H H H H H K K K F F F F F F F F F F H H H H H H F F F F F F F F F F H H H H H H F F F F F F F F F F H H H H H H H H T I S n - . . . $ $ $ $ $ $ $ . . I c.g.j.*.@.@.@.@.@.@.@.@.@.@.@.@.@.@.@.@.@.@.@.@.@.@.@.@.@.@.@.@.@.@.@.@.@.@.@.@.@.@.@.@.@.@.@.@.@.@.@.@.@.@.@.@.@.@.@.@.@.@.@.@.@.@.@.@.@.@.@.@.@.@.@.@.@.@.@.@.@.@.@.@.@.@.@.@.@.@.@.@.@.@.@.@.@.@.@.@.@.@.$.$.$.@.@.@.*.&.^ J ^ V $ $ $ $ $ $ $ { =.$.$.$.$.$.$.$.$.$.$.$.@.@.@.@.@.@.@.@.$.@.@.@.@.@.@.@.@.@.@.@.@.@.@.@.=.=.=.=.<.<.<.<.6.6.6.6.6.6.6.6.6.8.6.6.8.8.8.8.6.8.8.6.6.6.6.6.=.=.=.=.@.@.@.@.@.@.@.@.@.@.@.$.@.@.@.@.@.@.@.@.@.@.@.@.@.@.@.@.$.$.$.$.$.$.$.$.*.*.=.@.!   ( m.8. .@.$.@.@.@.@.@.@.@.@.@.@.@.@.@.@.@.@.@.@.@.@.@.@.@.@.@.@.@.@.@.@.@.@.@.@.@.@.@.@.@.@.@.@.@.@.@.@.@.@.@.@.@.@.@.@.@.@.@.@.@.@.@.@.@.@.@.@.@.@.@.@.@.@.@.@.@.@.@.@.@.@.@.@.@.@.&.&.@.#.-.u   = ",
"* . S b.g.x.5.O.$.$.$.$.@.@.@.@.@.@.@.@.@.@.@.@. .@     3 j.g.e.@.@.@.@.@.@.@.@.@.@.@.@.@.@.@.@. .A 3 = . $ $ $ $ $ . -.T.G.I.I.a.O.*.$.@.@.@.@.@.@.@.@.@.@.@.@.@.@.@.@.@.@.@.@.@.@.@.@.@.@.@.@.@.@.@.@.@.@.@.@.@.@.@.@.@.@.@.@.@.@.@.@.@.@.@.@.@.@.@.@.@.@.@.@.@.@.@.@.$.] ^ J ^ n . . . $ $ $ $ $ $ . . . . . = = = = = = * * * * = = = = = = = = & & = = = = = = = = * * O O O O O O O O O O O O O O O O . . . . o o . . . . O O . . . . o o o . . . o o o o . . . . . . o o o o . . . . . . . . . . . . o o = . . . . . $ $ $ $ $ $ $ $ $ . . I c.g.j.$.@.@.@.@.@.@.@.@.@.@.@.@.@.@.@.@.@.@.@.@.@.@.@.@.@.@.@.@.@.@.@.@.@.@.@.@.@.@.@.@.@.@.@.@.@.@.@.@.@.@.@.@.@.@.@.@.@.@.@.@.@.@.@.@.@.@.@.@.@.@.@.@.@.@.@.@.@.@.@.@.@.@.@.@.@.@.@.@.@.@.@.@.@.@.@.@.@.@.$.$.$.$.@.@.&.O.^ J ^ V . $ $ $ $ $ $ [ =.$.$.$.$.$.$.$.$.$.$.$.@.@.@.@.@.@.@.@.$.@.@.@.@.@.@.@.@.@.@.@.@.@.@.@.@.@.@.@.$.$.$.$.@.@.@.@.@.@.@.@.@.@.@.@.@.@.@.@.@.@.@.@.@.@.@.@.@.@.@.@.*.*.*.*.@.@.@.@.@.@.$.$.@.@.@.@.@.@.@.@.@.@.@.@.@.@.@.@.$.$.$.$.$.$.$.$.@.@.@.=.h   @.D.w.@.$.$.@.@.@.@.@.@.@.@.@.@.@.@.@.@.@.@.@.@.@.@.@.@.@.@.@.@.@.@.@.@.@.@.@.@.@.@.@.@.@.@.@.@.@.@.@.@.@.@.@.@.@.@.@.@.@.@.@.@.@.@.@.@.@.@.@.@.@.@.@.@.@.@.@.@.@.@.@.@.@.@.@.@.@.@.&.&.@.#...e . = ",
"$ . S b.g.c.6.O.$.$.$.$.@.@.@.@.@.@.@.@.@.@.@.@.@.@     5 g.x.8.@.@.@.@.@.@.@.@.@.@.@.@.@.@.@.@...A 3 = . $ $ $ $ $ . -.T.G.G.I.f.O.*.$.@.@.@.@.@.@.@.@.@.@.@.@.@.@.@.@.@.@.@.@.@.@.@.@.@.@.@.@.@.@.@.@.@.@.@.@.@.@.@.@.@.@.@.@.@.@.@.@.@.@.@.@.@.@.@.@.@.@.@.@.@.@.@.@.$.@.) J P / 1 $ . $ $ $ $ $ $ $ $ . . . . . . . . . . . . . . . . . . . . . . . . . . . . . . . . . . . . . . . . . . . . . . . . . . . . . . . . . . . . . . . . . . . . . . . $ . . . $ $ . . . . . . . . . . $ $ $ . . . . . $ $ . . $ $ . $ $ $ $ $ $ $ $ $ $ $ $ . . I c.g.j.$.@.@.@.@.@.@.@.@.@.@.@.@.@.@.@.@.@.@.@.@.@.@.@.@.@.@.@.@.@.@.@.@.@.@.@.@.@.@.@.@.@.@.@.@.@.@.@.@.@.@.@.@.@.@.@.@.@.@.@.@.@.@.@.@.@.@.@.@.@.@.@.@.@.@.@.@.@.@.@.@.@.@.@.@.@.@.@.@.@.@.@.@.@.@.@.@.@.@.$.$.$.$.@.@.@.' ^ J ^ C . $ $ $ % % $ Q =.%.$.$.$.$.$.$.$.$.$.$.@.@.@.@.@.@.@.@.@.@.@.@.@.@.@.@.@.@.@.@.@.@.@.@.@.@.@.@.@.@.@.@.$.$.$.$.$.$.$.@.@.@.@.@.@.@.@.@.@.@.@.@.$.$.$.$.$.$.@.@.@.@.@.@.@.@.@.@.@.@.$.$.@.@.@.@.@.@.@.@.@.@.@.@.@.@.@.@.$.$.$.$.$.$.$.$.@.@.@. .@ X 6.V.f.$.*.@.@.@.@.@.@.@.@.@.@.@.@.@.@.@.@.@.@.@.@.@.@.@.@.@.@.@.@.@.@.@.@.@.@.@.@.@.@.@.@.@.@.@.@.@.@.@.@.@.@.@.@.@.@.@.@.@.@.@.@.@.@.@.@.@.@.@.@.@.@.@.@.@.@.@.@.@.@.@.@.@.@.@.@.@.&.&.@.#./ e . & ",
"$ . S b.g.c.6.O.$.$.$.$.@.@.@.@.@.@.@.@.@.@.@.@.@.:     3 r.x.5.@.@.@.@.@.@.@.@.@.@.@.@.@.@.@.@...A 3 = . $ $ $ $ $ . -.T.G.G.I.f.O.*.@.@.@.@.@.@.@.@.@.@.@.@.@.@.@.@.@.@.@.@.@.@.@.@.@.@.@.@.@.@.@.@.@.@.@.@.@.@.@.@.@.@.@.@.@.@.@.@.@.@.@.@.@.@.@.@.@.@.@.@.@.@.@.@.@.$.*.] J J ^ g = . $ $ $ $ $ $ $ $ $ $ $ $ . . . . . . . . . . . . . . . . . . . . . . . . . . $ $ $ $ $ $ $ $ $ $ $ $ $ $ $ $ $ $ $ $ $ $ $ $ $ $ $ $ $ $ $ $ $ $ $ $ $ $ $ $ $ $ $ $ $ $ $ $ $ $ $ $ $ $ $ $ $ $ $ $ $ $ $ $ $ $ $ $ $ $ $ $ $ $ $ $ $ $ $ $ $ $ $ $ . . I c.g.j.$.@.@.@.@.@.@.@.@.@.@.@.@.@.@.@.@.@.@.@.@.@.@.@.@.@.@.@.@.@.@.@.@.@.@.@.@.@.@.@.@.@.@.@.@.@.@.@.@.@.@.@.@.@.@.@.@.@.@.@.@.@.@.@.@.@.@.@.@.@.@.@.@.@.@.@.@.@.@.@.@.@.@.@.@.@.@.@.@.@.@.@.@.@.@.@.@.@.@.$.$.$.$.@.@.;.! ! J ^ C . $ . . ; % . P =.$.$.$.$.$.$.$.$.$.$.$.@.@.@.@.@.@.@.@.@.@.@.@.@.@.@.@.@.@.@.@.@.@.@.@.@.@.@.@.@.@.@.@.$.$.$.$.@.@.@.@.@.@.@.@.@.@.@.@.@.@.@.@.$.$.$.$.*.*.*.*.$.$.$.$.@.@.@.@.@.$.$.$.@.@.@.@.@.@.@.@.@.@.@.@.@.@.@.@.$.$.$.$.$.$.$.$.*.@.6.H   @ e.j.g.=.*.@.@.@.@.@.@.@.@.@.@.@.@.@.@.@.@.@.@.@.@.@.@.@.@.@.@.@.@.@.@.@.@.@.@.@.@.@.@.@.@.@.@.@.@.@.@.@.@.@.@.@.@.@.@.@.@.@.@.@.@.@.@.@.@.@.@.@.@.@.@.@.@.@.@.@.@.@.@.@.@.@.@.@.@.@.&.&.@.#.T e . & ",
"$ . S b.g.k.6.O.$.$.$.$.@.@.@.@.@.@.@.@.@.@.@.@.=.3     @ r.c.5.@.@.@.@.@.@.@.@.@.@.@.@.@.@.@.@.@.A 7 = . $ $ $ $ $ . -.T.G.G.G.f.O.*.@.@.@.@.@.@.@.@.@.@.@.@.@.@.@.@.@.@.@.@.@.@.@.@.@.@.@.@.@.@.@.@.@.@.@.@.@.@.@.@.@.@.@.@.@.@.@.@.@.@.@.@.@.@.@.@.@.@.@.@.@.@.@.@.@.@.O.O.! J H I = . . $ $ $ $ $ $ $ $ $ $ $ . . . . . . . . . . . . . . . . . . . . $ . . . . . . $ $ $ $ $ $ $ $ $ $ $ $ $ $ $ . . . . $ $ $ $ $ $ $ $ $ $ $ $ $ $ $ $ $ $ $ $ $ $ $ $ $ $ $ $ $ $ $ $ $ $ $ $ $ $ $ $ $ $ $ $ $ $ $ $ $ $ $ $ $ $ $ $ $ $ $ $ $ $ $ $ . . I c.g.j.*.@.@.@.@.@.@.@.@.@.@.@.@.@.@.@.@.@.@.@.@.@.@.@.@.@.@.@.@.@.@.@.@.@.@.@.@.@.@.@.@.@.@.@.@.@.@.@.@.@.@.@.@.@.@.@.@.@.@.@.@.@.@.@.@.@.@.@.@.@.@.@.@.@.@.@.@.@.@.@.@.@.@.@.@.@.@.@.@.@.@.@.@.@.@.@.@.@.@.$.$.$.$.@.=.' E E E ^ A . . . . . .   n ( ^ ~ ~ ^ ^ ^ ^  .=.@.$.@.@.@.@.@.@.@.@.@.@.@.@.@.@.@.@.@.@.@.@.@.@.@.@.@.@.@.@.@.@.@.@.@.@.@.@.@.@.@.@.@.@.@.@.@.@.@.@.@.@.@.@.@.@.@.@.@.@.@.@.@.@.@.@.@.@.@.@.@.@.@.@.@.@.@.@.@.@.@.@.@.@.@.@.@.@.@.@.$.$.$.$.$.$.$.$.=.@.*.5   5 g.g.c.*.@.@.@.@.@.@.@.@.@.@.@.@.@.@.@.@.@.@.@.@.@.@.@.@.@.@.@.@.@.@.@.@.@.@.@.@.@.@.@.@.@.@.@.@.@.@.@.@.@.@.@.@.@.@.@.@.@.@.@.@.@.@.@.@.@.@.@.@.@.@.@.@.@.@.@.@.@.@.@.@.@.@.@.@.@.@.@.*.=.] T e . & ",
"$ . S b.g.k.6.O.$.$.$.$.@.@.@.@.@.@.@.@.@.@.@.@.=.9     @ 9.c.5.@.@.@.@.@.@.@.@.@.@.@.@.@.@.@.@.@.A 7 = . $ $ $ $ $ . #.T.G.G.G.f.O.*.@.@.@.@.@.@.@.@.@.@.@.@.@.@.@.@.@.@.@.@.@.@.@.@.@.@.@.@.@.@.@.@.@.@.@.@.@.@.@.@.@.@.@.@.@.@.@.@.@.@.@.@.@.@.@.@.@.@.@.@.@.@.@.@.@.@.@.@.( J H P r . . $ $ $ $ $ $ $ $ $ $ $ $ $ $ . . . . . . . . . . . . . . . . . $ $ $ $ $ $ $ $ $ $ $ $ $ $ $ $ $ $ $ $ $ $ . . . . $ $ $ $ $ $ $ $ $ $ $ $ $ $ $ $ $ $ $ $ $ $ $ $ $ $ $ $ $ $ $ $ $ $ $ $ $ $ $ $ $ $ $ $ $ $ $ $ $ $ $ $ $ $ $ $ $ $ $ $ $ $ $ $ . . I c.g.g.*.@.@.@.@.@.@.@.@.@.@.@.@.@.@.@.@.@.@.@.@.@.@.@.@.@.@.@.@.@.@.@.@.@.@.@.@.@.@.@.@.@.@.@.@.@.@.@.@.@.@.@.@.@.@.@.@.@.@.@.@.@.@.@.@.@.@.@.@.@.@.@.@.@.@.@.@.@.@.@.@.@.@.@.@.@.@.@.@.@.@.@.@.@.@.@.@.@.@.$.$.$.$.@.@.~ E E E ^ A   . .   . X   3 y 8 8 8 8 8 8 8 f J @.@.@.@.@.@.@.@.@.@.@.@.@.@.@.@.@.@.@.@.@.@.@.@.@.@.@.@.@.@.@.@.@.@.@.@.@.@.@.@.@.@.@.@.@.@.@.@.@.@.@.@.@.@.@.@.@.@.@.@.@.@.@.@.@.@.@.@.@.@.@.@.@.@.@.@.@.@.@.@.@.@.@.@.@.@.@.@.@.@.$.$.$.$.$.$.$.$.@.=.] @   8 x.g.x.=.@.@.@.@.@.@.@.@.@.@.@.@.@.@.@.@.@.@.@.@.@.@.@.@.@.@.@.@.@.@.@.@.@.@.@.@.@.@.@.@.@.@.@.@.@.@.@.@.@.@.@.@.@.@.@.@.@.@.@.@.@.@.@.@.@.@.@.@.@.@.@.@.@.@.@.@.@.@.@.@.@.@.@.@.@.@.@.*.*.) P r . $ ",
"$ . S b.g.k.6.O.$.$.$.$.@.@.@.@.@.@.@.@.@.@.@.@.*.f     X e.c.6.@.@.@.@.@.@.@.@.@.@.@.@.@.@.@.@.@.A 7 = . $ $ $ $ $ . -.R.G.G.L.g.O.*.@.@.@.@.@.@.@.@.@.@.@.@.@.@.@.@.@.@.@.@.@.@.@.@.@.@.@.@.@.@.@.@.@.@.@.@.@.@.@.@.@.@.@.@.@.@.@.@.@.@.@.@.@.@.@.@.@.@.@.@.@.@.@.@.@.@.@.=.] H H ^ n = $ . $ $ $ $ $ $ $ $ $ $ $ $ $ $ $ $ $ $ $ $ $ $ $ $ $ $ $ $ $ $ $ $ $ $ $ $ $ $ $ $ $ $ $ $ $ $ $ $ $ $ $ $ $ $ $ $ $ $ $ $ $ $ $ $ $ $ $ $ $ $ $ $ $ $ $ $ $ $ $ $ $ $ $ $ $ $ $ $ $ $ $ $ $ $ $ $ $ $ $ $ $ $ $ $ $ $ . . . . . . . . . . . $ $ $ . . I c.g.g.*.O.@.@.@.@.@.@.@.@.@.@.@.@.@.@.@.@.@.@.@.@.@.@.@.@.@.@.@.@.@.@.@.@.@.@.@.@.@.@.@.@.@.@.@.@.@.@.@.@.@.@.@.@.@.@.@.@.@.@.@.@.@.@.@.@.@.@.@.@.@.@.@.@.@.@.@.@.@.@.@.@.@.@.@.@.@.@.@.@.@.@.@.@.@.@.@.@.@.$.$.$.$.*.] J ! E E ^ A . . . .   X + 6 f t 8 8 t t t t 3 5 U <.@.@.@.@.@.@.@.@.@.@.@.@.@.@.@.@.@.@.@.@.@.@.@.@.@.@.@.@.@.@.@.@.@.@.@.@.@.@.@.@.@.@.@.@.@.@.@.@.@.@.@.@.@.@.@.@.@.@.@.@.@.@.@.@.@.@.@.@.@.@.@.@.@.@.@.@.@.@.@.@.@.@.@.@.@.@.@.@.$.$.$.$.$.$.$.$.O.=.Z     k c.g.g.6.@.@.@.@.@.@.@.@.@.@.@.@.@.@.@.@.@.@.@.@.@.@.@.@.@.@.@.@.@.@.@.@.@.@.@.@.@.@.@.@.@.@.@.@.@.@.@.@.@.@.@.@.@.@.@.@.@.@.@.@.@.@.@.@.@.@.@.@.@.@.@.@.@.@.@.@.@.@.@.@.@.@.@.@.@.@.@.=.] ^ T e . & ",
"$ . S b.g.c.6.O.$.$.$.$.@.@.@.@.@.@.@.@.@.@.@.@.*.k   X   8.c.8.@.@.@.@.@.@.@.@.@.@.@.@.@.@.@.@.@.A 7 = . $ $ $ $ $ . -.R.G.G.L.g. .*.@.@.@.@.@.@.@.@.@.@.@.@.@.@.@.@.@.@.@.@.@.@.@.@.@.@.@.@.@.@.@.@.@.@.@.@.@.@.@.@.@.@.@.@.@.@.@.@.@.@.@.@.@.@.@.@.@.@.@.@.@.@.@.@.@.@.@.=.@.J J T F 4 . $ . $ $ $ $ $ $ $ $ $ $ $ $ $ $ $ $ $ $ $ $ $ $ $ $ $ $ $ $ $ $ $ $ $ $ $ $ $ $ $ $ $ $ $ $ $ $ $ $ $ $ $ $ $ $ $ $ $ $ $ $ $ $ $ $ . . . . . . . . . . . . . . . . . . . . . . . . $ $ $ $ $ $ $ $ $ $ $ $ $ . $ . . . . . . . . . . . . . $ $ $ . . I c.g.j.*.O.@.@.@.@.@.@.@.@.@.@.@.@.@.@.@.@.@.@.@.@.@.@.@.@.@.@.@.@.@.@.@.@.@.@.@.@.@.@.@.@.@.@.@.@.@.@.@.@.@.@.@.@.@.@.@.@.@.@.@.@.@.@.@.@.@.@.@.@.@.@.@.@.@.@.@.@.@.@.@.@.@.@.@.@.@.@.@.@.@.@.@.@.@.@.@.@.@.@.@.@.@.@.' H ! E E ^ A . . . .       : y 8 8 8 8 8 8 8 t 5 h $.@.@.@.@.@.@.@.@.@.@.@.@.@.@.@.@.@.@.@.@.@.@.@.@.@.@.@.@.@.@.@.@.@.@.@.@.@.@.@.@.@.@.@.@.@.@.@.@.@.@.@.@.@.@.@.@.@.@.@.@.@.@.@.@.@.@.@.@.@.@.@.@.@.@.@.@.@.@.@.@.@.@.@.@.@.@.@.@.$.$.$.$.$.@.@.@.@.*.9     x c.g.f.e.@.@.@.@.@.@.@.@.@.@.@.@.@.@.@.@.@.@.@.@.@.@.@.@.@.@.@.@.@.@.@.@.@.@.@.@.@.@.@.@.@.@.@.@.@.@.@.@.@.@.@.@.@.@.@.@.@.@.@.@.@.@.@.@.@.@.@.@.@.@.@.@.@.@.@.@.@.@.@.@.@.@.@.@.@.@.@.=.] J T e . & ",
"$ . S b.g.k.6.O.$.$.$.$.@.@.@.@.@.@.@.@.@.@.@.@.=.x       =.c.<.@.@.@.@.@.@.@.@.@.@.@.@.@.@.@.@.@.J 7 = . $ $ $ $ $ . } R.G.G.I.g.O.*.@.@.@.@.@.@.@.@.@.@.@.@.@.@.@.@.@.@.@.@.@.@.@.@.@.@.@.@.@.@.@.@.@.@.@.@.@.@.@.@.@.@.@.@.@.@.@.@.@.@.@.@.@.@.@.@.@.@.@.@.@.@.@.@.@.@.@.@.@.~ H D ( n . . . $ $ $ $ $ $ $ $ . . . = % % % % ; = ; = = = = = = = = = = % * * * * $ $ $ . $ $ $ $ $ $ $ . . . $ $ * $ * * * * = = % % = = = = = & & & & & = = * * * * * * * * = = = = = = = = = = % % % % = = = % % % % = = = = = = = = . . . * . . $ $ $ $ $ . I c.g.x.*.@.@.@.@.@.@.@.@.@.@.@.@.@.@.@.@.@.@.@.@.@.@.@.@.@.@.@.@.@.@.@.@.@.@.@.@.@.@.@.@.@.@.@.@.@.@.@.@.@.@.@.@.@.@.@.@.@.@.@.@.@.@.@.@.@.@.@.@.@.@.@.@.@.@.@.@.@.@.@.@.@.@.@.@.@.@.@.@.@.@.@.@.@.@.@.@.@.@.@.@.@.@.@.^ J J E ! ^ V     . .     X 3 y 8 8 8 8 8 8 8 t 8 t @.@.@.@.@.@.@.@.@.@.@.@.@.@.@.@.@.@.@.@.@.@.@.@.@.@.@.@.@.@.@.@.@.@.@.@.@.@.@.@.@.@.@.@.@.@.@.@.@.@.@.@.@.@.@.@.@.@.@.@.@.@.@.@.@.@.@.@.@.@.@.@.@.@.@.@.@.@.@.@.@.@.@.@.@.@.@.@.@.$.$.$.@.@.@.@.@.=.U X     J c.g.x.f.*.@.$.$.$.$.@.@.@.@.@.@.@.@.@.@.@.@.@.@.@.@.@.@.@.@.@.@.@.@.@.@.@.@.@.@.@.@.@.@.@.@.@.@.@.@.@.@.@.@.@.@.@.@.@.@.@.@.@.@.@.@.@.@.@.@.@.@.@.@.@.@.@.@.@.@.@.@.@.@.@.@.@.@.@.@.@.=.( W ^ e . & ",
"$ . S b.g.k.6.O.$.$.$.$.@.@.@.@.@.@.@.@.@.@.@.@.=.A       *.m.=.@.@.@.@.@.@.@.@.@.@.@.@.@.@.@.@.@.J 9 @ . $ $ $ $ $ . } R.G.G.I.g.O.*.@.@.@.@.@.@.@.@.@.@.@.@.@.@.@.@.@.@.@.@.@.@.@.@.@.@.@.@.@.@.@.@.@.@.@.@.@.@.@.@.@.@.@.@.@.@.@.@.@.@.@.@.@.@.@.@.@.@.@.@.@.@.@.@.@.@.@.@.@.] D J ^ J >   . $ $ $ $ $ $ $ $ q R } X.} } } } | | } } } } } | } } } | } | | | | | | | I 4 $ . $ $ $ $ $ $ $ - / 7.y.t.q.q.t.q.y.y.t.t.r.r.r.r.q.q.q.q.q.q.q.q.q.q.q.q.q.q.q.q.r.r.q.r.t.t.r.q.y.y.q.q.9.q.r.y.t.t.t.t.t.t.t.t.t.y.t.r.y.7.#.4 . ; . $ $ $ $ $ . I c.g.x.*.@.@.@.@.@.@.@.@.@.@.@.@.@.@.@.@.@.@.@.@.@.@.@.@.@.@.@.@.@.@.@.@.@.@.@.@.@.@.@.@.@.@.@.@.@.@.@.@.@.@.@.@.@.@.@.@.@.@.@.@.@.@.@.@.@.@.@.@.@.@.@.@.@.@.@.@.@.@.@.@.@.@.@.@.@.@.@.@.@.@.@.@.@.@.@.@.@.@.@.@.@.@.] ! E J E W ^ V             X 3 y t 8 8 8 8 8 8 t 8 t @.@.@.@.@.@.@.@.@.@.@.@.@.@.@.@.@.@.@.@.@.@.@.@.@.@.@.@.@.@.@.@.@.@.@.@.@.@.@.@.@.@.@.@.@.@.@.@.@.@.@.@.@.@.@.@.@.@.@.@.@.@.@.@.@.@.@.@.@.@.@.@.@.@.@.@.@.@.@.@.@.@.@.@.@.@.@.@.@.$.$.$.@.@.@.@.@.=.k   X   ( c.g.x.f.*.$.$.$.$.$.@.@.@.@.@.@.@.@.@.@.@.@.@.@.@.@.@.@.@.@.@.@.@.@.@.@.@.@.@.@.@.@.@.@.@.@.@.@.@.@.@.@.@.@.@.@.@.@.@.@.@.@.@.@.@.@.@.@.@.@.@.@.@.@.@.@.@.@.@.@.@.@.@.@.@.@.@.@.@.@.@.=.( W T e . & ",
"$ . S b.g.k.6.O.$.$.$.$.@.@.@.@.@.@.@.@.@.@.@.@.=.U       @.V.*.@.@.@.@.@.@.@.@.@.@.@.@.@.@.@.@.@.J 4 @ . $ $ $ $ $ . } R.G.G.I.g.O.*.@.@.@.@.@.@.@.@.@.@.@.@.@.@.@.@.@.@.@.@.@.@.@.@.@.@.@.@.@.@.@.@.@.@.@.@.@.@.@.@.@.@.@.@.@.@.@.@.@.@.@.@.@.@.@.@.@.@.@.@.@.@.@.@.@.@.@.@.@.O.J J ^ ( f   . . $ $ $ . $ $ e =.=.@.%.#.#.#.#.#.#.#.#.#.#.#.#.#.#.#.#.#.#.#.#.#.#.-.-.>.[ - . $ $ $ $ . * * } b.k.g.c.k.k.k.k.c.c.c.c.c.c.c.c.k.k.k.k.k.k.k.k.k.k.k.k.k.k.k.k.c.c.c.c.k.k.k.k.c.c.c.c.c.c.c.c.c.c.v.v.h.h.h.v.k.c.c.c.v.h.C.y.4 . $ * $ $ $ $ . I c.g.x.*.@.@.@.@.@.@.@.@.@.@.@.@.@.@.@.@.@.@.@.@.@.@.@.@.@.@.@.@.@.@.@.@.@.@.@.@.@.@.@.@.@.@.@.@.@.@.@.@.@.@.@.@.@.@.@.@.@.@.@.@.@.@.@.@.@.@.@.@.@.@.@.@.@.@.@.@.@.@.@.@.@.@.@.@.@.@.@.@.@.@.@.@.@.@.@.@.@.@.@.@.@.@.J J ! ! E W W V             X 3 y 8 8 8 8 8 8 8 t 8 t @.@.@.@.@.@.@.@.@.@.@.@.@.@.@.@.@.@.@.@.@.@.@.@.@.@.@.@.@.@.@.@.@.@.@.@.@.@.@.@.@.@.@.@.@.@.@.@.@.@.@.@.@.@.@.@.@.@.@.@.@.@.@.@.@.@.@.@.@.@.@.@.@.@.@.@.@.@.@.@.@.@.@.@.@.@.@.@.@.$.$.$.@.@.@.@.@.@.3       @.x.g.x.f.*.$.$.$.$.$.@.@.@.@.@.@.@.@.@.@.@.@.@.@.@.@.@.@.@.@.@.@.@.@.@.@.@.@.@.@.@.@.@.@.@.@.@.@.@.@.@.@.@.@.@.@.@.@.@.@.@.@.@.@.@.@.@.@.@.@.@.@.@.@.@.@.@.@.@.@.@.@.@.@.@.@.@.@.@.@.&.=.( W T e . & ",
"$ . F b.g.k.6.O.$.$.$.$.@.@.@.@.@.@.@.@.@.@.@.@.*.(        .C.*.@.@.@.@.@.@.@.@.@.@.@.@.@.@.@.@.@.J 4 @ . $ $ $ $ $ . } R.G.G.I.g.O.*.@.@.@.@.@.@.@.@.@.@.@.@.@.@.@.@.@.@.@.@.@.@.@.@.@.@.@.@.@.@.@.@.@.@.@.@.@.@.@.@.@.@.@.@.@.@.@.@.@.@.@.@.@.@.@.@.@.@.@.@.@.@.@.@.@.@.@.@.@.O.' H ( J J 3   . $ $ $ $ . * / =. .@.=.=.*.*.*.%.%.%.*.*.*.%.%.%.%.%.%.*.*.*.%...........-.j o $ $ $ $ $ . v k.k.p.k.c.g.g.g.g.g.g.g.g.g.g.g.g.g.g.g.g.g.g.g.g.g.g.g.g.g.g.g.g.g.g.g.g.h.h.h.g.g.g.g.g.g.h.g.g.g.g.g.g.g.g.g.h.h.h.g.g.c.g.g.M./ $ $ $ $ $ $ $ . I c.g.x.*.@.@.@.@.@.@.@.@.@.@.@.@.@.@.@.@.@.@.@.@.@.@.@.@.@.@.@.@.@.@.@.@.@.@.@.@.@.@.@.@.@.@.@.@.@.@.@.@.@.@.@.@.@.@.@.@.@.@.@.@.@.@.@.@.@.@.@.@.@.@.@.@.@.@.@.@.@.@.@.@.@.@.@.@.@.@.@.@.@.@.@.@.@.@.@.@.@.@.@.@.@.@.H J ! ! E E ^ V             X 3 y 8 8 8 8 8 8 8 t 8 t @.@.@.@.@.@.@.@.@.@.@.@.@.@.@.@.@.@.@.@.@.@.@.@.@.@.@.@.@.@.@.@.@.@.@.@.@.@.@.@.@.@.@.@.@.@.@.@.@.@.@.@.@.@.@.@.@.@.@.@.@.@.@.@.@.@.@.@.@.@.@.@.@.@.@.@.@.@.@.@.@.@.@.@.@.@.@.@.@.$.$.$.@.@.@.@.@.( X       5.g.g.j.f.*.*.$.$.$.$.@.@.@.@.@.@.@.@.@.@.@.@.@.@.@.@.@.@.@.@.@.@.@.@.@.@.@.@.@.@.@.@.@.@.@.@.@.@.@.@.@.@.@.@.@.@.@.@.@.@.@.@.@.@.@.@.@.@.@.@.@.@.@.@.@.@.@.@.@.@.@.@.@.@.@.@.@.@.@.@.&.=.( W T e . & ",
"$ . F b.g.c.6.O.$.$.$.$.@.@.@.@.@.@.@.@.@.@.@.@.*.] X     ' D.=.@.@.@.@.@.@.@.@.@.@.@.@.@.@.@.@.@.J 4 = . $ $ $ $ $ . } R.G.G.I.g.@.*.@.$.$.$.$.@.@.@.@.@.@.@.@.@.@.@.@.@.@.@.@.@.@.@.@.@.@.@.@.@.@.@.@.@.@.@.@.@.@.@.@.@.@.@.@.@.@.@.@.@.@.@.@.@.@.@.@.@.@.@.@.@.@.@.@.@.@.@.@.*.' J J J T h   . $ $ $ $ $ - } @.@.@.@.@.@.$.$.@.@.@.@.@.@.@.@.@.@.@.@.@.@.@.@.@.@.@.@.@.%.F . . $ $ $ $ $ P b.c.k.j.p.c.j.c.c.g.g.g.g.f.f.f.f.r.r.r.r.r.r.r.r.r.r.r.r.r.r.y.r.r.r.r.r.r.r.r.r.r.r.r.r.r.r.r.r.g.g.g.g.g.g.g.g.g.g.g.g.g.c.k.c.:.$ $ $ $ $ $ . . I c.g.x.*.@.@.@.@.@.@.@.@.@.@.@.@.@.@.@.@.@.@.@.@.@.@.@.@.@.@.@.@.@.@.@.@.@.@.@.@.@.@.@.@.@.@.@.@.@.@.@.@.@.@.@.@.@.@.@.@.@.@.@.@.@.@.@.@.@.@.@.@.@.@.@.@.@.@.@.@.@.@.@.@.@.@.@.@.@.@.@.@.@.@.@.@.@.@.@.@.@.@.@.@.$.] H J U J U ^ ^ A     . .     X 3 y 8 8 8 8 8 8 8 t 7 t ..@.@.@.@.@.@.@.@.@.@.@.@.@.@.@.@.@.@.@.@.@.@.@.@.@.@.@.@.@.@.@.@.@.@.@.@.@.@.@.@.@.@.@.@.@.@.@.@.@.@.@.@.@.@.@.@.@.@.@.@.@.@.@.@.@.@.@.@.@.@.@.@.@.@.@.@.@.@.@.@.@.@.@.@.@.@.@.@.$.$.$.$.@.=.O.@.f   X   X r.g.g.g.c.8.*.$.$.$.$.$.$.$.$.$.$.$.$.$.$.$.$.$.$.$.$.@.@.@.@.@.@.@.@.@.@.@.@.@.@.@.@.@.@.@.@.@.@.@.@.@.@.@.@.@.@.@.@.@.@.@.@.@.@.@.@.@.@.@.@.@.@.@.@.@.@.@.@.@.@.@.@.@.@.@.@.@.@.@.@.&.@.J P T e . $ ",
"$ . S b.g.c.6.O.$.$.$.$.@.@.@.@.@.@.@.@.@.@.@.@.$. .@     ( V.=.@.@.@.@.@.@.@.@.@.@.@.@.@.@.@.@.@.T 4 = . $ $ $ $ $ . } R.G.G.I.g.O.*.@.*.*.$.$.@.@.@.@.@.@.@.@.@.@.@.@.@.@.@.@.@.@.@.@.@.@.@.@.@.@.@.@.@.@.@.@.@.@.@.@.@.@.@.@.@.@.@.@.@.@.@.@.@.@.@.@.@.@.@.@.@.@.@.@.@.@.@.@.$. .~ J D ( F O . $ $ $ $ $ - } @.@.@.@.@.@.$.$.@.@.@.@.@.@.@.@.@.@.@.@.@.@.@.@.@.@.@.@.@.%.F . . $ $ $ $ $ P b.g.j.j.j.g.j.r.6.$.$.$.$.@.@.@.@.@.@.@.@.@.@.@.@.#.#.@.@.@.@.@.@.@.@.@.@.@.@.@.@.@.@.@.@.@.@.@.@.*.*.*.*.*.*.*.*.*.*.*.*.=.6.9.M.:.$ $ $ $ $ $ . . I c.g.x.*.@.@.@.@.@.@.@.@.@.@.@.@.@.@.@.@.@.@.@.@.@.@.@.@.@.@.@.@.@.@.@.@.@.@.@.@.@.@.@.@.@.@.@.@.@.@.@.@.@.@.@.@.@.@.@.@.@.@.@.@.@.@.@.@.@.@.@.@.@.@.@.@.@.@.@.@.@.@.@.@.@.@.@.@.@.@.@.@.@.@.@.@.@.@.@.@.@.@.@.@.$.] J J J J J ! ^ V     . .     X 3 y 8 8 8 8 8 8 8 t 8 t ..@.@.@.@.@.@.@.@.@.@.@.@.@.@.@.@.@.@.@.@.@.@.@.@.@.@.@.@.@.@.@.@.@.@.@.@.@.@.@.@.@.@.@.@.@.@.@.@.@.@.@.@.@.@.@.@.@.@.@.@.@.@.@.@.@.@.@.@.@.@.@.@.@.@.@.@.@.@.@.@.@.@.@.@.@.@.@.@.$.$.$.$.@.$.@.$.2   + X @ g.g.x.g.c.e.$.$.$.$.$.$.$.$.$.$.$.$.$.$.$.$.$.$.$.$.$.@.@.@.@.@.@.@.@.@.@.@.@.@.@.@.@.@.@.@.@.@.@.@.@.@.@.@.@.@.@.@.@.@.@.@.@.@.@.@.@.@.@.@.@.@.@.@.@.@.@.@.@.@.@.@.@.@.@.@.@.@.@.@.@.&.@.J P T e . $ ",
"$ . S b.g.c.6.O.$.$.$.$.@.@.@.@.@.@.@.@.@.@.@.@.$.@.2     J c.=.@.@.@.@.@.@.@.@.@.@.@.@.@.@.@.@.@.T 4 = . $ $ $ $ $ . } R.G.G.I.g.O.*.@.$.$.$.$.@.@.@.@.@.@.@.@.@.@.@.@.@.@.@.@.@.@.@.@.@.@.@.@.@.@.@.@.@.@.@.@.@.@.@.@.@.@.@.@.@.@.@.@.@.@.@.@.@.@.@.@.@.@.@.@.@.@.@.@.@.@.@.@.@.@.] J U J U e . . $ $ $ $ - } @.@.@.@.@.@.$.$.@.@.@.@.@.@.@.@.@.@.@.@.@.@.@.@.@.@.@.@.@.%.F . . $ $ $ $ $ P b.g.g.g.j.r.5.*.=.@.@.@.@.@.@.@.@.@.@.@.@.@.@.@.@.@.@.@.@.@.@.@.@.@.@.@.@.@.@.@.@.@.@.@.@.@.@.@.@.@.@.@.@.@.@.@.@.@.@.@.@.@.@.<.M.:.$ $ $ $ $ $ . . I c.g.x.=.@.@.@.@.@.@.@.@.@.@.@.@.@.@.@.@.@.@.@.@.@.@.@.@.@.@.@.@.@.@.@.@.@.@.@.@.@.@.@.@.@.@.@.@.@.@.@.@.@.@.@.@.@.@.@.@.@.@.@.@.@.@.@.@.@.@.@.@.@.@.@.@.@.@.@.@.@.@.@.@.@.@.@.@.@.@.@.@.@.@.@.@.@.@.@.@.@.@.@.@.*.] J U J J U ^ ^ A     . .       3 y 8 8 8 8 8 8 8 t 8 t ..@.@.@.@.@.@.@.@.@.@.@.@.@.@.@.@.@.@.@.@.@.@.@.@.@.@.@.@.@.@.@.@.@.@.@.@.@.@.@.@.@.@.@.@.@.@.@.@.@.@.@.@.@.@.@.@.@.@.@.@.@.@.@.@.@.@.@.@.@.@.@.@.@.@.@.@.@.@.@.@.@.@.@.@.@.@.@.@.$.$.$.$.@.@.=.^     X X 3 x.g.j.g.j.r.@.$.$.$.$.$.$.$.$.$.$.$.$.$.$.$.$.$.$.$.$.@.@.@.@.@.@.@.@.@.@.@.@.@.@.@.@.@.@.@.@.@.@.@.@.@.@.@.@.@.@.@.@.@.@.@.@.@.@.@.@.@.@.@.@.@.@.@.@.@.@.@.@.@.@.@.@.@.@.@.@.@.@.@.@.*.@.J J T e . $ ",
"$ . S b.g.c.6.O.$.$.$.$.@.@.@.@.@.@.@.@.@.@.@.@.@.*.3     H x.=.@.@.@.@.@.@.@.@.@.@.@.@.@.@.@.@.@.T 4 = . $ $ $ $ $ . } T.G.G.I.g.O.*.@.$.$.$.$.@.@.@.@.@.@.@.@.@.@.@.@.@.@.@.@.@.@.@.@.@.@.@.@.@.@.@.@.@.@.@.@.@.@.@.@.@.@.@.@.@.@.@.@.@.@.@.@.@.@.@.@.@.@.@.@.@.@.@.@.@.@.@.@.@.$.O.U H J ] g . . $ $ $ $ - } @.@.@.@.@.@.$.$.@.@.@.@.@.@.@.@.@.@.@.@.@.@.@.@.@.@.@.@.@.%.F . $ $ $ $ $ $ P b.k.g.g.i.@.$.$.@.@.@.@.@.$.$.*.*.$.$.$.$.$.$.$.$.@.@.@.@.@.@.@.@.$.$.$.$.$.$.$.$.$.$.$.$.$.$.$.$.@.@.@.@.@.@.@.@.@.@.@.@.$.@...9.:.$ $ $ $ $ $ . . I c.g.x.=.@.$.@.@.@.@.@.@.@.@.@.@.@.@.@.@.@.@.@.@.@.@.@.@.@.@.@.@.@.@.@.@.@.@.@.@.@.@.@.@.@.@.@.@.@.@.@.@.@.@.@.@.@.@.@.@.@.@.@.@.@.@.@.@.@.@.@.@.@.@.@.@.@.@.@.@.@.@.@.@.@.@.@.@.@.@.@.@.@.@.@.@.@.@.@.@.@.@.@.@.$.] J J J J J J ^ n             X 3 y 8 8 8 8 8 8 8 t 8 t ..@.@.@.@.@.@.@.@.@.@.@.@.@.@.@.@.@.@.@.@.@.@.@.@.@.@.@.@.@.@.@.@.@.@.@.@.@.@.@.@.@.@.@.@.@.@.@.@.@.@.@.@.@.@.@.@.@.@.@.@.@.@.@.@.@.@.@.@.@.@.@.@.@.@.@.@.@.@.@.@.@.@.@.@.@.@.@.@.$.$.$.$.@.@.=.8   X     9 c.j.g.j.g.f.@.$.$.$.$.$.$.$.$.$.$.$.$.$.$.$.$.$.$.$.$.@.@.@.@.@.@.@.@.@.@.@.@.@.@.@.@.@.@.@.@.@.@.@.@.@.@.@.@.@.@.@.@.@.@.@.@.@.@.@.@.@.@.@.@.@.@.@.@.@.@.@.@.@.@.@.@.@.@.@.@.@.@.@.@.*.@.J J T e . $ ",
"* . S b.g.x.6.O.@.@.@.@.@.@.@.@.@.@.@.@.@.@.@.@.@.=.9     H c.@.@.@.@.@.@.@.@.@.@.@.@.@.@.@.@.@.$.] 4 = . $ $ $ $ $ . } T.G.I.I.g.@.*.@.$.$.$.$.@.@.@.@.@.@.@.@.@.@.@.@.@.@.@.@.@.@.@.@.@.@.@.@.@.@.@.@.@.@.@.@.@.@.@.@.@.@.@.@.@.@.@.@.@.@.@.@.@.@.@.@.@.@.@.@.@.@.@.@.@.@.@.@.@.$.$.! J J T f . . . . . . - #.@.@.@.@.@.@.@.@.@.@.@.@.@.@.@.@.@.@.@.@.@.@.@.@.@.@.@.@.@.*.F . $ $ $ $ $ . P b.g.9.<.@.@.@.@.@.@.@.@.@.&.&.*.*.@.@.@.@.@.@.@.@.@.@.@.@.@.@.@.@.@.@.@.@.@.@.@.@.@.@.@.@.@.@.@.@.@.@.@.@.@.@.@.@.@.@.@.@.@.@.@.=./ $ $ $ $ $ $ $ . P c.g.x.=.@.$.@.@.@.@.@.@.@.@.@.@.@.@.@.@.@.@.@.@.@.@.@.@.@.@.@.@.@.@.@.@.@.@.@.@.@.@.@.@.@.@.@.@.@.@.@.@.@.@.@.@.@.@.@.@.@.@.@.@.@.@.@.@.@.@.@.@.@.@.@.@.@.@.@.@.@.@.@.@.@.@.@.@.@.@.@.@.@.@.@.@.@.@.@.@.@.@.$.@.@.( U U J J J J ^ n               3 y 8 8 8 8 8 8 8 t 7 t @.@.@.@.@.@.@.@.@.@.@.@.@.@.@.@.@.@.@.@.@.@.@.@.@.@.@.@.@.@.@.@.@.@.@.@.@.@.@.@.@.@.@.@.@.@.@.@.@.@.@.@.@.@.@.@.@.@.@.@.@.@.@.@.@.@.@.@.@.@.@.@.@.@.@.@.@.@.@.@.@.@.@.@.@.@.@.$.$.$.$.$.$.@.=.@.+         D c.g.g.j.g.f.@.$.$.$.$.$.$.$.$.$.$.$.$.$.$.$.$.$.$.$.$.@.@.@.@.@.@.@.@.@.@.@.@.@.@.@.@.@.@.@.@.@.@.@.@.@.@.@.@.@.@.@.@.@.@.@.@.@.@.@.@.@.@.@.@.@.@.@.@.@.@.@.@.@.@.@.@.@.@.@.@.@.@.@.@.&.] J P P r . $ ",
"* . S b.g.j.6.O.@.@.@.@.@.@.@.@.@.@.@.@.@.@.@.@.@.=.d     A c.@.@.@.@.@.@.@.@.@.@.@.@.@.@.@.@.@.$.] 4 = . $ $ $ $ $ . } R.G.I.I.g.@.*.@.$.$.$.$.@.@.@.@.@.@.@.@.@.@.@.@.@.@.@.@.@.@.@.@.@.@.@.@.@.@.@.@.@.@.@.@.@.@.@.@.@.@.@.@.@.@.@.@.@.@.@.@.@.@.@.@.@.@.@.@.@.@.@.@.@.@.@.@.@.$.$.! J J T f . . . . . . ; #.@.@.@.@.@.@.@.@.@.@.@.@.@.@.@.@.@.@.@.@.@.@.@.@.@.@.@.@.@.*.F . $ $ $ $ $ . P b.g.e.$.@.@.@.@.@.@.@.@.@.&.&.*.*.@.@.@.@.@.@.@.@.@.@.@.@.@.@.@.@.@.@.@.@.@.@.@.@.@.@.@.@.@.@.@.@.@.@.@.@.@.@.@.@.@.@.@.@.@.@.@.=./ $ $ $ $ $ $ $ . P c.g.x.=.@.$.@.@.@.@.@.@.@.@.@.@.@.@.@.@.@.@.@.@.@.@.@.@.@.@.@.@.@.@.@.@.@.@.@.@.@.@.@.@.@.@.@.@.@.@.@.@.@.@.@.@.@.@.@.@.@.@.@.@.@.@.@.@.@.@.@.@.@.@.@.@.@.@.@.@.@.@.@.@.@.@.@.@.@.@.@.@.@.@.@.@.@.@.@.@.@.@.$.@.@.( U U U U J ! ^ V     . .       3 y 8 8 8 8 8 8 8 t 7 d @.@.@.@.@.@.@.@.@.@.@.@.@.@.@.@.@.@.@.@.@.@.@.@.@.@.@.@.@.@.@.@.@.@.@.@.@.@.@.@.@.@.@.@.@.@.@.@.@.@.@.$.@.@.@.@.@.@.@.@.@.@.@.@.@.@.@.@.@.@.@.@.@.@.@.@.@.@.@.@.@.@.@.@.@.@.@.$.@.@.@.@.@.@.6.Z           J C.g.g.g.g.g.*.$.$.$.$.$.$.$.$.$.$.$.$.$.$.$.$.$.$.$.$.@.@.@.@.@.@.@.@.@.@.@.@.@.@.@.@.@.@.@.@.@.@.@.@.@.@.@.@.@.@.@.@.@.@.@.@.@.@.@.@.@.@.@.@.@.@.@.@.@.@.@.@.@.@.@.@.@.@.@.@.@.@.@.@.&.] J P T e . $ ",
"$ . S b.g.j.8.O.@.@.@.@.@.@.@.@.@.@.@.@.@.@.@.@.@.<.x     x c.@.@.@.@.@.@.@.@.@.@.@.@.@.@.@.@.@.$.] 6 = . $ $ $ $ $ . } T.G.G.I.g.@.*.@.$.$.$.$.@.@.@.@.@.@.@.@.@.@.@.@.@.@.@.@.@.@.@.@.@.@.@.@.@.@.@.@.@.@.@.@.@.@.@.@.@.@.@.@.@.@.@.@.@.@.@.@.@.@.@.@.@.@.@.@.@.@.@.@.@.@.@.@.@.$.$.^ J J T f . . . . . . ; #.@.@.@.@.@.@.@.@.@.@.@.@.@.@.@.@.@.@.@.@.@.@.@.@.@.@.@.@.@.*.I $ $ $ $ $ $ . W c.g.<.@.$.@.@.@.@.@.@.@.@.&.&.*.*.@.@.@.@.@.@.@.@.@.@.@.@.@.@.@.@.@.@.@.@.@.@.@.@.@.@.@.@.@.@.@.@.@.@.@.@.@.@.@.@.@.@.@.@.@.@.@.=./ $ $ $ $ $ $ $ . P c.g.x.=.@.*.@.@.@.@.@.@.@.@.@.@.@.@.@.@.@.@.@.@.@.@.@.@.@.@.@.@.@.@.@.@.@.@.@.@.@.@.@.@.@.@.@.@.@.@.@.@.@.@.@.@.@.@.@.@.@.@.@.@.@.@.@.@.@.@.@.@.@.@.@.@.@.@.@.@.@.@.@.@.@.@.@.@.@.@.@.@.@.@.@.@.@.@.@.@.@.@.$.@.@.( U U U U J ! ^ V               3 y 8 8 8 8 8 8 8 t 7 t @.@.@.@.@.@.@.@.@.@.@.@.@.@.@.@.@.@.@.@.@.@.@.@.@.@.@.@.@.@.@.@.@.@.@.@.@.@.@.@.@.@.@.@.@.@.@.@.@.@.@.@.@.@.@.@.@.$.$.$.$.@.@.$.$.$.$.*.*.*.*.=.=.*.*.=.=.=.=.=.=.=.=.=.=.=.=.=.=.$.$.$.$.] @.8           ] C.g.g.g.g.j.5.$.$.$.$.$.$.$.$.$.$.$.$.$.$.$.$.$.$.$.$.@.@.@.@.@.@.@.@.@.@.@.@.@.@.@.@.@.@.@.@.@.@.@.@.@.@.@.@.@.@.@.@.@.@.@.@.@.@.@.@.@.@.@.@.@.@.@.@.@.@.@.@.@.@.@.@.@.@.@.@.@.@.@.@.&.] E P T r . & ",
"$ . S b.g.j.8.O.@.@.@.@.@.@.@.@.@.@.@.@.@.@.@.@.@.6.A     f c.@.@.@.@.@.@.@.@.@.@.@.@.@.@.@.@.@.$.] 6 = . $ $ $ $ $ . } T.G.G.I.g.@.*.@.$.$.$.$.@.@.@.@.@.@.@.@.@.@.@.@.@.@.@.@.@.@.@.@.@.@.@.@.@.@.@.@.@.@.@.@.@.@.@.@.@.@.@.@.@.@.@.@.@.@.@.@.@.@.@.@.@.@.@.@.@.@.@.@.@.@.@.@.@.$.$.^ J J T g . . . . . . ; #.@.@.@.@.@.@.@.@.@.@.@.@.@.@.@.@.@.@.@.@.@.@.@.@.@.@.@.@.@.=.I $ $ $ $ $ $ . W c.g.<.@. .@.@.@.@.@.@.@.@.&.&.*.*.@.@.@.@.@.@.@.@.@.@.@.@.@.@.@.@.@.@.@.@.@.@.@.@.@.@.@.@.@.@.@.@.@.@.@.@.@.@.@.@.@.@.@.@.@.@.@.=./ $ $ $ $ $ $ $ . P c.g.x.=.@.*.@.@.@.@.@.@.@.@.@.@.@.@.@.@.@.@.@.@.@.@.@.@.@.@.@.@.@.@.@.@.@.@.@.@.@.@.@.@.@.@.@.@.@.@.@.@.@.@.@.@.@.@.@.@.@.@.@.@.@.@.@.@.@.@.@.@.@.@.@.@.@.@.@.@.@.@.@.@.@.@.@.@.@.@.@.@.@.@.@.@.@.@.@.@.@.@.$.@.@.( U U U U J ! ^ V     .         3 y 8 8 8 8 8 8 8 t 7 t O.@.@.@.@.@.@.@.@.@.@.@.@.@.@.@.@.@.@.@.@.@.@.@.@.@.@.@.@.@.@.@.@.@.@.@.@.@.@.@.@.=.=.=.=.=.=.=.=.=.=.=.=.=.*.*.*.*.*.*.$.$.@.@.@.] ] ] ] ^ ^ ^ ^ H H H H x x x x f f f f 5 5 5 5 2 2 2 2 @ @   X         @.D.f.x.g.j.c.8.$.$.$.$.$.$.$.$.$.$.$.$.$.$.$.$.$.$.$.$.@.@.@.@.@.@.@.@.@.@.@.@.@.@.@.@.@.@.@.@.@.@.@.@.@.@.@.@.@.@.@.@.@.@.@.@.@.@.@.@.@.@.@.@.@.@.@.@.@.@.@.@.@.@.@.@.@.@.@.@.@.@.@.@.&.] ^ P T e . & ",
"$ . S b.g.j.8. .$.@.@.@.@.@.@.@.@.@.@.@.@.@.@.@.@.=.J     f c.@.@.@.@.@.@.@.@.@.@.@.@.@.@.@.@.@.*.] p = $ $ $ $ $ $ . / R.G.G.G.g.@.*.@.$.$.$.$.@.@.@.@.@.@.@.@.@.@.@.@.@.@.@.@.@.@.@.@.@.@.@.@.@.@.@.@.@.@.@.@.@.@.@.@.@.@.@.@.@.@.@.@.@.@.@.@.@.@.@.@.@.@.@.@.@.@.@.@.@.@.@.@.@.$.$.^ J D T y . . . . . . - #.@.@.@.@.@.@.@.@.@.@.@.@.@.@.@.@.@.@.@.@.@.@.@.@.@.@.@.#.@.-.I . $ $ $ $ $ . ^ c.g.=.@.$.@.@.@.@.@.@.@.@.*.*.*.*.@.@.@.@.@.@.@.@.@.@.@.@.@.@.@.@.@.@.@.@.@.@.@.@.@.@.@.@.@.@.@.@.@.@.@.@.@.@.@.@.@.@.@.@.@.@.@.=./ $ $ $ $ $ $ $ . P c.g.x.=.@.@.@.@.@.@.@.@.@.@.@.@.@.@.@.@.@.@.@.@.@.@.@.@.@.@.@.@.@.@.@.@.@.@.@.@.@.@.@.@.@.@.@.@.@.@.@.@.@.@.@.@.@.@.@.@.@.@.@.@.@.@.@.@.@.@.@.@.@.@.@.@.@.@.@.@.@.@.@.@.@.@.@.@.@.@.@.@.@.@.@.@.@.@.@.@.@.@.*.*.@.! J J J J J U ^ x               3 y 8 8 8 8 8 8 8 t 7 8 O.@.@.@.@.*.*.*.*.$.*.=.=.*.=.=.=.<.<.<.=.=.=.=.<.*.*.=.=.=.=.=.=.O.O.O.O.] ] ] ] ( ( ( ( D D D D x x x x f f t 8 3 3 3 3 @ @ @ @ @ @ @ @                                                     X           z 8.c.g.c.g.f.g.=.@.@.$.$.$.$.$.$.$.$.$.$.$.$.$.$.$.$.$.@.@.@.@.@.@.@.@.@.@.@.@.@.@.@.@.@.@.@.@.@.@.@.@.@.@.@.@.@.@.@.@.@.@.@.@.@.@.@.@.@.@.@.@.@.@.@.@.@.@.@.@.@.@.@.@.@.@.@.@.@.@.@.@.&.^ ^ J T e . & ",
"$ . S b.g.j.8. .$.@.@.@.@.@.@.@.@.@.@.@.@.@.@.@.@.=.^     8 g.@.@.@.@.@.@.@.@.@.@.@.@.@.@.@.@.@.*.] p @ $ $ $ $ $ $ . / Y.G.G.G.g.O.*.@.$.$.$.$.@.@.@.@.@.@.@.@.@.@.@.@.@.@.@.@.@.@.@.@.@.@.@.@.@.@.@.@.@.@.@.@.@.@.@.@.@.@.@.@.@.@.@.@.@.@.@.@.@.@.@.@.@.@.@.@.@.@.@.@.@.@.@.@.@.$.$.^ J D ^ y . . . . . . - #.@.@.@.@.@.@.@.@.@.@.@.@.@.@.@.@.@.@.@.@.@.@.@.@.@.@.#.#.#.,.I $ $ $ $ $ $ . / b.g.=.@.$.@.@.@.@.@.@.@.@.*.*.*.*.@.@.@.@.@.@.@.@.@.@.@.@.@.@.@.@.@.@.@.@.@.@.@.@.@.@.@.@.@.@.@.@.@.@.@.@.@.@.@.@.@.@.@.@.@.@.@.=.Q $ . . $ $ $ $ . P c.g.x.=.@.@.@.@.@.@.@.@.@.@.@.@.@.@.@.@.@.@.@.@.@.@.@.@.@.@.@.@.@.@.@.@.@.@.@.@.@.@.@.@.@.@.@.@.@.@.@.@.@.@.@.@.@.@.@.@.@.@.@.@.@.@.@.@.@.@.@.@.@.@.@.@.@.@.@.@.@.@.@.@.@.@.@.@.@.@.@.@.@.@.@.@.@.@.@.@.@.@.*.*.@.! J J J J J U ! x               3 y 8 8 8 8 8 8 8 t 7 8 O.@.@.@.@.@.@.O.] ] ] ' ( ^ ! J J A A A A x x k h 8 8 8 8 3 3 3 3 3 3 2 2 X X X X                                                                                                                       +   3 *.N.c.g.g.g.g.8.$.@.$.$.$.$.$.$.$.$.$.$.$.$.$.$.$.$.@.@.@.@.@.@.@.@.@.@.@.@.@.@.@.@.@.@.@.@.@.@.@.@.@.@.@.@.@.@.@.@.@.@.@.@.@.@.@.@.@.@.@.@.@.@.@.@.@.@.@.@.@.@.@.@.@.@.@.@.@.@.@.@.&.^ ^ J T e . $ ",
"$ . S b.g.j.6. .@.@.@.@.@.@.@.@.@.@.@.@.@.@.@.@.@.$.] X   8 g.@.@.@.@.@.@.@.@.@.@.@.@.@.@.@.@.@.*.] p = $ $ $ $ $ $ . / Y.G.G.G.g.O.*.@.$.$.$.$.@.@.@.@.@.@.@.@.@.@.@.@.@.@.@.@.@.@.@.@.@.@.@.@.@.@.@.@.@.@.@.@.@.@.@.@.@.@.@.@.@.@.@.@.@.@.@.@.@.@.@.@.@.@.@.@.@.@.@.@.@.@.@.@.@.$.$.^ J D ^ f . . . . . . - #.@.@.@.@.@.@.@.@.@.@.@.@.@.@.@.@.@.@.@.@.@.@.@.@.@.@.#.#.#.,.I $ $ $ $ $ $ . / b.g.=.@.$.@.@.@.@.@.@.@.@.*.*.*.*.@.@.@.@.@.@.@.@.@.@.@.@.@.@.@.@.@.@.@.@.@.@.@.@.@.@.@.@.@.@.@.@.@.@.@.@.@.@.@.@.@.@.@.@.@.@.@.=.Q $ $ $ $ $ $ $ . P c.g.x.=.@.@.@.@.@.@.@.@.@.@.@.@.@.@.@.@.@.@.@.@.@.@.@.@.@.@.@.@.@.@.@.@.@.@.@.@.@.@.@.@.@.@.@.@.@.@.@.@.@.@.@.@.@.@.@.@.@.@.@.@.@.@.@.@.@.@.@.@.@.@.@.@.@.@.@.@.@.@.@.@.@.@.@.@.@.@.@.@.@.@.@.@.@.@.@.@.@.@.*.*.@.! J J J J J U ^ n               3 y 8 8 8 8 8 8 8 d 7 d @.@.@.@.@.=.=.*.*.@.@. .] ] ] ' ' ] ] ] ] ( ' ]  .] ] ] ] O.O.O.O. .O.O.O.@.@.@.O.@.@.@.@.@.@.@.@.@.@.@.@.@.@.$.*.$.$.$.$.@.@.@.@.@.@.@.@.$.$.$.$.@.@.@.@.@.@.@.@.@.@.@.@.@.@.@.@.@.@.@.@.@.@.*.*.@.x @ X @ @ # J M.c.g.c.c.g.8.*.@.$.$.$.$.$.$.$.$.$.$.$.$.$.$.$.@.@.@.@.@.@.@.@.@.@.@.@.@.@.@.@.@.@.@.@.@.@.@.@.@.@.@.@.@.@.@.@.@.@.@.@.@.@.@.@.@.@.@.@.@.@.@.@.@.@.@.@.@.@.@.@.@.@.@.@.@.@.@.@.&.^ ^ J T e . $ ",
"$ . S b.g.j.6. .@.@.@.@.@.@.@.@.@.@.@.@.@.@.@.@.@.@.O.+ X 9 f.$.@.@.@.@.@.@.@.@.@.@.@.@.@.@.@.@.*.] p = $ $ $ $ $ $ . / T.G.G.G.g.O.*.@.$.$.$.$.@.@.@.@.@.@.@.@.@.@.@.@.@.@.@.@.@.@.@.@.@.@.@.@.@.@.@.@.@.@.@.@.@.@.@.@.@.@.@.@.@.@.@.@.@.@.@.@.@.@.@.@.@.@.@.@.@.@.@.@.@.@.@.@.@.@.$.^ J D ^ f . . . . . . - #.@.@.@.@.@.@.@.@.@.@.@.@.@.@.@.@.@.@.@.@.@.@.@.@.@.@.#.#.@.-.I . $ $ $ $ $ . / b.g.=.@.$.@.@.@.@.@.@.@.@.*.*.*.*.@.@.@.@.@.@.@.@.@.@.@.@.@.@.@.@.@.@.@.@.@.@.@.@.@.@.@.@.@.@.@.@.@.@.@.@.@.@.@.@.@.@.@.@.@.@.@.=.Q $ $ $ $ $ $ $ . P c.g.x.=.@.@.@.@.@.@.@.@.@.@.@.@.@.@.@.@.@.@.@.@.@.@.@.@.@.@.@.@.@.@.@.@.@.@.@.@.@.@.@.@.@.@.@.@.@.@.@.@.@.@.@.@.@.@.@.@.@.@.@.@.@.@.@.@.@.@.@.@.@.@.@.@.@.@.@.@.@.@.@.@.@.@.@.@.@.@.@.@.@.@.@.@.@.@.@.@.@.@.*.*.@.! J J J J J U ^ n               3 y 8 8 8 8 8 8 8 d 7 t @.@.@.@.@.@.*.<.6.e.w.r.r.g.j.x.c.c.m.m.V.C.C.C.m.m.V.V.m.m.c.c.c.c.c.c.c.V.V.V.m.c.c.c.c.c.c.c.c.c.c.c.c.c.c.V.C.c.c.c.c.c.c.c.c.c.c.c.c.c.c.c.c.c.c.c.c.c.c.c.c.c.c.c.c.c.c.c.c.c.c.c.c.c.c.c.c.c.c.] X         g w.V.g.x.c.g.r.@.$.$.$.$.$.$.$.$.$.$.$.$.$.$.$.@.@.@.@.@.@.@.@.@.@.@.@.@.@.@.@.@.@.@.@.@.@.@.@.@.@.@.@.@.@.@.@.@.@.@.@.@.@.@.@.@.@.@.@.@.@.@.@.@.@.@.@.@.@.@.@.@.@.@.@.@.@.@.@.&.^ ^ J T e . & ",
"$ . F b.g.j.6. .@.@.@.@.@.@.@.@.@.@.@.@.@.@.@.@.@.@.O.:   3 e.@.@.@.@.@.@.@.@.@.@.@.@.@.*.*.*.=.=.] e < . $ $ $ $ $ . / T.G.G.G.g.@.*.@.$.$.$.$.@.@.@.@.@.@.@.@.@.@.@.@.@.@.@.@.@.@.@.@.@.@.@.@.@.@.@.@.@.@.@.@.@.@.@.@.@.@.@.@.@.@.@.@.@.@.@.@.@.@.@.@.@.@.@.@.@.@.@.@.@.@.@.@.@.@.$.( D A ^ y . . . . . . ; #.@.@.@.@.@.@.@.@.@.@.@.@.@.@.@.@.@.@.@.@.@.@.@.@.@.@.@.#.@.=.I . $ $ $ $ $ . ^ c.g.=.@.$.$.$.@.@.@.@.@.@.*.*.*.*.@.@.@.@.@.@.@.@.@.@.@.@.@.@.@.@.@.@.@.@.@.@.@.@.@.@.@.@.@.@.@.@.@.@.@.@.@.@.@.@.@.@.@.@.@.@.@.=./ $ $ $ $ $ $ . . I c.g.x.=.@.@.@.@.@.@.@.@.@.@.@.@.@.@.@.@.@.@.@.@.@.@.@.@.@.@.@.@.@.@.@.@.@.@.@.@.@.@.@.@.@.@.@.@.@.@.@.@.@.@.@.@.@.@.@.@.@.@.@.@.@.@.@.@.@.@.@.@.@.@.@.@.@.@.@.@.@.@.@.@.@.@.@.@.@.@.@.@.@.@.@.@.@.@.@.@.@.@.*.*.O.J J J J J J ! ^ V     . .       3 y 8 8 8 8 8 i i d 7 d @.@.@.@.@.@.@.@.@.@.@.@.@.@.@.@.@.=.=.=.=.8.8.8.8.f.f.f.f.j.j.j.j.g.g.g.g.c.x.j.g.g.g.g.g.g.g.g.g.g.g.g.g.g.g.g.g.g.g.g.g.g.g.g.g.g.g.g.g.g.g.g.g.j.j.j.j.j.j.j.j.j.j.j.g.g.g.g.g.g.g.g.g.g.g.g.g.c.c.c.r.f X   @   3 *.c.c.g.g.c.f.=.@.@.@.$.$.$.$.$.$.$.$.$.$.$.@.@.@.@.@.@.@.@.@.@.@.@.@.@.@.@.@.@.@.@.@.@.@.@.@.@.@.@.@.@.@.@.@.@.@.@.@.@.@.@.@.@.@.@.@.@.@.@.@.@.@.@.@.@.@.@.@.@.@.@.@.@.@.@.O.! ^ P ^ e . = ",
"$ . S b.g.j.8. .@.@.@.@.@.@.@.@.@.@.@.@.@.@.@.@.@.@.@.3   2 8.@.@.@.@.@.@.@.@.@.@.@.@.@.$.*.*.@.@.^ e 4 . $ $ % $ $ . / T.G.G.G.g.@.*.@.$.$.$.$.@.@.@.@.@.@.@.@.@.@.@.@.@.@.@.@.@.@.@.@.@.@.@.@.@.@.@.@.@.@.@.@.@.@.@.@.@.@.@.@.@.@.@.@.@.@.@.@.@.@.@.@.@.@.@.@.@.@.@.@.@.@.@.@.@.@.$.^ D A ^ y . . . . . . ; #.@.@.@.@.@.@.@.@.@.@.@.@.@.@.@.@.@.@.@.@.@.@.@.@.@.@.@.#.@.=.I . $ $ $ $ $ . ^ c.g.=.@.$.@.@.@.@.@.@.@.@.*.*.*.*.@.@.@.@.@.@.@.@.@.@.@.@.@.@.@.@.@.@.@.@.@.@.@.@.@.@.@.@.@.@.@.@.@.@.@.@.@.@.@.@.@.@.@.@.@.@.@.=./ $ $ $ $ $ $ . . I c.g.x.=.@.@.@.@.@.@.@.@.@.@.@.@.@.@.@.@.@.@.@.@.@.@.@.@.@.@.@.@.@.@.@.@.@.@.@.@.@.@.@.@.@.@.@.@.@.@.@.@.@.@.@.@.@.@.@.@.@.@.@.@.@.@.@.@.@.@.@.@.@.@.@.@.@.@.@.@.@.@.@.@.@.@.@.@.@.@.@.@.@.@.@.@.@.@.@.@.@.@.*.*.O.J J J J J J ! ^ V     . .       3 y 8 8 8 8 8 i i d 7 d O.@.@.@.@.@.@.@.@.@.@.@.@.@.@.@.@.@.@.@.@.@.@.@.@.=.=.=.=.<.<.<.<.e.e.e.e.w.r.f.g.g.g.g.g.x.x.j.x.x.x.j.j.x.c.c.c.j.g.g.g.g.g.g.g.g.g.g.g.g.g.g.g.j.j.j.j.j.j.j.j.j.j.j.g.g.g.g.g.g.g.g.g.g.g.g.g.g.g.c.c.c.H X   X @   H m.g.j.g.c.r.=.@.@.@.$.$.$.$.$.$.$.$.$.$.@.@.@.@.@.@.@.@.@.@.@.@.@.@.@.@.@.@.@.@.@.@.@.@.@.@.@.@.@.@.@.@.@.@.@.@.@.@.@.@.@.@.@.@.@.@.@.@.@.@.@.@.@.@.@.@.@.@.@.@.@.@.@.@.O.E ^ P ^ e . = ",
"$ . S b.g.j.8. .@.@.@.@.@.@.@.@.@.@.@.@.@.@.@.@.@.@.*.8   : 8.@.@.@.@.@.@.@.@.@.@.@.@.@.@.*.@.] ( A e r $ $ $ % $ $ . / T.G.G.G.g.@.*.@.$.$.$.$.@.@.@.@.@.@.@.@.@.@.@.@.@.@.@.@.@.@.@.@.@.@.@.@.@.@.@.@.@.@.@.@.@.@.@.@.@.@.@.@.@.@.@.@.@.@.@.@.@.@.@.@.@.@.@.@.@.@.@.@.@.@.@.@.@.@.*.( D A T y . . . . . . - #.@.@.@.@.@.@.@.@.@.@.@.@.@.@.@.@.@.@.@.@.@.@.@.@.@.@.@.#.@.-.I . $ $ $ $ $ . Q c.g.=.@.$.@.@.@.@.@.@.@.@.*.*.*.*.@.@.@.@.@.@.@.@.@.@.@.@.@.@.@.@.@.@.@.@.@.@.@.@.@.@.@.@.@.@.@.@.@.@.@.@.@.@.@.@.@.@.@.@.@.@.@.=./ $ $ $ $ $ $ . . I c.g.x.=.@.@.@.@.@.@.@.@.@.@.@.@.@.@.@.@.@.@.@.@.@.@.@.@.@.@.@.@.@.@.@.@.@.@.@.@.@.@.@.@.@.@.@.@.@.@.@.@.@.@.@.@.@.@.@.@.@.@.@.@.@.@.@.@.@.@.@.@.@.@.@.@.@.@.@.@.@.@.@.@.@.@.@.@.@.@.@.@.@.@.@.@.@.@.@.@.@.@.*.*.] H J J J J J ! ^ V       .       3 t 8 8 8 8 8 i i d 7 d O.@.@.@.@.@.@.@.@.@.@.@.@.@.@.@.@.@.@.@.@.$.$.*.$.@.@.@.@.@.@.@.@.@.@.@.@.@.@.$.*.*.=.=.=.6.6.6.6.f.f.f.f.g.j.x.x.x.x.c.x.x.g.g.g.g.g.g.g.g.g.g.g.j.j.j.j.j.j.j.j.j.j.g.g.g.g.g.g.g.g.g.g.g.g.g.g.g.g.g.g.y.C.=.3         f g.c.g.g.j.r.=.$.@.@.$.$.$.$.$.$.$.$.$.@.@.@.@.@.@.@.@.@.@.@.@.@.@.@.@.@.@.@.@.@.@.@.@.@.@.@.@.@.@.@.@.@.@.@.@.@.@.@.@.@.@.@.@.@.@.@.@.@.@.@.@.@.@.@.@.@.@.@.@.@.@.@.@.O.E ^ P ^ e . = ",
"$ . S b.g.j.8. .@.@.@.@.@.@.@.@.@.@.@.@.@.@.@.@.@.$.=.t   @ 6.@.@.@.@.@.@.@.@.@.@.@.@.@.@.=.@.' J h e g . $ $ $ $ $ . / T.H.G.G.g.O.*.@.$.$.$.$.@.@.@.@.@.@.@.@.@.@.@.@.@.@.@.@.@.@.@.@.@.@.@.@.@.@.@.@.@.@.@.@.@.@.@.@.@.@.@.@.@.@.@.@.@.@.@.@.@.@.@.@.@.@.@.@.@.@.@.@.@.@.@.@.@.@.*.( D A T y . . . . . . - #.@.@.@.@.@.@.@.@.@.@.@.@.@.@.@.@.@.@.@.@.@.@.@.@.@.@.@.#.#.-.I . $ $ $ $ $ . / b.g.=.@.$.@.@.@.@.@.@.@.@.*.*.*.*.@.@.@.@.@.@.@.@.@.@.@.@.@.@.@.@.@.@.@.@.@.@.@.@.@.@.@.@.@.@.@.@.@.@.@.@.@.@.@.@.@.@.@.@.@...@.*./ $ $ $ $ $ $ . . I c.g.x.=.@.@.@.@.@.@.@.@.@.@.@.@.@.@.@.@.@.@.@.@.@.@.@.@.@.@.@.@.@.@.@.@.@.@.@.@.@.@.@.@.@.@.@.@.@.@.@.@.@.@.@.@.@.@.@.@.@.@.@.@.@.@.@.@.@.@.@.@.@.@.@.@.@.@.@.@.@.@.@.@.@.@.@.@.@.@.@.@.@.@.@.@.@.@.@.@.@.@.$.*.] H J J J J J ! ^ n               3 t 8 8 8 8 8 i i d 7 d O.@.@.@.@.@.@.@.@.@.@.@.@.@.@.@.@.@.@.@.@.@.@.@.@.@.@.$.$.@.@.@.@.@.@.@.@.$.@.@.O.@.@.@.@.@.@.@.@.@.@.@.@.*.=.=.=.e.e.e.e.f.f.f.g.g.g.g.g.g.g.g.g.j.j.j.j.j.j.j.j.j.j.j.g.g.g.g.g.g.g.g.g.g.g.g.g.g.g.g.g.h.h.b.r.z X   X   5 $.D.g.g.c.f.5.$.@.@.$.$.$.$.$.$.$.$.@.@.@.@.@.@.@.@.@.@.@.@.@.@.@.@.@.@.@.@.@.@.@.@.@.@.@.@.@.@.@.@.@.@.@.@.@.@.@.@.@.@.@.@.@.@.@.@.@.@.@.@.@.@.@.@.@.@.@.@.@.@.@.@.O.E ^ P ^ e . = ",
"$ . S b.g.j.8.O.@.@.@.@.@.@.@.@.@.@.@.@.@.@.@.@.@.*.$.k   @ =.@.$.$.$.$.$.$.$.$.@.@.@.@...=.] J T 6 g g . $ $ $ $ $ . Q T.H.G.G.g.O.*.@.$.$.$.$.@.@.@.@.@.@.@.@.@.@.@.@.@.@.@.@.@.@.@.@.@.@.@.@.@.@.@.@.@.@.@.@.@.@.@.@.@.@.@.@.@.@.@.@.@.@.@.@.@.@.@.@.@.@.@.@.@.@.@.@.@.@.@.@.@.@.*.( x M ^ y . . . . $ . - #.#.@.@.@.@.@.@.@.@.@.@.@.@.@.@.@.@.@.@.@.@.@.@.@.@.@.@.#.@.-.I . $ $ $ $ $ . W b.g.*.@.@.&.&.&.&.@.@.@.@.@.@.@.@.@.@.@.@.@.@.@.@.@.@.@.@.@.@.@.@.@.@.@.@.@.@.@.@.@.@.@.@.@.@.@.@.@.@.@.@.@.@.@.@.@.@.@.@.@.@.@.=.Q $ $ . $ $ $ . . I c.g.x.5.@.*.@.@.@.@.@.@.@.@.@.@.@.@.@.@.@.@.@.@.@.@.@.@.@.@.@.@.@.@.@.@.@.@.@.@.@.@.@.@.@.@.@.@.@.@.@.@.@.@.@.@.@.@.@.@.@.@.@.@.@.@.@.@.@.@.@.@.@.@.@.@.@.@.@.@.@.@.@.@.@.@.@.@.@.@.@.@.@.@.@.@.@.@.@.@.@.@.$.*.] H J J J J J ! ^ V               3 8 8 8 8 i i i i d 8 d @.@.@.@.@.@.@.@.@.@.@.@.@.@.@.@.@.@.@.@.@.@.@.@.@.@.@.@.@.@.@.@.@.@.@.@.@.@.@.@.@.@.@.@.@.@.@.@.@.@.@.@.@.@.@.@.@.@.@.@.@.@.@.@.@.=.=.=.=.8.8.8.8.r.r.r.r.g.g.g.g.j.j.g.g.c.c.c.c.c.j.g.g.g.g.g.g.g.g.g.g.g.g.c.x.c.( @         J c.c.c.c.x.e.=.O.@.$.$.$.$.$.$.$.@.@.@.@.@.@.@.@.@.@.@.@.@.@.@.@.@.@.@.@.@.@.@.@.@.@.@.@.@.@.@.@.@.@.@.@.@.@.@.@.@.@.@.@.@.@.@.@.@.@.@.@.@.@.@.@.@.@.@.@.@.@.@.@.! ! ^ W ^ e . & ",
"$ . S b.g.j.8.O.@.@.@.@.@.@.@.@.@.@.@.@.@.@.@.@.@.*.*.x   X @.@.$.$.$.$.$.$.$.$.@.@.@.$.$.) J ^ A 3 j g $ $ $ % $ * . / T.Z.G.G.g.@.=.@.$.$.$.$.@.@.@.@.@.@.@.@.@.@.@.@.@.@.@.@.@.@.@.@.@.@.@.@.@.@.@.@.@.@.@.@.@.@.@.@.@.@.@.@.@.@.@.@.@.@.@.@.@.@.@.@.@.@.@.@.@.@.@.@.@.@.@.@.@.@.*.( x M ^ y . . . . $ . - #.#.@.@.@.@.@.@.@.@.@.@.@.@.@.@.@.@.@.@.@.@.@.@.@.@.@.@.#.@.-.I . $ $ $ $ $ . W c.g.*.@.@.&.&.&.&.@.@.@.@.@.@.@.@.@.@.@.@.@.@.@.@.@.@.@.@.@.@.@.@.@.@.@.@.@.@.@.@.@.@.@.@.@.@.@.@.@.@.@.@.@.@.@.@.@.@.@.@.@.@.@.=.Q $ . . $ $ $ . . I c.g.x.5.@.*.$.$.@.@.@.@.@.@.@.@.@.@.@.@.@.@.@.@.@.@.@.@.@.@.@.@.@.@.@.@.@.@.@.@.@.@.@.@.@.@.@.@.@.@.@.@.@.@.@.@.@.@.@.@.@.@.@.@.@.@.@.@.@.@.@.@.@.@.@.@.@.@.@.@.@.@.@.@.@.@.@.@.@.@.@.@.@.@.@.@.@.@.@.@.@.@.$.*.] H J J J U J ! ^ V             X 3 8 8 8 8 i i i i d 8 d @.@.@.@.@.@.@.@.@.@.@.@.@.@.@.@.@.@.@.@.@.@.@.@.@.@.@.@.@.@.@.@.@.@.@.@.@.@.@.@.@.@.@.@.@.@.@.@.@.@.@.@.@.@.@.@.@.@.@.@.@.@.@.@.@.@.@.@.@.@.@.@.@.@.@.@.@.=.=.=.=.6.6.e.e.f.f.f.f.g.g.j.x.g.g.j.j.j.j.x.x.c.c.g.g.g.V.<.3   X +   f w.D.c.c.c.e.@.@.@.$.$.$.$.$.$.@.@.@.@.@.@.@.@.@.@.@.@.@.@.@.@.@.@.@.@.@.@.@.@.@.@.@.@.@.@.@.@.@.@.@.@.@.@.@.@.@.@.@.@.@.@.@.@.@.@.@.@.@.@.@.@.@.@.@.@.@.@.@.@.! ! ^ W T e . & ",
"$ . S b.g.j.8.O.@.@.@.@.@.@.@.@.@.@.@.@.@.@.@.@.*.@.=.H     O.*.$.$.$.$.$.$.$.$.@.@.@.*.] J H U t 3 n g $ $ $ % % ; . / T.G.G.I.l.@.=.$.$.@.$.$.@.@.@.@.@.@.@.@.@.@.@.@.@.@.@.@.@.@.@.@.@.@.@.@.@.@.@.@.@.@.@.@.@.@.@.@.@.@.@.@.@.@.@.@.@.@.@.@.@.@.@.@.@.@.@.@.@.@.@.@.@.@.@.@.@.@.*.( x M ^ y . . . . $ . - #.#.@.@.@.@.@.@.@.@.@.@.@.@.@.@.@.@.@.@.@.@.@.@.@.@.@.@.#.#.-.I . $ $ $ $ $ . ^ c.g.*.@.@.&.&.&.&.@.@.@.@.@.@.@.@.@.@.@.@.@.@.@.@.@.@.@.@.@.@.@.@.@.@.@.@.@.@.@.@.@.@.@.@.@.@.@.@.@.@.@.@.@.@.@.@.@.@.@.@.@.@.@.=.Q $ $ $ $ $ $ . . I c.g.x.5.@.*.$.@.@.@.@.@.@.@.@.@.@.@.@.@.@.@.@.@.@.@.@.@.@.@.@.@.@.@.@.@.@.@.@.@.@.@.@.@.@.@.@.@.@.@.@.@.@.@.@.@.@.@.@.@.@.@.@.@.@.@.@.@.@.@.@.@.@.@.@.@.@.@.@.@.@.@.@.@.@.@.@.@.@.@.@.@.@.@.@.@.@.@.@.@.@.@.@.*.] H U U ! ! J ! ^ V     . .       3 8 8 8 8 8 8 8 i d 8 d @.@.@.@.@.@.@.@.@.@.@.@.@.@.@.@.@.@.@.@.@.@.@.@.@.@.@.@.@.@.@.@.@.@.@.@.@.@.@.@.@.@.@.@.@.@.@.@.@.@.@.@.@.@.@.@.@.@.@.@.@.@.@.@.@.@.@.@.@.$.$.$.$.@.@.@.@.@.@.@.@.$.@.@.O.@.@.@.@.$.*.=.=.6.6.6.6.6.6.8.8.g.c.g.g.g.g.j.c.x     X   : =.D.f.j.c.f.*.@.@.$.$.$.$.$.@.@.@.@.@.@.@.@.@.@.@.@.@.@.@.@.@.@.@.@.@.@.@.@.@.@.@.@.@.@.@.@.@.@.@.@.@.@.@.@.@.@.@.@.@.@.@.@.@.@.@.@.@.@.@.@.@.@.@.@.@.@.@.@.! ! ^ W T e . & ",
"$ . S b.g.j.8.O.@.@.@.@.@.@.@.@.@.@.@.@.@.@.@.@.*.@.=.U     ] *.@.@.@.@.$.$.$.$.@.@.$.@.H J ^ M 5 3 A g . $ $ $ $ * . Q T.H.G.G.g.O.*.@.@.$.$.$.@.@.@.@.@.@.@.@.@.@.@.@.@.@.@.@.@.@.@.@.@.@.@.@.@.@.@.@.@.@.@.@.@.@.@.@.@.@.@.@.@.@.@.@.@.@.@.@.@.@.@.@.@.@.@.@.@.@.@.@.@.@.@.@.@.@.*.( x M ^ y . . . . $ . - #.#.@.@.@.@.@.@.@.@.@.@.@.@.@.@.@.@.@.@.@.@.@.@.@.@.@.@.@.@.-.F . $ $ $ $ $ . ^ c.g.&.@.@.&.&.&.&.@.@.@.@.@.@.@.@.@.@.@.@.@.@.@.@.@.@.@.@.@.@.@.@.@.@.@.@.@.@.@.@.@.@.@.@.@.@.@.@.@.@.@.@.@.@.@.@.@.@.@.@.@.@.@.=.Q $ $ $ $ $ $ . . I c.g.x.5.@.*.$.$.@.@.@.@.@.@.@.@.@.@.@.@.@.@.@.@.@.@.@.@.@.@.@.@.@.@.@.@.@.@.@.@.@.@.@.@.@.@.@.@.@.@.@.@.@.@.@.@.@.@.@.@.@.@.@.@.@.@.@.@.@.@.@.@.@.@.@.@.@.@.@.@.@.@.@.@.@.@.@.@.@.@.@.@.@.@.@.@.@.@.@.@.@.@.@.*.] H U U ! ! J ! ^ V     . .       3 8 8 8 8 8 8 8 i d 8 d @.@.@.@.@.@.@.@.@.@.@.@.@.@.@.@.@.@.@.@.@.@.@.@.@.@.@.@.@.@.@.@.@.@.@.@.@.@.@.@.@.@.@.@.@.@.@.@.@.@.@.@.@.@.@.@.@.@.@.@.@.@.@.@.@.@.@.@.@.$.$.$.$.@.@.@.@.$.$.$.$.@.@.@.$.@.@.@.@.@.@.@.O.@.@.@.@.@.@.@.@.=.g.c.c.g.g.g.x.m.( @ X X @   H c.x.g.c.9.*.@.@.$.$.$.$.@.@.@.@.@.@.@.@.@.@.@.@.@.@.@.@.@.@.@.@.@.@.@.@.@.@.@.@.@.@.@.@.@.@.@.@.@.@.@.@.@.@.@.@.@.@.@.@.@.@.@.@.@.@.@.@.@.@.@.@.@.@.@.@.! ! ^ W T e . & ",
"* . S b.g.j.8.O.@.@.@.@.@.@.@.@.@.@.@.@.@.@.@.@.$.@.@.] X   ] *.@.@.@.@.@.@.@.@.@.@.O.J J U J 7 3 3 J g . $ $ $ $ * . Q T.G.I.I.c.@.*.=.@.$.$.$.@.@.@.@.@.@.@.@.@.@.@.@.@.@.@.@.@.@.@.@.@.@.@.@.@.@.@.@.@.@.@.@.@.@.@.@.@.@.@.@.@.@.@.@.@.@.@.@.@.@.@.@.@.@.@.@.@.@.$.$.$.$.*.=.@.$.*.U z j T y . . . . $ . - -.#.@.@.@.@.@.@.@.@.@.@.@.@.@.@.@.@.@.@.@.@.@.@.@.@.@.@.@.#.>.F . . $ $ $ $ . / b.g.&.@.&.&.&.&.&.@.@.@.@.@.@.@.@.@.@.@.@.@.@.@.@.@.@.@.@.@.@.@.@.@.@.@.@.@.@.@.@.@.@.@.@.@.@.@.@.@.@.@.@.@.@.@.@.@.@.@.@.@.$.@.>.I $ * $ $ $ $ . . I c.g.x.5.@.*.@.@.@.@.@.@.@.@.@.@.@.@.@.@.@.@.@.@.@.@.@.@.@.@.@.@.@.@.@.@.@.@.@.@.@.@.@.@.@.@.@.@.@.@.@.@.@.@.@.@.@.@.@.@.@.@.@.@.@.@.@.@.@.@.@.@.@.@.@.@.@.@.@.@.@.@.@.@.@.@.@.@.@.@.@.@.@.@.@.@.@.@.@.@.@.@.$.*.( J U U U U J ! ^ V       .       3 8 8 8 8 8 8 8 8 d 7 i O.@.@.@.@.@.@.@.@.@.@.@.@.@.@.@.@.@.@.@.@.@.@.@.@.@.@.@.@.@.@.@.@.@.@.@.@.@.@.@.@.@.@.@.@.@.@.@.@.@.@.@.@.@.@.@.@.@.@.@.@.@.@.@.@.@.@.@.@.@.@.@.@.@.@.@.@.@.@.@.@.@.@.@.@.@.@.@.@.@.@.@.@.@.@.@.@.@.@.@.@.@.*.5.r.c.g.g.g.f.V.=.8   + X   h r.g.r.c.g.6.$.@.$.$.$.@.@.@.@.@.@.@.@.@.@.@.@.@.@.@.@.@.@.@.@.@.@.@.@.@.@.@.@.@.@.@.@.@.@.@.@.@.@.@.@.@.@.@.@.@.@.@.@.@.@.@.@.@.@.@.@.@.@.@.@.*.$.*.O.! ! U J P r . $ ",
"* . S b.g.j.8.O.@.@.@.@.@.@.@.@.@.@.@.@.@.@.@.@.@.@.@.O.@   ' *.@.@.@.@.@.@.@.@.@.@.( H J J A 3 3 3 P e . . $ $ $ $ . P T.H.H.I.l.O.$.*.@.$.$.$.@.@.@.@.@.@.@.@.@.@.@.@.@.@.@.@.@.@.@.@.@.@.@.@.@.@.@.@.@.@.@.@.@.@.@.@.@.@.@.@.@.@.@.@.@.@.@.@.@.@.@.@.@.@.@.@.@.@.@.@.$.@.@.@.*.@.@.^ z j T e . . . . $ . - -.#.@.@.@.@.@.@.@.@.@.@.@.@.@.@.@.@.@.@.@.@.@.@.@.@.@.@.@.@.-.F . $ $ $ $ $ . / b.g.&.@.&.&.&.&.&.@.@.@.@.@.@.@.@.@.@.@.@.@.@.@.@.@.@.@.@.@.@.@.@.@.@.@.@.@.@.@.@.@.@.@.@.@.@.@.@.@.@.@.@.@.@.@.@.@.@.@.@.@.$.@.>.I $ * $ $ $ $ . . I c.g.x.5.@.*.@.@.@.@.@.@.@.@.@.@.@.@.@.@.@.@.@.@.@.@.@.@.@.@.@.@.@.@.@.@.@.@.@.@.@.@.@.@.@.@.@.@.@.@.@.@.@.@.@.@.@.@.@.@.@.@.@.@.@.@.@.@.@.@.@.@.@.@.@.@.@.@.@.@.@.@.@.@.@.@.@.@.@.@.@.@.@.@.@.@.@.@.@.@.@.@.$.*.( J U U U U J ! ^ V               3 8 8 8 8 8 8 8 8 d 8 d O.@.@.@.@.@.@.@.@.@.@.@.@.@.@.@.@.@.@.@.@.@.@.@.@.@.@.@.@.@.@.@.@.@.@.@.@.@.@.@.@.@.@.@.@.@.@.@.@.@.@.@.@.@.@.@.@.@.@.@.@.@.@.@.@.@.@.@.@.@.@.@.@.@.@.@.@.@.@.@.@.@.@.@.@.@.@.@.@.@.@.@.@.@.@.@.@.@.@.@.@.@.@.@.*.9.c.x.g.j.g.c.g.A @ X X   @ =.x.g.j.f.5.*.@.$.$.@.@.@.@.@.@.@.@.@.@.@.@.@.@.@.@.@.@.@.@.@.@.@.@.@.@.@.@.@.@.@.@.@.@.@.@.@.@.@.@.@.@.@.@.@.@.@.@.@.@.@.@.@.@.@.@.@.@.@.@.*.$.*.O.E ! U J P r . $ ",
". . S b.g.j.8.O.@.@.@.@.@.@.@.@.@.@.@.@.@.@.@.@.@.@.@.@.3   ^ $.@.@.@.@.@.@.@.@.=.] J J U J h 3 3 8 ) g . $ $ $ $ * . Q T.H.G.G.c.@.*.=.@.$.$.$.@.@.@.@.@.@.@.@.@.@.@.@.@.@.@.@.@.@.@.@.@.@.@.@.@.@.@.@.@.@.@.@.@.@.@.@.@.@.@.@.@.@.@.@.@.@.@.@.@.@.@.@.@.@.@.@.@.@.@.@.=.*.@.@.' U U D z j T g . . . . $ . 1 -.#.@.@.@.@.@.@.@.@.@.@.@.@.@.@.@.@.@.@.@.@.@.@.@.@.@.@.@.$.@.n . $ $ $ $ $ . / b.g.&.@.&.&.&.&.&.@.@.@.@.@.@.@.@.@.@.@.@.@.@.@.@.@.@.@.@.@.@.@.@.@.@.@.@.@.@.@.@.@.@.@.@.@.@.@.@.@.@.@.@.@.@.@.@.@.@.@.@.@.$.@.>.I $ * $ $ $ $ . . I c.g.x.5.@.*.@.@.@.@.@.@.@.@.@.@.@.@.@.@.@.@.@.@.@.@.@.@.@.@.@.@.@.@.@.@.@.@.@.@.@.@.@.@.@.@.@.@.@.@.@.@.@.@.@.@.@.@.@.@.@.@.@.@.@.@.@.@.@.@.@.@.@.@.@.@.@.@.@.@.@.@.@.@.@.@.@.@.@.@.@.@.@.@.@.@.@.@.@.@.@.@.$.*.( J U U U U J ! T n               3 8 8 8 8 i i 8 8 t 7 t @.@.@.@.@.@.@.@.@.@.@.@.@.@.@.@.@.@.@.@.@.@.@.@.@.@.@.@.@.@.@.@.@.@.@.@.@.@.@.@.@.@.@.@.@.@.@.@.@.@.@.@.@.@.@.@.@.@.@.@.@.@.@.@.@.@.@.@.@.@.@.@.@.@.@.@.@.@.@.@.@.@.@.@.@.@.@.@.@.@.@.@.@.@.@.@.@.@.@.@.@.@.@.@.@.@.=.g.g.g.r.j.x.V.@.+   @ X X ( g.g.x.C.8.*.@.$.@.@.@.@.@.@.@.@.@.@.@.@.@.@.@.@.@.@.@.@.@.@.@.@.@.@.@.@.@.@.@.@.@.@.@.@.@.@.@.@.@.@.@.@.@.@.@.@.@.@.@.@.@.@.@.@.@.@.@.@.*.$.*.O.E E U J P r . $ ",
". . S b.g.j.8.O.@.@.@.@.@.@.@.@.@.@.@.@.@.@.@.@.@.@.@.@.3   ! $.@.@.@.@.@.@.@.@.=.( A J U J t : 3 f ` y . $ $ $ $ $ . Q T.G.G.G.c.@.*.*.@.$.$.$.@.@.@.@.@.@.@.@.@.@.@.@.@.@.@.@.@.@.@.@.@.@.@.@.@.@.@.@.@.@.@.@.@.@.@.@.@.@.@.@.@.@.@.@.@.@.@.@.@.@.@.@.@.@.@.@.@.@.@.@.O.] ( ! U D J D z j T g . . . . $ . - -.#.@.@.@.@.@.@.@.@.@.@.@.@.@.@.@.@.@.@.@.@.@.@.@.@.@.@.@.$.} b . $ $ $ $ $ . / b.g.&.@.&.&.&.&.@.@.@.@.@.@.@.@.@.@.@.@.@.@.@.@.@.@.@.@.@.@.@.@.@.@.@.@.@.@.@.@.@.@.@.@.@.@.@.@.@.@.@.@.@.@.@.@.@.@.@.@.@.@.$.@.>.I $ $ $ $ $ $ . . I c.g.x.5.@.*.@.@.@.@.@.@.@.@.@.@.@.@.@.@.@.@.@.@.@.@.@.@.@.@.@.@.@.@.@.@.@.@.@.@.@.@.@.@.@.@.@.@.@.@.@.@.@.@.@.@.@.@.@.@.@.@.@.@.@.@.@.@.@.@.@.@.@.@.@.@.@.@.@.@.@.@.@.@.@.@.@.@.@.@.@.@.@.@.@.@.@.@.@.@.@.@.$.*.( J U U U U J ! T n               3 8 8 8 8 i i 8 8 t 7 t @.@.@.@.@.@.@.@.@.@.@.@.@.@.@.@.@.@.@.@.@.@.@.@.@.@.@.@.@.@.@.@.@.@.@.@.@.@.@.@.@.@.@.@.@.@.@.@.@.@.@.@.@.@.@.@.@.@.@.@.@.@.@.@.@.@.@.@.@.@.@.@.@.@.@.@.@.@.@.@.@.@.@.@.@.@.@.@.@.@.@.@.@.@.@.@.@.@.@.@.@.@.@.@.@.@.@.@.6.j.c.g.r.g.V.e.t X X X   x 6.j.g.g.8.*.@.@.@.@.@.@.@.@.@.@.@.@.@.@.@.@.@.@.@.@.@.@.@.@.@.@.@.@.@.@.@.@.@.@.@.@.@.@.@.@.@.@.@.@.@.@.@.@.@.@.@.@.@.@.@.@.@.@.@.@.@.*.$.*.O.E E U P T r . $ ",
"$ . S b.g.j.8. .@.@.@.@.@.@.@.@.@.@.@.@.@.@.@.@.*.@.@.=.f   ! <.@.@.@.@.$.$.$.$.@.( ^ ^ ! ! 8 3 3 x ( g . $ $ $ $ $ . I T.G.G.G.c.@.*.*.$.$.$.$.@.@.@.@.@.@.@.@.@.@.@.@.@.@.@.@.@.@.@.@.@.@.@.@.@.@.@.@.@.@.@.@.$.$.$.@.@.@.@.@.@.@.@.@.@.@.@.@.@.@.@.@.@.@.@.@.=.@.] ^ J J J ^ J J H H x j T g     . . . . = X.#.@.@.@.@.@.@.@.@.@.@.@.@.@.@.@.*.*.@.@.@.@.@.@.$.$.$.$...^ b . . $ $ $ $ . P M.r.@.@.*.@.@.@.@.@.&.&.&.&.&.&.&.@.@.@.@.@.@.@.@.@.@.@.@.@.@.@.@.@.@.@.@.@.@.@.@.@.@.@.@.@.@.@.@.@.@.@.@.@.@.@.@.@.@.@.@.$.$...*.S . $ $ $ $ $ . . I c.g.x.5.@.*.@.@.@.@.@.@.@.@.@.@.@.@.@.@.@.@.@.@.@.@.@.@.@.@.@.@.@.@.@.@.@.@.@.@.@.@.@.@.@.@.@.@.@.@.@.@.@.@.@.@.@.@.@.@.@.@.@.@.@.@.@.@.@.@.@.@.@.@.@.@.@.@.@.@.@.@.@.@.@.@.@.@.@.@.@.@.@.@.@.@.@.@.@.@.@.@.@.@.! J U U U U J U T n     . .       3 8 8 8 8 8 8 8 8 t 9 t @.@.@.@.@.@.@.@.@.@.@.@.@.@.@.@.@.@.@.@.@.@.@.@.@.@.@.@.@.@.@.@.@.@.@.@.@.@.@.@.@.@.@.@.@.@.@.@.@.@.@.@.@.@.@.@.@.@.@.@.@.@.@.@.@.@.@.@.@.@.@.@.@.@.@.@.@.@.@.@.@.@.@.@.@.@.@.@.@.@.@.@.@.@.@.@.@.@.@.@.@.@.@.@.@.$.$.$.$.6.w.g.g.g.r.c.c.H 3 X X X 3 <.c.j.j.j.=.@.@.@.] @.@.@.@.@.@.@.@.@.@.@.@.@.@.@.@.@.@.@.@.@.@.@.@.@.@.@.@.@.@.@.@.@.@.@.@.@.@.@.@.@.@.@.@.@.@.@.@.@.@.@.@.@.@.@.@.@.@.@.( E E J P P r . . ",
"$ . S b.g.j.8. .@.@.@.@.@.@.@.@.@.@.@.@.@.@.@.@.*.@.@.=.k   J =.@.@.@.@.$.$.$.$.@.^ ^ U U ! 8 3 3 x ( p . $ $ $ $ $ . I T.Z.G.G.c.@.*.$.$.$.$.$.@.@.@.@.@.@.@.@.@.@.@.@.@.@.@.@.@.@.@.@.@.@.@.@.@.@.@.@.@.@.@.@.*.*.*.*.*.$.$.$.@.@.$.$.$.$.*.*.*.*.*.*.=.=.@.O.^ J J J J J J J J H K D x v ^ g       . $ . = } @.@.@.@.@.@.@.@.@.@.@.@.@.@.@.@.@.*.=.=.$.@.@.@.$.*.*.*.) T v . . $ $ $ $ . P M.r.@.@.*.@.@.@.@.&.&.&.&.&.&.&.&.@.@.@.@.@.@.@.@.@.@.@.@.@.@.@.@.@.@.@.@.@.@.@.@.@.@.@.@.@.@.@.@.@.@.@.@.@.@.@.@.@.@.@.@.$.$...*.S . $ $ $ $ $ . . I c.g.x.5.@.*.@.@.@.@.@.@.@.@.@.@.@.@.@.@.@.@.@.@.@.@.@.@.@.@.@.@.@.@.@.@.@.@.@.@.@.@.@.@.@.@.@.@.@.@.@.@.@.@.@.@.@.@.@.@.@.@.@.@.@.@.@.@.@.@.@.@.@.@.@.@.@.@.@.@.@.@.@.@.@.@.@.@.@.@.@.@.@.@.@.@.@.@.@.@.@.@.@.@.! J J J U U J U T n     . .       3 8 8 8 8 8 t 8 8 t 9 t @.@.@.@.@.@.@.@.@.@.@.@.@.@.@.@.@.@.@.@.@.@.@.@.@.@.@.@.@.@.@.@.@.@.@.@.@.@.@.@.@.@.@.@.@.@.@.@.@.@.@.@.@.@.@.@.@.@.@.@.@.@.@.@.@.@.@.@.@.@.@.@.@.@.@.@.@.@.@.@.@.@.@.@.@.@.@.@.@.@.@.@.@.@.@.@.@.@.@.@.@.@.@.@.@.$.$.$.$.@.=.8.g.g.c.g.c.A.=.3   X     A g.m.r.f.=.@.@.=.@.@.@.@.@.@.@.@.@.@.@.@.@.@.@.@.@.@.@.@.@.@.@.@.@.@.@.@.@.@.@.@.@.@.@.@.@.@.@.@.@.@.@.@.@.@.@.@.@.@.@.@.@.@.@.@.@.@.@.( E E J P P r . o ",
"$ . S b.g.j.8. .@.@.@.@.@.@.@.@.@.@.@.@.@.@.@.@.*.@.@.=.Z   H =.$.$.$.$.$.$.$.$.O.U J J ^ ! 8 3 3 A ) g $ $ $ $ % $ $ I T.Z.Z.G.c.@.*.$.$.$.$.$.@.@.@.@.@.@.@.@.@.@.@.@.@.@.@.@.@.@.@.@.@.@.$.$.$.$.*.*.*.*.*.*.*.*.*.*.*.$.@.@.@.@.@.@.] ] ] ] ] ] ] ] ] ( ^ J J J U ^ H H H H D A V n x j T g     . . . . = } @.@.@.@.@.@.@.@.@.@.@.@.@.@.@.@.@.@.*.*.=.*.@.@. . . . .T T n . . $ $ $ $ $ P M.r.@.@.*.@.@.@.@.&.&.&.&.&.&.&.&.@.@.@.@.@.@.@.@.@.@.@.@.@.@.@.@.@.@.@.@.@.@.@.@.@.@.@.@.@.@.@.@.@.@.@.@.@.@.@.@.@.@.@.@.$.$...*.S . $ $ $ $ $ . . I c.g.x.5.@.*.@.@.@.@.@.@.@.@.@.@.@.@.@.@.@.@.@.@.@.@.@.@.@.@.@.@.@.@.@.@.@.@.@.@.@.@.@.@.@.@.@.@.@.@.@.@.@.@.@.@.@.@.@.@.@.@.@.@.@.@.@.@.@.@.@.@.@.@.@.@.@.@.@.@.@.@.@.@.@.@.@.@.@.@.@.@.@.@.@.@.@.@.@.@.@.@.$.@.! J J J U U J U T N       .       3 8 8 8 8 t t 8 8 t 9 t ..@.@.@.@.@.@.@.@.@.@.@.@.@.@.@.@.@.@.@.@.@.@.@.@.@.@.@.@.@.@.@.@.@.@.@.@.@.@.@.@.@.@.@.@.@.@.@.@.@.@.@.@.@.@.@.@.@.@.@.@.@.@.@.@.@.@.@.@.@.@.@.@.@.@.@.@.@.@.@.@.@.@.@.@.@.@.@.@.@.@.@.@.@.@.@.@.@.@.@.@.@.@.@.@.$.$.$.$.@.@.@.@.g.c.g.g.r.m.f.Z     @   t g.C.g.g.5.@.@.@.@.@.@.@.@.@.@.@.@.@.@.@.@.@.@.@.@.@.@.@.@.@.@.@.@.@.@.@.@.@.@.@.@.@.@.@.@.@.@.@.@.@.@.@.@.@.@.@.@.@.@.@.@.@.@.@.@.@.( E E J P P r . $ ",
"$ . S b.g.j.8. .@.@.@.@.@.@.@.@.@.@.@.@.@.@.@.@.*.@.@.=.A   D =.$.$.$.$.$.$.$.$.] J J J ! U 8 3 3 x ) p . $ $ $ $ $ $ I T.A.G.G.c.@.$.$.$.$.$.$.@.@.@.@.@.@.@.@.@.@.@.@.@.@.@.@.@.@.@.@.@.@.@.@.] ] ] ] ] ] ] ] ( ( ( ( ( ^ ^ ^ ! U U J J J J J J J J J J J J J H H D A n A N x x z z g f g I e     . . . . = } @.@.@.@.@.@.@.@.@.@.@.@.@.@.@.@.@.@.O.] ] ] ( ! U U U U H U n . $ $ $ $ $ $ P M.r.@.@.*.@.@.@.@.&.&.&.&.&.&.&.&.@.@.@.@.@.@.@.@.@.@.@.@.@.@.@.@.@.@.@.@.@.@.@.@.@.@.@.@.@.@.@.@.@.@.@.@.@.@.@.@.@.@.@.@.$.$...*.S . $ $ $ $ $ . . I c.g.x.5.@.*.@.@.@.@.@.@.@.@.@.@.@.@.@.@.@.@.@.@.@.@.@.@.@.@.@.@.@.@.@.@.@.@.@.@.@.@.@.@.@.@.@.@.@.@.@.@.@.@.@.@.@.@.@.@.@.@.@.@.@.@.@.@.@.@.@.@.@.@.@.@.@.@.@.@.@.@.@.@.@.@.@.@.@.@.@.@.@.@.@.@.@.@.@.@.@.@.$.@.U J U J U U J U T N               3 8 8 8 8 t t 8 8 t 9 t ..@.@.@.@.@.@.@.@.@.@.@.@.@.@.@.@.@.@.@.@.@.@.@.@.@.@.@.@.@.@.@.@.@.@.@.@.@.@.@.@.@.@.@.@.@.@.@.@.@.@.@.@.@.@.@.@.@.@.@.@.@.@.@.@.@.@.@.@.@.@.@.@.@.@.@.@.@.@.@.@.@.@.@.@.@.@.@.@.@.@.@.@.@.@.@.@.@.@.@.@.@.@.@.@.$.$.$.$.$.@.@.@.=.<.j.c.c.g.c.D.] @   @ + 9 $.c.g.g.8.=.@.@.@.@.@.@.@.@.@.@.@.@.@.@.@.@.@.@.@.@.@.@.@.@.@.@.@.@.@.@.@.@.@.@.@.@.@.@.@.@.@.@.@.@.@.@.@.@.@.@.@.@.@.@.@.@.@.@.@.( E E J P P r . & ",
"$ . F b.g.j.8. .@.@.@.@.@.@.@.@.@.@.@.@.@.@.@.@.*.@.@.$.(   k <.@.@.@.@.$.$.$.$.! J J J ^ U 8 3 3 x ( p . $ $ $ % $ $ b T.A.G.G.c.%.$.@.@.@.@.@.@.@.@.@... . .] ] ] ] ] ( ( ( ( U U U U U U U J J J J J J J J J J J J J J J J J J J J J J J J J D D D D A Z Z M M j j x j j j z z j z j j S P g o . . . . . 4 } @.@.@.@.@.@.@.@.@.@.@.@...] ^ ^ U J J J J J J J J J Y Y T T b . . $ $ $ $ $ P M.r.$.$.$.@.@.@.@.&.&.&.&.&.&.&.&.@.@.@.@.@.@.@.@.@.@.@.@.@.@.@.@.@.@.@.@.@.@.@.@.@.@.@.@.@.@.@.@.@.@.@.@.@.@.@.@.@.@.@.@.@.@.@.#.C . $ $ $ $ $ . . I c.g.x.5.@.*.@.@.@.@.@.@.@.@.@.@.@.@.@.@.@.@.@.@.@.@.@.@.@.@.@.@.@.@.@.@.@.@.@.@.@.@.@.@.@.@.@.@.@.@.@.@.@.@.@.@.@.@.@.@.@.@.@.@.@.@.@.@.@.@.@.@.@.@.@.@.@.@.@.@.@.@.@.@.@.@.@.@.@.@.@.@.@.@.@.@.@.@.@.@.@.@.$.@.J J U U U U J U T n               3 8 8 i 8 8 8 8 8 t 7 t ..@.@.@.@.@.@.@.@.@.@.@.@.@.@.@.@.@.@.@.@.@.@.@.@.@.@.@.@.@.@.@.@.@.@.@.@.@.@.@.@.@.@.@.@.@.@.@.@.@.@.@.@.@.@.@.@.@.@.@.@.@.@.@.@.@.@.@.@.@.@.@.@.@.@.@.@.@.@.@.@.@.@.@.@.@.@.@.@.@.@.@.@.@.@.@.@.@.@.@.@.@.@.@.@.$.$.$.$.@.@.@.@.@.@.=.6.c.g.f.g.c.=.3     X X ^ V.x.g.w.=.@.*.@.@.@.@.@.@.@.@.@.@.@.@.@.@.@.@.@.@.@.@.@.@.@.@.@.@.@.@.@.@.@.@.@.@.@.@.@.@.@.@.@.@.@.@.@.@.@.@.@.@.@.@.@.@.@.@.^ E E J P P r . & ",
"$ . S b.g.j.8. .@.@.@.@.@.@.@.@.@.@.@.@.@.@.@.@.$.@.@.$.]   k =.@.@.@.@.$.$.$.$.^ J U J ^ J 7 3 3 x ( p . $ $ $ % $ $ q Z.Z.G.G.i.( T U ^ T T T T T T T H J J J J J J J J J J J J J J J J J J J U U U U U U U J J J J F F D D D D D D A A M M M M j j x x x x x x x j j j j j j j j j j g F P 6 . . . . . . = P J U U U U U U U U U U U J J J F J J J J J J J J J J J J J ^ g . . $ $ $ $ $ P M.r.$.$.$.@.@.@.@.&.&.&.&.&.&.&.&.@.@.@.@.@.@.@.@.@.@.@.@.@.@.@.@.@.@.@.@.@.@.@.@.@.@.@.@.@.@.@.@.@.@.@.@.@.@.@.@.@.@.@.@.@.@.@.#.n . . $ $ $ $ . . I c.g.x.5.@.*.@.@.@.@.@.@.@.@.@.@.@.@.@.@.@.@.@.@.@.@.@.@.@.@.@.@.@.@.@.@.@.@.@.@.@.@.@.@.@.@.@.@.@.@.@.@.@.@.@.@.@.@.@.@.@.@.@.@.@.@.@.@.@.@.@.@.@.@.@.@.@.@.@.@.@.@.@.@.@.@.@.@.@.@.@.@.@.@.@.@.@.@.@.@.@.@.$.O.J J U U U U J U T n               3 8 8 i 8 8 8 8 8 t 7 t ..@.@.@.@.@.@.@.@.@.@.@.@.@.@.@.@.@.@.@.@.@.@.@.@.@.@.@.@.@.@.@.@.@.@.@.@.@.@.@.@.@.@.@.@.@.@.@.@.@.@.@.@.@.@.@.@.@.@.@.@.@.@.@.@.@.@.@.@.@.@.@.@.@.@.@.@.@.@.@.@.@.@.@.@.@.@.@.@.@.@.@.@.@.@.@.@.@.@.@.@.@.@.@.@.$.$.$.$.@.@.@.@.@.@.@.@.<.j.c.f.g.x.g.Z   @ +   f r.c.c.r.*.@.=.@.@.@.@.@.@.@.@.@.@.@.@.@.@.@.@.@.@.@.@.@.@.@.@.@.@.@.@.@.@.@.@.@.@.@.@.@.@.@.@.@.@.@.@.@.@.@.@.@.@.@.@.@.@.@.^ E E J P P r . & ",
"$ . S b.g.j.8. .@.@.@.@.@.@.@.@.@.@.@.@.@.@.@.@.$.$.$.$.@.X z =.@.@.@.@.$.$.$.$.! J U J ^ J 9 3 3 x ( p . $ $ $ $ $ $ . :.Y.D.V.@.D J T J J J J J J J J H J H H H H H F F D D D A A A A A A A A j j j j j j j z j j j j h f j j j j z z z z j j x x x x z x z z z z z z z z z j x z j j A I n > o o . . . . $ n T U U U U U U U U U U U U J J J J J J J J J J J J J J J D ^ e . . $ $ $ $ $ P M.r.$.$.$.@.@.@.@.&.&.&.&.&.&.&.&.@.@.@.@.@.@.@.@.@.@.@.@.@.@.@.@.@.@.@.@.@.@.@.@.@.@.@.@.@.@.@.@.@.@.@.@.@.@.@.@.@.@.@.@.@.@.@.#.n . . $ $ $ $ . . I c.g.x.5.@.*.@.@.@.@.@.@.@.@.@.@.@.@.@.@.@.@.@.@.@.@.@.@.@.@.@.@.@.@.@.@.@.@.@.@.@.@.@.@.@.@.@.@.@.@.@.@.@.@.@.@.@.@.@.@.@.@.@.@.@.@.@.@.@.@.@.@.@.@.@.@.@.@.@.@.@.@.@.@.@.@.@.@.@.@.@.@.@.@.@.@.@.@.@.@.@.@.$.O.J U U U U U J U T n     . .       3 8 8 i 8 8 8 8 8 t 7 t ..@.@.@.@.@.@.@.@.@.@.@.@.@.@.@.@.@.@.@.@.@.@.@.@.@.@.@.@.@.@.@.@.@.@.@.@.@.@.@.@.@.@.@.@.@.@.@.@.@.@.@.@.@.@.@.@.@.@.@.@.@.@.@.@.@.@.@.@.@.@.@.@.@.@.@.@.@.@.@.@.@.@.@.@.@.@.@.@.@.@.@.@.@.@.@.@.@.@.@.@.@.@.@.@.$.$.$.$.@.@.@.@.@.@.@.@.O.*.e.c.c.g.c.m.] 2   X   2 <.V.g.c.=.=.@.@.@.@.@.@.@.@.@.@.@.@.@.@.@.@.@.@.@.@.@.@.@.@.@.@.@.@.@.@.@.@.@.@.@.@.@.@.@.@.@.@.@.@.@.@.@.@.@.@.@.@.@.@.@.^ E E E P P e . & ",
"$ . S b.g.j.6. .@.@.@.@.@.@.@.@.@.@.@.@.@.@.@.@.$.$.$.$.$.@ x =.@.@.@.@.$.@.$.$.! J U J ^ J 9 3 3 x ^ p . $ $ $ $ $ $ . $ q.G.r.=.H J P T T T T J P P P H H H F F F F F A A D D F F F F F F F F F F F F F F F F F F F F F D D F F F A A A A A A A A A D D D D D D D D D F F F F F F F F ) F r . o . . . . . . g T T T T J J J J J J J J J J J J J J J J J J J J J J J J J F 4 $ . $ $ $ $ $ P M.r.$.$.$.@.@.@.@.&.&.&.&.&.&.&.&.@.@.@.@.@.@.@.@.@.@.@.@.@.@.@.@.@.@.@.@.@.@.@.@.@.@.@.@.@.@.@.@.@.@.@.@.@.@.@.@.@.@.@.@.@.@.@.#.n . . $ $ $ $ . . I c.g.x.5.@.*.@.@.@.@.@.@.@.@.@.@.@.@.@.@.@.@.@.@.@.@.@.@.@.@.@.@.@.@.@.@.@.@.@.@.@.@.@.@.@.@.@.@.@.@.@.@.@.@.@.@.@.@.@.@.@.@.@.@.@.@.@.@.@.@.@.@.@.@.@.@.@.@.@.@.@.@.@.@.@.@.@.@.@.@.@.@.@.@.@.@.@.@.@.@.@.@.$.O.J U U U U U J U T n     . .       3 8 8 i 8 8 8 8 8 t 7 t ..@.@.@.@.@.@.@.@.@.@.@.@.@.@.@.@.@.@.@.@.@.@.@.@.@.@.@.@.@.@.@.@.@.@.@.@.@.@.@.@.@.@.@.@.@.@.@.@.@.@.@.@.@.@.@.@.@.@.@.@.@.@.@.@.@.@.@.@.@.@.@.@.@.@.@.@.@.@.@.@.@.@.@.@.@.@.@.@.@.@.@.@.@.@.@.@.@.@.@.@.@.@.@.@.$.$.$.$.@.@.@.@.@.@.@.$.$.@.@.*.g.c.x.f.V.e.8   @     ( c.g.g.6.@.@.@.@.@.@.@.@.@.@.@.@.@.@.@.@.@.@.@.@.@.@.@.@.@.@.@.@.@.@.@.@.@.@.@.@.@.@.@.@.@.@.@.@.@.@.@.@.@.@.@.@.@.@.@.^ E E E P P e . & ",
"$ . S b.g.j.8.O.@.@.@.@.@.@.@.@.@.@.@.@.@.@.@.@.$.$.$.$.5.7 k =.$.$.$.$.@.@.$.] U J J J U J 5 3 3 D ^ e . $ $ $ $ $ . $   - b #.} A F F F F F F F F F F F F F F F F F F F F F F F F F F F F F F F F F F F F F F F F F F F F F F F F F F F F F F F F F F F F F F F F F F F F F F F F I F j 6 .   . . . . . . . . u T I I J J J J P P P P P P P P P P P P P P P P P P P P S 4 . . . $ $ $ $ $ W C.9.@.@.@.@.@.@.@.$.$.&.&.&.&.&.&.@.@.@.@.@.@.@.@.@.@.@.@.@.@.@.@.@.@.@.@.@.@.@.@.@.@.@.@.@.@.@.@.@.@.@.@.@.@.@.@.@.@.@.@.@.@.=.@.n . $ $ $ $ $ $ . P b.g.x.5.@.@.$.@.@.@.@.@.@.@.@.@.@.@.@.@.@.@.@.@.@.@.@.@.@.@.@.@.@.@.@.@.@.@.@.@.@.@.@.@.@.@.@.@.@.@.@.@.@.@.@.@.@.@.@.@.@.@.@.@.@.@.@.@.@.@.@.@.@.@.@.@.@.@.@.@.@.@.@.@.@.@.@.@.@.@.@.@.@.@.@.@.@.@.@.@.@.@.$.] J U U U U U J ! T n     . .       3 8 8 8 8 8 8 8 8 t 7 t ..@.@.@.@.@.@.@.@.@.@.@.@.@.@.@.@.@.@.@.@.@.@.@.@.@.@.@.@.@.@.@.@.@.@.@.@.@.@.@.@.@.@.@.@.@.@.@.@.@.@.@.@.@.@.@.@.@.@.@.@.@.@.@.@.@.@.@.@.@.@.@.@.@.@.@.@.@.@.@.@.@.@.@.@.@.@.@.@.@.@.@.@.@.@.@.@.@.@.@.@.@.@.@.@.@.@.@.@.@.@.@.@.@.@.@.@.@.@.@.@.*.e.g.c.g.m.c.^   X     k r.c.x.8.=.=.=.$.@.@.@.@.@.@.@.@.@.@.@.@.@.@.@.@.@.@.@.@.@.@.@.@.@.@.@.@.@.@.@.@.@.@.@.@.@.@.@.@.@.@.@.@.@.@.@.$.@.O.J E E J P T e . & ",
"$ . S b.g.j.8.O.@.@.@.@.@.@.@.@.@.@.@.@.@.@.@.@.$.$.$.$.*.8 k *.$.$.$.$.@.@.@.' U J J J U J 5 3 3 D ^ e . $ $ $ $ $ $ $ $ * $ . . . O . . . . . O O . . . . . . O . . O O O O . O O O O O . . . . o . . . . . . O O O O o o O O O O O O O O . . $ $ * * $ $ $ $ * $ $ $ $ $ $ $ $ $ $ $ = $ . . . . . . . . . . . = - - = = = = = = = = < < = = = = = < 1 1 - - - - - , . o = = . $ $ $ $ $ W C.9.@.@.@.@.@.@.@.$.$.&.&.&.&.&.&.@.@.@.@.@.@.@.@.@.@.@.@.@.@.@.@.@.@.@.@.@.@.@.@.@.@.@.@.@.@.@.@.@.@.@.@.@.@.@.@.@.@.@.@.@.@.=.@.n . $ $ $ $ $ $ . P c.g.x.5.@.@.$.@.@.@.@.@.@.@.@.@.@.@.@.@.@.@.@.@.@.@.@.@.@.@.@.@.@.@.@.@.@.@.@.@.@.@.@.@.@.@.@.@.@.@.@.@.@.@.@.@.@.@.@.@.@.@.@.@.@.@.@.@.@.@.@.@.@.@.@.@.@.@.@.@.@.@.@.@.@.@.@.@.@.@.@.@.@.@.@.@.@.@.@.@.@.@.$.] J U U U U U J ! T n               3 8 8 8 8 8 8 8 8 t 8 t ..@.@.@.@.@.@.@.@.@.@.@.@.@.@.@.@.@.@.@.@.@.@.@.@.@.@.@.@.@.@.@.@.@.@.@.@.@.@.@.@.@.@.@.@.@.@.@.@.@.@.@.@.@.@.@.@.@.@.@.@.@.@.@.@.@.@.@.@.@.@.@.@.@.@.@.@.@.@.@.@.@.@.@.@.@.@.@.@.@.@.@.@.@.@.@.@.@.@.@.@.@.@.@.@.@.@.@.@.@.@.@.@.@.@.@.@.@.@.@.@.$.@.=.r.x.c.g.m.=.3   @   3 5.c.V.r.*. .$.$.@.@.@.@.@.@.@.@.@.@.@.@.@.@.@.@.@.@.@.@.@.@.@.@.@.@.@.@.@.@.@.@.@.@.@.@.@.@.@.@.@.@.@.@.@.@.@.@.] J E E J P T e . & ",
"$ . S b.g.j.8.O.@.@.@.@.@.@.@.@.@.@.@.@.@.@.@.@.$.$.$.$.*.x Z =.$.$.$.$.=.@.@.( J J J J U F 3 3 3 D ^ e . $ $ $ $ $ $ $ $ $ $ . . . . . . . . . . . . . . . . . . . . . . . . . . . . . . . . . . . . . . . . . . . . . . . . . . . . . . . . . . $ $ $ $ $ $ $ $ $ $ $ $ $ $ $ $ $ $ $ $ $ $ $ $ $ $ $ $ $ $ $ * . $ . . . . . . . . . . . . . . . . . . . . . . . . . . . . . $ $ $ $ $ $ W C.9.@.@.@.@.@.@.@.$.$.@.&.&.&.&.&.@.@.@.@.@.@.@.@.@.@.@.@.@.@.@.@.@.@.@.@.@.@.@.@.@.@.@.@.@.@.@.@.@.@.@.@.@.@.@.@.@.@.@.@.@.@.=.@.n . $ $ $ $ $ $ . P c.g.x.5.@.@.$.@.@.@.@.@.@.@.@.@.@.@.@.@.@.@.@.@.@.@.@.@.@.@.@.@.@.@.@.@.@.@.@.@.@.@.@.@.@.@.@.@.@.@.@.@.@.@.@.@.@.@.@.@.@.@.@.@.@.@.@.@.@.@.@.@.@.@.@.@.@.@.@.@.@.@.@.@.@.@.@.@.@.@.@.@.@.@.@.@.@.@.@.@.@.@.@.] J U U U U U J ! T n               3 8 8 8 8 8 8 8 8 t 7 t ..@.@.@.@.@.@.@.@.@.@.@.@.@.@.@.@.@.@.@.@.@.@.@.@.@.@.@.@.@.@.@.@.@.@.@.@.@.@.@.@.@.@.@.@.@.@.@.@.@.@.@.@.@.@.@.@.@.@.@.@.@.@.@.@.@.@.@.@.@.@.@.@.@.@.@.@.@.@.@.@.@.@.@.@.@.@.@.@.@.@.@.@.@.@.@.@.@.@.@.@.@.@.@.@.@.@.@.@.@.@.@.@.@.@.@.@.@.@.@.@.O.@.@.$.8.x.c.c.g.f.k   X X + ( x.c.8.@.@.$.$.@.@.@.@.@.@.@.@.@.@.@.@.@.@.@.@.@.@.@.@.@.@.@.@.@.@.@.@.@.@.@.@.@.@.@.@.@.@.@.@.@.@.@.@.@.@.*.] ! E E J P T e . & ",
"$ . S b.g.j.8.O.@.@.@.@.@.@.@.@.@.@.@.@.@.@.@.@.$.$.$.$.=.U J 5.$.$.$.$.=.@.@.^ J J J J U D 3 3 3 D ^ e . $ $ $ $ $ $ $ . $ $ . . . . . . . . . $ . . . . . . . . . . . $ . . . $ $ . . . . . . . . . . . . . . . . $ $ $ $ $ . . . . . . . $ $ $ $ $ $ $ $ $ $ $ $ $ $ $ $ $ $ $ $ $ $ $ $ $ $ $ $ $ $ $ $ $ $ * $ $ $ $ $ $ $ $ $ $ $ $ $ $ $ $ $ $ $ $ $ $ $ $ $ $ $ . . . $ $ $ $ $ $ $ W C.e.@.@.@.@.@.@.@.$.$.&.&.&.&.&.&.@.@.@.@.@.@.@.@.@.@.@.@.@.@.@.@.@.@.@.@.@.@.@.@.@.@.@.@.@.@.@.@.@.@.@.@.@.@.@.@.@.@.@.@.@.@.=.@.b . $ $ $ $ $ $ . P c.g.x.5.@.@.$.@.@.@.@.@.@.@.@.@.@.@.@.@.@.@.@.@.@.@.@.@.@.@.@.@.@.@.@.@.@.@.@.@.@.@.@.@.@.@.@.@.@.@.@.@.@.@.@.@.@.@.@.@.@.@.@.@.@.@.@.@.@.@.@.@.@.@.@.@.@.@.@.@.@.@.@.@.@.@.@.@.@.@.@.@.@.@.@.@.@.@.@.@.@.@.@.] J J U U U U J ! T n               3 8 8 8 8 8 8 8 8 t 7 t ..@.@.@.@.@.@.@.@.@.@.@.@.@.@.@.@.@.@.@.@.@.@.@.@.@.@.@.@.@.@.@.@.@.@.@.@.@.@.@.@.@.@.@.@.@.@.@.@.@.@.@.@.@.@.@.@.@.@.@.@.@.@.@.@.@.@.@.@.@.@.@.@.@.@.@.@.@.@.@.@.@.@.@.@.@.@.@.@.@.@.@.@.@.@.@.@.@.@.@.@.@.@.@.@.@.@.@.@.@.@.@.@.@.@.@.@.@.@.@.@.@.@.@.@. .$.r.x.g.g.c.] X       H r.c.g.=.@.$.$.@.@.@.@.@.@.@.@.@.@.@.@.@.@.@.@.@.@.@.@.@.@.@.@.@.@.@.@.@.@.@.@.@.@.@.@.@.@.@.@.@.@.@.@.@.=.] ! E E J P T e . & ",
"* . S b.g.j.8.O.@.@.@.@.@.@.@.@.@.@.@.@.@.@.@.@.$.$.$.$.$.$.$.$.$.$.$.$.@.$.] J J J J J U D 3 3 3 D ^ e . $ $ $ $ $ $ $ $ $ $ $ $ . . . . . . $ $ $ $ $ . . . . $ . $ $ . . . . $ . $ $ . . . . $ . . . . . . . . . . . $ . . . . . . . . . . $ $ $ $ $ $ $ $ $ $ $ $ $ $ $ $ $ $ $ $ $ $ $ $ $ $ $ $ $ $ $ $ $ $ $ $ $ $ $ $ $ $ $ $ $ $ $ $ $ $ $ $ $ $ $ $ $ $ $ $ $ $ $ $ $ $ $ $ $ $ . P M.8.O.@.$.@.@.@.@.&.&.&.&.&.&.&.&.@.@.@.@.@.@.@.@.@.@.@.@.@.@.@.@.@.@.@.@.@.@.@.@.@.@.@.@.@.@.@.@.@.@.@.@.@.@.@.@.@.@.@.@.@.$.$.] b . . $ $ $ $ $ . P c.g.x.5.@.$.$.@.@.@.@.@.@.@.@.@.@.@.@.@.@.@.@.@.@.@.@.@.@.@.@.@.@.@.@.@.@.@.@.@.$.$.*.*.*.*.@.@.@.@.$.$.$.$.@.@.@.@.@.@.*.$.@.@.@.@.@.@.@.@.@.@.$.@.@.@.@.@.@.@.$.$.@.@.@.@.@.@.@.@.@.@.@.@.@.@.@.@.] ] ] ] ^ J J J J J U U J ! ^ V     . .       3 8 8 8 8 8 8 8 8 t 8 t ..@.@.@.@.@.@.@.@.@.@.@.@.@.@.@.@.@.@.@.@.@.@.@.@.@.@.@.@.@.@.@.@.@.@.@.@.@.@.@.@.@.@.@.@.@.@.@.@.@.@.@.@.@.@.@.@.@.@.@.@.@.@.@.@.@.@.@.@.@.@.@.@.@.@.@.@.@.@.@.@.@.@.@.@.@.@.@.@.@.@.@.@.@.@.@.@.@.@.@.@.@.@.@.@.@.@.@.@.@.@.@.@.@.@.@.@.@.@.@.@.@.@.@.@.$.@.@.=.x.x.c.c.6.d   X   3 =.C.x.] *.=.*.$.@.@.@.@.@.@.@.@.@.@.@.@.@.@.@.@.@.@.@.@.@.@.@.@.@.@.@.@.@.@.@.@.@.@.@.@.@.@.@.@.@.@.*.@.^ ! E E J P T e . & ",
"* . S b.g.j.8.O.@.@.@.@.@.@.@.@.@.@.@.@.@.@.@.@.$.$.$.$.$.$.$.$.$.$.$.$.@.$.] J J J J J U D 3 3 3 D ^ e . $ $ $ $ $ $ $ $ $ $ $ $ $ $ . $ $ $ $ $ $ $ $ $ $ $ $ $ $ $ $ $ $ $ $ $ $ $ $ $ $ $ $ $ $ $ $ $ $ $ $ $ $ $ $ $ $ $ $ $ $ $ $ $ $ $ $ $ $ $ $ $ $ $ $ $ $ $ $ $ $ $ $ $ $ $ $ $ $ $ $ $ $ $ $ $ $ $ $ $ $ $ $ $ $ $ $ $ $ $ $ $ $ $ $ $ $ $ $ $ $ $ $ $ $ $ $ $ $ $ $ $ $ $ $ $ . P M.8.O.@.$.@.@.@.@.&.&.&.&.&.&.&.&.@.@.@.@.@.@.@.@.@.@.@.@.@.@.@.@.@.@.@.@.@.@.@.@.@.@.@.@.@.@.@.@.@.@.@.@.@.@.@.@.@.@.@.@.@.$.$.] b . . $ % % $ $ . P c.g.x.5.@.$.$.@.@.@.@.@.@.@.@.@.@.@.@.@.@.@.@.@.@.@.@.@.@.@.@.@.@.@.*.*.*.*.$.@.@.@.@.@.@.@.@.@.@.@.$.$.$.$.*.*.*.*.*.*.*.*.=.=.=.=.@.@.@.@.@.@.@.@.@.@.@.O.@. . . .] ] ] ] ' ' ( ( ! ! ! ! U U U U H H H H H J J U J J U U J ! ^ V     . .       3 8 8 8 8 8 8 8 8 t 7 t ..@.@.@.@.@.@.@.@.@.@.@.@.@.@.@.@.@.@.@.@.@.@.@.@.@.@.@.@.@.@.@.@.@.@.@.@.@.@.@.@.@.@.@.@.@.@.@.@.@.@.@.@.@.@.@.@.@.@.@.@.@.@.@.@.@.@.@.@.@.@.@.@.@.@.@.@.@.@.@.@.@.@.@.@.@.@.@.@.@.@.@.@.@.@.@.@.@.@.@.@.@.@.@.@.@.@.@.@.@.@.@.@.@.@.@.@.@.@.@.@.@.@.@.@.@.@.$.@.@.e.g.g.x.g.H X X   + ] V.c.6.*.=.$.@.@.@.@.@.@.@.@.@.@.@.@.@.@.@.@.@.@.@.@.@.@.@.@.@.@.@.@.@.@.@.@.@.@.@.@.@.@.@.@.@.@.*.@.^ ! E E J P T e . & ",
"$ . S b.g.j.8.O.@.@.@.@.@.@.@.@.@.@.@.@.@.@.@.@.$.$.$.$.$.$.$.$.$.$.$.$.@.$.] J J U J J T D 3 3 5 F ^ y . $ $ $ $ $ $ $ $ $ $ $ $ $ $ $ $ $ $ $ $ $ $ $ $ $ $ $ $ $ $ $ $ $ $ $ $ $ $ $ $ $ $ $ $ $ $ $ $ $ $ $ $ $ $ $ $ $ $ $ $ $ $ $ $ $ $ $ $ $ $ $ $ $ $ $ $ $ $ $ $ $ $ $ $ $ $ $ $ $ $ $ $ $ $ $ $ $ $ $ $ $ $ $ $ $ $ $ $ $ $ $ $ $ $ $ $ $ $ $ $ $ $ $ $ $ $ $ $ $ $ $ $ $ $ $ $ . I M.8.O.@.@.@.@.@.@.&.&.&.&.&.&.&.&.@.@.@.@.@.@.@.@.@.@.@.@.@.@.@.@.@.@.@.@.@.@.@.@.@.@.@.@.@.@.@.@.@.@.@.@.@.@.@.@.@.@.@.@.@.$.$.] b . $ $ % % $ $ . P c.g.x.5.@.$.$.@.@.@.@.@.@.@.@.@.@.@.@.@.@.@.@.@.@.@.@.@.@.@.@.@.@.@.#.#.@.@.*.*.*.*.$.$.*.*.$.$.$.$.@.@.@.@.@.@.@.O.} ]  . .] ] ' ' ( ( ( ( ( ( ^ ^ ^ ! ! U U J J J H H H H J J J J J J U U ! ! ! U J J J J J U U U J J U U J ! T n       .       3 8 8 8 8 t 8 8 8 t 7 t ..@.@.@.@.@.@.@.@.@.@.@.@.@.@.@.@.@.@.@.@.@.@.@.@.@.@.@.@.@.@.@.@.@.@.@.@.@.@.@.@.@.@.@.@.@.@.@.@.@.@.@.@.@.@.@.@.@.@.@.@.@.@.@.@.@.@.@.@.@.@.@.@.@.@.@.@.@.@.@.@.@.@.@.@.@.@.@.@.@.@.@.@.@.@.@.@.@.@.@.@.@.@.@.@.@.@.@.@.@.@.@.@.@.@.@.@.@.@.@.@.@.@.@.@.@.@.$.$.$.@.*.9.g.c.g.@.@     X A g.V.e.=.*.@.@.@.@.@.@.@.@.@.@.@.@.@.@.@.@.@.@.@.@.@.@.@.@.@.@.@.@.@.@.@.@.@.@.@.@.@.@.@.@.@.@.*.@.^ ! E E J P T e . & ",
"$ . S b.g.j.8.O.@.@.@.@.@.@.@.@.@.@.@.@.@.@.@.@.$.$.$.$.$.$.$.$.$.$.$.$.@.*.] J J U J J T D 3 3 5 F ^ g . $ $ $ $ $ $ $ $ . . $ $ $ $ $ $ $ $ $ $ $ $ $ $ $ $ $ $ $ $ $ $ $ $ $ $ $ $ $ $ $ $ $ $ $ $ $ $ $ $ $ $ $ $ $ $ $ $ $ $ $ $ $ $ $ $ $ $ $ $ $ $ $ $ $ $ $ $ $ $ $ $ $ $ $ $ $ $ $ $ $ $ $ $ $ $ $ $ $ $ $ $ $ $ $ $ $ $ $ $ $ $ $ $ $ $ $ $ . $ $ $ $ $ $ $ $ $ $ $ $ $ $ $ $ $ . T M.8.O.@.@.@.@.@.@.@.&.&.&.&.&.&.&.@.@.@.@.@.@.@.@.@.@.@.@.@.@.@.@.@.@.@.@.@.@.@.@.@.@.@.@.@.@.@.@.@.@.@.@.@.@.@.@.@.@.@.@.@.$.$.] x . . $ % % $ $ . P c.g.x.5.@.$.$.@.@.@.@.@.@.@.@.@.@.@.@.@.@.@.@.@.@.@.@.@.@.@.@.@.@.@.@.} ] ] ] ] ] ] ] ' ' ' ( ( ( ^ ^ ! ! ! U U U J J H J J H H H H H H J J J J J H J H J J J H J J J J J J J J J J J J J J U U ! ! U U ! ! U U ! ! J J U U J U T n               3 8 8 8 8 8 8 8 8 t 7 t ..@.@.@.@.@.@.@.@.@.@.@.@.@.@.@.@.@.@.@.@.@.@.@.@.@.@.@.@.@.@.@.@.@.@.@.@.@.@.@.@.@.@.@.@.@.@.@.@.@.@.@.@.@.@.@.@.@.@.@.@.@.@.@.@.@.@.@.@.@.@.@.@.@.@.@.@.@.@.@.@.@.@.@.@.@.@.@.@.@.@.@.@.@.@.@.@.@.@.@.@.@.@.@.@.@.@.@.@.@.@.@.@.@.@.@.@.@.@.@.@.@.@.@.@.@.@.$.$.*.*.@.O.e.g.c.g.w.f   @   9 8.c.6.*.@.@.@.@.@.@.@.@.@.@.@.@.@.@.@.@.@.@.@.@.@.@.@.@.@.@.@.@.@.@.@.@.@.@.@.@.@.@.@.@.@.@.*.@.^ ! E E J P T e . & ",
"$ . S b.g.j.6. .@.@.@.@.@.@.@.@.@.@.@.@.@.@.@.@.$.$.$.$.$.$.$.$.$.$.$.$.@.@.^ H J J J J J D 3 3 5 D ^ g . $ $ $ % % . . .   . $ . . . . $ $ $ $ . . $ $ . . . . . $ $ $ $ $ $ $ $ $ $ $ $ $ $ $ $ $ $ $ $ $ $ $ $ $ $ $ $ $ $ $ $ $ $ $ $ $ $ $ $ $ $ $ . . . . $ $ $ $ . . . . . . . . . $ $ $ $ $ $ $ $ . . . . . . . . . . . . . . . . . . . . . . . . . . . . . . . . $ $ $ $ $ $ $ $ . T M.6.@.*.@.&.&.&.@.@.@.@.@.@.@.@.@.@.@.@.@.@.@.@.@.@.@.@.@.@.@.@.@.@.@.@.@.@.@.@.@.@.@.@.@.@.@.@.@.@.@.@.@.@.@.@.@.@.@.@.@.@.$.@.) v . $ $ $ $ $ $ . F b.g.x.<.@.@.@.@.@.@.] @.@.*.*.$.@.@.@.$.$.$.*.$.@.O.@. .] ] ^ J J J J J J J J J J J J J J J J J J J J J J J J J J J J J J J J J J J J J J J J J J J J J J J J J J J J J J J J J J J J J J J U U U U J J J J J J J J J J J J P J ^ F               3 8 8 i 8 8 8 8 8 t 9 t  .@.@.@.@.@.@.@.@.@.@.@.@.@.@.@.@.@.@.@.@.@.@.@.@.@.@.@.@.@.@.@.@.@.@.@.@.@.@.@.@.@.@.@.@.@.@.@.@.@.@.@.@.@.@.@.@.@.@.@.@.@.@.@.@.@.@.@.@.@.@.@.@.@.@.@.@.@.@.@.@.@.@.@.@.@.@.@.@.@.@.@.@.@.@.@.@.@.@.@.@.@.@.@.@.@.@.@.@.@.@.@.@.@.@.@.@.@.@.@.@.@.@.@.@.$.$.$.$.@.@.@.@.@.*.w.c.j.D.U     X   ( c.x.@. .@.$.@.@.@.@.@.@.@.@.@.@.@.@.@.@.@.@.@.@.@.@.@.@.@.@.@.@.@.@.@.@.@.@.@.@.@.@.@.@.*.@.J ! E E J P T e . & ",
"$ . S b.g.j.6. .@.@.@.@.@.@.@.@.@.@.@.@.@.@.@.@.$.$.$.$.$.$.$.$.$.$.$.$.@.@.! H J J J J J D 3 3 5 D ^ g . $ $ $ % $ $ * . j ) ` / [ [ [ } } } } [ [ [ [ / / / / { { [ [ [ [ [ [ [ [ [ [ [ [ [ [ { { { { { { { { { { { { { { { { [ { [ [ [ [ [ [ [ [ [ [ / / / / / / / / / / / ` ` ` / / [ / { { [ [ [ [ [ [ / / / / ` ` / / / ` / / / / / / / / / / ` ` ` ` ` ` ` ` / / S - $ * $ $ $ $ $ . T M.6.@.*.@.&.&.&.&.@.@.@.@.@.@.@.@.@.@.@.@.@.@.@.@.@.@.@.@.@.@.@.@.@.@.@.@.@.@.@.@.@.@.@.@.@.@.@.@.@.@.@.@.@.@.@.@.@.@.@.@.@.$.@.) n . $ $ $ $ $ $ . P Z.g.x.<.@.@.$.@.@.@.@.@.*.*.*.*.@.@.@.$.$.$.] ] ( ( W J H H H H J J J J J J J J J J J J J J J J J J J J J J J J J J J J J J J J J J J J J J J J J J J J J J J J J J J J J J J J J J J J J J U U U U J J J J J J J J J J J J J J T A               3 8 8 i 8 8 8 8 8 t 9 t ..@.@.@.@.@.@.@.@.@.@.@.@.@.@.@.@.@.@.@.@.@.@.@.@.@.@.@.@.@.@.@.@.@.@.@.@.@.@.@.@.@.@.@.@.@.@.@.@.@.@.@.@.@.@.@.@.@.@.@.@.@.@.@.@.@.@.@.@.@.@.@.@.@.@.@.@.@.@.@.@.@.@.@.@.@.@.@.@.@.@.@.@.@.@.@.@.@.@.@.@.@.@.@.@.@.@.@.@.@.@.@.@.@.@.@.@.@.@.@.@.@.@.@.@.$.$.$.$.@.@.@.@.@.@.*.<.g.g.D.8.5       Z c.D.$.@.@.@.@.@.@.@.@.@.@.@.@.@.@.@.@.@.@.@.@.@.@.@.@.@.@.@.@.@.@.@.@.@.@.@.@.@.@.@.@.*.@.J ! ! E J P T e . & ",
"$ . S b.g.j.6. .@.@.@.@.@.@.@.@.@.@.@.@.@.@.@.@.$.$.$.$.$.$.$.$.$.$.$.$.*.O.J J J J J J J D 3 3 9 K ( g . $ $ $ $ $ $ . | h.g.p.p.g.p.p.g.g.g.g.g.g.g.g.p.g.p.p.g.g.g.g.g.g.p.g.g.g.g.g.g.g.g.g.g.g.g.g.g.g.g.g.g.g.g.g.g.g.g.g.g.g.g.p.g.g.g.g.p.g.g.g.g.g.g.g.g.g.g.g.g.g.g.g.g.g.g.g.p.p.p.p.g.g.g.g.g.g.g.g.g.g.i.p.g.g.g.g.i.i.p.i.p.p.i.i.i.i.g.g.f.f.g.g.g.g.g.g.h.:.q . $ $ $ $ $ . R M.6.@.*.@.&.&.&.&.@.@.@.@.@.@.@.@.@.@.@.@.@.@.@.@.@.@.@.@.@.@.@.@.@.@.@.@.@.@.@.@.@.@.@.@.@.@.@.@.@.@.@.@.@.@.@.@.@.@.@.@.@.$.@.) n . . $ $ $ $ $ . F b.g.c.=.@.@.$.@.@.@.$.@.@.@.*.*.@.@.( ( ( ( J J J U W J J J J H J J J J J J J J J J J J J J J J J J J J J J J J J J J J J J J J J J J J J J J J J J J J J J J J J J J J J J J J J J J J J J U U U U J J J J J J J J J J J J J T T j     . .       3 8 8 i 8 8 t 8 8 t 8 t ..@.@.@.@.@.@.@.@.@.@.@.@.@.@.@.@.@.@.@.@.@.@.@.@.@.@.@.@.@.@.@.@.@.@.@.@.@.@.@.@.@.@.@.@.@.@.@.@.@.@.@.@.@.@.@.@.@.@.@.@.@.@.@.@.@.@.@.@.@.@.@.@.@.@.@.@.@.@.@.@.@.@.@.@.@.@.@.@.@.@.@.@.@.@.@.@.@.@.@.@.@.@.@.@.@.@.@.@.@.@.@.@.@.@.@.@.@.@.@.@.@.@.@.@.$.$.$.$.@.@.@.@.@.$.=.=.=.e.x.c.w.A X @   9 r.V.6.@.@.$.@.@.@.@.@.@.@.@.@.@.@.@.@.@.@.@.@.@.@.@.@.@.@.@.@.@.@.@.@.@.@.@.@.@.@.@.*.@.J ! ! E E P T e . & ",
"$ . S b.g.j.6. .@.@.@.@.@.@.@.@.@.@.@.@.@.@.@.@.$.$.$.$.$.$.$.$.$.$.$.$.*.] J J J J J J J D 3 3 9 K ( g . $ $ $ $ $ . C p.p.r.9.9.r.r.r.r.r.y.r.r.r.r.r.9.9.9.9.r.r.r.r.r.r.r.r.r.r.i.r.r.r.r.r.r.r.r.r.r.r.r.r.r.r.r.r.r.r.r.r.r.r.r.r.r.r.r.r.9.r.r.i.i.9.9.9.9.9.9.9.9.9.9.9.9.9.9.9.9.9.9.9.r.r.r.r.r.9.9.9.9.i.i.i.i.9.9.9.9.9.9.9.9.9.9.9.9.9.9.w.w.w.w.9.9.9.r.r.y.h.[ . . $ $ $ $ . T M.6.@.*.@.&.&.&.&.@.@.@.@.@.@.@.@.@.@.@.@.@.@.@.@.@.@.@.@.@.@.@.@.@.@.@.@.@.@.@.@.@.@.@.@.@.@.@.@.@.@.@.@.@.@.@.@.@.@.@.@.@.$.@.) n . $ $ $ $ $ $ . g y.g.z.=.@.@.$.@.@.@.@. .] ] ( ( ^ J J J J H H H J J J J H H H H J J J J J J J J J J J J J J J J J J J J J J J J J J J J J J J J J J J J J J J J J J J J J J J J J J J J J J J J J J J J J J U U U U J J J J J J J J J J J J H T J y       .       3 8 8 i 8 8 t 8 8 t 8 t ..@.@.@.@.@.@.@.@.@.@.@.@.@.@.@.@.@.@.@.@.@.@.@.@.@.@.@.@.@.@.@.@.@.@.@.@.@.@.@.@.@.@.@.@.@.@.@.@.@.@.@.@.@.@.@.@.@.@.@.@.@.@.@.@.@.@.@.@.@.@.@.@.@.@.@.@.@.@.@.@.@.@.@.@.@.@.@.@.@.@.@.@.@.@.@.@.@.@.@.@.@.@.@.@.@.@.@.@.@.@.@.@.@.@.@.@.@.@.@.@.@.@.@.@.$.$.$.$.@.@.@.@.@.$.=.=.@.O.<.e.c.c.] 2 X   @ U e.6.@.@.@.@.@.@.@.@.@.@.@.@.@.@.@.@.@.@.@.@.@.@.@.@.@.@.@.@.@.@.@.@.@.@.@.@.@.@.*.@.J ! E E E P T e . & ",
"$ . S b.g.j.6. .@.@.@.@.@.@.@.@.@.@.@.@.@.@.@.@.$.$.$.$.$.$.$.$.$.$.$.$.=.] U J J J J J J x 3 3 9 K ^ g . $ $ $ $ $ . #.p.p.i.i.f.i.i.f.f.f.f.f.r.r.r.r.i.i.i.i.f.f.f.f.f.g.g.g.r.r.y.s.g.g.g.s.g.g.g.g.r.r.r.g.g.g.g.g.g.g.g.g.r.r.r.y.g.g.y.y.p.g.g.f.f.f.f.f.f.f.f.f.f.f.f.f.f.f.f.f.f.g.r.r.g.g.r.r.r.i.i.i.i.i.i.i.i.i.i.i.i.i.i.i.f.f.f.i.f.f.f.f.f.f.f.f.i.r.r.y.r.y.q.- . $ $ $ $ . T M.=.@.&.*.&.&.&.&.@.@.@.@.@.@.@.@.@.@.@.@.@.@.@.@.@.@.@.@.@.@.@.@.@.@.@.@.@.@.@.@.@.@.@.@.@.@.@.@.@.@.@.@.@.@.@.@.@.@.@.@.@.$.@.^ v . $ $ $ $ $ $ $ . F c.b.9.*.=.$.@.] ( ^ T T U U U U U U U U U U U ! U J J J J J J W W ^ ^ ^ ^ ^ ^ ^ ^ ^ ^ ^ ^ ^ ^ ^ ^ ^ ^ ^ ^ ^ ^ ^ ^ W W ^ ^ ^ ^ ^ ^ ^ ^ ! ^ ^ ^ ^ ^ ^ ^ W W ^ ^ W W W ^ ^ ^ ^ ^ ^ ^ ^ ^ ^ ^ ! ! ! ! J J J J W W P P P P J J J J j o     . .       3 8 i 8 8 8 8 8 8 t 8 t ..@.@.@.@.@.@.@.@.@.@.@.@.@.@.@.@.@.@.@.@.@.@.@.@.@.@.@.@.@.@.@.@.@.@.@.@.@.@.@.@.@.@.@.@.@.@.@.@.@.@.@.@.@.@.@.@.@.@.@.@.@.@.@.@.@.@.@.@.@.@.@.@.@.@.@.@.@.@.@.@.@.@.@.@.@.@.@.@.@.@.@.@.@.@.@.@.@.@.@.@.@.@.@.@.@.@.@.@.@.@.@.@.@.@.@.@.@.@.@.@.@.@.@.@.$.$.$.$.$.$.$.@.@.@.@.@.@.@.@.@.r.g.c.f.f       f $.@.] @.$.*.*.*.$.$.*.*.*.$.$.@.@.@.@.@.@.@.@.@.@.@.@.@.@.@.@.@.@.@.@.@.@.@.@.*.@.^ ! E E J P T e . & ",
"$ . S b.g.j.6. .@.@.@.@.@.@.@.@.@.@.@.@.@.@.@.@.$.$.$.$.$.$.$.$.$.$.$.$.*.] U J J J J J U x 3 3 9 K ( g . $ $ $ $ $ . #.p.i.i.i.f.f.f.f.f.f.f.f.r.r.r.r.i.y.r.i.f.f.f.f.g.g.p.p.r.r.y.y.g.g.g.y.g.s.g.g.r.r.y.s.g.g.g.f.g.g.s.s.r.r.r.r.g.s.y.r.g.g.g.g.f.f.f.f.f.f.f.f.f.f.f.f.f.f.f.f.g.g.r.y.g.g.r.r.a.a.i.i.i.i.i.i.i.i.i.i.i.i.i.i.g.g.f.f.f.f.f.f.f.f.f.f.i.i.p.p.r.y.q.= . $ $ $ $ . T M.=.@.&.*.&.&.&.&.@.@.@.@.@.@.@.@.@.@.@.@.@.@.@.@.@.@.@.@.@.@.@.@.@.@.@.@.@.@.@.@.@.@.@.@.@.@.@.@.@.@.@.@.@.@.@.@.@.@.@.@.@.$.@.^ v . $ $ $ $ $ $ $ $ . n } P F F D A n x A N n n x M M j M M M M x x x x x x x x x x x x V V A A A A A V Z Z Z Z Z Z Z Z A A V V A A A A V V V V A A Z Z Z Z Z Z Z Z Z Z x x x x x x x x x n x x A A A A Z Z Z Z x x x x x x x x n n x x x x x x x e o       . .       3 8 i 8 8 8 8 8 8 t 8 t ..@.@.@.@.@.@.@.@.@.@.@.@.@.@.@.@.@.@.@.@.@.@.@.@.@.@.@.@.@.@.@.@.@.@.@.@.@.@.@.@.@.@.@.@.@.@.@.@.@.@.@.@.@.@.@.@.@.@.@.@.@.@.@.@.@.@.@.@.@.@.@.@.@.@.@.@.@.@.@.@.@.@.@.@.@.@.@.@.@.@.@.@.@.@.@.@.@.@.@.@.@.@.@.@.@.@.@.@.@.@.@.@.@.@.@.@.@.@.@.@.@.@.@.@.$.$.$.$.$.$.$.@.@.@.@.@.@.@.@.@.@.=.e.j.c.^       3 ] @.J ! ] *.@.@.*.=.*.$.@.@.@.@.@.@.@.@.@.@.@.@.@.@.@.@.@.@.@.@.@.@.@.@.@.@.$.$.( U E E J P T e . & ",
"$ . S b.g.j.6. .@.@.@.@.@.@.@.@.@.@.@.@.@.@.@.@.$.$.$.$.$.$.$.$.$.$.$.$.@.( J U J J J J U x 3 3 7 H ( g . $ $ $ $ $ . #.p.i.i.i.g.g.g.y.g.g.g.g.r.r.y.y.g.s.s.g.g.g.r.r.r.r.p.p.r.r.g.g.g.g.r.r.r.r.s.a.r.r.y.g.g.g.r.r.r.r.y.s.r.r.g.g.g.g.r.r.i.r.g.g.f.f.f.f.f.f.f.f.f.f.f.f.f.f.f.f.g.g.g.g.g.y.y.p.f.g.i.i.i.i.i.i.i.i.i.i.i.i.i.i.g.g.f.f.f.f.f.f.f.f.f.f.i.i.i.p.r.y.q.= . . $ $ . . T M.=.@.&.*.&.&.&.&.@.@.@.@.@.@.@.@.@.@.@.@.@.@.@.@.@.@.@.@.@.@.@.@.@.@.@.@.@.@.@.@.@.@.@.@.@.@.@.@.@.@.@.@.@.@.@.@.@.@.@.@.@.$.@.T v . $ $ $ $ $ $ % . .   = o   . . . . o . . .                                                                       X                               X                                                                                                 .     . .       3 8 i 8 8 t 8 8 8 t 6 t ..@.@.@.@.@.@.@.@.@.@.@.@.@.@.@.@.@.@.@.@.@.@.@.@.@.@.@.@.@.@.@.@.@.@.@.@.@.@.@.@.@.@.@.@.@.@.@.@.@.@.@.@.@.@.@.@.@.@.@.@.@.@.@.@.@.@.@.@.@.@.@.@.@.@.@.@.@.@.@.@.@.@.@.@.@.@.@.@.@.@.@.@.@.@.@.@.@.@.@.@.@.@.@.@.@.@.@.@.@.@.@.@.@.@.@.@.@.@.@.@.@.@.@.@.$.$.$.$.$.$.$.$.@.@.@.@.@.@.$.$.$.$.$.=.f.D.*.9   X @ ! $.! D U ( ] @.@.@.@.$.@.@.@.@.@.@.@.@.@.@.@.@.@.@.@.@.@.@.@.@.@.@.@.@.@.@.*.( J E E J P T e . & ",
"$ . F b.g.j.6. .@.@.@.@.@.@.@.@.@.@.@.@.@.@.@.@.$.$.$.$.$.$.$.$.$.$.$.$.] ^ J ! J J J J U x 3 3 7 H ( g . $ $ $ $ $ . #.p.i.i.i.g.s.s.y.y.s.g.g.s.r.r.r.g.g.g.g.g.g.r.r.r.r.p.p.r.r.r.g.g.g.r.r.r.r.r.r.r.r.y.g.g.g.r.r.r.r.a.s.f.g.g.g.g.g.r.r.r.i.i.g.f.f.f.f.f.f.f.f.f.f.f.f.f.f.f.f.g.g.g.g.p.p.p.p.g.g.i.i.i.i.i.i.i.i.i.i.i.i.i.i.g.g.f.f.f.f.f.f.f.f.f.f.i.i.i.p.r.y.q.= . . $ $ . . T M.=.@.&.*.&.&.&.&.@.@.@.@.@.@.@.@.@.@.@.@.@.@.@.@.@.@.@.@.@.@.@.@.@.@.@.@.@.@.@.@.@.@.@.@.@.@.@.@.@.@.@.@.@.@.@.@.@.@.@.@.@.$.@.T v . $ $ $ $ $ $ . . . * . $ $ $ $ $ $ $ $ . . . . X X   X X X X     X               X       X X X X X X X X X X X X X X X X X X o o X X X X X X X X X X X X X X X X X X X X X X X X     X X X X X X X X X X X X X X X X                 .         X X       . .       3 8 i 8 8 8 8 8 8 t 5 t ..@.@.@.@.@.@.@.@.@.@.@.@.@.@.@.@.@.@.@.@.@.@.@.@.@.@.@.@.@.@.@.@.@.@.@.@.@.@.@.@.@.@.@.@.@.@.@.@.@.@.@.@.@.@.@.@.@.@.@.@.@.@.@.@.@.@.@.@.@.@.@.@.@.@.@.@.@.@.@.@.@.@.@.@.@.@.@.@.@.@.@.@.@.@.@.@.@.@.@.@.@.@.@.@.@.@.@.@.@.@.@.@.@.@.@.@.@.@.@.@.@.@.@.@.$.$.$.$.$.$.$.$.@.@.@.@.@.@.@.@.$.@.@.@.<.g.V.r.k     X Z @.O.H U ^ ^ ( ]  .@.@.@.@.@.@.@.@.@.@.@.@.@.@.@.@.@.@.@.@.@.@.@.@.@.@.@.=.' J E E J P T e . & ",
"$ . F b.g.j.8.O.@.@.@.@.@.@.@.@.@.@.@.@.@.@.@.@.$.$.$.$.$.$.$.$.$.$.$.$.' H J ! J J J J U x 3 3 8 F ^ e . $ $ $ $ $ . X.p.i.i.i.f.p.g.g.w.8.6.w.w.9.9.9.f.f.f.f.f.f.f.f.f.f.f.f.r.r.r.r.a.r.r.r.r.r.r.r.r.r.r.r.r.r.r.r.r.r.r.r.r.r.r.r.r.r.r.r.r.r.r.r.r.r.r.r.r.r.r.r.f.f.f.f.f.f.f.f.f.f.f.f.i.i.i.i.i.i.i.i.f.f.f.f.f.f.f.f.f.f.f.f.f.f.f.f.r.r.r.r.w.w.w.w.8.w.w.w.h.y.7.= . . $ $ . . T M.*.@.@.@.$.@.@.@.@.@.@.@.@.@.@.@.@.@.@.@.@.@.@.@.@.@.@.@.@.@.@.@.@.@.@.@.@.@.@.@.@.@.@.@.@.@.@.@.@.@.@.@.@.@.@.@.@.@.@.@.@.$.] T n . $ $ $ $ $ $ $ $ $ $ $ $ $ $ $ $ $ $ $ $ $ $         . .                                                                                                                                                                                             . . . .       3 8 8 8 8 8 8 8 8 d 8 d @.@.@.@.@.@.@.@.@.@.@.@.@.@.@.@.@.@.@.@.@.@.@.@.@.@.@.@.@.@.@.@.@.$.$.$.$.$.$.$.$.$.$.$.$.$.$.$.$.@.@.@.@.=.*.$.@.$.$.$.@.*.*.*.*.@.@.@.@.$.$.$.$.$.$.$.@.*.*.*.*.*.*.*.*.*.*.*.*.*.*.*.*.*.*.*.*.*.*.*.*.*.*.*.*.*.*.*.*.*.*.*.*.*.*.*.*.*.*.*.*.*.*.*.*.*.*.*.*.*.*.$.$.@.@.@.@.@.@.@.@.@.@.@.@.@.$.5.f.C.] 2     8 @.] D J U ^ U J ( '  .@.@.@.@.@.@.@.@.@.@.@.@.@.@.@.@.@.@.@.@.@.@.@.@.*.] U E E J P T e . & ",
"$ . S b.g.j.8.O.@.@.@.@.@.@.@.@.@.@.@.@.@.@.@.@.$.$.$.$.$.$.$.$.$.$.$.$.' H U ! J J J J U x 3 3 8 F ^ e . $ $ $ $ $ . X.p.i.i.i.f.g.f.g.6.*.@.@.*.*.*.*.6.5.6.6.e.e.e.e.e.e.e.e.w.w.w.w.w.w.w.w.w.w.w.w.f.f.f.f.f.f.f.f.f.f.f.f.f.f.f.f.f.f.f.f.f.f.f.f.f.f.f.f.f.f.f.f.9.9.9.9.9.r.r.r.9.9.9.9.8.e.e.e.1.1.1.1.6.6.6.6.6.6.6.6.=.=.=.=.=.=.=.=.*.*.*.*.*.*.*.*.*.*.*.*.p.y.7.= . . $ $ . . T M.*.@.@.@.$.@.@.@.@.@.@.@.@.@.@.@.@.@.@.@.@.@.@.@.@.@.@.@.@.@.@.@.@.@.@.@.@.@.@.@.@.@.@.@.@.@.@.@.@.@.@.@.@.@.@.@.@.@.@.@.@.$.] T n . $ $ $ $ $ $ $ $ $ $ . . . . $ $ $ $ $ $ $ $ .         .         .                 .                                               .                   .           .               .   .                                                             . . .         3 7 8 8 8 8 8 8 8 d 8 d @.@.@.@.@.@.@.@.@.@.@.@.@.@.@.@.@.@.@.@.@.@.@.@.@.@.@.@.@.@.@.@.@.$.$.$.$.$.$.$.$.$.$.$.$.$.$.$.$.@.@.@.@.@.@.$.*.$.$.$.$.@.@.@.@.*.*.*.*.@.@.@.@.@.@.@.@.] ]  . . . . . . . . . . . . . . . . . . . . . . . . . . . . . . . . . . . . . . . . . . . . . . . . .O.@.@.*.$.$.@.@.@.@.@.@.@.@.@.@.@.@.@.@.$.r.G.g.8 +   3 ^ O.H ! ( J ( H ^ J ^ ] ] @.$.*.*.=.*.*.*.@.@.@.@.@.@.@.@.@.@.@.@.@.*.] U E E J P T e . & ",
"$ . S b.g.j.8.O.@.@.@.@.@.@.@.@.@.@.@.@.@.@.@.@.$.$.$.$.$.$.$.$.$.$.$.$.' H U ! J J J J J x > 3 8 F ^ e . $ $ $ $ $ . X.p.r.9.f.f.g.g.g.=.@.@.=.@.@.@.@.O.O.O.O.$.$.$.$.$.$.$.$.*.*.*.*.*.*.*.*.*.*.*.*.=.=.=.=.=.=.=.=.=.=.=.=.=.=.=.=.=.=.=.=.=.=.=.=.=.=.=.=.=.=.=.=.$.$.$.$.$.$.*.*.$.$.$.$.@.@.@.@.@.@.@.@.@.@.@.@.@.@.@.@.@.@.@.@.@.@.@.@.@.@.@.@.@.@.@.@.@.@.@.@.r.g.y.4 . . $ $ $ . I c.*.@.@.@.$.@.@.@.@.@.@.@.@.@.@.@.@.@.@.@.@.@.@.@.@.@.@.@.@.@.@.@.@.@.@.@.@.@.@.@.@.@.@.@.@.@.@.@.@.@.@.@.@.@.@.@.@.@.@.@.@.$.] T n . $ $ $ $ $ $ $ $ $ $ . . $ $ $ $ $ $ $ $ $ $ .         . . . . . . . . . . . . . . . . . . . . . . . . . . . . . . . . . . . . . . . . . . . . . . . . . . . . . . . . . . . . . . . . . . . . . . . . . . . . . . . . .                             . .     .     3 7 7 7 7 8 8 8 t d 8 d @.@.@.@.@.@.@.@.@.@.@.@.@.@.@.@.@.@.@.@.@.@.@.@.@.@.@.@.@.@.@.@.@.$.$.$.$.$.$.$.$.$.$.$.$.$.$.$.$.@.@.@.@.@.@.*.*.@.@.@.@.@.@.@.@.] ] ] ] ( ( ( ( ! ! ! ! J J J J J J J J J J J J J J J J J J J J J J J J J J J J J J J J J J J J J J J J J J J J J J J J J J J J ( ] @.@.@.@.@.@.@.@.@.@.@.@.@.@.@.@.@.@.*.5.f.C.Z     + Z O.^ ^ ! H ( J H J J ! ^ ( ] ] @.@.$.@.@.$.@.@.@.@.@.@.@.@.@.@.@.*.] U E ! ! P T e . & ",
"$ . S b.g.j.8.O.@.@.@.@.@.@.@.@.@.@.@.@.@.@.@.@.$.$.$.$.$.$.$.$.$.$.$.$.' J U ! J J J J J x : 3 8 F ^ e . $ $ $ $ $ . #.p.r.9.i.i.i.g.g.=.@.@.@.@.@.@.@.@.@.*.*.$.$.$.$.$.$.$.$.@.@.@.@.@.@.@.@.@.@.@.@.@.$.$.$.@.@.@.@.@.@.@.@.@.@.@.@.@.@.@.@.@.@.@.@.@.@.@.@.@.@.@.@.@.@.@.@.@.@.@.@.@.@.@.@.@.@.@.@.$.$.$.$.$.$.$.$.$.$.$.$.$.$.$.$.@.@.@.@.*.*.*.*.@.@.@.@.@.@.@.@.1.y.q.= . . $ $ . . I c.*.@.@.@.$.@.@.@.@.@.@.@.@.@.@.@.@.@.@.@.@.@.@.@.@.@.@.@.@.@.@.@.@.@.@.@.@.@.@.@.@.@.@.@.@.@.@.@.@.@.@.@.@.@.@.@.@.@.@.@.@.$.] T n . $ $ $ $ $ $ $ $ $ $ . . . $ . . $ $ $ $ $ . .             .   . . . . . . . . . . . . . . . . . . . . . . . . . . . . . . . . . . . . . . . . . . . . . . . . . . . . . . . . . . . . . . . . . . . . . . . . . . . . .                                     .     < 3 7 3 3 8 8 8 t d 8 d @.@.@.@.@.@.@.@.@.@.@.@.@.@.@.@.@.@.@.@.@.@.@.@.@.@.@.@.@.@.@.@.@.$.$.$.$.$.$.$.$.$.$.$.$.$.$.$.$.@.@.@.@.] ] ] ' ( ( ( ( U U U U U U U U J J J J J J J J ! U U U U U U U U U U ! ! ! ! U U U U U U U U ! ! ! ! U U U U U U U U ! U U U U ! U U U U U U U U U U ! U ^ ( ] @.@.@.@.@.@.@.@.@.@.@.@.@.@.@.@.*.@.$.9.c.@.@ X + z ] ] ! ^ J U J J U ! U ^ ( ' ! ( ' ] O.@.$.$.$.$.$.$.@.@.@.@.@.*.] U E E J P T e . & ",
"* . S b.g.j.8.O.@.@.@.@.@.@.@.@.@.@.@.@.@.@.@.@.$.$.$.$.$.$.$.$.@.O.*.@.! J ! ! J J U U ^ h 3 3 8 H ^ e . $ $ $ $ $ . #.p.i.i.g.r.r.r.8.@.@.@.@.@.@.@.@.$.$.$.$.@.@.@.@.@.@.@.@.@.@.@.@.$.$.@.@.@.@.@.@.@.@.@.@.@.@.@.@.@.@.@.@.@.@.@.@.@.@.@.@.@.@.@.@.@.@.@.@.@.@.@.@.@.@.@.@.@.@.@.@.@.@.@.@.@.@.@.@.@.@.@.@.@.@.@.@.@.@.@.@.@.@.@.@.@.@.@.@.@.@.$.@.$.$.$.$.@.@.$.$.#.6.7.= . . $ $ . . ^ c.*.@.@.@.@.@.@.@.@.@.@.@.@.@.@.@.@.@.@.@.@.@.@.@.@.@.@.@.@.@.@.@.@.@.@.@.@.@.@.@.@.@.@.@.@.@.@.@.@.@.@.@.@.@.@.@.@.@.@.@.$.$.( J n . $ $ $ $ $ $ . . . . = = = = = = - - - ; 1 . . X X X X X X X o . . . . . . . o o o o . . . . o o o o o o o o . . o o o o . . . . . . o o o o . . o o o o o o . . . o o o o o . . . . o o o o . . . o o o o o . . o o o o o X . o o o X X X o . o .           .     3 3 3 3 3 3 3 5 5 8 8 f  .*.*.*.*.$.$.$.$.$.$.$.$.$.$.$.$.$.$.$.$.*.*.*.*.*.*.*.*.=.=.=.=.@.@.@.@.@.@.@.@.] ] ] ] ( ( ( ( ( ^ ! ! ! U U U U U U U U U U U U U U U J J J J J J J J ! U U U U U U U U U U U U U U U U U U U U U U U U U U U U U U U U U U U U U U U U ! U U U U U U U U U U U U U U ( ] @.@.@.@.$.*.*.@.@.@.@.@.@.@.@.$.@.@.@.c.g.x     8 ] ( ! ^ J U J J U ! ! ! ^ ^ ! ! U J ! ( ] @.@.@.@.=.*.@.@.@.*.] J E E J P T e . $ ",
"* . S b.g.j.8.O.@.@.@.@.@.@.@.@.@.@.@.@.@.@.@.@.$.$.$.$.$.$.$.$.@.@.*.O.J ! ! J J J U U ^ h 3 3 8 H ^ e . $ $ $ $ $ . X.p.r.i.g.a.r.w.=.@.@.@.@.@.@.@.@.$.$.$.$.@.@.@.@.@.@.@.@.@.@.@.@.$.$.@.@.@.@.@.@.@.@.@.@.@.@.@.@.@.@.@.@.@.@.@.@.@.@.@.@.@.@.@.@.@.@.@.@.@.@.@.@.@.@.@.@.@.@.@.@.@.@.@.@.@.@.@.@.@.@.@.@.@.@.@.@.@.@.@.@.@.@.@.@.@.@.@.@.@.@.@.@.@.@.@.@.@.@.$.$.#.>.3.= . . $ $ . . ^ c.*.@.@.@.@.@.@.@.@.@.@.@.@.@.@.@.@.@.@.@.@.@.@.@.@.@.@.@.@.@.@.@.@.@.@.@.@.@.@.@.@.@.@.@.@.@.@.@.@.@.@.@.@.@.@.@.@.@.@.@.$.$.( J n . $ $ $ $ $ $ = . - I } @.@.@.#.#.#.#.#.#.-.} 8 8 8 8 8 8 8 8 7 7 6 7 7 7 7 7 7 7 7 7 6 6 6 6 7 7 7 7 7 7 7 7 6 6 7 7 7 7 6 7 6 6 7 6 7 7 7 7 6 6 7 7 7 7 7 7 6 6 7 7 7 7 7 7 6 6 7 7 7 7 7 7 6 6 7 7 7 7 7 7 6 6 7 7 7 7 7 7 6 6 6 6 7 7 7 7 6 4 = .         .     3 3 3 3 3 3 3 5 5 5 3 7 ( ]  . . .@.@.@.@.@.@.@.@.@.@.@.@.@.@.@.@.@.@.@.@.] ] ] ] ] ] ] ] ^ ^ ^ ^ ! ! ! ! J J J J ^ ^ ^ ^ ! ! U U U U U U U U U U U U U U U U U U J J J J J J J J ! U U U U U U U U U U U U U U U U U U U U U U U U U U U U U U U U U U U U U U U U U U U U U U U U U U U U U U U U ^ ( ] =.*.*.$.$.$.@.@.@.@.@.@.@.@.@.$.@.$.e.D.] @   @ U ] J ^ U U J J U U ! ! ! U U J ^ ! U U ! ! ! ! ] ]  .@.@.@.] ^ E E J P ^ e . $ ",
"$ . S b.g.j.8.O.@.@.@.@.@.@.@.@.@.@.@.@.@.@.@.@.$.$.$.$.$.$.$.$.$.*.=.] ! U J J J J J J ^ h 3 3 8 H ^ e . $ $ $ $ $ . X.p.r.i.g.f.f.e.*.#.#.$.$.@.@.@.@.$.$.$.$.@.@.@.@.@.@.@.@.@.@.@.@.@.@.@.@.@.@.@.@.@.@.@.@.@.@.@.@.@.@.@.@.@.@.@.@.@.@.@.@.@.@.@.@.@.@.@.@.@.@.@.@.@.@.@.@.@.@.@.@.@.@.@.@.@.@.@.@.@.@.@.@.@.@.@.@.@.@.@.@.@.@.@.@.@.@.@.@.@.@.@.@.@.@.@.@.@.@.@.@.#.-.:.- . $ $ $ $ . ^ m.=.@.$.@.@.@.@.@.@.@.@.@.@.@.@.@.@.@.@.@.@.@.@.@.@.@.@.@.@.@.@.@.@.@.@.@.@.@.@.@.@.@.@.@.@.@.@.@.@.@.@.@.@.@.@.@.@.@.@.@.$.$.( J S $ $ $ $ $ $ $ . $ / :.=.=.=.%.%.%.%.#.#.#.*.] 8 8 8 8 8 8 8 8 t t d t t d d d t t t t t t t t t t t t t t t t t t t t t t t t t t t t t t t t t t t t t t t t t t t t t t t t t t t t t t t t t t t t t t t t t t t t t t t t t t y y t t t t e e 6 o     . . .     3 3 3 5 5 3 3 3 3 5 3 3 J J J J J ( ( ( ( ( ( ( ( ( ( ( ( ( ( ( ( ^ ^ ^ ^ J J J J J J J J J J J J U U U U U U U U U U U U U U U U U U U U U U U U U U U U U U U U J J J J J J J J U U U U U U U U U U U U U U U U U U U U U U U U U U U U U U U U U U U U U U U U U U U U U U U U U U U U U U U U U U U ^ ( ] @.*.*.*.$.@.@.@.@.@.@.@.@.@.@.@.@.=.j.r.f   X x  .( ^ U U J J U U U U J J J ( ^ J H U U U U J J U ^ ( ( ^ U ! E J P ^ e . = ",
"$ . S b.g.j.8.O.@.@.@.@.@.@.@.@.@.@.@.@.@.@.@.@.$.$.$.$.$.$.$.$.$.=.=.( U J J J J J J J T f > 3 8 H ^ e . $ $ $ $ $ . X.p.r.i.f.g.a.6.$.#.#.@.@.@.@.@.@.$.$.$.$.@.@.@.@.@.@.@.@.@.@.@.@.@.@.@.@.@.@.@.@.@.@.@.@.@.@.@.@.@.@.@.@.@.@.@.@.@.@.@.@.@.@.@.@.@.@.@.@.@.@.@.@.@.@.@.@.@.@.@.@.@.@.@.@.@.@.@.@.@.@.@.@.@.@.@.@.@.@.@.@.@.@.@.@.@.@.@.@.@.@.@.@.@.@.@.@.@.@.@.@.#.@.#.= . . $ $ $ . ^ M.=.@.$.@.@.@.@.@.@.@.@.@.@.@.@.@.@.@.@.@.@.@.@.@.@.@.@.@.@.@.@.@.@.@.@.@.@.@.@.@.@.@.@.@.@.@.@.@.@.@.@.@.@.@.@.@.@.@.@.@.$.$.( J S . $ $ $ $ $ $ $ e ..-.$.$.@.@.@.@.@.@.@.@.@.) 8 8 8 8 t t t t 8 8 t 8 8 8 8 8 8 8 8 8 8 8 8 8 8 8 8 8 8 8 8 8 8 8 8 8 8 8 8 8 8 8 8 8 8 8 8 8 8 8 8 8 8 8 8 8 8 8 8 8 8 8 8 8 8 8 8 8 8 8 8 8 8 8 8 8 8 8 8 8 8 8 8 8 8 8 8 8 8 8 8 8 8 8 8 8 4 e e = . . . . .     < 3 3 3 3 3 3 3 3 8 9 5 U U ! ! ! J J J J J J J J J J J J J J J J ! ! ! ! U U U U ! ! ! ! J J J J ! ! ! ! J J J J U U U U U U U U U U U U U U U U U U U U U U U U J J J J J J J J U U U U U U U U U U U U U U U U U U U U U U U U U U U U U U U U U U U U U U U U U U U U U U U U U U U U U U U U U U U J J U ^ ( @.*.*.$.$.@.@.@.@.@.@.@.$.=.$.] O.6.x.J X   8 ] ( ^ U U U U U U J J J J ^ ! ! J J J J J ! U J H J J U ! ! ! ! E ^ r . = ",
"$ . S b.g.j.6. .$.@.@.@.@.@.@.@.@.@.@.@.@.@.@.@.@.@.@.@.@.@.@.@.@.*. .J J J J J J J J J ! f 3 3 8 J ^ p . $ $ $ $ $ . #.p.9.i.i.g.g.6.*.@.@.@.@.@.@.@.@.*.$.$.$.@.@.@.@.@.@.@.@.@.@.@.@.@.@.@.@.@.@.@.@.@.@.@.@.@.@.@.@.@.@.@.@.@.@.@.@.@.@.@.@.@.@.@.@.@.@.@.@.@.@.@.@.@.@.@.@.@.@.@.@.@.@.@.@.@.@.@.@.@.@.@.@.@.@.@.@.@.@.@.@.@.@.@.@.@.@.@.@.@.@.@.@.@.@.@.@.@.@.@.@.#.-.} = . . $ $ * . ^ c.*.$.@.@.@.@.@.@.@.@.@.@.@.@.@.@.@.@.@.@.@.@.@.@.@.@.@.@.@.@.@.@.@.@.@.@.@.@.@.@.@.@.@.@.@.@.@.@.@.@.@.@.@.@.@.@.@.@.@.@.@.$.^ J n . $ $ $ $ $ $ . b =.@.$.$.$.$.@.@.@.@.@.@.$.] 8 8 8 8 8 8 8 8 8 8 8 8 8 8 8 8 8 8 8 8 8 8 8 8 8 8 8 8 8 8 8 8 8 8 8 8 8 8 8 8 8 8 8 8 8 8 8 8 8 8 8 8 8 8 8 8 8 8 8 8 8 8 8 8 8 8 8 8 8 8 8 8 8 8 8 8 8 8 8 8 8 8 8 8 8 8 8 8 8 8 8 8 8 8 8 8 6 e e 4       .       = 3 3 5 5 5 5 3 3 3 5 9 J U U U U U U U U U U U U U U U U U U U U U U U U U U U U U U U U U U U U U U U U U U U U U U U U U U U U U U U U U U U U U U U U U U U U U U U U ! ! U U U U U U U U U U U U U U U U U U U U U U U U U U U U U U U U U U U U U U U U U U U U U U U U U U U U U U U U U U U U U U U U U U ^ ( @.$.@.@.@.@.@.@.@.@.@.@.@.$.$.@.*.w.6.5   @ J ' ( ^ ! U U U U U U U ! ! ! ! U U U U J J J J U U U U ! ! U J T r . ; ",
"$ . S b.g.j.6. .@.@.@.@.@.@.@.@.@.@.@.@.@.@.@.@.@.@.@.@.@.@.@.@.@.*. .J J J J J J J J J ! f 2 3 8 J W p . $ $ $ $ $ . #.p.9.i.i.f.r.=.*.@.@.@.@.@.@.@.@.$.*.$.$.@.@.@.@.@.@.@.@.@.@.@.@.@.@.@.@.@.@.@.@.@.@.@.@.@.@.@.@.@.@.@.@.@.@.@.@.@.@.@.@.@.@.@.@.@.@.@.@.@.@.@.@.@.@.@.@.@.@.@.@.@.@.@.@.@.@.@.@.@.@.@.@.@.@.@.@.@.@.@.@.@.@.@.@.@.@.@.@.@.@.@.@.@.@.@.@.@.@.@.@.#.-.} = . . $ $ * . T c.$.@.@.@.@.@.@.@.@.@.@.@.@.@.@.@.@.@.@.@.@.@.@.@.@.@.@.@.@.@.@.@.@.@.@.@.@.@.@.@.@.@.@.@.@.@.@.@.@.@.@.@.@.@.@.@.@.@.@.@.@.$.^ J n . $ $ $ $ $ $ . b =.@.$.$.$.$.@.@.@.@.@.@.$.] 8 8 8 8 8 8 8 8 8 8 8 8 8 8 8 8 8 8 8 8 8 8 8 8 8 8 8 8 8 8 8 8 8 8 8 8 8 8 8 8 8 8 8 8 8 8 8 8 8 8 8 8 8 8 8 8 8 8 8 8 8 8 8 8 8 8 8 8 8 8 8 8 8 8 8 8 8 8 8 8 8 8 8 8 8 8 8 8 8 8 8 8 8 8 8 8 6 8 e 4               @ 3 3 5 5 5 5 3 3 3 5 9 J U U U U U U U U U U U U U U U U U U U U U U U U U U U U U U U U U U U U U U U U U U U U U U U U U U U U U U U U U U U U U U U U U U U U U U U U ! ! U U U U U U U U U U U U U U U U U U U U U U U U U U U U U U U U U U U U U U U U U U U U U U U U U U U U U U U U U U U U U U U U U U U ! ^ ( ] ] ] ] @.@.$.*.=.*.*.*.@.@. .] e.g.Z     Z ' ' ! U ! ! U U U U ! ! ! ! U U U U J J J J U U U U ! ! U J T r . ; ",
"$ . S b.g.j.6. .@.@.@.@.@.@.@.@.@.@.@.@.@.@.@.@.@.@.@.@.@.@.@.@.@.*. .J J J J J J J J J ! f 2 3 8 J ^ p . $ $ $ $ $ . #.p.9.p.i.f.e.$.*.@.@.@.@.@.@.@.@.*.*.$.$.@.@.@.@.@.@.@.@.@.@.@.@.@.@.@.@.@.@.@.@.@.@.@.@.@.@.@.@.@.@.@.@.@.@.@.@.@.@.@.@.@.@.@.@.@.@.@.@.@.@.@.@.@.@.@.@.@.@.@.@.@.@.@.@.@.@.@.@.@.@.@.@.@.@.@.@.@.@.@.@.@.@.@.@.@.@.@.@.@.@.@.@.@.@.@.@.@.@.@.@.%.-.} = . . $ $ * . ^ c.$.@.@.@.@.@.@.@.@.@.@.@.@.@.@.@.@.@.@.@.@.@.@.@.@.@.@.@.@.@.@.@.@.@.@.@.@.@.@.@.@.@.@.@.@.@.@.@.@.@.@.@.@.@.@.@.@.@.@.@.@.$.^ J A . $ $ $ $ $ . . b =.@.$.$.$.$.@.@.@.@.@.@.$.] 8 t 8 8 8 8 8 8 8 8 8 8 8 8 8 8 8 8 8 8 8 8 8 8 8 8 8 8 8 8 8 8 8 8 8 8 8 8 8 8 8 8 8 8 8 8 8 8 8 8 8 8 8 8 8 8 8 8 8 8 8 8 8 8 8 8 8 8 8 8 8 8 8 8 8 8 8 8 8 8 8 8 8 8 8 8 8 8 8 8 8 8 8 8 8 8 8 8 t 4             X @ 3 5 3 3 5 5 3 3 3 5 7 J U U U U U U U U U U U U U U U U U U U U U U U U U U U U U U U U U U U U U U U U U U U U U U U U U U U U U U U U U U U U U U U U U U U U U U U U ! U U U U U U U U U U U U U U U U U U U U U U U U U U U U U U U U U U U U U U U U U U U U U U U U U U U U U U U U U U U U U U U U U U U U U U ! ^ ^ ^ U U ^ ( ' O.@.$.$.*.*.=.$.] =.r.] 3 X k ( ! ! ! ! U U U U ! ! ! ! U U U U J J J J U U U U ! ! U J ^ r . ; ",
"$ . S b.g.j.6. .@.$.@.@.@.@.@.@.@.@.@.@.@.@.@.@.@.@.@.@.@.@.@.@.@.*. .J J J J J J J J J ! f 2 3 8 H ^ p . $ $ $ $ $ . #.p.9.i.i.f.6.O.$.@.@.@.@.@.@.@.@.*.$.$.$.@.@.@.@.@.@.@.@.@.@.@.@.@.@.@.@.@.@.@.@.@.@.@.@.@.@.@.@.@.@.@.@.@.@.@.@.@.@.@.@.@.@.@.@.@.@.@.@.@.@.@.@.@.@.@.@.@.@.@.@.@.@.@.@.@.@.@.@.@.@.@.@.@.@.@.@.@.@.@.@.@.@.@.@.@.@.@.@.@.@.@.@.@.@.@.@.@.@.@.@.%.-.} = . . $ $ $ . ^ k.@.@.@.@.@.@.@.@.@.@.@.@.@.@.@.@.@.@.@.@.@.@.@.@.@.@.@.@.@.@.@.@.@.@.@.@.@.@.@.@.@.@.@.@.@.@.@.@.@.@.@.@.@.@.@.@.@.@.@.@.@.$.^ J C . $ $ $ $ $ . . b =.@.$.$.$.$.@.@.@.@.@.@.$.] t t 8 8 8 8 8 8 8 8 8 8 8 8 8 8 8 8 8 8 8 8 8 8 8 8 8 8 8 8 8 8 8 8 8 8 8 8 8 8 8 8 8 8 8 8 8 8 8 8 8 8 8 8 8 8 8 8 8 8 8 8 8 8 8 8 8 8 8 8 8 8 8 8 8 8 8 8 8 8 8 8 8 8 8 8 8 8 8 8 8 8 8 8 8 8 8 8 8 3     . .     X @ 3 3 3 3 5 5 3 3 3 5 7 J U U U U U U U U U U U U U U U U U U U U U U U U U U U U U U U U U U U U U U U U U U U U U U U U U U U U U U U U U U U U U U U U U U U U U U U U U U U U U U U U U U U U U U U U U U U U U U U U U U U U U U U U U U U U U U U U U U U U U U U U U U U U U U U U U U U U U U U U U U U U U U U U U U U J J J ! ( J ^ ( ] ] ] @.@.@.*.=.8.5.5   7 ! ! ! ! U U U U ! ! ! ! U U U U J J J J U U U U ! ! U J / r . ; ",
"$ . S b.g.j.6.O.$.$.$.$.@.@.@.@.@.@.@.@.@.@.@.@.@.@.@.@.*.*.*.*.=.@.( J J J J J J J J J J h 3 : 8 H ^ e . $ $ $ $ $ . X.p.9.i.g.f.=.$.@.$.$.@.@.@.@.@.@.@.@.#.#.@.@.@.@.@.@.@.@.@.@.@.@.@.@.@.@.@.@.@.@.@.@.@.@.@.@.@.@.@.@.@.@.@.@.@.@.@.@.@.@.@.@.@.@.@.@.@.@.@.@.@.@.@.@.@.@.@.@.@.@.@.@.@.@.@.@.@.@.@.@.@.@.@.@.@.@.@.@.@.@.@.@.@.@.@.@.@.@.@.@.@.@.@.@.@.@.$.$.@.@.%.=.#.= . . $ $ $ . ^ k.@.@.@.@.@.@.@.@.@.@.@.@.@.@.@.@.@.@.@.@.@.@.@.@.@.@.@.@.@.@.@.@.@.@.@.@.@.@.@.@.@.@.@.@.@.@.@.@.@.@.@.@.@.@.@.@.@.@.@.@.$.@.U T A $ $ $ $ $ $ . . b >.@.@.@.@.@.@.@.@.@.@.@.*.] t t 8 8 8 8 8 8 8 8 8 8 8 8 8 8 8 8 8 8 8 8 8 8 8 8 8 8 8 8 8 8 8 8 8 8 8 8 8 8 8 8 8 8 8 8 8 8 8 8 8 8 8 8 8 8 8 8 8 8 8 8 8 8 8 8 8 8 8 8 8 8 8 8 8 8 8 8 8 8 8 8 8 8 8 8 8 8 8 8 8 8 8 8 8 8 8 8 8 3     . .       @ 3 3 3 3 5 5 3 3 3 5 6 J U U U U U U U U U U U U U U U U U U U U U U U U U U U U U U U U U U U U U U U U U U U U U U U U U U U U U U U U U U U U U U U U U U U U U U U U U U U U U U U U U U U U U U U U U U U U U U U U U U U U U U U U U U U U U U U U U U U U U U U U U U U U U U U U U U U U U U U U U U U U U U U U U U U U U U U U U U T T ! ^ ! ^ T ^ ^ ^ @.6.J + + D ^ T H J ! J U U U U U U U U U U U U U U U U U U U J / g . - ",
"$ . S b.g.k.6.O.$.$.$.$.@.@.@.@.@.@.@.@.@.@.$.$.=.*.@.@.$.@. .] ( ^ U J J J J J J J J J ^ f 2 3 8 H ^ e . $ $ $ $ $ $ X.p.9.r.g.r.*.@.@.@.@.@.@.@.@.@.@.@.@.@.@.@.@.@.@.@.@.@.@.@.@.@.@.@.@.@.@.@.@.@.@.@.@.@.@.@.@.@.@.@.@.@.@.@.@.@.@.@.@.@.@.@.@.@.@.@.@.@.@.@.@.@.@.@.@.@.@.@.@.@.@.@.@.@.@.@.@.@.@.@.@.@.@.@.@.@.@.@.@.@.@.@.@.@.@.@.@.@.@.@.@.@.@.@.@.@.@.$.$.@.@.@.=.#.$ . . $ $ $ . ^ k.@.@.@.@.@.@.@.@.@.@.@.@.@.@.@.@.@.@.@.@.@.@.@.@.@.@.@.@.@.@.@.@.@.@.@.@.@.@.@.@.@.@.@.@.@.@.@.@.@.@.@.@.@.@.@.@.@.@.@.@.$.@.U T C $ $ $ $ $ $ . . b >.@.@.@.@.@.@.@.@.@.@.@.*.] 8 t 8 8 8 8 8 8 8 8 8 8 8 8 8 8 8 8 8 8 8 8 8 8 8 8 8 8 8 8 8 8 8 8 8 8 8 8 8 8 8 8 8 8 8 8 8 8 8 8 8 8 8 8 8 8 8 8 8 8 8 8 8 8 8 8 8 8 8 8 8 8 8 8 8 8 8 8 8 8 8 8 8 8 8 8 8 8 8 8 8 8 8 8 8 8 8 8 8 3     . .       @ 3 3 3 3 5 5 3 3 3 5 6 J U U U U U U U U U U U U U U U U U U U U U U U U U U U U U U U U U U U U U U U U U U U U U U U U U U U U U U U U U U U U U U U U U U U U U U U U U U U U U U U U U U U U U U U U U U U U U U U U U U U U U U U U U U U U U U U U U U U U U U U U U U U U U U U U U U U U U U U U U U U U U U U U U U U U U U U U U U U U U U U U U U U U U U $.( 3 X x D ( ! U ! U U U U U U U U U U U U U U U U U U U J / e . ; ",
"$ . S b.g.k.6.O.$.$.$.$.@.@.@.@.@.@.@.@.*.$.@.@.@.O.] ] ( ^ J H H H J U J J J J U U J J ^ z 3 3 8 H ^ e . $ $ $ $ $ $ X.p.r.r.g.8.@.@.@.@.@.@.@.@.@.@.@.@.@.@.@.@.@.@.@.@.@.@.@.@.@.@.@.@.@.@.@.@.@.@.@.@.@.@.@.@.@.@.@.@.@.@.@.@.@.@.@.@.@.@.@.@.@.@.@.@.@.@.@.@.@.@.@.@.@.@.@.@.@.@.@.@.@.@.@.@.@.@.@.@.@.@.@.@.@.@.@.@.@.@.@.@.@.@.@.@.@.@.@.@.@.@.@.@.@.@.@.@.@.@.@.*.=.#.= . $ $ $ $ . ^ g.@.@.@.@.@.@.@.@.@.@.@.@.@.@.@.@.@.@.@.@.@.@.@.@.@.@.@.@.@.@.@.@.@.@.@.@.@.@.@.@.@.@.@.@.@.@.@.@.@.@.@.@.@.@.@.@.@.@.@.@.$.@.U T S $ $ $ $ $ $ . . b =.@.@.@.@.@.@.@.@.@.@.@.*.] 8 8 8 8 8 8 8 8 8 8 8 8 8 8 8 8 8 8 8 8 8 8 8 8 8 8 8 8 8 8 8 8 8 8 8 8 8 8 8 8 8 8 8 8 8 8 8 8 8 8 8 8 8 8 8 8 8 8 8 8 8 8 8 8 8 8 8 8 8 8 8 8 8 8 8 8 8 8 8 8 8 8 8 8 8 8 8 8 8 8 8 8 8 8 8 8 8 8 8 3   . . . .   X @ 3 3 3 3 5 5 3 3 3 5 8 U U U U U U U U U U U U U U U U U U U U U U U U U U U U U U U U U U U U U U U U U U U U U U U U U U U U U U U U U U U U U U U U U U U U U U U U U U U U U U U U U U U U U U U U U U U U U U U U U U U U U U U U U U U U U U U U U U U U U U U U U U U U U U U U U U U U U U U U U U U U U U U U U U U U U U U U U U U U U U U U U U U U U ^ ( H D ] h X 5 H ! ! J U U U U U U U U U U U U U U U U U U U P T 6 . ; ",
"$ . S b.g.x.5.O.$.$.$.$.@.@.@.@.@.@.@.@.O.] ^ J J J J J J J J J J ! ^ ^ ! J J J J U J J J A t 2 8 H ^ e . $ $ $ $ $ $ X.p.r.y.g.5.O.@.$.@.@.@.@.@.@.@.@.@.@.@.@.@.@.@.@.@.@.@.@.@.@.@.@.@.@.@.@.@.@.@.@.@.@.@.@.@.@.@.@.@.@.@.@.@.@.@.@.@.@.@.@.@.@.@.@.@.@.@.@.@.@.@.@.@.@.@.@.@.@.@.@.@.@.@.@.@.@.@.@.@.@.@.@.@.@.@.@.@.@.@.@.@.@.@.@.@.@.@.@.@.@.@.@.@.@.@.@.@.@.@.@.@.) P = . $ $ $ $ . ^ g.@.@.@.@.@.@.@.@.@.@.@.@.@.@.@.@.@.@.@.@.@.@.@.@.@.@.@.@.@.@.@.@.@.@.@.@.@.@.@.@.@.@.@.@.@.@.@.@.@.@.@.@.@.@.@.@.@.@.@.@.$.@.U T S $ $ $ $ $ $ . . b =.@.@.@.@.@.@.@.@.@.@.@.*.] 8 8 8 8 8 8 8 8 8 8 8 8 8 8 8 8 8 8 8 8 8 8 8 8 8 8 8 8 8 8 8 8 8 8 8 8 8 8 8 8 8 8 8 8 8 8 8 8 8 8 8 8 8 8 8 8 8 8 8 8 8 8 8 8 8 8 8 8 8 8 8 8 8 8 8 8 8 8 8 8 8 8 8 8 8 8 8 8 8 8 8 8 8 8 8 8 8 8 8 3   . . . .   X @ 3 3 3 3 5 5 3 3 3 5 7 J J J J J J J J J P J J J J J J J J J J J P J J J J J J J J J J J J J J J J J J J J J J J P J J J J J J J J J J J J J J J P J J J J J J J J J J J P J J J J J J J J J J J P J J J J J J J J J J J J J J J P J J J J J J J P J J J J J J J P J J J J J J J P J J J J J J J J J J J P J J J J J J J J J J J P J J J J J J J J J J J J J J J H ^ J J J ] D 8 : H ( F J J J J J J J J J J J J J J J J U U J P T 4 . * ",
"$ $ w b.r.i.5.O.O.@.$.*.$.@.O. .^ ^ ^ ^ J J J J Y Y Y Y J J J J J J J J J J J J J J J J J ^ D f 3 H T 4 . . $ $ $ $ $ #.p.9.p.i.@.@.@.@.@.@.@.@.@.@.@.@.@.@.@.@.@.@.@.@.@.@.@.@.@.@.@.@.@.@.@.@.@.@.@.@.@.@.@.@.@.@.@.@.@.@.@.@.@.@.@.@.@.@.@.@.@.@.@.@.@.@.@.@.@.@.@.@.@.@.@.@.@.@.@.@.@.@.@.@.@.@.@.@.@.@.@.@.@.@.@.@.@.@.@.@.@.@.@.@.*.@.@.@.@.$.$.@.@.*.=.$.=.@.( F e o   . . $ $ $ $ . ^ g.@.@.@.@.@.@.@.@.@.@.@.@.@.@.@.@.@.@.@.@.@.@.@.@.@.@.@.@.@.@.@.@.@.@.@.@.@.@.@.@.@.@.@.@.@.@.@.@.@.@.@.@.@.@.@.@.$.$.$.$.$. .H T C $ $ $ $ $ $ $ . b >.@.@.@.@.@.@.@.@.@.$.@.@.$.( f 3 3 7 7 7 7 8 8 8 8 8 8 8 8 8 8 8 8 8 8 8 8 8 8 8 8 8 8 8 8 8 8 8 8 8 8 8 8 8 8 8 8 8 8 8 8 8 8 8 8 8 8 8 8 8 8 8 8 8 8 8 8 8 8 8 8 8 8 8 8 8 8 8 8 8 8 8 8 8 8 8 8 8 8 8 8 8 8 8 8 8 8 8 8 3 5 5 3 . . . .     . X = 3 6 6 4 4 4 4 = 6 A ) T T T T T T T T T T I P P I T T T T T T T T T T T T T T T T T T T T T T T T T T T T T T T T T T T T T T T T T T T T T T T T T T T T T T T T T T T T P P P P T T T T T T T T P P P P T T T T T T T T T T T T T T T T T T T T T T T T T T T T T T T T T T T T T T T T T T T T T T T T P P P P T T T T T T T T P P P P T T T T T T T T ^ ^ ^ ^ ^ T P T ( ) x = F ^ ^ ^ ^ ^ ^ T T T ^ ^ ^ ^ ^ ^ ^ ^ ^ ^ / ) e . . = ",
"$ % $ / h.C.8.<.=.$.@.@.( ( ^ ^ H H H H T T T J J J J J J J T T T T T T U U U U T T U T H ^ ) T D P v . . . $ $ $ $ $ #.p.r.p.9.@.@.@.@.@.@.@.@.@.@.@.@.@.@.@.@.@.@.@.@.@.@.@.@.@.@.@.@.@.@.@.@.@.@.@.@.@.@.@.@.@.@.@.@.@.@.@.@.@.@.@.@.@.@.@.@.@.@.@.@.@.@.@.@.@.@.@.@.@.@.@.@.@.@.@.@.@.@.@.@.@.@.@.@.@.@.@.@.@.@.@.@.@.@.@.@.@.@.@.@.@.@.$.*.@.@.$.5.*.=.@.U f 3 X   X   = = . $ $ $ $ . ^ g.@.@.@.@.@.@.@.@.@.@.@.@.@.@.@.@.@.@.@.@.@.@.@.@.@.@.@.@.@.@.@.@.@.@.@.@.@.@.@.@.@.@.@.@.@.@.@.@.@.@.@.@.@.@.@.@.$.$.$.$.$. .H T C $ $ $ $ $ $ . . b >.@.@.@.@.@.@.@.@.@.@.$.$.@.@.( A x k k k k k k k k k k k k k k k k k k k k k k k k k k k k k k k k k k k k k k k k k k k k k k k k k k k k k k k k k k k k k k k k k k k k k k k k k k k k k k k k k k k k h h h h h h h h f j f 4 . $ . . . . . . . o = = 4 4 4 4 r B I B F F F F S S F F F F S S S S S S S S S S S S S S F F F F S S S S F F F F S S S S S S S S S S S S F F F F S S S S S S S S S S S S S S F F S S S F F F S S S S S S S S S F F F S S S S F F S S S S F F F F S S S S S S S S S S S S F F F F S S S S S S S S S S S S S S F F S S S F F F S S S S S S S S S F F F S S S S F F S S S S F F F F F F F F A A F F I v = j F F F F F F F F F F F F F F F F I S g g & . $ - ",
"$ $ $ . F :.} ^ F F F S F F F F S A A S S S F F F F F F F S S S S S S S S S S S S S S S I I I F F e . . . $ $ $ $ $ $ #.p.p.r.<.@.@.@.@.@.@.@.@.@.@.@.@.@.@.@.@.@.@.@.@.@.@.@.@.@.@.@.@.@.@.@.@.@.@.@.@.@.@.@.@.@.@.@.@.@.@.@.@.@.@.@.@.@.@.@.@.@.@.@.@.@.@.@.@.@.@.@.@.@.@.@.@.@.@.@.@.@.@.@.@.@.@.@.@.@.@.@.@.@.@.@.@.@.@.@.@.@.@.@.@.@.@.$.*.@.*.@.' Z 7 X       @ 6 F ) ..4 . $ $ $ % . ^ g.@.@.@.@.@.@.@.@.@.@.@.@.@.@.@.@.@.@.@.@.@.@.@.@.@.@.@.@.@.@.@.@.@.@.@.@.@.@.@.@.@.@.@.@.@.@.@.@.@.@.@.@.@.@.@.@.$.$.$.$.$. .H T C $ $ $ $ $ $ . . b >.@.@.@.@.@.@.@.@.@.@.$.$.@.*.=.=.*.*.*.*.$.@.@.@.@.@.@.@.@.@.@.@.@.@.@.@.@.@.@.@.@.@.@.@.@.@.@.@.@.@.@.@.@.@.@.@.@.@.@.@.@.@.@.@.@.@.@.@.@.@.@.@.@.@.@.@.@.@.@.@.@.@.@.@.@.@.@.@.@.@.@.@.@.@.@.@.@.@.@.@.@.@.@.@.@.@.@.@.@.@.@.] A . $ $ . . . . . . . . $ $ . . . $ $ . $ . . . . . . . . . . . . . . . . . . . . . . . . . . . . . . . . . . . . . . . . . . . . . . . . . . . . . . . . . . . . . . . . . . . . . . . . . . . . . . . . . . . . . . . . . . . . . . . . . . . . . . . . . . . . . . . . . . . . . . . . . . . . . . . . . . . . . . . . . . . . . . . . . . . . . . . . . . . . . . . . . . $ $ . . . . = $ . . . = . $ $ $ $ $ $ $ $ $ $ $ $ * $ $ $ $ $ $ . . . . . ; ",
"$ % $ $ $ $ $ . . . * = . . $ * $ $ $ $ $ $ % % $ $ $ $ % % % % % % % % * * * * $ * $ % % % % % . . . - . $ $ $ $ $ $ #.p.p.r.%.@.@.@.@.@.@.@.@.@.@.@.@.@.@.@.@.@.@.@.@.@.@.@.@.@.@.@.@.@.@.@.@.@.@.@.@.@.@.@.@.@.@.@.@.@.@.@.@.@.@.@.@.@.@.@.@.@.@.@.@.@.@.@.@.@.@.@.@.@.@.@.@.@.@.@.@.@.@.@.@.@.@.@.@.@.@.@.@.@.@.@.@.@.@.@.@.@.@.@.$.*.$.@.@.J k 2         @ d D ] @.>.=.#.= . . $ $ % . ^ g.@.@.@.@.@.@.@.@.@.@.@.@.@.@.@.@.@.@.@.@.@.@.@.@.@.@.@.@.@.@.@.@.@.@.@.@.@.@.@.@.@.@.@.@.@.@.@.@.@.@.@.@.@.@.@.@.$.$.$.$.$. .H T C $ $ $ $ $ $ . . b >.@.@.@.@.@.@.@.@.@.@.@.@.$.@.O.@.$.@.@.@.@.@.@.@.@.@.@.@.@.@.@.@.@.@.@.@.@.@.@.@.@.@.@.@.@.@.@.@.@.@.@.@.@.@.@.@.@.@.@.@.@.@.@.@.@.@.@.@.@.@.@.@.@.@.@.@.@.@.@.@.@.@.@.@.@.@.@.@.@.@.@.@.@.@.@.@.@.@.@.@.@.@.@.@.@.@.@.@.@.$.*.] j $ $ $ $ $ $ $ $ $ $ $ $ $ $ $ $ $ $ $ $ $ $ $ $ $ $ $ $ $ $ $ $ $ $ $ $ $ $ $ $ $ $ $ $ $ $ $ $ $ $ $ $ $ $ $ $ $ $ $ $ $ $ $ $ $ $ $ $ $ $ $ $ $ $ $ $ $ $ $ $ $ $ $ $ $ $ $ $ $ $ $ $ $ $ $ $ $ $ $ $ $ $ $ $ $ $ $ $ $ $ $ $ $ $ $ $ $ $ $ $ $ $ $ $ $ $ $ $ $ $ $ $ $ $ $ $ $ $ $ $ $ $ $ $ $ $ $ $ $ $ $ $ $ $ $ $ $ $ $ $ $ $ $ $ $ $ $ $ $ $ $ $ $ $ $ $ $ $ $ $ $ $ $ $ $ $ $ * % $ . . $ $ $ $ $ $ $ $ $ $ $ $ $ $ $ $ $ $ $ $ $ $ . . $ . . $ ",
"$ % $ $ $ $ $ $ $ $ $ $ $ $ $ $ $ $ $ $ $ $ $ $ $ $ $ $ $ $ $ $ $ $ $ $ $ $ $ $ $ $ $ $ $ $ $ $ $ $ $ $ $ $ $ $ $ $ $ X.h.9.p.=.@.@.@.@.@.@.@.@.@.@.@.@.@.@.@.@.@.@.@.@.@.@.@.@.@.@.@.@.@.@.@.@.@.@.@.@.@.@.@.@.@.@.@.@.@.@.@.@.@.@.@.@.@.@.@.@.@.@.@.@.@.@.@.@.@.@.@.@.@.@.@.@.@.@.@.@.@.@.@.@.@.@.@.@.@.@.@.@.=.@.@.*.@. .@. .$.=.*.@.^ x 3 +         7 x ( ' %.%.%.%.@.#.@.= . . $ $ * . ^ g.@.@.@.@.@.@.@.@.@.@.@.@.@.@.@.@.@.@.@.@.@.@.@.@.@.@.@.@.@.@.@.@.@.@.@.@.@.@.@.@.@.@.@.@.@.@.@.@.@.@.@.@.@.@.@.@.$.$.$.$.=.] H T n $ $ $ $ $ $ . . b =.@.@.@.@.@.@.@.@.@.@.@.@.@.@.@.@.@.@.@.@.@.@.@.@.@.@.@.@.@.@.@.@.@.@.@.@.@.@.@.@.@.@.@.@.@.@.@.@.@.@.@.@.@.@.@.@.@.@.@.@.@.@.@.@.@.@.@.@.@.@.@.@.@.@.@.@.@.@.@.@.@.@.@.@.@.@.@.@.@.@.@.@.@.@.@.@.@.@.@.@.@.@.@.@.@.@.@.@.@.@.@.) n $ $ $ $ $ $ $ $ $ $ $ $ $ $ $ $ $ $ $ $ $ $ $ $ $ $ $ $ $ $ $ $ $ $ $ $ $ $ $ $ $ $ $ $ $ $ $ $ $ $ $ $ $ $ $ $ $ $ $ $ $ $ $ $ $ $ $ $ $ $ $ $ $ $ $ $ $ $ $ $ $ $ $ $ $ $ $ $ $ $ $ $ $ $ $ $ $ $ $ $ $ $ $ $ $ $ $ $ $ $ $ $ $ $ $ $ $ $ $ $ $ $ $ $ $ $ $ $ $ $ $ $ $ $ $ $ $ $ $ $ $ $ $ $ $ $ $ $ $ $ $ $ $ $ $ $ $ $ $ $ $ $ $ $ $ $ $ $ $ $ $ $ $ $ $ $ $ $ $ $ $ $ $ $ $ $ $ $ $ $ $ $ $ $ $ $ $ $ $ $ $ $ $ $ $ $ $ $ $ $ $ $ $ $ $ $ $ $ $ * ",
"$ % $ $ $ $ $ $ $ $ $ $ $ $ $ $ $ $ $ $ $ $ $ $ $ $ $ $ $ $ $ $ $ $ $ $ $ $ $ $ $ $ $ $ $ $ $ $ $ $ $ $ $ $ $ $ $ $ . X.h.9.9.*.@.@.@.@.@.@.@.@.@.@.@.@.@.@.@.@.@.@.@.@.@.@.@.@.@.@.@.@.@.@.@.@.@.@.@.@.@.@.@.@.@.@.@.@.@.@.@.@.@.@.@.@.@.@.@.@.@.@.@.@.@.@.@.@.@.@.@.@.@.@.@.@.@.@.@.@.@.@.@.@.@.@.@.@.@.@.@.@.@. .] O.@.*.<.*.@.H h @         X 8 H ] =.=.*.@.@.@.@.@.@.#.} = . $ $ $ * . ^ p.@.@.@.@.@.@.@.@.@.@.@.@.@.@.@.@.@.@.@.@.@.@.@.@.@.@.@.@.@.@.@.@.@.@.@.@.@.@.@.@.@.@.@.@.@.@.@.@.@.@.@.@.@.@.@.@.$.$.$.$.=.] H T n $ $ $ $ $ $ . . b =.@.@.@.@.@.@.@.@.@.@.@.@.@.@.@.@.@.@.@.@.@.@.@.@.@.@.@.@.@.@.@.@.@.@.@.@.@.@.@.@.@.@.@.@.@.@.@.@.@.@.@.@.@.@.@.@.@.@.@.@.@.@.@.@.@.@.@.@.@.@.@.@.@.@.@.@.@.@.@.@.@.@.@.@.@.@.@.@.@.@.@.@.@.@.@.@.@.@.@.@.@.@.@.@.@.@.@.@.@.@.@.) n $ $ $ $ $ $ $ $ $ $ $ $ $ $ $ $ $ $ $ $ $ $ $ $ $ $ $ $ $ $ $ $ $ $ $ $ $ $ $ $ $ $ $ $ $ $ $ $ $ $ $ $ $ $ $ $ $ $ $ $ $ $ $ $ $ $ $ $ $ $ $ $ $ $ $ $ $ $ $ $ $ $ $ $ $ $ $ $ $ $ $ $ $ $ $ $ $ $ $ $ $ $ $ $ $ $ $ $ $ $ $ $ $ $ $ $ $ $ $ $ $ $ $ $ $ $ $ $ $ $ $ $ $ $ $ $ $ $ $ $ $ $ $ $ $ $ $ $ $ $ $ $ $ $ $ $ $ $ $ $ $ $ $ $ $ $ $ $ $ $ $ $ $ $ $ $ $ $ $ $ $ $ $ $ $ $ $ $ $ $ $ $ $ $ $ $ $ $ $ $ $ $ $ $ $ $ $ $ $ $ $ $ $ $ $ $ $ $ $ * ",
"$ * $ $ $ $ $ $ $ $ $ $ $ $ $ $ $ $ $ $ $ $ $ $ $ $ $ $ $ $ $ $ $ $ $ $ $ $ $ $ $ $ $ $ $ $ $ $ $ $ $ $ $ $ $ $ $ $ . X.h.r.6.@.@.@.@.@.@.@.@.@.@.@.@.@.@.@.@.@.@.@.@.@.@.@.@.@.@.@.@.@.@.@.@.@.@.@.@.@.@.@.@.@.@.@.@.@.@.@.@.@.@.@.@.@.@.@.@.@.@.@.@.@.@.@.@.@.@.@.@.@.@.@.@.@.@.@.@.@.@.@.@.@.@.@.@.@.@.@.@.@.@.*.*.$.@.( z 7 +         + d J @.5.6.*.@.@.$.$.@.@.@.@.@.#.} = . $ $ $ * . ^ p.@.@.@.@.@.@.@.@.@.@.@.@.@.@.@.@.@.@.@.@.@.@.@.@.@.@.@.@.@.@.@.@.@.@.@.@.@.@.@.@.@.@.@.@.@.@.@.@.@.@.@.@.@.@.@.@.$.$.$.$.=.] H T n $ $ $ $ $ $ . . b >.@.@.@.@.@.@.@.@.@.@.@.@.@.@.@.@.@.@.@.@.@.@.@.@.@.@.@.@.@.@.@.@.@.@.@.@.@.@.@.@.@.@.@.@.@.@.@.@.@.@.@.@.@.@.@.@.@.@.@.@.@.@.@.@.@.@.@.@.@.@.@.@.@.@.@.@.@.@.@.@.@.@.@.@.@.@.@.@.@.@.@.@.@.@.@.@.@.@.@.@.@.@.@.@.@.@.@.@.@.@.@.) n $ $ $ $ $ $ $ $ $ $ $ $ $ $ $ $ $ $ $ $ $ $ $ $ $ $ $ $ $ $ $ $ $ $ $ $ $ $ $ $ $ $ $ $ $ $ $ $ $ $ $ $ $ $ $ $ $ $ $ $ $ $ $ $ $ $ $ $ $ $ $ $ $ $ $ $ $ $ $ $ $ $ $ $ $ $ $ $ $ $ $ $ $ $ $ $ $ $ $ $ $ $ $ $ $ $ $ $ $ $ $ $ $ $ $ $ $ $ $ $ $ $ $ $ $ $ $ $ $ $ $ $ $ $ $ $ $ $ $ $ $ $ $ $ $ $ $ $ $ $ $ $ $ $ $ $ $ $ $ $ $ $ $ $ $ $ $ $ $ $ $ $ $ $ $ $ $ $ $ $ $ $ $ $ $ $ $ $ $ . . . . $ $ $ $ $ $ $ $ $ $ $ $ $ $ $ $ $ $ $ $ $ $ $ $ $ $ * ",
". * $ $ $ $ $ $ $ $ $ $ $ $ $ $ $ $ $ $ $ $ $ $ $ $ $ $ $ $ $ $ $ $ $ $ $ $ $ $ $ $ $ $ $ $ $ $ $ $ $ $ $ $ $ $ $ $ . X.g.r.=. .@.@.@.@.@.@.@.@.@.@.@.@.@.@.@.@.@.@.@.@.@.@.@.@.@.@.@.@.@.@.@.@.@.@.@.@.@.@.@.@.@.@.@.@.@.@.@.@.@.@.@.@.@.@.@.@.@.@.@.@.@.@.@.@.@.@.@.@.@.@.@.@.@.@.@.@.@.@.@.@.@.@.@.@.@.@.@.@.=.@.J k @           + f ( =.e.5.=.@.O.O.@.@.@.@.%.*.*.*.@.#.} = . $ $ $ * . ^ p.@.@.@.@.@.@.@.@.@.@.@.@.@.@.@.@.@.@.@.@.@.@.@.@.@.@.@.@.@.@.@.@.@.@.@.@.@.@.@.@.@.@.@.@.@.@.@.@.@.@.@.@.@.@.@.@.$.$.$.$.=.] H T n $ $ $ $ $ $ . . b =.@.@.@.@.@.@.@.@.@.@.@.@.@.@.@.@.@.@.@.@.@.@.@.@.@.@.@.@.@.@.@.@.@.@.@.@.@.@.@.@.@.@.@.@.@.@.@.@.@.@.@.@.@.@.@.@.@.@.@.@.@.@.@.@.@.@.@.@.@.@.@.@.@.@.@.@.@.@.@.@.@.@.@.@.@.@.@.@.@.@.@.@.@.@.@.@.@.@.@.@.@.@.@.@.@.@.@.@.@.@.@.) n $ $ $ $ $ $ $ $ $ $ $ $ $ $ $ $ $ $ $ $ $ $ $ $ $ $ $ $ $ $ $ $ $ $ $ $ $ $ $ $ $ $ $ $ $ $ $ $ $ $ $ $ $ $ $ $ $ $ $ $ $ $ $ $ $ $ $ $ $ $ $ $ $ $ $ $ $ $ $ $ $ $ $ $ $ $ $ $ $ $ $ $ $ $ $ $ $ $ $ $ $ $ $ $ $ $ $ $ $ $ $ $ $ $ $ $ $ $ $ $ $ $ $ $ $ $ $ $ $ $ $ $ $ $ $ $ $ $ $ $ $ $ $ $ $ $ $ $ $ $ $ $ $ $ $ $ $ $ $ $ $ $ $ $ $ $ $ $ $ $ $ $ $ $ $ $ $ $ $ $ $ $ $ $ $ $ . . . . . . . . . $ . . . . $ $ $ $ $ $ $ $ $ $ $ $ $ $ $ $ $ $ $ * "
};
