/* XPM */
static char *_ebcb4d738c74856d78f67b2732e5488WFEMJVKf6RexzUhG[] = {
/* columns rows colors chars-per-pixel */
"100 100 154 2 ",
"   c #FDD526",
".  c #FCD926",
"X  c #FED529",
"o  c #FDDC2B",
"O  c #FDDD32",
"+  c #FDDE38",
"@  c #FDE32D",
"#  c #FCE82F",
"$  c #FDE532",
"%  c #FDEC35",
"&  c #FDE539",
"*  c #FDED3A",
"=  c #FDF036",
"-  c #FFF13E",
";  c #FDF23E",
":  c #FCF33E",
">  c #FEF23E",
",  c #FEF33F",
"<  c #FFF33F",
"1  c #FDF13D",
"2  c #FBF53F",
"3  c #FDF43D",
"4  c #FFF53C",
"5  c #FEF43D",
"6  c #FEF63C",
"7  c #FDF43F",
"8  c #FEF53E",
"9  c #FCF63E",
"0  c #FDF73F",
"q  c #FFF63F",
"w  c #FDF23D",
"e  c #FDEF40",
"r  c #FDF041",
"t  c #FEF140",
"y  c #FDF240",
"u  c #FCF340",
"i  c #FFF241",
"p  c #FEF341",
"a  c #FEF142",
"s  c #FDF343",
"d  c #FEF343",
"f  c #FBF441",
"g  c #FDF441",
"h  c #FFF440",
"j  c #FEF540",
"k  c #FCF640",
"l  c #FDF741",
"z  c #FFF641",
"x  c #FCF542",
"c  c #FFF442",
"v  c #FEF542",
"b  c #FFF543",
"n  c #FDF643",
"m  c #FCF743",
"M  c #FFF742",
"N  c #FFF643",
"B  c #FEF444",
"V  c #FFF545",
"C  c #FDF645",
"Z  c #FCF745",
"A  c #FEF744",
"S  c #FFF744",
"D  c #FCF646",
"F  c #FDF747",
"G  c #FFF646",
"H  c #FEF746",
"J  c #FEF747",
"K  c #FEF542",
"L  c #FCF841",
"P  c #FDF942",
"I  c #FEF842",
"U  c #FBF944",
"Y  c #FBF946",
"T  c #FAF947",
"R  c #F9FA47",
"E  c #FBFA47",
"W  c #FDF844",
"Q  c #FFF845",
"!  c #FEF945",
"~  c #FDFB44",
"^  c #FCFA45",
"/  c #FDF846",
"(  c #FFF847",
")  c #FEF947",
"_  c #FDFB46",
"`  c #FCFA47",
"'  c #FCFC44",
"]  c #FDFD45",
"[  c #FEFC45",
"{  c #FCFC46",
"}  c #FCFD47",
"|  c #FDFD47",
" . c #FEFC47",
".. c #FDFF46",
"X. c #FEFE46",
"o. c #FDF946",
"O. c #FDF749",
"+. c #FBFA48",
"@. c #FAFB48",
"#. c #FBFB4B",
"$. c #FCF948",
"%. c #FEF848",
"&. c #FCFB48",
"*. c #FDFB48",
"=. c #FDFA49",
"-. c #FCFB49",
";. c #FFFA48",
":. c #FFFB49",
">. c #FDFA4B",
",. c #FCFB4B",
"<. c #FFFA4A",
"1. c #FEFB4A",
"2. c #FBFC49",
"3. c #FDFC49",
"4. c #FCFD49",
"5. c #FFFD48",
"6. c #FEFC49",
"7. c #FEFE48",
"8. c #FDFC4A",
"9. c #FCFD4A",
"0. c #FEFD4A",
"q. c #FFFD4A",
"w. c #FFFC4B",
"e. c #FEFD4B",
"r. c #FDFE4A",
"t. c #FDFE4B",
"y. c #FFFE4B",
"u. c #FEFF4B",
"i. c #FEFB4C",
"p. c #FFFB4D",
"a. c #FDFB4E",
"s. c #FEFB4E",
"d. c #FFFB4F",
"f. c #FDFC4C",
"g. c #FDFD4D",
"h. c #FFFC4D",
"j. c #FEFD4D",
"k. c #FFFE4C",
"l. c #FDFD4F",
"z. c #FFFD4E",
"x. c #FEFC4F",
"c. c #FFFC4F",
"v. c #FFFE4E",
"b. c #FFFF4F",
"n. c #FDFC4B",
"m. c #FDFB50",
"M. c #FFFA51",
"N. c #FDFD51",
"B. c #FFFD50",
"V. c #FEFC51",
"C. c #FEFE50",
"Z. c #FFFE51",
"A. c #FFFD52",
"S. c #FEFD50",
/* pixels */
"_  .7. . . . .7._  . . . . .7. .7.7.7.7.7.f. . .7.7.7.7.7.7.7.7.;.;.7.7.7.7. .;.;._ { _ ^ _ I 0 I 0 0 n 0 4 4 0 4 4 4 0 0 5 1 1 1 1 1 1 1 1 1 = = = = = = = = = = = % % % = = % = = % % % = = = = = = = ",
";. .7.;.;.7.7.f.;. .7.7.7.f.7.7.7.7.f.7.f.7.7.7. .f.7.f.7.7.;.7.7.;.7.7.7.7.7.7.+.;._ _ ;.F F F I 0 n n n n 0 0 0 0 4 1 0 5 1 5 5 1 1 1 1 1 = = = = = = = = = = * = % % % % % = = = % % % % = % % = * % ",
";.;.7.;.+.7.7.7.7.7.7.7.7.7.7.7.7.7.7.7.7.f.7.7.7.f.f.7.f.7.7.7.7.f.7.7.7.7.;.7.+.;.;.^ _ F _ F n n n n n n n 0 0 n 0 0 5 5 5 1 5 5 5 1 1 1 = = 1 1 1 % = % * % = % % % % % = % = % % % % % % = % * = % ",
";.;.;.;.+.;.;.7.;.7.;.7.7.7.7.f.7.7.7.7.f.f.f.7.7.f.f.f.7.7.7.7.f.f.7.;.7. .7.;.;.7.+._ _ F _ F F n n n n n n 0 0 0 0 n 5 0 4 5 d 5 1 5 1 1 1 1 1 1 1 % % % = % % % % % % = = % % = % % % % % % % % % % ",
";.;._ +.;.;.7.+.;.7.7.7.7.7.7.f.7.;.7.f.f.f.f.f.f.7.f.f.7.7.7.f.7.7.7.;.7.;.;.7.7.;.;.^ ;._ F n F _ F n n n 0 0 n B 0 n d 0 0 5 5 5 5 1 1 * 1 5 1 % 1 % = = % * % = = % % % % % = % % % 1 % % % % % % % ",
";.;._ +.;.;.7.f.7.f.7.7.7.7.;.7.f.f.7.7.7.7.f.7.7.7.2.7.7.f.7.7.7.f.7.7.7.f.;.2.;.7.;.;._ F _ F _ n n n f 0 n 0 n n n 5 5 0 5 5 5 5 5 1 1 1 5 5 1 % = % % * % % 1 = * % = % % % % % * % % % % % % % % % ",
"_ ;._ ;.+.f.;.f.;.f.f.7.;.7.f.V.f.V.V.f.f.V.f.7.f.f.f.f.7.V.7.f.7.f.f.7.f.,.7.;.;.;.;._ ^ F _ _ F n F F n n 0 0 0 0 5 d d 5 d 5 5 5 d 5 5 1 1 = 1 % % % * * = = = % * % % % % % % % = % % % % % % % % % ",
";.;._ +.;.;.;._ ;.f.;.7.7.,.m.V.f.f.f.f.f.f.f.f.V.f.f.7.f.f.7.f.V.V.,.f.7.7.;.;.;.;.;. .F _ F F n n n 0 n n n 0 0 n 5 5 5 d d d 1 5 d 5 * 1 5 1 * % * % 1 * = % = % % % % % % % % * % % % % * % % % % % ",
"_ 7._ ;.{ _ +._  .;.;.f.7.+.f.7.f.7.f.7.7.7.V.f.f.V.f.V.7.7.7.f.f.f.7.;.f.#.+.;.7.;.;. ._ _ _ F I F n 0 n n n n n 5 5 5 5 d 5 5 5 5 5 d 5 * * * * % 1 1 = = % = % % % % % % * % % % % % % % % % % % % % ",
"F _ _ ;.+.;.+.;.;.,.7.+.f.7.f.f.7.f.7.f.f.f.f.f.V.V.,.V.f.7.7.f.f.V.f.7.7.f.7.7.;.;.;.;._ _ _ _ _ n n n n n n n n 5 5 d d 5 d 5 5 5 d 5 * * * * * = = % 1 % % = % % % % * % % % % % % % % % % % % % % % ",
"F ^ _ ;.+.;.7.+.;.7.7.+.f.7.7.7.7.7.7.7.f.f.V.f.V.f.f.f.f.f.7.7.7.f.7.7.+.+.7.;.;._ ;.^ ;._ _ F _ n n n 0 n 0 n n 5 5 5 5 d 5 0 5 5 5 5 * * * * 1 * * % * % % % % % % % % % % % % % % % % % % % % % % % ",
"F _ _ +.;.;.;.;.;.;.7.7.7.f.f.,.;.f.V.7.f.V.f.;.V.7.7.7.7.7.7.V.f.,.7.7.+.7.+.;.;.;.;.+.F F _ F _ n n n n 0 0 0 0 0 1 5 5 5 5 d 1 1 d 5 * * * * = * % % % % % % % % % % % % % % % % % % % % % % $ % % % ",
"F _ _ _ ;.;.;.+.;.;.;.7.f.V.V.f.f.f.f.7.7.V.f.V.f.f.f.f.f.f.f.V.f.f.7.V.,.f.;.f.+.+.;.+.F _ F F F n n 0 n n 0 0 n n d 5 5 5 d d 5 d 5 5 1 1 1 % = * * % % % % % * % % % % % % % % % % % % % % % % % % % ",
"F ;._ ;.;.;.;.+.;.f.7.7.7.f.f.V.f.f.V.f.7.7.V.f.f.f.f.f.f.f.7.f.f.7.f.f.f.7.7.;.+.;.;.^ _ F _ I F n n F n 0 0 n n n n 5 d d d 5 5 5 5 5 1 1 * * = % % % % % % % % % % % % % % % % % % % % % % $ $ % % % ",
"F _ _ ;.;.;.;._ ;.;.;.7.7.f.;.f.f.f.;.7.7.f.V.f.7.7.7.7.;.V.7.;.7.7.;.f.7.;.;.7.+.;.;.;.;._ _ F n n F n n 5 n n n 5 5 5 d 5 5 d 1 1 1 1 1 5 1 * % % * * % % % % % % % % % % % % % $ $ % $ $ % $ $ % $ $ ",
"F F F ;.;.;._ ;.;.+.f.7.;.;.f.V.f.f.f.f.f.f.V.V.f.;.f.f.;.f.V.7.7.f.7.7.7.7.+.;.+.;.;.;.F F Z I F n n n n n n n 0 0 0 d 5 d 5 5 5 1 1 5 * % * = * % * * % % * % % % % % % $ % % $ % % $ % % % $ % $ $ $ ",
"F F _ _ _ ;.;.;.7.+.f.f.7.7.f.f.f.V.7.f.m.V.V.f.,.f.f.V.f.f.7.f.f.7.f.f.f.;.;.;.;.;.;.+.F _ _ _ n n F n n n n n 0 d 5 d d d d 5 5 5 1 1 * * * * * * * * % % % % % % % % % % % % % % $ % % % % % $ $ $ $ ",
"_ F I _ _ ;.;.;.;.;.f.7.7.7.,.,.V.f.f.f.f.f.f.7.7.f.f.f.7.f.f.f.f.7.V.V.,.7.;.;.7.;.;.^ _ _ _ F n n n n n n n n 0 0 5 1 5 5 5 5 d 5 1 1 = * * % * * = * % % * % % % % $ $ % % $ % % % % % $ $ $ $ $ $ $ ",
"F F _ _ ;.;.;.,.+.+.;.;.f.m.,.f.V.f.f.V.V.V.f.V.7.V.f.f.f.f.f.V.7.f.7.7.f.f.;.f.f.;.;.;.F _ _ F n F n n B n 0 n 0 d 5 5 5 d 0 5 5 1 * e 1 * * % % * % % * % % % % % % % % % % % % % $ % $ $ $ $ $ $ $ $ ",
"_ I ;._ +._ ;.;.+.+.f.;.f.f.f.f.f.f.;.f.f.V.f.V.V.f.f.7.f.f.f.f.f.f.V.;.,.7.,.f.;.+.+.F _ _ _ n n n n n n n 0 0 n 0 d 5 5 5 d d 1 1 1 * 1 * * % % = = % % % % % % % $ % % % $ $ $ $ $ $ $ $ $ $ $ $ # # ",
"F F +._ ^ ;.;.;.;.;.7.f.7.V.V.f.f.f.f.f.f.f.f.V.V.f.f.f.f.V.f.V.f.f.f.^ f.7.7.;.;.+.;.^ _ _ _ F n F F n F n n 0 n n 5 5 5 d d 5 5 1 1 * 1 5 * * % * = % % % % % % % % % $ % $ % $ $ $ $ $ # # $ $ $ $ $ ",
"_ F F ;.+.+.+.7.;.;.7.;.7.,.,.,.f.7.f.f.f.V.V.V.V.7.V.f.7.f.f.V.f.f.f.,.f.;.#.f.7._ ;.+._ _ _ F n n F n n n n n n n d 5 5 d 5 5 5 5 1 5 1 % * = % % % % % % % % % % % $ % % $ $ # $ $ $ $ # $ $ $ # $ $ ",
"F n _ +.^ +.;.;.f.7.7.;.7.7.f.f.V.V.f.f.7.f.V.f.V.f.f.f.7.f.V.f.,.f.V.,.7.;.7.;.7.;.+.+._ _ _ _ _ n n n n n n 0 n n n 5 d d 5 5 5 1 5 1 5 1 * = % % * % % % % % % % % % % % $ $ % $ $ $ $ $ # $ $ $ # $ ",
"F n F _ ^ ;.;.;.f.;.f.7.V.f.f.f.f.f.f.V.f.f.V.V.V.f.V.f.7.f.V.m.V.V.,.,.f.;.f.7.+.2.;.+._ _ _ _ F n n n n n 0 5 n n 0 5 d 5 5 5 5 1 5 5 1 1 * % % % % % * % % $ % $ $ $ % % $ $ $ # $ $ $ $ $ $ $ $ @ $ ",
"F _ F _ ^ ;.^ ;.+.+.7.f.f.7.;.f.f.f.f.f.f.V.f.f.V.f.V.V.f.f.f.V.7.7.V.f.f.f.7.;.f.+.;.;._ ;._ _ F n n n n n n n 0 2 5 5 5 5 5 d 5 5 1 1 * 1 * % % % % % % % % % % % $ $ $ $ % % $ $ $ $ $ $ $ $ # # # $ ",
"F _ _ _ ;._ 7.;.+.+.7.7.7.;.f.f.V.f.V.V.f.V.V.f.f.f.f.7.f.V.V.f.7.f.m.f.f.7.f.7.,._ ;.+.F _ F F n n n 5 n n n 0 0 5 5 5 5 5 d 5 5 5 5 5 * * * % * % % % * % % % % $ $ $ $ % % $ $ # $ $ $ # $ $ # # $ $ ",
"F _ n n ^ +.;.;.;.7.;.7.f.f.f.V.,.f.f.f.V.f.f.V.V.f.f.7.f.V.f.f.V.f.f.f.f.f.,.;.+.a.;.+.;.F _ F F F F n n n 0 d n 0 5 5 5 5 d 5 5 5 1 5 * * * * * * % * % % % % % % $ % $ $ $ $ $ $ $ $ $ $ # $ $ @ $ $ ",
"_ _ F F ;._ ;.;.f.f.7.f.;.f.7.f.f.f.f.V.V.f.,.f.f.f.f.7.f.V.,.f.f.f.f.,.f.;.;.;.;.+.+._ _ F F F n n F 0 0 n n 0 n n 5 d 5 d d 5 5 1 * 1 * * % % 1 * % % % % % % % $ % $ $ $ % $ $ $ # $ $ $ $ $ $ $ $ @ ",
"I F n n _ ^ +.;.;.,.+.f.f.f.V.f.f.V.V.V.V.f.f.7.f.f.f.f.f.f.V.f.f.f.f.f.,.7._ ;.;.+.;.;._ _ F n n n n n n 0 0 0 n n 5 d d d d 5 5 1 1 1 * % % * % * % % % * % % $ % $ % $ $ $ $ $ # @ $ $ $ @ $ @ $ @ @ ",
"F _ F F _ _ ;.;.+.;.+.7.7.,.f.f.f.f.f.f.f.V.V.f.V.V.V.f.f.f.f.f.f.f.f.f.f.7.;.;.;.;.;.;._ _ ;.n n n F n 0 n n 0 0 5 5 5 5 5 5 5 1 1 1 1 1 = * * * % % % % % % % % $ % $ # $ $ $ $ % # $ # # $ $ # @ @ @ ",
"F F F _ Z _ ;.;.;.f.f.7.,.f.f.f.f.f.f.f.V.V.V.f.f.V.f.f.f.7.f.V.m.f.f.f.f.7.f.;.;.;.;._ _ _ n n n F F 0 n n n n n 0 5 5 d d d 5 5 1 1 1 * * * * * * % % % % % % $ $ % $ $ % # $ # $ $ # $ $ $ $ $ @ @ @ ",
"n F F _ _ ^ _ ;.7.f.7.f.f.7.,.V.f.f.7.f.f.V.f.f.f.f.V.f.f.V.7.7.f.f.V.;.f.;.;.;.,.;.;._ _ _ _ F n n n 0 n 0 0 n 0 0 5 n 5 5 d 5 5 1 1 * * = * * * * * % % % % % $ # $ $ # $ $ $ @ @ # @ $ $ @ @ @ @ @ @ ",
"F I F _ _ ;.;.+.;.f.7.V.,.f.7.,.V.V.f.V.f.f.V.,.f.f.V.V.V.V.,.m.f.f.f.,.f.7.f.;.;.+.^ _ _ F F F F F n n n n 5 0 n d 5 d d d d 5 5 5 5 * * * * * * * * % % % % $ $ $ % # $ $ $ $ $ @ @ @ # # $ @ @ @ @ @ ",
"n F n _ F 7.;.;.+.;.f.m.,.,.f.f.f.m.f.f.V.V.7.V.N.f.f.V.,.f.f.,.,.f.7.V.7.+.f.f.;.+._ _ ;._ _ n F F B n n n n n 5 5 5 d d 0 5 5 5 1 5 5 * % * * % % % % % % % % % $ % $ $ # # $ $ $ $ $ # # @ @ @ @ @ @ ",
"F F F _ F ^ ;.;.+.+.;.;.;.7.f.V.f.,.V.f.f.V.V.V.V.f.f.f.f.f.V.f.f.,.,.f.f.f.;.+.;.+._ _ _ _ _ n n n n n d 0 0 0 0 5 5 5 5 5 d 5 5 5 5 * * * * * % * * % % % % % $ $ $ # # $ $ # # # @ # # $ @ @ @ @ @ @ ",
"F I F _ _ ^ _ ;.+.+.;.;.7.;.f.f.f.,.V.V.V.V.f.f.V.f.f.f.f.f.f.f.f.f.f.,.,.;.f.;.;.;.F ;._ _ F n F F n n 0 0 0 0 n 4 5 5 5 5 d 5 5 5 * 1 * % % % % % % % % % % $ % $ $ # $ $ # $ $ $ $ @ # $ $ @ @ @ @ @ ",
"F F F _ _ ^ ^ ;.+._ ;.;.f.7.,.f.,.f.f.f.V.,.V.f.f.f.f.f.V.,.,.f.f.,.f.f.f.;.f.f.+.+.;.F F F n n n n n 0 0 0 0 0 0 5 5 5 d d d 5 d 1 1 1 = = % = * % % % % % % $ $ $ $ $ # % # # @ @ @ @ $ @ @ @ @ @ @ @ ",
"_ _ _ n n n ^ _ 7.;.+.7.7.7.f.f.;.f.V.V.f.V.f.,.f.f.f.f.f.f.V.,.m.f.7.f.f.;.+.;.;.^ _ _ F F n n n n n 0 n 0 n d 0 5 5 d 5 5 d 5 1 5 1 * * * * * % % % % % % % % % $ $ $ # # $ # $ $ # @ $ $ @ @ @ @ @ @ ",
"n n _ _ _ _ ^ +.;.;.;.f.;.,.a.,.V.f.V.f.V.V.f.V.f.f.,.f.7.#.V.m.f.f.7.m.,.f.;.;.;.^ _ _ _ n n n n 0 n 0 n n n 0 n 4 5 d 0 d d 5 5 5 1 * * * * = % * * % % % % $ $ $ $ $ @ $ $ @ # @ # # @ $ @ @ @ @ @ $ ",
"n F n n ;._ ^ _ ;.+.f.;.;.f.,.,.f.V.f.f.f.f.7.f.,.,.f.f.f.f.,.,.f.V.,.f.f.;.;.+.7.F F _ _ n n n F n 0 0 n n n n 5 5 5 5 5 1 5 d 5 0 1 1 * * * % * % % % % $ $ $ $ $ $ $ $ $ $ @ # @ $ $ @ @ @ @ @ @ @ $ ",
"n F F F ;._ _ _ _ +.;.+.+.7.;.7.,.V.,.,.7.7.f.f.f.f.f.f.,.,.7.f.m.V.,.,.;.;.+.;.;.;._ _ _ _ n n 0 0 0 n n n 0 0 5 5 5 d 5 5 5 d 5 1 1 * % % * = % % % % * % % $ $ $ $ $ $ $ $ $ $ $ @ @ @ $ @ @ @ @ @ @ ",
"F I F F _ _ n ^ _ ;.;.;.;.^ ,.f.,.7.V.;.7.7.f.f.V.7.f.f.f.7.7.f.7.2.;.f.+.f.;.;.^ F _ F F n _ n 0 n 5 n n n n 0 5 5 d 5 5 5 5 5 5 1 1 1 * * * * * % * % % % $ % $ $ $ # # # $ $ @ @ @ @ @ @ @ @ @ $ $ $ ",
"n n F _ I n ;.F _ ;.;.;.;.+.f.7.,.7.f.,.7.7.f.,.f.f.f.V.f.,.,.f.7.f.7.;.+.+.+.+.^ _ ^ F _ 0 F F n 0 n n n n 5 0 n 5 5 5 5 d 5 5 1 5 1 1 * * % * * % % % % % $ $ $ $ $ $ $ $ @ @ @ # @ @ @ @ @ @ @ @ @ $ ",
"n _ n _ n n _ F _ F ;.;.;.;.a.f.f.7.7.,.f.f.m.f.V.f.f.f.7.,.,.;.,.f.;.;.a.+.;.+.;.;.n _ U F n n n 0 n n 0 0 5 0 5 0 5 5 5 d 5 5 5 1 1 5 * * % * * * % * % % % % $ % $ $ # $ @ @ @ @ @ @ @ @ @ @ @ @ @ @ ",
"n n n n F I F F _ F +._ +.;.f.;.f.f.;.f.f.7.;.V.f.;.7.7.+.f.f.+.;.;.+.f.+.f.;.+.;.;._ n n n F F 0 n 0 0 5 5 5 5 d 5 d 5 5 5 5 5 5 5 1 1 % * * % % % % % % % $ $ $ $ $ $ $ $ @ @ $ @ @ @ @ @ @ @ @ @ @ @ ",
"0 n n F ^ _ _ F _ ;._ +.+.;.;.,.+.f.7.f.f.,.7.f.;.;.f.f.+.+.+.+.;.;.f.;.f.+.+.;._ ;.F F n n n n n n 5 5 5 n 0 d 0 5 5 5 5 5 d 5 1 5 1 1 1 % * * * % % % % $ $ $ $ $ # $ $ $ $ @ @ @ @ @ @ @ @ @ @ @ @ @ ",
"n n n F F F n _ _ ;._ +.^ +.;.;.;.,.;.;.;.f.,.;.7.;.;.f.f.;.+.f.;.;.;.+.+.;.;.+._ F F n n n n n n 5 5 n 5 5 0 5 5 5 1 5 5 d 5 5 d 5 5 * * * * * % % % % % % % $ $ % $ $ # @ @ @ @ @ @ @ @ @ @ @ @ @ @ @ ",
"n n n f n n n I _ F Z _ ^ ^ ,.;.;.;.,.f.7.;.;.7.7.f.7.;.f.f.+.+.;.+._ +.;.+._ _ F _ n n n n n 0 n 5 d 5 5 5 5 5 5 d 5 5 d 5 1 1 5 5 1 * * * * = * * % * % % $ $ $ $ @ $ $ # @ @ @ @ @ @ @ $ @ @ @ @ @ @ ",
"n n n F U _ n _ _ ^ Z _ Z ;.+.7.+.,._ +.;.+.;.+.;.+.+.+.;.;.;.+.+.+.+.+.;.^ ^ _ n F I n n n 5 0 2 0 0 0 5 5 5 d d 5 5 5 d 5 5 1 5 5 1 * * % % * * % % % % % $ $ $ $ @ $ $ @ @ @ @ @ @ @ @ @ @ @ @ @ @ @ ",
"n n F n n F n I _ n n _ ;.F _ _ ^ _ ;.;.;.;.+.+.+.+.2.+.;.;.;.+.;.+.+.+._ ^ F _ _ n n n n n 0 0 0 5 0 5 2 0 5 0 5 5 5 5 5 5 5 1 1 1 * * * * 1 % % * % $ $ $ $ % % @ @ @ @ $ @ @ @ @ @ @ @ @ @ @ @ @ @ @ ",
"n 0 0 n n n n F n n F n I _ F F ^ _ _ +.;.;._ +.+.;.;.+._ +.+.;.2.;.^ +._ F ;._ I n F F n n n 0 5 1 0 5 0 0 5 5 5 d 5 d 5 5 5 1 5 5 * * 1 * % % * % % % % $ $ $ # @ $ @ @ @ @ @ @ @ @ @ @ @ @ @ @ @ @ @ ",
"n n n n n 0 n n _ n I _ n n n F _ _ _ +.+.;. ._ +._ +.;.+.;.+.;.;.+._ ^ F _ F _ I n n n d n n 0 n 5 0 n 0 5 1 5 d 5 d 1 5 d 5 d d * * * * * * * * * * % % $ $ $ # # @ @ @ @ @ @ @ @ @ @ @ @ @ @ @ @ @ @ ",
"n n F n n n n n _ n n n _ _ _ _ _ F ^ _ ^ _ +.;.+.+.;.;.;.7.2.+.+.+.+._ _ F F _ _ _ n n n n n n d 5 5 5 5 5 d 5 5 d d 5 5 5 d 5 5 5 5 * * * * % * % % % % $ $ $ $ $ @ $ @ @ @ @ @ @ @ @ @ @ @ @ @ o @ @ ",
"0 n n n n 0 d n n n n n n F n _ _ I _ _ F ;.^ +.^ +.;.;._ _ +.+.;.;._ F F n F F n n n F n n n n n 5 0 0 0 5 d 5 d d 5 5 5 5 5 5 5 5 5 * * * * % * % % % % $ $ $ $ $ @ @ @ @ @ @ @ @ @ @ @ @ @ @ o @ @ @ ",
"0 n n n n n n F n n F n n _ _ ^ n F _ _ _ ^ _ _ ^ ^ _ _ _ ;._ ^ _ _ F F _ n n _ n n I n n n 0 0 d 4 5 d 5 5 5 5 d 5 5 5 5 5 5 5 1 1 1 * 5 * * * * * % $ $ $ $ $ $ $ @ $ @ @ @ @ @ @ @ @ @ @ @ @ o o @ @ ",
"n n n n n n n n n Z n F n n _ n _ F F F _ F _ F ;._ _ _ F ^ _ _ F _ F n _ _ n n n F n n 0 n 0 0 5 5 5 0 5 n 1 5 d 5 d d d 5 1 d 5 5 1 * * * * * % * % % $ $ $ $ $ $ @ @ @ @ @ @ @ @ @ @ @ @ @ o o o o o ",
"n n n n n n n n n n n F n F n F n F F _ _ n ^ F _ _ _ _ _ _ _ _ _ _ F _ F _ _ n n n n n 0 0 0 0 2 0 5 0 5 d 5 d 5 5 d d 5 d 5 d 5 1 1 * * * * * * * % % $ $ % $ $ @ @ @ @ @ @ @ @ @ @ @ o o @ o @ @ @ @ ",
"n n B n 0 0 n 0 n F n n n F F F n n n _ _ F _ F _ F _ _ _ _ F F _ _ n F F _ _ n n n d 0 n n 5 0 5 5 4 0 5 d d 5 5 5 5 d d d 5 d 5 5 * * * * * * * % % % $ $ $ $ @ $ @ @ @ @ @ @ @ @ @ o o o @ o o o @ o ",
"n n n n n 0 n 0 n F n F F F F F n n n F n ;._ _ ;._ ;.F _ n _ _ _ _ n n n n n n n 0 n 0 0 n d 0 0 0 5 5 5 5 5 5 5 d 5 5 d d 5 d 5 * 5 * * * % * % % % % $ $ $ @ @ @ @ @ $ @ @ @ @ @ @ @ o o o o o o o o ",
"n 0 n n n 0 n 0 n n n n n F n n F F n n _ n ^ _ F n F F _ F _ n F n n n F _ n f n n 0 0 0 0 0 5 0 5 d 5 d 5 d 5 5 5 5 d 5 5 1 1 * 1 1 * * * * * % % % $ $ $ $ $ @ @ @ @ @ @ @ @ @ o @ @ o o o o o o o o ",
"0 0 5 n 0 n 0 n n 0 n 4 0 0 0 n F n n n F F F n _ n n n n n n n n n n F n F n n n n n 0 0 n 0 0 5 5 d 5 5 5 5 5 d 5 0 5 d d 5 * 5 1 * * * * % * % % % $ $ $ $ @ @ $ $ @ @ @ @ @ @ @ @ @ @ o @ @ o @ o o ",
"d 0 5 F d 0 n 0 n n n n 0 0 0 0 n 0 0 0 n F F F Z f F F n n n n n F n n n n n n n n n n 5 0 n 5 5 d 5 5 5 5 5 5 5 5 d 5 1 5 * * 5 = * * * * % % % * $ % $ $ @ $ $ @ @ @ @ @ @ o @ o @ @ @ o o @ o o o o ",
"5 d 5 n n n 0 0 0 0 d n n n n n 0 n n n n n n n F n F n n n n n n n n n n n n n n n n n 5 5 5 0 5 5 d 5 5 d 5 5 5 d d 5 5 5 5 * * * % * * * * * * % % % $ $ @ @ @ @ @ @ @ o o o @ o o o o o o o o o o o ",
"5 5 5 d n n n n d 0 d n n n n n 0 n n n n n n n n F n 5 n n n n n n F n 5 n n 0 n d n 5 d 5 d 0 5 5 1 1 d 5 5 5 5 d d 5 5 1 1 5 5 * * * * * * % % % $ $ $ $ $ @ @ @ @ @ @ o o o o o o o o o o o @ o o o ",
"5 5 n 0 n 0 0 n 0 n 5 d n n n n n n n n n n n n 0 n n n n n n 0 n n n F n 0 n 5 n 2 5 n 5 5 5 5 5 5 5 5 d 5 5 5 5 5 5 5 5 5 5 1 1 * * * * * * * % $ $ $ $ $ $ $ $ $ @ @ @ @ @ o o @ o o o o o o o o o o ",
"d 5 5 n 0 n 5 n 0 0 5 n n 5 0 n n F n n d n n n 5 0 0 0 n n n 5 n n 0 n n 0 n d d 5 0 d 5 5 5 1 5 5 5 1 5 1 5 5 5 5 5 1 * * 1 * * * * * * % % % % $ % $ $ $ $ $ $ @ @ @ o o o @ o o o o o o @ o o o o o ",
"d d 5 5 d d d d 5 0 d d 5 d 5 0 0 0 n n n n 0 0 0 n 0 n 0 n n n n 0 n n 0 0 5 5 0 0 n 5 5 5 5 d 5 5 5 5 5 5 5 1 5 5 5 5 * * * * * * * * * % % * % $ $ $ $ $ $ $ @ @ @ o @ o @ @ o o o o o o o o o o o o ",
"5 d 5 d d d d 5 n 5 5 5 d d 5 n n 1 0 d n F 0 n d 0 0 d 0 0 d 0 n n n n 0 5 5 5 0 5 5 0 d 5 1 5 5 1 1 5 5 * 5 5 1 5 * 5 1 * * * * * * * * * % * % % $ $ $ $ @ @ @ @ @ o o o @ @ o o o o o o o o o o . o ",
"d d 5 5 5 5 d d d 5 n 5 d 5 5 d d d 5 0 0 5 n 5 0 5 5 5 4 n 5 5 n 0 0 n n 0 5 5 d 0 d 5 d 5 5 5 5 5 5 d 5 1 1 5 5 1 * * * * * * * * * * * % % % * $ $ $ $ $ $ @ @ @ @ o o o o o o o o o o o o o o . o o ",
"d 5 5 d d d d d 5 d 5 5 5 5 5 d 5 5 5 d 5 5 5 5 5 n 5 5 d 5 0 0 5 0 5 n n 5 d 5 5 d 5 5 5 5 5 5 5 5 5 5 1 * * * d 1 * 5 1 * * * * * * * * % * % % $ $ $ $ $ @ $ @ o o @ o o @ o o o o o o o o o . . . o ",
"5 d 5 5 d 5 d d 5 d d 5 5 5 d 5 d 5 0 5 5 d 5 5 5 5 d 5 d 5 n 5 5 d d 5 5 d 5 5 5 5 5 5 1 5 d 5 5 5 5 5 5 1 * % 5 1 * * * * * * * * * * * * % * & % $ $ $ $ @ @ @ @ @ o o o o o o o o o o o . o o o o o ",
"5 5 5 5 5 5 d d d d d d d 5 d 5 5 5 5 0 5 d 5 5 d 4 5 0 0 d d d 0 d d d d d 5 5 1 1 * d 5 5 d 1 d d * * * % * * 5 * * * * * * * % * * * * * * % & & $ $ $ $ $ $ @ $ @ @ o o o o o o o o o o o . o o . o ",
"5 5 d 5 d d 5 d 5 d 5 5 d d 5 d 5 5 5 5 5 d 5 d d 5 0 5 5 d 5 5 5 d d d 5 d d 5 1 5 5 5 d 5 5 5 1 1 1 * * 5 1 * * * * * * * * * * * * * % * * $ $ $ $ $ $ $ $ $ $ @ @ @ o o o o o o o o . o o o o o o o ",
"5 d d 5 d d d d d 5 d 5 d 5 d d d 5 d 5 d 5 5 5 5 4 5 5 0 5 5 5 d 5 5 5 d 5 5 d 5 1 5 5 5 5 5 * * * * % * * * * * * * * * * * * * * * * * * % $ % $ $ $ $ $ $ $ @ @ o o o o o o o o o o . . . o o o o o ",
"e d 5 d d d d d d d 5 5 5 5 * 5 5 5 5 5 5 5 d 5 5 d 5 d 5 5 5 d 5 d d d 5 5 5 1 1 5 5 5 1 1 1 * * * * * * * * * * * * * * * * * * * * * * * * $ $ $ $ $ $ $ $ @ @ @ o o o o o o . o o o o o . . . o o . ",
"* e * e d e 5 d 5 d d 5 5 d 5 d d d d 5 d 5 d d d d 5 5 d 5 5 5 5 d 5 1 5 1 5 5 5 5 5 5 1 * 1 1 * * * * * * * * * * * * * * * * * % * * * * % * $ $ $ $ $ $ $ @ @ o o @ o o o o o . o o . o . . o o . . ",
"* * e d 1 * 5 1 d * 5 5 5 5 5 d 5 1 5 5 d d 5 5 5 d 5 5 5 5 5 5 d d 5 5 5 d 5 5 5 5 e * 1 5 5 * * * * * * * * * * * * * * * * * * % * * * $ % $ $ $ $ $ $ $ $ @ @ @ o o o o o . o . o o . . . . . . . . ",
"* e e d e * * 1 e * d 5 5 5 d d d 5 5 5 * 5 5 5 5 5 5 5 5 5 5 5 5 5 5 5 1 d 5 5 d 5 * * * * * * * * * * * * * * * * * * * * * * * * * * * & $ $ $ $ $ $ $ $ @ o O @ o o o o o o o . o o . o . . . . . . ",
"* * * * * * * * e * * * * 5 5 d 5 5 5 d d 5 5 1 d 5 5 1 1 5 5 5 d 5 5 5 5 5 1 5 * * * * * * * * * * * * % * * * * * * * * * * * * * * * * $ $ $ & $ $ $ $ $ @ $ o o o o o o o o o . . . o . . . . . . . ",
"* * e * * * * * * e * * 5 d 5 5 d d d 5 5 5 5 5 5 d 5 1 5 d * 5 5 5 5 d 5 5 5 5 * * * * * * * * * * * * * * * * * * * * * * * * * * * * & & $ $ $ $ $ $ $ $ $ @ @ o o o o . o o o . . . . . . . . . . . ",
"* * * * * * e * * * 5 5 * d d 5 e 5 d d 5 5 5 5 5 d 5 1 1 5 5 1 5 5 5 5 5 * 5 * * * * * * * * * * * * * * * * * * * * * * * * & * * * & * & & $ $ $ $ $ $ $ O o @ o o o o o o o . . o . . . . . . . . . ",
"* * * * * * e * * 5 * * 5 * 5 5 * 5 * * 5 5 d 1 1 5 * d 5 1 5 5 5 5 5 1 * * * * * * * * * * * * * * * * * * % * * % * * * * * * * * * & & & $ $ & $ $ $ $ O @ o o o o o o . o o o . . . . . . .   . X . ",
"* * * * * e e * * * * * e * 1 * * * 5 * 5 5 5 5 * * 1 1 5 5 5 5 1 1 5 1 5 * * * * * * * * * * * * % * * % * % % * * * * * * * & * & & & & & $ $ $ $ $ $ @ @ $ o $ o o o o . o . . . . . . . . . . . . . ",
"* * * * * * * * * * * * * * * * * * e * 5 5 5 * * * * * * 5 1 1 1 5 5 * * * * * * * * * * * * * * * * * * * % * * * * * * * * & * & & & & & $ $ & $ $ $ $ $ $ @ o o o o o o o o . . . . . . . . . . . . ",
"* * e e * e * e * * * * * * * * * * * * * 1 5 * 5 1 1 * * e * * * 1 1 * * * * * * * * * * * * * * * * * * * % * * * * * * * * * * & & & & & & $ $ $ $ $ $ $ o o o o O o o o . . . . . .   . . . . . . . ",
"* * * * * * * * * * * * * * * * * * 5 5 e 1 * 5 * * 5 * * * * * * 1 * = * * * * * * * * * % * * % % * % * * * * * * * * * * * * * * & $ & & & & $ $ $ $ $ $ @ o O o o o o X . o . . .   . . . . .   . . ",
"* * * * * * * * * * * * * * * * * * * 5 1 e * * * 1 1 * 1 1 * * 1 * 5 5 * * * * * * * * * * % * * * * % % % * * & * * * * * * * & & & & & & & $ $ $ $ $ o @ O o o o o o o o o . . . . . . . .   . X     ",
"* * * * * * * * * * * * * * * * * * 5 * * * * e * * 5 1 1 1 % * 5 * * * * * * * * * * * * * * * * * * * * * * * * * * * * * & * & & & & $ & & & $ $ $ $ $ O O O o o o o o o o . . . . . . . .     X . . ",
"* * * * * * * * * * * * * * * * * * * * 5 e * 5 * * 1 1 * 1 * * * * * * * * * * * * * % * * * * * * * * * * * * * & * * * * & & & & & & $ $ $ $ $ $ & $ O $ o O o o o o o X . . . . X . . . . X X     X ",
"* * * * * * * * * * * * * * * * * * * * * * * 5 * * * * 5 * * * 1 * * * * * * * * * % % * * * * * % * * * * & & * * * % & & * & * & & & & $ $ $ $ $ $ $ O O O o o o o o o . . . . . X     X       X . X ",
"& * * * * * * * * * * * * * * * * * * * * * * * * * * * * * * * * * * * * * * * % * % * * * * * * % * * * * * * * * * * & & & & & & & & & & $ $ $ & O O O O O o o o X o o o . X . . .   X X . . X X .   ",
"* * * * * * * % * * * * * * * * 5 * * * * * * * * * * * * * * * * * * * * * % * % * * * * % % * * * % % % * * $ & * & % $ * & & & & $ & & & & $ $ $ O O O O O O O o o o o . . . . . X . X X X   X X X X ",
"* * * & * * * * * * * * * * * * * * * * * * * * 1 5 * * * * 5 * * * * * * * * * * * % * * * * * * & % * * & & * * * % $ % & & & & & & & & & & $ $ $ O O O O O o O o o o . . . . . . .   X X X X X . X   ",
"* & * * * % % % * % * * * * % * * * * % * * * * * % * * * % * % * * % * * * * * * * * % % % * % * % % % * * % * % % % % % & & & & & & & & & & & $ $ O O O o O o o O o o . . . . . . .             X .   ",
"* * * * * * % * * * * * * * * * * * * * % * * % * * % * % % * * * * % % % * * * * % * * % * * * * * * % * % * % * % * & & % & & & & & & $ & O & $ $ O O O O O O O o o o . . . . . .   .         . . .   ",
"* * & * * * * * * % * % * * * * % * * % % * * % * * * % % * * * * * % % % % * * * * * * % % % * * % $ % & $ & & & * & * & & & & & & & & & & & & $ $ O O O O O O o . o X X . X . X     .       X X   . X ",
"* * * & * * % % * % % % % * * * * * * * * % * % % * % * % % * * * * * % * * * * * * % * * % % % % % * % * * & & & & & & & & & & & & & & & & + & + O O O O O o o o o o . X . . .   . . . X         X X X ",
"* & * * * * * $ % * $ * % % % % * % * * * % * % * % * % % % % * % * * % * * % * % % % % % * * $ % % % * & * $ & & & * & & & & & & & & & & & & & O O O O O O O o o o X . . . . . X .   X     X     X X X ",
"* * * * * % % $ $ % % * * * % % % % % * % % * % * * % * * * % % % * * % * % % % % % % * % % * % $ $ $ $ % % % % & & & & & & & & & & & & & & $ O O + O O O O O O o X . . . . . . . .     X X X     X X X ",
"* * & $ $ $ $ $ % $ % $ % * * % % % % % % % % % % % % % % % % % % % % % % % % % % % * % % $ % $ % $ $ $ $ $ $ $ & & & & & & & & & & & & & $ O O O O O O O O O o X X X . . . X   . X   X                 "
};
